P2
640 480
255
1 2 0 2 1 1 1 5 1 2 1 0 0 0 0 1 1 0 0 0 2 0 5 0 1 0 0 0 0 0 0 0 0 2 1 6 3 0 0 0 0 0 0 0 0 0 2 0 1 1 1 1 0 2 0 0 0 0 1 1 0 5 1 1 0 0 0 0 1 0 0 0 0 0 0 1 0 1 0 0 0 0 1 0 1 1 0 0 0 0 1 0 0 0 7 0 7 1 0 1 0 0 0 0 1 1 6 4 2 2 1 1 0 0 5 0 1 1 0 1 1 0 0 0 0 1 0 0 0 1 0 0 0 0 1 0 0 0 0 0 0 1 0 4 2 0 0 1 2 0 0 0 1 1 1 1 1 4 0 1 0 0 2 1 1 0 1 0 0 0 0 0 2 0 1 2 1 2 2 0 0 0 1 0 1 0 0 1 0 0 6 0 0 1 1 0 0 1 3 1 0 2 1 1 1 1 0 0 1 0 0 1 1 3 0 1 1 1 7 2 4 1 1 1 0 1 0 1 0 0 1 1 2 0 0 0 1 0 2 1 0 3 7 4 1 0 0 0 3 0 1 0 1 1 0 1 1 0 5 0 0 1 1 0 1 1 0 0 1 1 0 0 1 1 1 0 0 1 1 0 1 3 0 0 0 0 0 1 0 1 0 0 0 0 0 0 0 1 1 0 0 0 1 1 0 0 5 0 1 0 1 1 6 0 2 1 1 3 0 1 0 1 0 1 0 2 1 0 0 1 1 0 1 1 0 0 0 1 0 1 0 0 0 0 1 0 0 0 0 0 0 3 0 1 0 0 1 1 0 1 1 1 0 2 0 4 7 7 1 1 0 2 0 0 1 1 1 1 0 0 0 2 1 0 0 1 0 0 5 1 0 0 0 0 1 0 0 11 1 1 0 0 0 0 0 0 1 0 1 1 0 0 1 1 5 1 1 0 0 0 0 0 2 0 0 0 0 0 0 1 0 0 0 1 0 0 1 0 1 1 0 0 0 1 2 0 1 8 2 1 0 3 0 0 1 1 3 2 1 1 1 0 0 0 1 0 1 1 0 0 0 1 0 2 1 1 1 1 0 0 0 1 0 1 0 1 1 1 1 1 0 1 0 0 7 2 1 2 1 0 1 0 0 1 0 1 0 1 1 0 0 0 0 1 0 1 1 1 1 0 0 1 0 0 0 0 0 0 0 1 1 0 0 0 1 0 2 2 0 1 1 0 0 1 1 0 0 0 0 0 0 0 0 1 0 1 0 0 0 0 3 1 5 1 1 0 0 0 0 0 0 0 1 0 1 1 0 1 1 0 0 0 1 1 0 2 2 0 1 5 2 0 0 0 0 0 2 1 1 0 1 0 0 0 3 0 0 0 0 1 0 1 0 5 5 1 1 0 0 1 0 0 0 1 0 0 0 0 1 1 0 1 0 0 1 0 0 1 1 1 
0 0 2 5 1 0 2 2 1 5 1 0 0 6 0 0 1 1 0 0 1 5 0 1 1 0 0 0 0 0 0 1 1 0 1 1 1 0 1 0 2 4 1 1 0 0 0 1 0 1 1 6 0 0 0 1 0 2 1 2 1 1 2 1 1 1 0 0 1 0 1 1 0 0 0 0 2 3 1 0 1 1 1 0 0 1 0 1 3 0 1 0 0 1 2 0 1 0 0 1 0 0 0 0 0 2 0 0 1 1 1 0 5 0 0 0 0 1 0 1 0 1 2 1 0 0 1 1 0 1 0 0 1 1 0 0 1 1 0 1 1 0 1 0 0 0 0 1 2 0 0 0 0 0 0 0 0 0 0 2 1 0 0 1 0 0 1 0 1 1 0 0 0 1 0 1 0 1 1 1 1 1 0 0 0 0 0 0 1 1 0 2 0 3 0 1 0 1 0 1 0 0 0 0 0 0 0 0 0 1 1 0 2 0 1 1 1 0 1 1 0 1 1 0 0 0 0 0 0 1 0 0 0 0 0 0 1 0 0 2 0 1 1 2 0 0 5 0 0 0 0 0 1 2 2 1 1 1 0 2 0 1 4 0 0 2 3 1 1 1 1 1 0 0 0 1 1 0 3 0 0 0 0 0 4 0 0 1 0 0 0 0 0 1 0 0 2 0 0 0 1 1 0 0 1 0 0 0 0 0 0 0 0 0 0 1 0 1 1 3 0 0 2 1 1 0 0 0 2 0 0 0 0 0 0 2 2 1 0 0 0 1 0 2 1 0 1 0 0 1 1 0 2 1 2 1 0 0 0 0 0 0 1 0 0 0 0 0 0 0 1 0 0 0 0 0 0 0 0 0 1 1 1 0 1 1 0 1 0 1 7 2 0 0 0 1 0 1 0 0 0 0 0 2 1 0 0 1 0 0 0 2 1 1 1 0 1 0 1 1 0 1 1 0 2 2 0 0 1 0 0 0 5 0 0 1 1 2 0 0 0 0 0 0 1 1 1 0 0 0 0 0 1 0 0 0 0 0 0 0 1 1 1 2 1 3 0 1 0 0 0 0 0 1 1 1 0 0 0 1 0 0 0 0 0 0 1 0 0 0 0 1 0 0 1 0 3 1 0 0 0 0 1 0 2 1 0 1 0 0 0 1 0 1 0 6 1 2 3 0 1 0 0 1 1 1 0 0 2 0 0 1 0 1 2 1 1 5 1 0 1 0 0 1 1 1 1 0 0 0 1 0 1 1 0 0 0 0 0 1 1 0 1 1 0 0 0 0 1 0 3 1 0 0 0 1 0 0 0 1 0 1 0 0 1 1 0 0 0 0 1 1 2 1 0 0 0 1 2 2 0 1 1 2 1 3 1 1 1 4 1 0 2 1 1 1 7 0 1 1 0 1 1 1 0 0 0 0 0 0 3 1 0 0 1 1 0 0 0 0 
0 1 1 0 1 1 1 0 2 0 0 0 1 1 0 0 0 0 0 1 1 0 1 0 0 0 0 0 0 1 0 0 0 0 1 1 0 3 2 0 1 6 0 0 0 0 0 0 0 0 3 3 1 1 0 1 1 2 0 0 2 0 0 0 3 1 1 2 1 1 0 0 0 0 1 0 0 0 0 0 1 1 1 0 0 0 0 6 0 2 0 0 0 0 0 0 1 1 0 0 2 0 1 1 8 2 0 2 0 1 1 1 2 2 5 0 0 1 0 1 0 1 0 1 1 0 1 0 1 0 1 0 0 0 1 1 0 2 1 0 1 2 1 2 1 0 0 0 0 0 1 0 1 0 1 0 2 0 0 2 1 0 0 0 0 1 1 1 0 0 0 2 1 1 1 0 0 0 0 0 2 0 0 0 0 0 0 0 2 0 1 0 1 0 1 0 0 0 3 0 1 4 1 1 0 0 0 1 0 0 6 0 0 0 0 1 1 1 0 1 1 0 0 0 0 0 1 1 0 0 1 1 0 0 1 0 1 0 1 1 0 0 0 0 0 1 0 1 1 0 0 0 2 1 1 1 1 0 0 0 1 1 1 2 1 1 1 1 0 1 2 1 0 1 0 0 0 1 1 2 0 0 0 1 1 0 1 1 0 0 0 0 0 2 0 0 0 1 1 1 1 0 1 0 2 1 0 0 1 1 0 0 0 1 0 1 1 1 2 0 1 0 0 0 0 1 0 0 1 1 0 0 0 1 1 0 0 1 0 0 0 1 0 1 0 0 1 0 1 0 0 0 2 0 0 1 0 0 0 0 2 1 0 2 0 0 0 0 0 0 0 0 0 0 0 1 0 1 1 1 1 0 0 0 1 0 0 1 2 0 0 1 0 0 0 0 1 1 0 0 0 1 1 0 1 1 1 0 0 1 0 0 0 1 0 1 0 0 0 1 0 1 0 0 2 0 1 0 0 0 0 5 2 2 0 6 0 1 0 0 0 1 0 0 0 0 0 1 1 0 0 0 0 0 1 1 0 0 1 1 0 0 0 1 0 1 0 1 0 0 0 0 0 2 1 0 1 0 0 0 0 0 0 1 0 0 1 2 1 1 0 0 1 1 0 0 0 0 0 0 0 1 0 0 1 0 0 1 0 0 0 0 1 0 0 0 0 0 5 1 3 0 0 0 0 0 4 0 0 1 0 0 0 0 0 0 2 0 0 0 1 1 0 0 1 1 0 0 0 0 0 0 0 0 0 4 0 2 0 0 0 0 0 0 0 0 3 1 0 0 1 0 0 0 0 0 1 7 1 0 2 1 2 0 0 1 1 1 0 0 0 1 0 1 0 0 1 3 1 1 1 1 1 2 0 0 0 1 1 0 0 1 1 0 1 0 0 0 1 1 0 2 1 0 0 1 0 0 0 1 0 1 1 0 1 1 0 0 3 1 
0 0 1 4 1 1 0 0 4 1 0 0 0 0 0 1 0 0 0 0 0 1 1 0 1 0 0 0 0 1 0 1 0 0 0 1 0 0 0 1 0 0 2 1 0 0 0 0 1 1 0 6 1 1 0 0 0 0 0 0 0 2 1 0 0 1 2 0 0 0 0 0 1 1 0 1 1 1 1 0 0 1 1 0 0 3 1 0 0 0 0 0 0 1 0 1 0 0 2 0 1 11 2 2 1 1 3 1 1 1 0 1 0 0 6 2 1 0 0 0 0 0 0 0 1 1 0 0 0 0 0 0 0 0 1 4 0 0 0 0 0 0 0 1 0 0 0 0 2 1 0 3 4 1 0 0 0 0 0 0 1 1 1 0 0 0 1 0 1 0 0 3 1 0 0 0 0 1 1 1 1 0 1 1 0 0 2 1 0 0 1 1 1 1 0 0 1 6 0 0 0 1 3 0 0 0 1 1 1 0 1 0 1 0 1 2 0 0 0 1 0 1 0 1 0 1 0 0 1 1 0 2 0 0 1 1 0 1 2 2 0 0 0 0 0 0 0 0 1 0 0 0 1 2 2 0 0 1 0 0 1 0 1 1 1 0 2 1 0 0 1 0 0 0 0 1 1 3 1 2 2 1 1 0 0 1 1 0 0 1 0 1 1 2 0 0 0 0 0 0 1 1 0 1 0 0 0 1 0 2 1 1 1 2 1 0 0 1 1 1 0 0 0 2 0 4 0 1 0 1 0 0 0 0 2 0 0 0 3 1 1 0 1 1 1 0 0 0 0 0 0 4 1 1 0 1 1 0 0 0 1 1 1 0 0 1 0 0 1 0 1 0 0 0 0 7 0 0 1 2 1 0 1 0 2 3 0 0 0 0 1 3 0 1 1 1 0 0 1 0 1 0 3 0 2 0 1 1 0 0 1 0 0 0 1 1 0 0 0 1 0 0 1 2 0 1 0 1 0 2 0 0 1 2 1 0 0 0 1 0 0 0 0 0 0 0 1 1 0 0 1 0 1 0 1 0 0 0 0 1 0 0 2 0 1 0 2 1 1 0 1 0 1 0 0 1 1 0 1 0 0 0 1 1 1 0 0 0 1 3 0 1 1 0 0 1 1 0 0 1 1 0 1 1 1 3 0 0 6 0 0 0 0 1 1 0 1 0 1 4 2 1 0 1 1 0 1 0 0 0 0 0 0 1 0 2 0 0 0 0 1 0 0 3 0 0 1 0 1 0 0 0 0 0 0 0 0 1 0 1 0 0 0 1 1 0 1 0 0 0 1 1 1 0 0 2 1 0 1 1 2 0 2 2 0 0 0 0 0 0 2 1 2 2 7 1 0 1 0 0 0 1 0 0 0 0 0 0 0 1 1 0 0 0 0 0 0 0 0 0 0 1 0 1 0 0 1 1 0 1 1 0 0 1 1 1 1 2 0 1 
0 2 0 0 0 0 1 1 0 0 1 1 1 0 0 3 0 0 0 1 2 1 0 0 0 2 1 3 0 0 2 0 1 0 0 1 0 0 1 0 0 0 0 2 0 2 0 5 1 1 0 1 1 0 0 0 0 1 0 0 0 0 2 1 0 5 1 1 0 1 1 1 3 1 0 1 0 1 1 1 0 0 0 0 0 1 1 0 1 0 0 1 0 0 2 1 1 1 0 0 1 2 6 6 0 1 0 1 0 0 1 0 1 0 1 3 0 0 1 0 1 0 1 0 1 5 0 1 0 0 1 1 0 1 0 0 0 0 0 0 1 0 0 0 0 2 0 0 1 0 0 1 1 0 1 0 0 0 1 0 0 0 0 0 1 1 0 1 1 0 0 1 1 0 0 1 0 1 0 1 0 2 1 0 0 0 2 1 0 1 0 2 0 1 1 0 1 0 0 0 1 6 1 1 0 1 0 0 0 1 2 2 1 0 0 1 0 0 0 0 0 0 0 1 1 2 0 0 1 1 1 0 1 1 0 6 3 0 0 0 0 1 1 0 0 0 1 0 0 0 0 1 1 2 0 1 0 1 1 4 0 0 0 0 0 0 1 1 0 0 0 0 1 1 1 0 1 2 1 0 5 0 1 2 0 1 0 1 1 1 1 0 0 1 1 0 0 0 0 0 0 0 0 0 0 0 0 1 1 1 0 1 0 0 0 1 0 0 0 0 0 0 0 0 1 1 0 1 0 1 0 1 0 0 0 1 0 0 1 0 0 1 0 0 1 1 1 1 1 1 1 1 0 1 1 2 1 0 0 0 2 1 0 1 1 0 2 0 1 1 1 0 0 0 6 2 2 0 0 0 0 1 1 0 0 1 0 1 0 0 0 1 2 0 0 0 0 0 2 1 1 0 0 0 1 0 0 4 1 0 1 1 1 1 1 3 0 1 0 3 1 1 5 0 0 0 0 1 0 0 0 0 0 3 0 1 3 1 0 1 0 2 0 0 0 0 0 0 2 1 0 1 0 0 0 0 1 0 1 0 6 0 0 0 0 0 1 0 1 0 0 0 0 0 2 0 2 1 0 1 1 1 0 0 0 0 0 0 0 1 1 0 0 0 0 1 1 1 0 1 0 0 2 0 0 0 0 0 1 6 2 0 0 2 1 0 1 0 2 0 0 2 2 1 0 1 0 2 0 0 1 0 1 1 1 0 0 0 1 1 0 0 0 2 0 0 0 0 0 1 0 0 0 1 0 1 0 0 0 1 2 0 0 1 0 1 1 2 0 0 0 0 0 0 0 0 0 1 0 0 1 3 0 0 0 0 0 0 0 1 0 7 1 1 0 1 0 1 0 0 1 1 0 1 1 0 0 0 0 1 4 1 2 0 0 1 1 0 0 0 1 1 1 0 0 1 0 0 0 1 1 0 0 0 2 0 1 1 1 0 
0 1 0 0 1 0 0 1 0 1 4 1 2 0 1 2 1 0 0 0 0 0 1 0 0 0 1 2 1 0 2 0 0 0 0 0 1 1 1 0 0 0 0 1 0 0 0 5 1 1 1 0 4 1 0 0 0 1 0 0 0 1 3 0 0 0 1 0 3 0 0 0 0 0 1 0 2 0 0 0 0 0 0 2 0 0 1 0 0 1 1 0 0 0 0 0 0 0 1 1 0 0 2 0 1 0 1 0 0 0 0 0 0 1 1 0 2 0 1 0 1 0 0 5 0 2 1 1 0 0 2 5 1 0 0 0 1 1 0 0 3 2 0 2 6 0 1 0 0 0 0 1 0 0 0 0 2 1 1 0 1 2 2 0 1 1 1 1 0 1 0 0 0 2 2 0 0 0 0 0 4 1 0 0 0 1 0 0 0 1 1 0 0 0 3 8 1 0 2 0 0 0 0 1 2 0 1 0 0 0 4 0 0 0 0 5 0 0 0 0 0 0 1 0 0 1 0 1 0 0 0 0 0 1 0 4 0 1 1 0 0 2 0 0 1 0 0 0 0 0 1 0 0 0 0 0 0 0 1 0 2 0 0 0 1 4 1 0 1 0 0 1 4 2 2 0 1 0 2 1 1 1 1 1 0 0 1 0 0 5 1 1 0 1 5 0 0 1 0 0 0 0 0 0 0 0 1 0 1 1 0 0 1 0 0 0 0 1 0 0 0 1 0 1 0 0 2 5 2 5 1 0 2 0 0 0 0 0 1 1 0 0 0 0 0 0 1 0 0 1 0 1 1 0 2 0 1 0 0 1 1 0 5 1 1 0 0 0 0 0 0 0 0 0 4 1 0 1 2 0 0 3 1 1 0 0 1 1 1 0 0 1 0 0 0 0 0 0 0 0 1 2 0 2 2 2 0 2 0 1 0 0 0 0 2 5 0 0 0 0 0 0 8 1 1 1 0 0 1 0 0 1 0 0 0 4 1 1 0 0 0 0 0 0 2 2 2 2 1 7 1 0 0 1 0 0 0 4 0 0 0 1 0 0 1 0 1 1 1 0 0 0 1 0 1 0 0 1 0 0 0 1 0 0 0 1 1 1 1 4 1 1 1 0 1 2 0 0 0 0 1 2 1 1 0 0 1 0 0 1 0 1 0 0 0 0 0 1 0 0 1 0 1 0 1 0 0 0 0 0 1 4 0 1 0 1 0 0 1 0 0 0 1 1 0 1 1 1 0 0 0 0 1 0 0 1 5 1 0 1 0 1 0 3 0 1 0 0 1 0 0 0 0 1 0 1 1 2 0 0 0 0 2 0 2 1 0 0 0 1 0 0 0 0 1 0 0 0 0 0 0 2 2 0 1 0 0 5 1 1 2 2 0 0 1 2 0 1 0 0 1 1 1 1 0 1 0 1 0 0 0 0 0 1 0 1 0 0 1 4 
0 0 1 1 0 0 1 0 0 1 0 1 0 0 1 2 0 0 0 1 0 0 0 0 0 1 1 0 0 2 2 2 1 0 0 0 1 0 0 0 0 0 0 0 0 2 4 0 1 4 3 0 0 0 1 0 0 1 0 0 1 1 1 0 1 0 5 2 0 1 0 0 0 0 0 0 1 0 2 0 0 0 1 1 1 1 0 0 2 1 1 0 1 1 0 0 1 0 1 0 0 4 1 0 2 2 0 1 1 1 1 0 0 3 1 0 1 0 0 2 9 1 0 1 0 0 1 0 0 0 1 1 1 0 0 0 0 1 1 0 0 0 1 0 0 0 1 1 0 0 0 3 0 0 0 0 0 1 0 0 2 0 0 0 0 0 0 0 0 1 0 0 0 0 0 0 0 0 0 0 0 1 0 1 0 1 0 0 0 0 2 1 0 0 5 3 1 1 1 0 0 2 0 0 0 0 1 0 1 0 2 1 1 0 0 1 1 4 0 1 0 0 0 1 0 1 0 0 1 0 0 0 0 1 1 6 1 6 1 8 0 0 1 1 0 1 0 0 0 0 1 1 5 0 0 0 0 0 1 2 1 0 0 1 2 1 0 0 1 1 0 0 2 0 0 1 2 1 2 5 1 2 1 1 1 2 0 3 1 0 2 1 1 0 1 1 1 1 1 2 1 8 2 0 0 1 0 1 1 0 2 0 0 1 0 2 0 0 2 2 0 0 0 1 1 0 0 1 1 1 1 0 2 0 1 0 1 0 1 0 1 0 0 0 0 0 0 0 0 1 0 4 0 2 1 0 1 2 1 1 0 1 2 0 1 0 2 1 0 0 0 1 0 0 1 1 1 0 0 0 0 0 0 0 1 0 0 0 0 2 2 0 0 1 0 0 0 1 0 1 1 0 0 1 0 0 1 0 2 0 2 0 0 0 0 0 0 1 1 0 0 0 0 0 0 0 0 0 0 1 1 0 2 0 0 0 1 0 0 1 0 0 0 0 0 0 3 1 0 1 1 2 0 0 0 0 0 0 0 0 0 0 1 0 1 1 0 0 1 0 1 0 0 1 0 0 0 0 1 0 1 1 0 1 1 0 0 1 0 0 0 0 0 0 0 1 0 0 1 5 1 1 1 1 0 0 0 0 3 0 0 1 2 0 0 0 1 0 0 0 1 0 2 0 1 0 1 3 1 0 1 2 1 0 0 0 1 0 0 1 0 1 3 4 0 1 1 2 1 5 1 1 1 0 0 1 9 1 6 0 0 1 1 0 0 0 0 0 1 3 1 0 0 1 1 1 0 1 1 1 2 0 0 1 0 1 2 2 0 0 0 0 0 4 1 0 0 0 0 1 1 2 0 1 1 4 0 1 0 1 2 0 2 1 1 0 0 1 0 1 0 1 1 0 0 1 0 0 2 1 1 1 0 1 1 0 1 0 1 1 
2 2 2 3 0 0 0 3 1 1 0 0 0 0 1 5 3 2 3 1 0 0 0 1 0 0 2 0 1 2 0 1 0 1 0 1 1 0 0 1 0 0 0 0 0 1 1 1 2 5 2 0 0 2 1 0 0 0 0 1 0 0 0 0 0 0 1 4 0 1 0 1 1 0 2 1 0 1 0 1 0 1 1 0 0 1 0 1 0 2 2 0 3 1 1 0 0 1 0 0 0 1 7 1 0 2 1 0 0 0 1 0 0 0 0 0 0 0 0 1 0 0 0 0 0 0 1 0 2 0 0 0 1 0 0 0 0 0 0 0 1 1 4 1 0 1 0 1 2 1 0 0 1 0 0 0 1 0 0 1 0 0 1 1 1 0 0 0 2 3 0 0 0 0 0 0 0 0 1 2 0 0 2 1 0 0 0 0 1 1 1 1 0 0 0 1 0 0 0 2 0 0 0 0 1 2 5 1 1 0 2 0 4 0 0 1 0 1 1 2 1 0 1 0 0 0 1 0 0 0 1 0 0 0 0 3 0 1 1 6 1 2 1 1 0 1 1 0 0 0 2 1 9 2 0 0 1 1 0 1 0 0 0 1 0 1 1 0 0 0 4 2 0 0 0 0 0 0 1 1 0 0 0 1 1 0 3 1 1 1 1 0 1 0 0 1 0 0 1 0 1 2 2 1 1 0 0 1 0 1 0 0 0 0 1 0 1 1 0 1 0 0 0 0 0 0 1 1 1 0 0 0 2 0 0 1 2 0 0 1 0 1 0 1 2 0 0 0 1 2 6 2 0 6 1 0 0 0 0 1 1 0 4 1 0 0 0 0 1 0 0 0 0 0 0 0 1 2 0 0 0 0 0 0 0 0 1 0 0 1 1 5 0 0 0 0 1 1 1 2 0 4 0 1 0 0 0 0 0 0 1 1 2 1 0 0 0 0 0 1 0 0 0 0 1 0 1 0 1 0 0 2 0 0 0 0 0 0 0 0 0 0 0 0 0 1 6 0 1 0 1 1 0 0 0 0 1 0 1 1 1 0 0 0 2 0 1 0 0 1 0 1 3 0 1 0 0 1 0 0 1 1 6 1 0 1 1 1 0 0 0 0 4 1 0 1 0 1 0 0 1 0 0 0 1 0 0 2 1 0 1 1 0 0 1 0 0 0 0 1 1 1 0 1 1 0 3 2 0 1 1 1 2 0 0 0 0 1 0 0 0 2 1 1 1 2 1 1 1 0 1 0 2 2 1 0 0 1 7 1 0 0 0 0 0 1 0 1 1 1 0 0 0 0 1 3 0 1 0 0 1 1 0 0 1 1 3 1 0 1 1 0 0 0 0 0 0 0 1 1 2 0 0 1 2 4 1 0 0 0 0 0 4 0 0 1 0 1 0 0 0 0 1 0 0 0 0 2 2 2 0 0 0 0 0 0 2 2 1 0 
9 1 2 0 0 1 5 0 0 0 1 0 1 0 1 1 1 9 0 0 2 0 1 1 1 0 1 1 0 0 0 0 0 0 3 1 1 0 1 1 0 0 1 0 0 0 2 0 0 2 0 1 2 0 1 1 1 2 2 2 0 0 0 0 0 0 1 0 2 1 1 0 0 2 1 0 0 5 0 1 0 2 0 0 0 0 1 4 0 2 0 1 2 1 1 0 0 0 1 1 0 0 0 0 3 0 0 0 0 0 3 0 0 0 0 0 0 0 2 0 1 0 0 1 0 0 1 1 0 1 1 1 1 2 1 0 0 0 0 0 0 2 0 1 0 0 0 0 1 0 2 0 1 0 0 0 0 1 1 0 0 0 0 0 0 0 0 1 2 0 0 0 0 1 1 0 0 1 2 5 0 1 0 1 5 1 0 0 2 0 0 0 0 0 4 0 0 1 1 2 1 0 1 1 1 1 1 0 0 0 0 0 1 1 0 0 0 0 0 0 1 0 0 0 1 1 0 0 0 1 0 2 0 0 4 1 0 1 1 0 1 0 1 0 0 1 0 5 0 5 0 0 0 4 5 1 1 0 0 1 1 0 0 0 0 0 1 1 0 1 1 0 0 0 2 1 1 0 1 1 1 0 0 0 2 1 0 0 0 2 5 1 1 0 0 1 0 6 0 3 0 0 0 1 2 1 2 1 0 1 0 1 0 0 0 2 1 1 2 0 0 0 1 1 4 0 1 0 0 0 1 1 0 0 0 1 1 0 1 0 1 1 1 0 0 7 1 0 0 0 0 0 0 0 0 0 1 0 0 2 1 0 7 1 1 1 0 0 0 2 1 0 0 0 0 0 0 0 0 2 0 0 0 1 0 1 2 2 1 0 1 0 0 0 1 0 4 0 1 1 1 1 1 0 3 0 0 0 0 0 0 0 0 1 1 0 0 1 0 1 0 2 1 0 0 0 6 2 1 1 0 0 7 6 7 0 1 0 0 1 1 0 0 0 1 0 2 0 2 0 1 1 1 1 1 1 3 1 0 1 0 0 0 0 1 0 0 0 1 0 1 0 1 3 1 0 1 1 0 1 0 1 1 1 4 0 3 2 0 0 0 1 1 0 0 0 2 0 1 0 0 2 1 1 0 2 0 0 1 1 0 0 1 0 0 0 0 4 3 2 0 0 0 0 0 1 1 1 1 1 0 1 0 0 1 0 0 0 0 0 1 0 0 0 1 1 0 2 0 0 0 0 2 2 1 0 1 0 0 1 0 1 0 0 1 0 0 0 0 0 0 0 1 1 1 0 0 1 1 3 0 1 0 0 1 1 1 1 0 0 2 0 1 1 0 0 0 0 1 3 3 2 2 0 0 1 1 0 0 0 0 0 0 1 0 0 0 0 0 1 0 0 0 1 0 0 1 1 1 0 0 0 0 0 0 1 0 0 1 0 
2 1 1 1 0 2 0 1 1 0 0 0 1 1 6 1 5 1 1 0 0 1 0 0 0 3 2 1 0 0 1 1 1 1 4 0 0 0 0 0 0 0 0 1 1 0 2 1 0 1 1 1 3 1 1 0 0 0 1 1 1 0 0 0 0 0 0 0 1 0 0 2 4 1 4 0 0 0 1 0 1 0 0 0 0 0 1 0 1 1 0 0 0 0 1 2 1 0 0 1 6 1 1 0 0 0 0 2 0 2 0 0 0 0 0 0 0 1 1 1 0 0 0 4 1 0 0 2 0 0 0 0 1 0 0 0 0 0 0 1 0 1 1 0 0 1 1 0 1 0 0 1 0 1 0 0 0 0 0 0 0 1 1 0 2 2 0 1 0 1 1 1 0 1 0 0 1 1 1 0 0 2 3 3 0 0 0 1 0 2 0 0 0 0 1 1 0 1 0 6 1 3 0 0 0 0 0 0 0 0 1 0 2 1 0 1 1 1 2 1 0 0 0 0 1 1 1 0 0 1 0 2 0 1 0 1 1 0 2 0 1 0 0 1 2 1 1 6 2 0 2 0 1 0 1 0 0 0 7 1 0 1 2 0 1 5 5 0 0 1 2 1 1 1 0 0 0 0 1 0 0 0 0 0 0 0 1 0 0 0 0 0 0 2 1 0 0 0 2 5 0 1 2 1 0 0 0 0 0 0 0 1 2 1 0 0 1 0 1 1 1 1 0 0 1 0 0 1 0 2 0 1 0 1 0 0 0 0 1 3 5 0 0 1 0 1 1 2 0 1 2 0 0 0 1 2 0 1 1 0 1 0 2 0 0 0 2 0 0 0 0 0 0 0 0 2 0 0 0 0 0 1 1 2 0 0 0 7 0 0 0 0 1 1 0 6 0 1 0 1 0 0 2 1 2 1 0 0 0 0 0 1 0 2 0 1 1 0 2 1 1 1 0 2 1 1 1 1 0 0 1 1 0 2 1 1 1 0 0 0 1 0 1 2 1 2 1 7 4 1 1 1 1 1 0 0 1 0 0 2 0 3 0 0 0 2 0 1 2 3 0 0 0 0 1 0 0 3 1 3 0 0 0 1 1 1 0 1 1 0 0 0 5 1 1 0 1 1 0 1 6 0 0 1 2 1 1 0 0 1 0 0 0 1 1 1 2 1 0 2 0 0 0 0 0 0 0 1 1 0 0 0 0 0 0 0 0 1 0 0 0 0 0 1 1 0 1 0 0 0 2 0 1 1 1 0 4 1 0 1 3 0 0 0 1 0 0 2 2 0 1 2 1 0 0 1 1 0 0 1 0 0 0 0 0 0 0 1 0 0 0 1 0 1 1 0 1 1 1 0 0 3 1 2 1 0 0 0 0 0 0 1 0 0 2 0 0 0 1 0 0 1 1 0 1 2 2 0 1 0 1 0 0 0 0 0 2 0 1 1 
0 0 0 0 0 0 0 0 1 1 1 5 0 1 8 2 1 1 0 1 0 1 0 0 8 1 0 0 0 0 0 3 0 0 0 1 1 0 0 3 1 0 2 0 1 0 1 0 1 1 0 0 1 0 0 2 1 0 1 0 0 0 0 0 0 0 0 1 0 0 0 1 0 2 2 1 0 1 1 0 0 1 1 1 0 0 0 1 1 0 0 2 1 2 0 1 1 0 0 0 0 0 0 0 0 1 0 0 1 0 1 0 3 1 0 0 0 4 0 1 0 0 2 0 0 1 0 0 0 5 1 2 1 0 0 0 2 0 1 1 0 0 1 0 1 0 1 2 2 0 0 0 0 0 0 1 1 1 0 1 1 0 0 0 1 4 0 0 0 0 0 1 1 0 3 0 1 0 1 0 1 0 0 1 0 0 0 0 0 3 0 0 0 1 0 0 0 0 0 0 1 0 0 1 0 1 2 0 0 1 2 1 1 1 1 1 0 0 0 0 2 0 2 0 0 3 1 0 0 0 0 1 3 2 0 0 0 3 1 0 1 0 0 1 0 0 1 1 1 0 1 1 0 0 1 0 0 1 0 1 0 1 4 1 2 1 0 0 0 0 1 0 1 0 1 0 1 1 0 0 1 0 1 0 0 3 0 0 0 1 1 0 0 4 0 0 1 3 0 1 0 3 1 1 0 0 0 1 0 1 0 0 0 0 0 1 0 1 1 0 0 1 0 0 1 0 1 0 0 0 0 0 0 4 1 0 1 3 0 0 0 1 1 1 1 1 0 0 1 0 1 3 1 1 1 0 0 2 1 0 0 1 0 1 0 0 1 0 1 0 0 1 0 1 1 2 4 1 0 0 2 1 0 0 0 0 0 0 1 0 0 3 5 1 0 1 0 1 1 2 1 0 0 0 0 2 0 1 0 0 1 1 1 1 8 3 0 1 1 0 0 0 0 1 0 0 1 3 1 1 1 0 0 0 0 1 1 1 0 0 1 1 0 2 2 3 1 7 1 0 1 1 1 11 7 0 1 1 1 1 0 0 0 0 1 0 2 0 2 1 0 0 1 0 1 0 1 0 0 1 0 0 1 0 0 2 0 0 0 1 0 1 2 0 1 0 1 0 1 1 1 0 0 0 4 2 1 0 0 0 0 2 1 0 0 0 0 0 1 2 0 1 1 1 0 2 1 0 1 0 1 0 0 1 1 1 1 0 0 0 1 0 3 0 1 0 0 1 2 1 0 2 3 1 4 0 0 0 0 3 0 0 0 1 0 0 1 0 0 2 0 2 1 0 2 0 0 0 0 0 0 1 0 1 1 1 1 1 0 0 0 0 1 2 0 0 0 1 0 1 0 1 1 1 0 1 2 1 1 0 1 5 0 0 1 1 1 1 0 1 0 1 0 0 1 0 0 0 1 1 5 1 0 0 0 0 0 0 0 0 
0 1 0 3 1 0 0 0 0 0 1 2 2 1 1 1 0 1 1 1 0 0 1 0 1 5 4 0 0 0 0 0 1 1 0 0 0 1 0 1 0 0 6 1 0 0 0 1 6 1 0 0 0 0 0 0 1 0 0 1 0 0 0 1 0 0 0 1 0 0 1 0 0 1 0 0 1 0 0 0 0 0 0 0 1 0 0 1 6 0 0 1 4 1 1 0 0 0 1 3 0 2 0 0 0 0 1 1 0 0 1 0 0 0 0 1 0 1 0 0 1 1 0 0 1 0 0 0 0 0 1 0 0 1 0 1 0 0 1 0 0 0 1 0 0 0 2 0 0 1 0 1 1 1 0 0 0 3 1 3 0 0 1 1 0 1 1 0 0 0 0 0 1 0 1 1 0 0 0 1 0 0 1 0 0 1 1 1 2 0 1 1 0 1 0 0 1 1 5 1 0 1 1 1 0 1 5 3 0 0 1 1 0 1 0 1 0 0 0 0 1 1 2 1 1 6 1 0 0 2 0 0 0 1 0 2 0 1 0 0 0 0 2 0 0 0 7 3 0 0 3 0 0 0 2 1 0 1 1 0 0 2 1 1 0 1 0 1 2 1 0 1 0 2 0 1 1 1 0 0 0 0 0 0 1 0 0 0 0 0 0 1 1 0 1 1 1 1 0 0 0 1 0 1 1 0 0 1 1 0 0 0 1 1 2 0 0 1 1 4 0 0 1 1 1 2 0 0 0 0 2 0 0 1 1 1 1 0 1 2 2 0 0 0 0 0 2 3 0 0 0 0 0 5 0 7 0 0 1 2 2 2 1 1 4 0 1 0 0 0 1 0 0 0 2 0 1 1 1 1 1 2 0 2 1 0 0 0 0 0 0 0 1 1 1 1 0 5 2 1 4 1 0 0 1 1 1 1 1 1 0 0 0 1 5 1 1 0 1 1 0 0 1 0 0 0 0 1 0 1 0 1 1 1 0 1 0 3 0 0 0 1 0 2 0 0 1 5 2 1 1 2 7 2 1 1 2 3 1 0 0 1 0 2 1 2 1 0 0 0 0 1 1 0 1 1 1 4 1 1 1 1 0 0 2 0 1 2 0 1 0 0 0 1 0 1 2 1 1 0 1 1 1 0 0 2 0 0 1 0 0 1 1 0 3 1 0 0 0 1 0 1 0 1 0 0 0 6 1 0 1 2 1 0 0 0 0 0 1 0 0 0 2 0 4 1 0 0 2 0 0 1 1 0 1 1 0 2 0 2 2 0 0 3 1 1 1 0 0 1 1 1 0 1 0 0 0 0 1 1 1 0 2 1 0 0 1 1 0 0 1 0 1 1 0 1 0 1 0 0 0 0 1 0 1 4 1 2 0 0 1 1 0 1 0 0 1 6 0 0 0 0 0 1 0 0 0 0 1 2 1 0 0 0 0 0 1 0 0 0 
1 1 4 0 0 0 0 1 1 3 1 2 0 0 1 0 1 1 1 0 0 0 2 1 3 1 0 0 0 0 0 1 0 0 0 0 1 1 0 0 1 1 0 0 2 1 0 1 0 1 2 1 1 0 0 1 2 0 1 0 1 0 1 2 1 0 0 0 0 0 1 1 0 0 1 0 1 0 1 1 1 0 0 1 3 4 0 0 0 2 0 0 0 0 2 1 0 0 0 1 1 1 1 0 1 3 0 0 0 0 0 0 0 0 1 2 1 1 0 2 0 4 1 0 0 1 1 0 0 1 2 6 0 0 1 0 0 1 0 1 1 0 0 0 1 1 2 0 1 0 0 0 0 1 2 0 0 0 1 0 3 2 0 0 0 4 0 1 0 0 0 0 1 1 1 2 1 1 0 2 0 1 0 0 1 1 2 0 0 0 0 1 0 1 0 1 0 0 0 1 1 1 2 1 0 1 4 2 1 0 0 3 0 1 0 1 1 1 4 1 2 0 1 1 5 0 0 0 0 1 1 1 0 0 1 0 4 1 0 0 0 1 0 0 0 0 0 1 1 0 1 1 0 0 0 0 1 1 0 0 0 5 0 1 1 0 0 0 2 0 1 0 1 3 1 2 1 0 2 0 0 0 1 0 0 1 1 1 1 0 1 0 0 0 0 1 1 0 2 1 1 0 0 0 0 1 1 0 0 1 1 1 1 1 1 1 0 0 1 0 1 0 0 1 0 0 0 2 6 1 0 0 0 0 0 5 1 0 0 0 0 0 0 1 0 0 0 2 0 0 0 3 0 0 1 0 0 0 0 1 0 0 0 0 1 1 0 1 0 1 0 0 0 1 3 1 1 0 1 0 1 0 0 0 1 1 1 0 0 2 0 0 1 1 1 0 0 0 1 0 0 0 0 3 0 1 1 0 1 1 1 2 0 1 2 2 0 0 0 0 2 2 0 0 0 1 0 0 1 0 0 1 0 0 0 1 0 0 0 0 1 0 0 1 2 0 4 1 1 1 0 0 1 0 1 1 1 0 2 0 1 0 0 0 0 1 3 0 1 1 2 2 1 0 0 1 2 2 1 1 1 1 2 0 1 1 0 0 2 1 0 0 0 1 1 0 0 0 0 0 0 0 1 0 0 0 2 0 2 0 0 1 0 0 1 4 3 1 1 0 1 1 0 1 1 0 2 8 0 0 2 0 0 0 0 2 1 1 0 2 0 0 1 1 3 1 0 0 0 2 0 0 0 1 1 0 0 1 0 0 1 0 0 0 1 2 0 1 0 2 1 1 0 1 1 0 1 0 0 0 4 0 2 0 0 1 2 0 0 0 1 0 0 2 0 0 0 0 1 5 6 1 0 2 0 2 1 0 1 2 2 0 0 0 0 0 2 1 1 1 1 0 0 2 0 1 0 0 1 1 0 0 0 1 0 0 1 0 0 0 
1 1 0 0 0 0 0 1 0 2 1 1 5 0 0 1 0 0 0 1 1 2 0 0 1 0 0 0 0 1 0 0 1 1 1 1 0 1 1 0 0 7 0 1 0 0 1 0 8 1 0 0 0 2 0 1 1 1 0 0 0 1 0 0 1 1 1 0 1 0 1 0 0 1 1 1 0 0 2 2 1 1 0 0 0 1 0 0 0 1 1 1 1 1 0 0 0 0 0 2 0 1 0 0 1 1 0 0 0 1 0 1 0 1 0 0 1 1 1 0 0 0 0 0 1 0 1 0 1 1 2 0 0 1 0 0 0 0 0 1 0 2 0 1 1 1 0 0 2 0 1 0 0 2 0 0 0 1 1 0 0 0 0 0 0 0 1 1 0 1 1 0 0 1 0 1 0 2 1 1 0 0 2 2 1 1 0 0 1 0 2 1 1 0 0 1 0 1 0 0 0 1 2 1 1 1 0 0 1 0 1 0 1 0 0 1 1 0 0 1 2 1 0 3 7 1 0 5 3 1 1 1 0 0 0 0 0 0 1 0 2 1 1 0 0 0 0 0 1 0 0 0 1 0 0 1 1 1 0 6 4 2 1 0 1 1 1 1 1 0 1 0 0 0 3 0 0 1 1 1 4 1 0 0 1 0 0 1 0 0 0 1 0 0 0 1 1 0 2 0 0 1 3 0 0 1 0 1 1 1 0 1 0 1 0 0 1 1 0 0 0 0 1 4 2 0 2 2 2 1 1 1 0 4 1 0 0 2 0 0 1 0 0 0 0 0 0 1 1 1 0 1 0 0 1 0 1 2 0 1 0 0 2 1 0 3 1 1 2 0 2 3 0 0 0 0 1 1 0 0 0 1 0 0 1 0 0 0 1 0 1 0 1 0 0 0 1 1 1 1 0 0 1 3 0 1 0 0 1 2 1 4 1 2 1 1 5 0 1 1 1 1 0 0 1 0 0 0 0 0 0 1 0 1 0 0 5 0 0 0 1 0 1 2 0 0 0 4 2 0 0 0 0 1 0 2 0 0 0 0 0 0 0 0 0 0 2 0 0 0 1 6 1 1 4 2 6 1 0 0 0 0 1 1 0 1 0 1 1 0 1 0 1 1 1 1 0 0 0 1 1 0 0 1 2 1 0 0 0 0 1 1 1 6 3 3 2 1 0 0 1 0 1 0 0 0 1 1 0 1 1 0 0 0 0 1 0 0 0 0 0 0 0 0 0 0 0 0 0 0 0 1 0 1 1 0 3 1 1 1 0 0 0 0 1 0 0 0 1 0 0 0 1 2 1 1 1 1 0 1 1 1 0 0 0 1 0 1 1 1 1 1 0 0 0 1 2 0 0 2 0 0 0 1 0 0 1 0 0 0 0 6 1 0 0 0 1 1 0 0 0 0 0 1 0 0 0 1 1 0 0 2 5 0 1 1 1 1 0 0 
1 2 0 1 0 0 0 1 0 0 1 1 0 0 0 1 1 0 0 1 1 0 0 1 0 2 0 0 1 0 2 1 0 0 0 1 0 0 0 1 1 0 1 1 5 1 0 1 0 0 1 0 0 0 1 0 1 0 3 2 1 0 0 0 1 2 1 2 1 0 0 1 0 1 1 0 0 2 2 1 3 0 0 3 2 2 0 0 0 1 10 0 0 4 1 0 0 1 1 0 0 1 0 1 0 0 1 0 0 1 0 1 0 1 1 1 1 0 2 2 1 0 2 0 0 1 3 0 0 4 1 0 0 0 0 0 0 0 0 1 0 0 1 1 1 1 0 0 1 0 1 0 1 0 2 0 0 0 0 0 0 1 1 1 1 0 1 0 0 1 0 1 0 0 1 1 0 2 0 0 0 0 1 0 2 1 2 5 0 1 1 1 1 1 0 0 0 0 0 0 1 4 5 3 0 0 0 0 1 1 1 1 1 5 0 0 0 1 2 1 0 0 0 0 2 1 0 1 2 0 0 0 1 0 2 0 0 1 0 1 1 8 1 1 1 1 0 0 1 1 1 4 1 0 0 1 1 1 0 0 0 0 1 0 1 2 0 1 1 0 0 2 1 0 0 0 0 0 3 0 2 0 0 0 0 1 2 0 0 2 0 1 0 0 0 0 0 0 0 0 0 1 4 0 1 0 0 1 0 0 0 0 1 0 1 0 0 0 0 0 1 0 2 0 1 0 0 0 0 0 1 0 5 0 1 0 0 0 2 0 1 0 1 0 2 0 0 1 0 4 0 0 0 0 1 1 0 4 1 0 1 1 0 4 0 2 0 1 0 1 1 0 0 1 0 1 4 2 0 2 1 1 0 1 2 1 0 1 2 1 1 0 0 0 0 1 0 0 0 2 0 2 1 1 0 1 3 0 0 1 0 0 5 0 0 1 0 2 1 1 5 1 0 0 0 1 1 0 1 0 0 0 1 0 1 1 3 0 0 0 1 8 1 1 1 0 0 0 0 4 0 1 0 1 1 0 3 0 1 1 0 2 0 0 0 1 1 1 1 0 0 0 1 0 0 5 1 0 1 1 1 0 0 0 0 1 0 0 1 1 1 0 1 1 1 0 0 1 0 2 1 0 0 1 0 1 0 0 0 0 0 0 5 1 3 1 0 0 2 1 2 0 0 1 0 2 0 1 2 1 1 0 1 0 0 0 1 0 0 1 0 0 0 0 0 0 1 0 0 1 1 0 1 0 1 0 0 0 1 1 1 0 0 0 1 0 1 1 1 0 0 1 0 1 0 0 0 5 0 2 0 0 0 1 0 0 1 0 0 2 0 0 2 0 0 1 3 1 1 1 1 0 0 0 0 0 0 1 0 0 0 1 1 0 0 0 1 1 0 1 0 0 1 1 4 0 2 1 0 1 1 1 0 0 1 1 0 1 2 0 
6 1 0 0 0 1 1 1 0 1 0 0 0 1 1 2 1 0 0 0 1 0 0 0 0 3 1 1 0 0 0 1 3 0 0 1 2 0 0 1 0 1 0 2 0 1 1 0 0 0 1 0 0 0 1 0 0 1 0 0 1 6 5 0 2 0 0 0 2 0 2 0 0 2 0 1 0 0 0 0 2 1 2 1 0 0 2 0 0 0 0 0 1 1 0 0 0 0 0 2 1 1 9 1 0 1 0 0 1 1 1 1 3 3 1 0 0 0 1 1 1 5 0 0 1 1 1 0 0 0 0 0 1 0 0 1 0 0 0 0 1 1 6 0 4 1 0 0 0 1 0 1 0 2 1 0 0 0 0 1 0 1 0 1 1 0 0 1 1 1 0 0 1 0 0 1 0 1 0 4 5 0 0 0 0 1 0 0 0 1 0 1 1 1 0 0 1 0 0 3 0 0 1 1 0 1 1 2 0 0 0 0 1 0 2 1 2 2 0 0 0 1 0 0 1 0 0 0 0 3 0 3 0 1 1 2 0 0 1 0 0 0 0 0 0 0 0 0 4 0 0 0 0 0 0 0 0 0 0 0 0 1 1 1 1 0 0 0 0 0 3 0 0 0 1 1 1 0 1 0 0 1 0 3 1 5 2 1 0 0 0 0 0 0 0 0 1 0 0 0 0 0 1 3 1 2 0 0 1 1 0 1 0 0 3 0 0 0 0 0 1 2 3 4 4 0 1 1 0 1 0 1 2 1 1 1 0 0 0 1 0 1 0 0 0 0 1 4 0 0 1 4 2 1 1 1 4 0 0 1 1 0 2 1 0 0 1 0 1 0 4 1 1 1 2 0 0 2 0 2 0 1 1 0 1 0 6 2 1 1 0 0 0 1 1 0 0 1 0 1 3 0 0 0 1 2 1 0 0 0 0 0 0 3 0 0 0 0 0 1 1 0 2 0 2 1 1 0 0 0 0 1 1 0 1 1 0 0 2 0 2 0 1 0 1 1 0 0 1 0 0 0 0 1 0 0 0 0 1 1 0 1 0 1 0 0 0 3 1 0 1 5 1 0 1 0 0 0 0 1 0 1 1 0 0 1 0 1 2 0 0 0 0 2 1 0 0 0 0 0 2 4 0 0 4 1 0 0 0 1 0 0 4 0 0 0 1 0 0 1 1 0 1 1 2 0 1 1 1 0 1 0 1 0 1 0 0 1 2 1 1 1 1 0 1 2 1 0 0 0 0 0 0 2 0 0 1 1 1 0 1 6 0 0 1 0 0 0 0 0 1 0 0 0 0 1 1 0 0 2 0 2 0 0 2 2 0 0 1 0 1 1 0 1 2 1 0 0 2 1 0 4 0 1 0 0 2 0 1 0 1 1 1 3 2 1 2 1 1 1 0 0 1 1 0 1 0 0 0 0 0 1 0 1 0 0 0 0 1 0 
2 7 0 0 0 3 3 3 0 1 0 1 0 0 1 1 0 0 2 0 1 1 1 1 0 0 1 0 0 1 0 0 0 0 0 1 0 1 0 2 0 0 1 0 0 0 0 0 2 1 0 1 0 1 0 1 0 1 2 2 1 2 0 0 0 0 1 1 1 1 1 0 0 0 0 0 0 0 0 1 3 1 0 2 0 1 5 0 0 0 0 0 1 0 1 0 0 1 0 0 2 1 0 0 0 1 1 1 0 0 0 0 0 0 1 0 0 2 1 0 0 3 0 2 0 1 0 0 0 4 1 0 0 0 1 0 0 0 0 1 0 5 2 1 1 1 0 1 1 0 2 0 1 0 0 0 0 1 0 3 1 2 0 1 0 0 0 0 1 1 0 0 1 0 1 1 4 1 0 0 1 1 0 0 0 0 1 1 0 0 1 0 4 0 2 0 0 1 0 0 1 1 1 1 0 0 4 1 0 0 0 0 1 0 0 1 0 1 1 0 1 4 0 1 1 0 0 1 0 2 0 0 1 1 0 0 0 1 0 1 1 0 0 0 1 4 1 0 0 0 1 4 1 0 0 1 0 1 0 0 0 1 0 1 1 1 0 6 0 0 0 1 1 1 1 0 0 0 8 2 0 0 0 2 0 0 0 0 0 0 1 0 1 5 1 0 0 1 1 1 0 0 0 1 1 0 0 0 0 0 0 0 1 4 1 0 0 2 0 1 1 0 2 0 0 0 0 0 0 0 1 0 2 0 0 1 0 1 0 1 0 0 1 0 1 1 0 0 0 0 1 1 2 2 0 0 1 0 0 0 1 2 1 0 1 1 1 1 0 1 1 1 2 2 0 0 1 0 0 1 2 0 0 1 0 0 2 0 0 0 0 0 0 0 2 0 2 0 2 1 0 2 0 1 1 1 0 0 0 0 1 0 0 1 0 0 1 1 0 0 0 0 0 1 0 1 1 1 1 2 0 1 5 4 1 0 0 1 1 1 0 0 0 2 4 0 2 0 1 0 1 0 0 0 1 1 0 0 1 0 0 3 1 0 0 0 5 0 0 2 0 0 1 0 1 0 0 0 5 2 0 1 1 0 1 0 0 1 2 1 0 1 0 0 0 0 1 0 0 0 1 1 0 2 1 0 1 1 1 0 1 1 1 2 0 4 2 1 1 1 1 0 1 0 0 1 0 0 1 1 0 2 1 0 0 0 0 2 0 0 1 1 1 0 1 0 1 1 1 1 1 1 1 0 1 0 0 0 1 0 1 1 2 1 2 0 0 2 0 0 0 0 0 0 0 0 1 0 1 0 0 1 4 1 1 0 0 0 0 0 0 0 1 0 1 1 1 2 1 0 1 2 1 1 2 1 1 1 0 0 0 1 1 2 2 1 0 5 0 1 2 0 0 5 0 0 0 0 2 0 0 0 1 0 3 0 0 1 1 1 
0 1 2 2 0 0 0 0 0 0 6 1 0 1 1 0 0 0 0 4 0 0 0 0 0 0 3 0 0 1 0 0 1 1 0 0 1 2 0 0 0 0 0 2 0 0 0 1 0 0 2 2 2 0 0 2 0 1 3 0 0 0 0 0 1 0 0 0 0 0 1 0 0 0 1 0 1 1 0 0 2 1 0 0 0 4 1 1 1 1 0 0 0 0 0 1 0 2 1 0 0 1 2 1 1 0 4 1 1 1 0 1 2 0 0 1 1 0 1 1 0 0 0 0 0 0 1 0 0 0 1 1 2 0 0 0 1 0 1 1 1 3 0 1 0 1 1 0 0 6 0 1 0 0 0 0 1 0 2 0 1 1 0 1 0 1 1 0 0 1 1 2 0 0 1 1 1 0 0 1 0 1 0 1 0 1 1 2 2 0 0 0 1 0 1 3 0 0 0 0 0 1 1 1 0 0 0 1 0 0 1 2 1 0 1 0 0 0 1 0 0 0 0 0 1 0 1 1 2 1 1 0 1 0 1 1 1 0 1 0 0 0 0 1 0 2 0 0 0 3 0 0 1 0 2 0 1 0 0 0 0 1 1 0 0 0 0 0 1 2 1 0 0 0 1 1 1 3 1 7 0 0 2 0 1 0 0 0 0 0 3 4 1 2 10 1 0 0 0 1 0 1 1 0 2 0 0 0 0 0 0 2 0 0 0 0 0 0 0 0 0 0 1 2 0 1 0 0 1 0 2 0 1 0 0 1 0 0 1 1 3 0 1 0 0 0 0 0 0 2 1 1 0 3 1 0 1 0 0 0 1 3 1 0 0 0 0 0 5 0 0 3 0 0 0 1 6 2 0 0 1 1 3 0 1 0 0 1 0 1 0 0 1 1 0 1 0 0 1 0 1 0 0 0 0 0 0 0 2 0 0 0 1 1 0 0 1 0 0 1 10 1 3 0 0 1 0 1 0 1 0 0 1 1 0 1 1 0 1 0 0 1 1 1 1 1 2 3 2 0 0 0 1 0 0 0 0 1 1 2 1 1 0 2 1 0 1 0 1 2 1 0 1 0 0 0 0 0 0 1 0 0 1 1 0 0 1 0 0 1 0 0 1 2 0 2 0 1 0 1 0 0 0 6 1 5 2 1 0 0 1 0 1 0 1 2 1 2 2 0 1 0 0 0 0 1 0 0 0 1 0 0 0 1 2 0 1 0 0 0 0 1 1 0 1 1 1 0 0 1 3 0 2 0 0 1 0 2 1 0 0 1 0 0 0 0 1 1 1 0 0 0 0 0 1 0 1 3 0 0 1 1 2 1 0 0 0 1 5 1 1 2 1 5 2 1 0 1 1 0 0 0 0 4 0 0 0 0 1 1 0 0 0 0 2 2 1 1 1 0 1 1 1 0 1 0 0 1 0 1 0 7 2 0 1 0 0 1 1 0 
1 0 0 1 1 0 0 1 1 1 1 0 1 1 1 1 1 0 1 0 1 1 1 0 0 0 0 0 4 0 1 0 0 0 2 0 0 1 1 1 0 0 0 0 1 0 1 0 0 1 4 1 0 0 0 0 2 1 0 1 1 0 0 0 0 0 1 0 0 2 0 1 1 0 0 0 0 0 0 1 1 1 0 0 6 1 1 1 0 0 0 0 0 0 0 2 0 1 1 1 0 0 0 0 1 1 0 1 0 0 0 2 0 2 0 0 1 0 0 1 1 0 2 0 0 1 2 0 0 0 1 1 0 1 0 0 0 1 0 2 0 0 0 1 1 1 0 0 1 1 0 0 1 1 0 0 0 0 0 1 0 2 0 0 0 0 0 1 0 0 0 0 0 2 0 5 6 1 4 1 0 0 0 0 0 0 0 1 1 1 0 0 1 0 0 1 0 2 0 0 1 1 1 0 0 0 0 0 0 0 1 1 1 4 1 2 2 0 0 1 0 2 0 0 0 0 1 2 1 0 0 1 1 0 1 1 1 0 0 0 0 1 1 0 1 1 1 2 2 1 1 0 0 0 0 0 0 0 0 0 1 2 0 0 1 0 1 0 1 0 1 0 0 0 1 0 1 1 1 0 1 0 0 1 1 1 0 2 6 1 1 1 0 1 0 1 2 0 0 0 1 1 0 0 1 9 1 1 0 1 3 1 1 0 0 0 0 1 1 0 0 0 0 0 3 0 1 1 3 2 2 0 1 0 1 0 0 0 0 0 1 1 0 2 1 0 1 4 1 2 0 1 0 0 0 0 0 1 2 0 1 1 1 1 0 0 1 0 1 1 1 0 0 0 0 1 0 0 1 0 0 1 2 3 0 1 0 0 0 1 1 3 0 0 0 0 4 1 0 0 1 0 0 0 0 0 0 1 0 1 0 1 0 1 0 0 0 0 0 1 0 2 2 2 5 0 0 5 1 0 0 0 0 0 2 7 0 2 0 0 0 0 0 0 0 0 0 0 5 1 0 0 1 0 1 1 1 1 0 0 0 0 0 0 2 0 0 0 0 4 0 1 0 1 0 2 0 0 1 0 1 5 0 2 2 3 2 0 0 1 1 2 1 1 0 1 0 1 1 0 1 0 0 1 0 1 0 1 0 0 0 0 1 1 1 0 0 1 3 0 0 0 0 0 0 1 0 0 1 4 1 0 1 0 0 1 1 0 1 0 0 0 0 0 1 0 0 0 1 2 0 2 1 1 0 0 0 0 0 1 1 1 0 1 0 1 1 1 0 0 0 1 0 2 0 0 0 1 1 0 0 4 0 0 1 0 0 0 0 0 0 0 0 1 2 0 1 1 2 1 0 0 1 0 1 0 1 0 0 1 2 0 0 1 0 0 0 1 1 5 0 0 0 1 0 1 2 1 0 0 1 1 0 0 0 0 0 0 1 1 
1 0 0 0 1 1 1 1 0 0 1 0 1 1 0 0 0 0 1 0 1 2 0 0 0 1 1 1 1 1 0 0 0 0 0 4 0 0 0 0 0 0 0 0 1 0 1 3 2 0 1 1 0 1 0 0 0 0 0 1 0 0 0 1 0 2 5 0 0 0 1 0 4 0 0 0 0 1 0 0 0 0 0 0 0 1 1 1 1 0 2 0 0 1 0 1 0 0 0 0 2 0 0 0 0 0 0 0 1 1 0 0 2 0 0 0 0 0 0 0 0 1 1 0 0 1 1 1 1 1 3 0 0 0 0 4 0 1 1 0 2 1 0 0 1 0 1 0 3 0 1 1 0 0 0 0 1 0 0 2 1 1 0 0 0 2 1 4 0 0 2 2 0 0 0 0 1 1 0 0 0 1 2 0 1 0 2 6 0 0 0 0 0 0 1 0 0 0 1 1 0 0 0 0 0 0 0 1 0 0 0 1 0 4 0 8 0 2 1 1 1 0 2 0 1 0 0 0 0 0 0 1 1 0 0 1 1 0 0 2 0 0 0 1 0 1 0 10 0 0 0 0 0 1 0 0 1 1 1 0 1 1 0 0 1 0 0 0 2 0 0 1 0 0 0 0 0 1 0 0 1 0 1 0 0 0 0 1 0 1 1 1 8 5 1 0 0 1 1 1 0 1 3 2 2 1 0 0 4 0 2 1 1 0 1 1 1 0 0 1 0 0 1 1 1 0 0 1 0 1 4 1 0 0 0 0 0 2 1 1 0 2 1 1 1 0 2 1 0 1 1 0 0 0 0 3 1 0 0 0 0 0 2 1 2 2 2 0 1 1 0 1 1 1 0 1 0 0 1 1 0 2 1 0 0 2 1 1 0 1 0 0 2 1 2 1 0 1 2 0 0 0 2 1 0 0 0 0 1 0 1 1 0 0 0 2 0 1 1 1 2 2 1 1 0 5 0 0 1 0 1 2 0 0 0 1 1 3 0 0 0 1 0 1 0 0 0 0 0 1 0 1 1 0 0 0 2 0 1 2 0 1 1 0 4 1 0 0 0 0 0 1 0 0 0 2 0 1 1 1 1 0 1 4 0 1 0 1 1 0 0 0 0 1 0 1 1 1 0 1 0 2 0 1 2 0 2 1 2 0 2 0 0 0 0 2 2 0 0 0 1 1 0 1 0 0 0 1 5 0 1 0 0 0 0 0 1 1 1 3 0 0 1 1 1 2 0 1 0 1 1 1 0 1 2 1 1 1 0 0 0 0 0 1 0 0 0 1 0 0 0 0 2 0 2 1 0 1 0 0 0 2 0 0 0 0 1 0 0 1 0 0 0 2 1 0 0 0 1 1 2 1 1 0 0 0 0 0 2 1 0 0 0 0 0 0 2 1 1 2 0 0 0 1 1 0 0 0 1 0 1 0 0 0 0 0 2 1 1 0 
1 0 0 0 0 1 1 4 1 0 7 0 0 11 1 0 0 0 0 0 2 2 1 2 0 0 0 1 0 0 0 1 0 4 2 5 0 0 1 2 0 0 0 0 1 0 0 0 0 1 0 1 1 0 0 1 1 1 0 0 0 0 0 0 0 1 6 1 0 9 0 1 0 0 0 0 2 0 0 0 0 0 0 0 0 0 1 0 1 3 0 0 0 1 1 0 0 1 0 0 1 0 0 0 0 0 1 0 1 1 0 1 3 5 5 0 0 1 0 1 1 0 0 1 1 1 1 0 1 0 1 1 4 1 2 4 1 3 0 0 0 1 2 0 2 1 1 0 2 0 0 0 0 0 4 1 0 1 0 0 1 0 0 2 1 0 1 1 1 1 0 1 0 0 2 1 0 0 0 1 0 0 1 0 0 0 0 0 1 1 0 0 1 0 0 0 0 0 0 2 0 1 0 0 1 0 3 0 0 0 1 0 0 0 0 0 0 1 1 0 0 1 0 2 1 2 0 0 0 1 0 0 3 2 0 0 0 0 0 0 3 0 1 0 1 0 0 1 1 1 1 1 0 0 0 1 1 0 0 0 1 0 0 1 2 2 0 4 2 0 1 2 0 0 1 0 0 0 0 1 1 2 0 1 0 0 1 1 0 0 0 0 6 0 1 1 0 0 0 0 3 1 1 0 1 0 0 0 2 0 1 11 6 1 0 1 1 1 0 0 0 0 1 1 1 0 1 1 0 1 1 0 0 0 1 1 0 0 0 2 2 0 1 0 0 1 0 0 0 0 0 1 3 0 1 0 1 1 1 0 0 0 0 1 3 0 0 0 0 1 0 1 1 0 1 0 0 0 1 0 0 0 0 0 1 1 0 0 0 1 6 1 0 3 2 0 1 1 1 0 0 0 0 0 1 1 2 2 4 0 1 0 1 1 4 2 1 2 0 0 0 0 1 4 0 2 0 0 0 1 1 1 1 1 2 0 1 1 0 0 0 0 2 0 1 0 1 0 0 2 0 0 0 0 0 1 0 1 0 6 0 1 1 0 1 2 1 1 0 3 1 0 1 1 0 1 0 0 3 0 0 0 1 0 4 1 1 2 0 0 0 1 0 0 1 0 1 0 0 0 1 2 1 1 0 0 1 0 0 3 1 1 0 0 0 0 1 0 0 1 0 1 1 1 1 0 1 0 0 1 0 0 0 0 0 0 0 1 0 2 0 1 10 1 0 0 1 0 0 0 0 1 2 0 2 2 0 0 1 0 0 1 0 0 0 0 0 0 0 0 3 0 1 1 1 1 0 1 0 3 2 1 1 0 0 0 0 1 0 0 1 0 1 0 1 0 0 0 0 0 0 1 1 4 0 0 0 0 0 1 1 0 2 0 0 0 0 3 1 1 0 0 1 2 1 1 2 0 0 1 1 0 0 1 0 1 0 1 4 0 
2 2 0 0 0 1 1 0 3 1 1 0 1 8 1 0 1 0 0 4 6 1 0 0 0 0 0 1 1 0 1 2 1 2 0 0 0 1 2 1 1 0 0 0 0 1 1 1 0 0 0 0 0 0 0 1 0 1 1 1 1 1 0 1 0 0 1 0 1 2 0 0 0 1 0 0 1 0 0 0 1 1 0 0 0 1 0 0 7 0 0 1 2 0 0 0 0 0 1 2 0 0 0 0 2 0 2 1 1 0 0 0 1 0 1 0 1 0 1 0 1 0 1 0 3 0 0 2 0 1 1 2 2 1 1 0 0 0 0 1 0 5 10 0 0 0 1 2 0 1 0 0 0 0 0 4 1 0 0 0 0 2 2 0 2 0 1 0 1 0 0 0 1 0 1 0 0 1 2 5 1 0 1 0 0 1 0 0 0 0 1 1 1 0 1 0 0 0 0 0 1 5 0 2 0 0 0 0 1 2 1 1 1 0 1 1 1 1 0 0 1 2 0 2 0 1 0 1 0 0 2 1 3 0 0 1 0 0 1 0 7 1 0 0 0 0 0 0 1 1 1 0 1 0 0 0 0 0 0 0 1 1 0 0 0 0 0 1 0 0 0 1 1 0 0 0 0 0 0 2 0 0 1 0 0 0 0 0 1 0 0 0 1 0 0 0 0 1 1 6 0 0 0 0 2 1 0 1 0 0 0 2 2 2 1 0 1 0 0 0 1 0 1 0 1 0 6 0 7 1 4 1 2 0 0 0 0 1 0 0 0 1 0 1 0 0 0 1 0 0 1 1 0 0 1 0 0 0 0 0 0 0 0 0 0 2 0 1 0 0 1 1 0 0 0 0 0 0 0 0 0 2 1 0 0 1 1 1 0 0 1 0 2 3 2 1 1 0 0 1 0 1 1 0 1 0 1 5 1 0 1 2 1 0 0 1 2 1 0 3 0 1 0 0 0 5 0 0 0 0 0 0 2 0 0 2 0 1 1 2 1 2 4 7 1 1 1 1 1 0 1 1 0 0 0 0 0 0 1 1 2 1 4 6 1 0 2 1 1 0 0 0 0 1 1 0 0 0 1 2 1 0 0 0 0 2 0 1 1 2 0 2 0 1 1 0 0 0 1 0 3 0 0 1 0 0 0 0 1 0 1 0 0 2 1 1 0 0 0 0 0 1 0 0 0 0 0 1 0 1 0 0 0 0 0 2 1 1 0 1 0 0 1 2 1 0 1 0 0 0 1 1 1 0 1 0 0 0 0 0 0 1 1 5 3 1 2 1 0 1 1 0 0 1 0 0 0 1 0 0 1 5 4 0 0 0 1 0 0 1 0 0 2 1 0 0 1 0 0 0 1 0 0 0 1 1 0 0 0 0 0 1 0 0 1 2 1 0 0 1 3 0 1 0 1 0 0 1 0 1 2 0 1 0 1 0 1 1 1 0 
0 0 0 0 0 1 0 2 0 0 0 1 6 0 0 4 0 1 1 2 0 1 2 1 0 1 0 0 0 1 0 0 1 2 1 1 0 0 0 0 1 0 0 3 0 1 0 0 2 1 2 0 0 0 2 0 0 0 1 0 0 0 0 1 0 1 1 0 1 0 0 0 1 0 1 4 0 0 1 0 0 1 0 2 6 7 0 1 1 0 0 6 0 1 3 1 0 0 0 4 1 1 1 0 0 1 0 0 3 1 1 0 0 1 1 2 0 0 1 0 0 1 1 0 0 0 0 1 0 0 1 9 0 0 4 0 1 0 1 0 1 0 1 0 1 4 1 0 0 0 0 0 2 0 0 0 0 1 1 0 2 0 0 0 1 0 1 0 0 0 0 0 1 1 1 3 2 1 0 1 1 0 1 2 0 1 1 0 1 1 0 0 0 2 0 1 0 1 1 0 0 0 2 9 2 0 0 0 1 0 0 1 0 0 1 1 0 2 0 0 0 1 0 0 0 0 1 1 0 0 2 2 0 2 0 1 0 0 0 1 0 1 1 1 0 1 0 1 0 0 0 1 1 0 0 0 0 0 0 1 2 0 0 0 0 2 1 0 0 1 0 0 1 0 1 0 1 0 0 0 0 0 1 1 0 1 1 0 2 0 3 2 0 1 0 0 0 0 1 0 0 0 0 2 1 1 0 0 0 0 1 5 0 1 0 1 1 1 0 2 2 0 1 0 1 1 1 0 0 0 0 1 1 0 1 1 2 1 2 0 0 2 0 2 1 2 0 1 0 1 1 0 0 1 0 0 0 1 0 0 1 0 1 0 0 1 0 1 1 1 0 0 2 0 2 0 0 2 0 2 1 1 2 0 1 2 4 0 0 2 3 1 0 1 1 1 0 1 0 4 3 0 4 1 1 6 1 1 1 0 0 3 3 0 1 4 0 1 1 0 0 0 0 1 0 0 1 0 0 0 1 5 0 0 2 1 0 1 1 0 1 1 1 1 1 1 0 1 1 0 1 1 1 0 0 0 0 1 0 1 11 5 0 4 1 0 1 4 1 0 0 0 0 0 1 0 1 0 1 7 4 0 2 0 3 0 0 0 1 0 0 0 0 1 0 1 0 0 0 2 0 0 0 0 4 0 1 0 1 0 0 0 1 1 1 0 2 0 0 1 0 3 0 0 3 0 0 1 1 0 1 1 0 1 0 1 2 1 0 0 0 0 0 0 0 1 1 0 1 0 0 1 2 1 0 0 1 1 2 1 1 0 0 0 1 1 2 6 1 1 2 1 0 1 1 1 1 0 0 1 0 0 1 1 0 1 0 0 1 0 1 1 1 0 0 1 1 1 0 1 2 0 1 1 1 0 0 0 0 0 3 1 0 0 0 0 0 0 0 0 5 1 1 0 1 0 2 1 0 6 0 2 0 1 2 1 0 0 1 0 
1 0 0 0 0 0 0 1 0 0 0 1 3 0 0 1 1 2 1 2 0 0 1 1 0 4 2 0 0 2 1 0 0 0 1 0 1 1 0 0 0 0 2 8 2 1 0 0 1 1 0 0 1 1 2 0 1 1 0 1 0 1 0 1 0 1 0 0 0 2 1 1 0 2 2 1 0 0 0 0 2 1 0 0 1 4 1 1 0 0 0 2 1 0 0 1 1 1 2 0 0 0 0 1 0 0 3 1 0 1 0 0 0 0 0 0 0 0 1 1 0 0 0 0 1 0 0 0 0 0 0 1 1 1 1 0 0 1 1 1 0 0 0 1 0 0 1 0 2 1 0 1 0 0 1 0 0 2 0 0 1 0 1 0 0 0 0 0 1 1 1 1 0 0 0 2 0 0 0 4 0 0 0 1 0 0 6 0 2 1 2 0 0 0 2 0 1 5 1 3 0 0 0 0 0 1 1 1 1 0 0 0 0 0 0 1 1 0 2 1 0 0 0 0 1 0 1 0 2 1 0 0 0 0 0 0 0 0 1 0 1 5 1 1 1 0 1 1 1 0 1 1 0 0 1 0 0 1 0 0 0 1 0 0 0 0 1 0 0 0 1 0 0 1 1 4 1 0 0 1 2 0 1 1 0 0 0 0 0 0 1 1 0 0 2 1 0 0 0 0 1 0 1 1 1 0 1 2 0 0 0 0 2 2 0 2 1 1 0 1 1 5 0 0 0 2 1 2 1 0 0 0 0 1 0 0 0 0 0 0 0 0 0 0 1 0 0 0 0 0 1 1 1 1 0 0 0 0 1 4 3 3 1 0 0 1 1 0 0 5 0 0 0 1 0 1 0 6 0 1 2 1 1 0 1 0 0 1 0 1 0 0 1 0 0 1 1 1 0 0 0 1 5 6 1 1 1 0 2 1 2 1 0 2 0 1 0 0 2 0 3 1 1 0 0 0 0 0 0 1 1 1 0 2 0 0 1 1 2 2 1 2 0 0 1 5 1 0 0 1 0 1 0 1 2 0 0 1 1 4 8 1 2 0 0 2 0 3 1 1 1 1 1 0 0 1 0 0 0 0 2 2 0 0 0 0 0 0 0 1 1 1 0 0 1 0 0 0 0 1 0 0 0 2 0 2 1 0 1 2 0 0 0 0 0 0 1 1 0 1 0 0 1 0 0 0 0 1 0 0 0 3 0 0 2 1 6 1 2 2 8 2 1 1 0 0 1 0 1 1 5 0 0 0 0 0 0 0 1 0 1 0 1 0 0 0 0 2 0 0 0 0 0 1 2 1 0 0 1 2 1 0 0 2 0 0 1 3 1 2 1 1 1 0 0 0 0 1 0 0 1 0 0 1 0 2 1 1 1 0 0 1 0 1 0 1 1 0 0 0 2 1 0 0 0 1 1 0 1 4 1 0 1 2 0 1 0 1 0 0 
1 0 0 0 0 1 0 0 0 0 0 1 0 2 1 0 1 1 1 5 0 2 1 0 1 2 0 0 0 0 2 4 2 4 1 0 0 0 0 0 1 0 0 1 1 0 0 5 0 1 0 0 0 0 0 0 1 1 1 0 1 1 0 0 0 0 1 1 0 1 2 0 0 0 0 0 0 0 0 4 0 0 1 1 6 7 0 0 0 0 2 1 0 1 1 1 0 1 2 0 3 3 1 1 0 1 1 2 0 0 1 0 1 0 4 0 0 0 0 1 0 0 1 1 0 0 0 0 1 0 0 1 2 1 0 0 1 1 0 0 1 1 1 1 1 0 1 0 0 1 1 0 0 2 0 0 2 0 1 0 0 1 2 1 0 1 0 0 0 1 1 0 0 0 1 0 0 0 1 0 0 0 0 0 0 0 4 4 0 1 1 0 1 0 0 0 0 1 5 3 0 0 1 0 6 0 1 2 3 0 0 2 0 1 1 2 0 0 0 0 0 0 1 1 0 1 0 0 1 0 5 0 1 0 0 0 1 1 2 0 1 1 5 0 1 1 7 0 0 1 1 0 1 1 0 1 1 1 0 0 1 0 0 0 0 0 0 1 0 0 1 0 1 1 1 1 1 1 1 0 1 0 0 0 1 1 0 1 1 2 0 1 2 1 0 1 1 1 0 1 0 1 1 0 0 0 0 0 1 1 2 2 0 0 1 1 1 0 0 0 0 0 1 0 0 0 0 0 2 1 0 0 1 0 1 0 5 2 6 1 1 1 0 0 5 1 0 0 0 0 0 0 0 1 1 1 0 0 1 0 0 0 1 0 0 0 0 1 1 3 1 1 0 0 0 1 0 0 0 1 1 0 0 0 1 0 1 0 0 1 0 0 4 0 2 0 1 0 0 0 1 1 0 1 1 1 0 4 1 1 0 1 0 0 0 0 0 0 0 1 0 0 0 0 0 1 0 0 0 1 0 1 0 1 0 1 1 0 1 1 0 1 1 0 0 0 1 0 0 0 0 1 0 0 1 0 1 2 1 1 0 0 0 0 0 1 1 1 1 0 0 1 0 0 0 0 0 0 1 0 1 0 3 0 0 0 0 0 0 1 2 0 1 0 1 0 1 1 1 1 0 0 0 1 0 0 1 0 0 0 0 0 0 0 0 1 1 0 3 0 1 0 0 0 0 0 0 0 1 1 0 0 0 0 0 0 0 0 0 1 2 1 0 1 0 0 0 1 0 1 2 1 0 0 0 2 2 1 0 0 0 0 0 2 1 0 0 1 1 0 1 0 0 1 0 0 0 0 0 1 1 1 0 1 1 1 1 1 1 1 1 1 2 2 1 1 0 1 1 0 0 0 0 1 1 7 2 0 1 1 1 0 0 1 2 5 1 0 1 0 0 1 0 0 1 0 0 0 0 0 1 0 1 2 1 0 2 0 1 0 
0 0 1 1 0 0 1 1 3 0 0 1 0 0 1 0 0 0 0 0 2 0 0 1 2 0 1 1 1 0 1 2 5 2 0 1 0 1 0 1 1 1 1 0 1 1 1 1 0 4 0 1 1 0 1 0 0 0 0 0 0 1 1 1 0 0 0 0 1 0 0 2 1 2 1 0 0 0 1 2 1 1 0 0 1 1 0 1 0 0 0 0 0 1 0 0 0 1 0 1 2 1 6 0 0 1 0 0 1 0 2 0 0 0 0 0 0 1 1 1 1 3 0 0 1 0 0 0 1 0 0 0 0 0 0 3 1 0 0 1 8 2 1 2 1 0 1 1 0 0 2 1 1 0 0 1 0 0 0 2 0 0 0 2 1 2 1 1 1 1 1 0 0 1 0 0 1 0 2 1 0 0 0 0 0 1 0 0 0 0 0 0 1 0 1 0 1 4 0 0 0 2 1 0 2 0 2 3 0 1 0 2 1 1 0 0 0 0 0 2 1 0 0 1 0 0 0 0 0 1 1 0 0 1 0 1 1 0 0 0 0 2 1 2 2 0 2 0 0 1 2 0 0 1 1 1 0 1 0 0 0 0 0 0 1 0 1 0 5 2 1 1 0 1 0 2 0 0 0 1 2 0 0 0 0 2 0 1 0 0 0 0 1 1 0 1 0 0 0 0 1 0 0 2 0 0 1 1 0 0 1 1 0 1 1 0 1 0 1 1 1 0 0 0 0 2 0 0 0 1 2 1 0 0 1 0 2 0 1 1 0 1 1 0 1 0 0 0 0 0 0 1 1 0 1 1 2 0 1 0 1 1 1 0 0 0 0 1 0 0 0 0 0 0 2 0 0 1 5 1 0 0 0 0 0 0 0 0 0 0 0 0 1 0 0 0 0 0 0 0 1 0 2 3 0 0 0 5 0 1 1 1 0 1 0 1 1 1 0 1 0 0 4 6 4 1 1 2 1 0 0 0 0 0 0 0 0 1 0 0 0 0 1 2 1 1 0 0 0 0 0 1 1 1 0 1 0 1 0 0 0 0 3 1 1 0 2 1 1 1 0 1 1 2 0 0 0 0 0 0 1 1 0 0 0 0 0 0 0 0 0 0 0 0 1 1 0 0 1 1 1 2 1 0 0 0 0 0 1 1 0 0 1 2 0 0 1 1 1 0 1 0 1 0 1 2 0 0 0 0 0 0 0 0 0 1 0 0 0 0 0 3 0 2 0 0 0 0 1 0 1 1 0 1 0 1 0 2 0 1 1 0 1 0 0 3 2 1 0 1 1 0 1 0 1 2 1 1 0 0 0 0 0 1 1 4 2 1 0 6 1 1 1 0 0 2 0 0 1 0 1 4 0 1 0 9 1 0 0 0 0 2 1 1 0 0 1 0 0 0 1 1 1 0 0 0 0 1 0 0 0 0 1 1 2 0 0 7 1 4 
1 0 1 0 0 0 1 1 1 1 1 0 1 0 1 1 2 1 0 0 1 1 2 0 0 0 0 0 1 6 1 1 4 1 1 1 0 0 0 0 1 0 0 0 1 1 1 1 0 0 0 1 3 1 1 0 0 0 0 1 1 1 1 0 2 2 0 0 1 0 4 1 0 1 2 0 1 0 0 1 0 0 2 1 2 0 1 2 0 0 0 1 1 0 1 2 0 2 1 1 3 0 3 1 0 0 1 1 0 1 1 1 1 2 2 3 0 1 0 0 0 1 1 0 0 0 2 0 0 0 0 2 0 0 1 0 0 1 0 1 1 0 1 1 1 1 0 0 0 0 0 0 0 4 2 0 0 0 0 1 0 0 0 0 1 6 1 1 0 0 3 0 1 1 0 1 1 0 2 0 1 0 0 2 2 0 0 1 0 0 0 0 0 0 0 0 2 0 0 0 0 0 3 0 0 0 1 1 2 0 1 1 0 1 0 0 1 0 0 0 1 1 0 5 0 1 0 1 1 0 1 0 0 0 0 1 3 2 0 0 0 0 4 0 1 0 4 0 1 0 0 1 6 0 0 0 0 0 0 0 0 1 0 1 0 1 1 1 0 3 0 0 1 1 0 0 0 1 1 0 0 0 0 0 1 0 1 0 6 1 0 1 0 6 1 0 2 1 0 0 0 1 1 0 1 1 1 0 1 0 0 0 0 0 1 0 0 1 0 1 1 1 0 0 1 0 1 0 2 3 1 1 1 0 0 1 1 0 0 0 0 0 1 1 2 0 0 0 1 2 0 1 0 1 0 0 0 0 2 2 2 0 1 1 0 0 0 1 4 1 1 2 1 0 1 0 0 0 1 0 0 0 8 0 1 0 1 2 0 2 0 0 0 0 0 0 1 0 0 0 0 0 0 0 0 0 0 0 0 0 0 1 2 1 0 1 1 0 0 0 0 1 0 1 0 1 0 1 1 1 0 1 0 1 1 0 1 2 0 0 0 1 1 1 0 0 0 0 0 1 1 2 0 0 0 0 1 1 0 1 0 0 0 0 2 0 0 0 0 1 0 0 0 0 0 1 0 0 1 0 0 0 0 0 0 1 0 1 0 0 0 1 1 1 0 1 2 1 3 1 5 1 0 0 0 0 0 1 0 1 1 4 1 1 1 1 0 0 1 1 0 1 0 1 2 0 0 1 1 1 0 0 0 0 1 0 2 2 1 0 0 1 0 0 0 1 1 0 0 1 1 0 0 2 0 2 0 1 1 1 0 1 0 0 0 0 1 0 0 0 0 0 0 1 0 0 0 1 3 0 0 0 1 0 0 1 0 0 1 1 1 1 2 4 1 0 0 0 0 0 0 0 1 6 1 0 1 0 1 0 0 1 1 1 1 0 1 1 0 0 0 1 0 0 2 1 1 1 1 0 0 1 0 1 1 0 1 3 4 0 
5 2 1 2 1 0 0 1 0 1 2 2 1 0 0 0 1 0 0 0 1 0 1 0 2 0 0 0 0 4 1 4 1 1 1 1 0 0 0 0 1 1 1 0 1 0 1 1 2 3 1 3 3 0 1 1 1 0 0 0 0 1 2 0 0 2 1 0 0 1 1 0 0 0 1 0 1 0 0 2 1 3 0 1 1 0 0 2 0 0 2 1 1 1 0 0 0 0 0 1 0 0 0 1 3 0 0 1 0 2 2 1 0 0 1 0 0 0 0 1 0 0 0 0 0 0 0 1 2 1 0 1 1 0 0 0 0 0 1 1 1 0 1 1 1 0 0 0 3 2 0 5 0 1 2 0 0 0 1 1 1 0 0 1 0 0 4 3 1 0 0 0 1 0 0 0 0 1 0 0 1 1 0 1 2 0 0 1 2 0 0 0 1 0 0 0 0 0 4 0 1 1 1 1 1 0 1 0 1 0 0 0 0 0 1 1 1 1 0 1 1 0 1 2 2 0 0 0 0 0 1 0 0 0 0 0 2 0 0 0 0 1 0 1 0 1 0 0 0 0 0 1 0 1 0 0 1 1 0 1 0 0 0 2 1 0 1 7 1 1 1 1 5 0 1 0 0 0 4 0 1 1 0 0 0 1 2 1 0 1 1 0 0 1 1 1 0 1 1 1 1 1 0 1 0 0 1 1 2 1 0 0 0 2 0 0 0 2 1 0 2 0 1 6 4 1 2 0 1 0 0 0 0 0 1 0 0 0 0 1 1 0 0 0 0 0 0 0 0 0 0 1 1 0 1 0 0 0 0 1 1 1 1 0 0 0 1 0 2 0 0 0 0 5 0 1 0 0 0 0 0 1 4 0 1 0 0 0 0 1 1 0 1 1 1 1 0 1 1 0 0 0 1 0 1 1 1 1 0 2 0 0 0 0 0 0 0 0 1 0 0 0 0 0 1 0 0 0 1 0 1 0 1 1 0 0 3 0 1 0 0 1 1 1 0 0 2 0 0 0 1 0 0 0 1 0 0 0 2 0 0 0 0 0 1 0 0 1 6 0 0 0 1 2 0 0 2 1 0 1 0 0 0 1 0 0 0 0 0 0 0 3 3 0 2 1 1 0 0 3 1 1 1 0 0 0 0 1 1 1 1 0 1 0 0 1 1 0 0 0 0 0 1 5 1 1 0 1 0 0 1 0 0 1 0 0 1 0 1 0 0 0 0 0 1 1 1 0 1 2 1 1 2 1 1 0 1 0 3 1 0 0 0 0 1 0 2 1 0 0 1 0 0 2 4 1 0 0 0 1 1 0 1 0 0 0 1 0 1 0 0 0 0 1 0 0 0 0 0 2 0 0 0 1 1 0 0 1 2 0 0 0 0 1 0 1 0 1 0 0 1 0 1 0 0 1 0 0 0 1 0 5 2 0 0 0 0 1 0 0 
1 0 0 0 0 1 0 1 1 1 2 0 0 1 0 1 0 1 1 1 1 0 1 0 0 0 0 0 0 0 1 1 0 0 6 2 0 2 0 1 0 2 0 0 0 0 1 1 0 0 1 0 0 0 3 1 0 2 0 0 2 0 0 0 0 0 1 0 1 0 0 1 2 0 1 0 0 0 0 0 0 1 0 1 0 2 0 0 1 2 0 2 1 1 0 0 0 3 1 0 0 1 6 0 0 0 0 0 1 1 0 0 0 0 2 0 0 1 0 1 0 3 0 0 1 1 0 1 0 0 1 0 1 0 0 2 0 0 1 0 0 0 1 0 2 0 0 0 0 0 0 0 1 1 0 1 0 0 1 1 0 0 0 0 1 0 0 1 1 1 0 0 2 0 0 0 0 0 0 0 5 1 1 1 0 0 0 0 2 0 2 4 1 0 0 1 0 1 0 0 0 1 0 0 0 1 0 0 0 1 0 1 0 0 0 1 0 0 0 0 1 0 0 0 1 0 0 1 0 1 1 0 1 0 0 0 1 0 1 3 1 3 1 2 0 0 1 0 1 0 0 1 1 0 1 0 2 0 0 0 2 1 0 10 1 1 0 4 0 0 1 0 1 1 0 3 0 0 1 0 0 1 4 1 0 1 1 1 1 1 0 1 1 0 0 0 0 0 0 0 1 0 0 1 5 8 0 6 0 2 1 0 0 0 1 0 0 0 0 0 1 0 0 1 4 0 0 0 0 1 0 0 0 0 0 0 0 1 0 0 0 0 0 0 0 0 1 3 1 0 1 0 0 0 0 1 0 2 0 0 0 0 0 0 0 0 0 0 0 0 0 0 0 1 0 0 0 0 0 1 1 0 3 0 0 1 2 0 1 1 0 1 1 1 0 1 0 0 1 1 1 1 1 1 0 0 0 1 0 0 2 0 0 1 0 0 0 1 0 3 0 0 0 2 0 1 1 1 1 0 0 0 1 0 0 0 1 1 1 0 0 0 0 2 3 2 0 0 0 1 0 1 0 1 0 0 1 0 1 0 1 1 0 3 0 0 5 1 0 5 0 0 1 0 0 0 0 1 0 0 0 2 1 0 1 1 0 0 1 0 1 1 0 2 0 0 2 0 1 5 0 0 1 0 1 0 1 1 0 1 0 0 1 0 1 1 2 0 2 0 0 0 1 2 1 0 0 0 0 0 0 1 0 0 0 1 0 1 0 0 0 4 1 0 0 0 0 2 2 1 0 1 0 0 1 0 0 2 5 0 0 0 2 1 0 0 0 1 0 0 0 1 5 5 3 0 1 6 1 1 0 1 0 0 0 1 2 0 1 1 0 1 1 0 1 0 1 0 0 0 0 1 1 1 0 1 2 1 0 0 0 0 2 1 2 0 0 0 2 1 1 1 1 0 0 0 0 0 0 1 0 1 2 5 1 0 0 0 1 0 
0 0 1 1 0 0 0 1 0 0 1 0 0 1 1 0 1 0 1 1 0 1 0 0 1 0 1 0 0 1 1 0 1 0 1 1 5 1 0 1 1 0 0 0 0 0 1 0 1 1 0 1 0 0 0 0 2 5 0 0 0 0 0 2 1 0 0 0 0 1 0 0 1 1 2 1 1 1 0 0 0 1 0 2 2 0 0 0 0 0 1 1 0 0 0 1 0 1 0 0 0 0 0 1 0 0 1 0 1 0 0 1 3 0 1 1 0 0 0 1 0 0 2 0 1 0 1 0 0 2 1 0 0 0 0 1 0 0 0 0 0 1 0 0 1 1 1 0 0 0 1 0 0 1 0 0 0 1 1 1 0 1 0 0 0 0 1 0 0 0 1 0 2 0 0 1 0 0 0 0 0 3 1 0 1 1 2 0 4 0 0 0 1 0 0 2 1 0 0 1 1 0 1 2 0 0 3 0 1 0 5 1 0 0 0 1 1 1 1 0 1 1 0 0 1 1 1 0 1 1 0 1 0 1 1 1 1 1 0 0 0 0 0 1 0 2 0 0 0 0 0 1 0 0 1 0 0 1 1 1 0 0 0 1 4 1 0 1 0 0 0 0 0 0 0 0 3 0 1 0 1 0 0 1 0 1 0 1 5 1 5 0 0 0 0 0 0 0 0 0 0 0 1 1 0 2 7 0 1 0 1 0 0 0 0 0 1 1 0 3 1 0 0 0 1 0 1 1 0 0 0 1 3 1 0 1 3 1 1 0 1 0 0 0 0 2 2 8 0 0 0 1 1 2 0 1 1 0 4 1 2 0 0 0 1 2 1 2 1 1 0 0 1 2 0 1 2 0 2 0 1 1 1 0 1 0 1 1 2 1 1 1 0 0 0 0 0 0 1 1 0 0 0 0 1 1 0 0 0 0 1 2 0 0 1 1 1 0 1 1 1 2 0 0 1 2 0 0 0 1 2 0 0 1 1 0 0 0 1 0 1 0 0 0 1 1 1 1 0 1 0 6 2 2 0 1 0 0 1 0 0 0 0 1 0 1 2 0 0 1 5 2 7 1 0 0 0 1 0 1 3 2 1 1 0 1 0 1 1 1 1 0 0 2 0 0 1 0 1 1 1 1 0 2 2 0 0 2 1 3 0 0 0 0 0 1 4 1 0 1 5 2 1 2 0 1 1 0 2 0 0 0 0 1 1 1 4 2 2 2 0 0 0 2 7 0 1 0 1 1 0 0 2 0 0 0 1 8 0 0 0 0 1 0 1 0 0 0 0 1 0 0 2 0 0 0 0 1 1 2 1 0 0 1 0 0 2 0 1 1 0 1 0 0 0 0 0 2 0 0 0 0 0 1 0 1 2 2 0 1 0 2 4 3 1 1 0 1 0 0 0 1 1 0 2 2 0 0 1 1 1 2 2 4 1 3 1 1 0 1 
1 1 1 0 1 1 1 0 0 0 0 0 0 0 1 0 0 0 0 1 0 1 0 1 1 0 0 2 1 1 0 1 2 3 0 0 0 0 0 1 2 0 1 0 0 1 0 5 3 1 1 1 1 1 2 0 0 1 0 2 1 0 0 1 0 0 0 0 2 1 0 1 0 0 1 1 0 0 0 0 0 0 0 1 1 0 0 0 1 0 1 3 2 0 0 0 0 1 0 1 1 1 1 0 0 0 2 1 0 0 1 0 1 0 0 0 0 1 0 1 0 2 3 0 0 7 0 0 0 0 1 0 0 0 0 0 0 0 3 1 0 0 1 0 1 0 1 0 0 0 0 0 0 0 0 1 0 1 1 0 0 0 0 0 1 1 0 1 0 0 1 0 0 0 1 1 2 0 0 0 2 0 6 0 0 0 0 0 1 0 0 1 0 1 3 8 3 1 0 1 0 0 0 1 0 0 1 1 0 0 1 1 2 0 0 1 1 0 1 2 1 1 0 0 0 0 0 1 1 0 1 0 0 0 1 5 1 1 0 2 0 0 1 0 0 1 0 0 0 2 0 2 0 0 0 0 0 0 0 0 1 0 2 1 2 1 2 0 0 0 1 1 1 0 1 1 0 0 0 0 0 1 0 1 1 1 0 0 0 1 2 1 0 1 1 0 0 1 0 0 0 0 0 0 0 0 0 1 0 2 0 1 2 0 1 0 1 1 0 0 2 1 0 0 0 1 1 0 0 0 0 0 7 2 0 0 0 1 0 0 0 0 0 3 0 4 9 2 6 1 0 1 1 1 1 0 0 0 0 0 0 0 0 0 1 3 2 2 7 2 0 0 1 0 0 1 0 0 0 0 0 0 2 1 0 0 0 0 0 1 0 0 0 1 0 1 1 0 0 1 0 1 2 1 0 0 1 0 3 1 1 4 0 0 0 1 1 2 0 4 1 0 0 0 0 0 0 0 0 0 1 0 1 1 1 0 2 0 0 0 0 0 2 0 0 0 5 0 1 1 2 2 1 0 0 0 0 1 0 0 0 0 1 1 1 1 0 0 0 2 0 1 1 0 1 1 2 0 0 2 0 3 2 2 0 0 0 3 0 0 5 1 0 1 0 0 2 4 1 1 0 1 3 1 2 0 0 2 1 0 0 1 2 0 0 1 0 3 1 2 1 1 5 2 0 0 0 0 1 1 1 3 0 0 1 0 1 2 5 2 1 0 0 3 1 1 0 1 0 1 0 1 2 1 0 3 0 0 0 0 1 2 1 2 0 0 0 0 1 0 0 1 0 1 0 0 0 1 1 0 1 1 0 0 5 0 5 0 1 1 1 0 0 0 0 0 1 1 0 0 1 1 0 0 0 1 1 0 0 0 2 1 1 1 1 6 0 0 1 1 1 0 0 0 2 1 1 0 0 2 0 0 0 0 0 1 0 1 1 0 
0 1 0 0 0 0 0 0 0 2 1 0 1 5 1 0 0 2 0 0 0 0 1 1 0 1 0 0 1 1 1 1 0 4 1 1 0 1 1 1 1 0 0 0 0 0 0 0 0 1 3 0 1 2 1 2 2 1 1 1 0 1 1 0 0 0 0 0 0 2 1 1 0 1 0 2 0 0 0 0 0 0 0 0 0 0 1 0 0 0 1 7 0 2 1 2 6 1 1 0 0 0 0 1 2 1 0 0 0 1 0 2 0 0 0 2 0 0 0 0 1 1 1 0 1 0 1 3 0 0 0 1 0 1 0 0 0 1 5 2 0 1 2 1 1 0 0 0 0 0 1 1 2 0 0 1 1 1 3 2 1 0 0 0 2 1 0 1 0 0 0 0 1 1 0 1 1 0 1 1 1 1 1 0 0 1 1 1 0 0 0 0 1 4 2 10 0 1 0 0 5 3 1 1 0 0 0 1 0 0 1 0 1 1 1 2 0 0 0 0 0 0 1 0 1 1 0 2 1 2 0 4 2 2 5 0 0 0 0 1 6 2 0 0 0 0 0 0 0 1 1 0 1 0 1 1 2 1 0 0 1 0 0 0 0 0 0 0 1 0 1 1 0 1 1 0 0 1 0 0 0 0 0 0 1 0 1 0 0 2 0 0 2 0 0 0 0 2 1 0 1 1 0 0 0 1 0 0 1 1 0 0 0 1 0 0 0 2 0 1 1 0 1 0 1 0 0 0 0 0 0 1 1 0 0 1 0 1 1 0 0 0 0 0 0 0 1 0 1 1 0 1 0 0 1 0 0 0 0 1 2 0 4 0 0 0 2 0 2 0 0 1 3 1 0 0 0 0 2 0 0 0 0 1 0 0 0 1 5 0 0 0 1 0 0 0 0 1 0 0 8 0 0 3 0 1 1 1 1 2 2 0 0 0 1 1 1 1 1 0 0 1 0 3 0 1 2 0 1 0 0 2 1 1 11 1 1 1 0 0 1 1 0 0 1 0 1 5 3 0 0 0 0 0 0 1 1 0 0 0 0 0 0 1 0 1 0 0 1 0 1 0 0 0 0 1 0 0 0 0 0 3 0 2 1 1 7 0 0 0 2 1 0 0 0 1 0 1 5 0 0 0 0 0 1 0 0 0 0 1 1 1 1 1 0 0 1 3 1 0 0 0 1 1 0 0 0 1 1 1 0 0 2 0 1 0 0 1 2 0 0 0 1 0 0 1 0 0 0 1 1 0 0 0 0 0 1 0 0 0 1 1 0 0 1 1 0 0 0 1 0 0 0 0 0 0 1 1 0 2 0 0 2 0 0 0 1 0 0 1 0 0 1 0 1 0 0 0 1 1 2 0 0 0 0 0 0 0 2 8 2 1 0 2 3 1 3 1 1 0 0 0 0 0 0 0 4 0 1 1 0 1 1 0 0 1 0 0 1 0 
0 1 0 1 0 0 1 1 2 0 1 1 0 1 0 1 0 2 3 1 0 1 1 0 2 0 1 2 0 0 0 0 1 0 0 2 0 0 1 0 1 0 0 0 0 1 1 0 0 0 2 0 0 0 0 0 1 2 0 0 2 0 0 2 1 1 1 1 0 1 0 1 0 0 0 0 0 0 1 2 0 1 4 0 0 1 0 1 0 0 1 5 0 0 0 1 1 0 1 0 3 2 0 0 1 0 0 2 0 1 1 1 0 1 1 0 0 0 0 1 0 0 2 1 0 2 0 1 0 1 0 1 1 0 1 1 0 0 1 1 0 1 0 0 0 0 0 0 0 0 0 0 5 0 1 2 2 7 1 1 0 2 0 0 1 0 0 1 0 0 0 1 1 0 0 0 0 1 0 0 0 0 2 1 2 2 1 0 0 0 1 0 0 1 0 0 0 0 0 1 1 1 1 0 0 0 4 0 1 0 1 0 0 0 1 0 1 0 1 1 1 3 0 1 0 0 1 0 0 1 0 1 1 1 0 0 0 1 1 1 1 0 1 0 0 2 0 0 0 0 1 0 0 0 2 1 9 1 0 1 1 1 0 0 1 1 0 0 0 1 0 0 0 0 0 1 1 0 0 1 0 1 0 1 1 1 0 1 0 0 0 0 0 0 0 0 5 1 3 0 1 0 1 0 0 0 0 0 1 1 1 1 0 0 0 1 1 0 0 0 0 1 0 0 0 0 1 1 1 0 3 1 0 0 1 1 0 1 0 1 0 0 0 0 2 0 0 0 1 1 1 2 0 1 0 0 0 0 1 1 2 0 1 1 4 0 0 1 0 2 0 0 1 0 1 0 1 1 0 1 0 0 0 1 1 1 1 0 0 0 0 0 0 2 1 0 1 1 1 5 2 4 1 1 0 0 0 1 0 0 0 1 1 1 1 2 0 0 0 0 0 0 1 0 3 0 1 1 1 2 0 0 0 0 2 0 0 0 0 0 0 0 1 0 1 1 1 1 1 0 0 1 1 0 0 0 1 1 0 0 0 1 0 0 0 0 0 0 0 0 0 0 0 0 0 0 0 1 0 1 1 1 0 2 1 1 1 0 0 0 0 0 1 0 0 0 1 1 0 0 1 1 0 0 0 0 0 1 1 0 2 0 1 0 8 1 5 2 0 1 1 1 0 0 1 0 1 0 0 1 2 0 0 1 1 0 1 0 0 0 2 0 0 0 0 1 0 1 0 0 0 0 1 5 0 1 1 0 1 0 1 1 7 0 0 1 1 1 0 0 0 0 0 2 1 2 0 1 2 0 2 0 0 1 0 0 0 5 1 0 0 0 0 0 0 0 0 1 0 1 0 1 2 0 1 0 0 0 10 8 8 1 0 1 2 0 2 0 0 0 0 0 0 0 0 1 1 1 1 1 2 0 1 0 0 1 1 1 1 0 
2 1 0 1 1 1 0 0 0 1 0 0 0 0 0 1 3 0 2 0 0 0 2 0 1 0 4 0 0 1 0 0 0 0 0 0 2 0 0 0 0 0 1 1 0 0 1 0 1 4 0 0 1 1 0 0 2 1 0 0 0 1 1 2 1 0 0 0 0 0 0 0 1 0 0 0 1 0 0 0 0 1 0 0 2 1 1 0 0 0 0 1 0 0 0 1 0 0 0 2 0 1 1 0 1 0 0 1 1 1 2 0 0 3 2 0 0 1 1 1 0 3 0 0 0 1 2 0 0 1 2 1 0 0 1 0 0 0 0 0 0 0 0 0 0 1 1 0 1 1 1 1 3 1 1 0 1 1 0 0 0 0 2 0 0 0 0 0 0 0 0 4 1 1 1 0 4 1 1 1 0 0 3 5 1 0 0 0 0 0 0 0 1 0 0 0 5 1 1 0 0 1 0 2 5 0 0 0 1 1 1 6 3 1 0 1 0 0 0 0 0 1 0 1 1 5 0 1 0 0 5 2 1 1 0 0 0 0 1 1 1 1 0 0 1 0 0 0 0 0 1 1 1 2 0 0 1 0 1 1 0 1 1 1 0 1 1 0 0 1 0 0 2 0 0 0 0 0 1 0 0 0 0 0 0 0 0 0 0 0 1 0 1 0 0 0 0 0 0 0 0 0 2 1 1 0 1 0 1 0 1 4 1 0 0 2 1 2 0 0 0 1 0 1 0 0 1 2 1 2 0 0 0 2 0 0 2 0 0 1 0 0 0 2 0 1 1 0 1 0 1 4 1 0 0 0 0 1 0 1 1 1 0 0 0 0 0 1 0 0 0 0 0 1 0 0 1 0 1 0 0 1 0 1 0 1 0 0 0 4 1 1 1 0 0 0 0 5 1 1 0 2 1 0 0 0 1 4 1 0 0 0 1 1 1 1 0 1 0 1 0 0 0 2 0 0 0 0 0 0 6 0 0 1 0 1 1 1 1 1 0 0 0 0 0 0 0 3 2 1 0 1 1 0 1 1 0 0 1 1 1 2 0 0 0 1 2 0 0 0 1 1 0 1 1 0 1 0 3 0 6 0 0 1 1 1 1 3 1 0 0 0 0 0 0 0 0 0 0 0 0 0 1 0 0 1 0 1 2 0 0 0 1 2 1 0 1 1 0 1 0 0 2 0 1 0 1 0 0 0 0 0 0 0 1 4 0 0 0 1 0 0 1 1 1 1 0 1 0 0 0 1 0 1 1 2 1 0 0 1 0 0 1 1 1 1 0 0 2 2 1 1 0 1 0 1 0 0 0 0 1 1 0 0 0 1 0 1 1 0 1 0 1 0 1 0 1 1 2 0 0 4 6 3 0 1 0 0 0 1 2 0 0 1 0 1 1 1 1 0 1 0 0 1 0 1 0 0 1 2 0 0 0 0 0 1 0 0 5 1 
1 1 1 1 0 0 0 0 0 1 0 0 1 0 0 0 0 0 0 1 0 3 1 1 0 0 0 1 0 0 0 0 1 1 0 1 2 0 0 0 1 0 1 1 0 1 0 4 1 1 1 0 0 1 0 1 0 0 0 0 0 1 0 0 1 0 0 1 0 0 1 2 0 1 1 1 1 1 3 1 0 1 0 1 0 0 0 0 0 1 1 0 2 1 1 0 0 0 0 0 1 0 0 0 1 0 0 0 0 0 0 0 1 0 0 0 2 2 0 1 3 0 1 0 1 1 0 0 1 0 0 0 1 1 1 0 1 0 1 0 0 0 0 0 0 0 1 0 0 1 0 0 1 5 0 0 0 2 1 2 0 0 1 0 1 1 1 0 0 0 0 2 0 0 0 0 0 1 0 0 0 0 0 1 0 2 5 1 0 0 0 0 0 0 0 0 0 1 2 1 0 1 1 1 1 0 1 0 0 1 0 5 0 1 0 1 0 0 1 0 1 0 1 7 0 0 3 0 4 3 2 0 1 0 0 0 2 1 1 1 1 0 0 6 1 0 0 1 0 1 3 2 2 0 0 0 1 0 0 1 0 0 1 0 1 0 0 0 1 0 1 0 0 0 0 1 0 1 1 1 1 0 0 0 1 2 1 0 0 1 0 0 0 0 1 2 0 0 0 0 1 0 0 0 1 0 2 0 1 0 0 1 0 0 2 3 2 1 1 0 2 1 1 1 0 2 0 3 0 0 0 1 2 0 1 0 1 1 0 0 0 6 2 2 0 2 0 1 1 1 0 1 1 2 1 2 1 1 0 1 0 0 0 1 3 1 2 0 0 0 0 0 0 0 0 3 1 0 0 0 0 1 0 0 2 0 1 2 3 1 2 0 1 2 1 2 1 0 1 1 0 1 0 1 2 1 7 2 0 0 0 1 1 1 1 0 1 2 0 2 5 0 0 1 0 1 0 1 0 1 1 6 1 0 1 0 0 0 0 3 0 1 0 1 0 2 2 0 0 0 1 0 0 0 1 1 0 1 0 1 0 1 1 0 0 0 1 1 2 2 0 0 1 0 1 1 1 5 2 1 0 1 0 0 0 0 1 2 1 1 0 0 0 3 1 0 1 0 0 0 0 0 0 1 3 0 0 0 1 2 1 1 0 1 1 1 2 0 0 1 0 1 0 1 0 0 0 2 4 6 1 1 1 2 1 1 0 1 1 1 0 0 0 2 0 0 0 0 0 0 0 0 1 0 0 0 0 0 0 0 1 0 1 0 0 0 0 0 1 1 0 0 1 1 2 0 0 0 0 0 1 0 0 0 0 1 0 1 1 1 0 1 0 1 1 0 1 1 0 0 1 0 2 1 0 0 1 0 0 0 0 3 0 1 0 2 2 0 0 1 1 1 0 0 0 0 1 1 1 0 1 1 0 1 1 0 1 0 2 0 
0 0 0 1 0 0 0 0 1 0 0 1 0 0 1 1 0 1 0 0 1 0 0 1 1 2 0 1 0 1 0 1 1 1 1 0 0 0 1 0 3 0 0 1 1 0 0 0 1 1 1 0 0 0 0 0 0 1 0 0 1 0 0 0 0 2 4 1 1 1 0 0 1 0 0 0 0 0 1 0 2 0 0 0 1 0 1 0 0 0 0 0 3 1 0 0 1 0 0 0 0 0 2 0 1 1 1 1 1 0 2 0 1 0 0 0 2 0 0 1 0 1 4 2 0 1 0 1 1 0 0 0 1 1 0 0 0 0 0 0 0 0 0 0 1 0 0 0 0 1 0 0 0 1 1 1 3 2 0 2 1 0 0 0 0 1 1 1 2 5 0 0 0 0 0 0 2 0 0 1 0 0 0 1 0 1 0 0 1 0 1 0 0 0 1 0 1 3 0 0 0 1 2 2 1 3 2 0 0 0 2 0 0 0 1 1 0 0 1 1 1 0 1 0 0 1 1 0 1 0 0 1 1 1 0 1 0 0 0 1 0 0 2 1 0 0 0 1 4 0 0 0 0 0 0 1 1 1 0 0 3 0 0 2 1 0 1 0 0 2 0 4 0 1 0 1 0 1 1 0 0 0 0 0 1 1 1 2 1 1 1 1 1 1 0 2 5 0 0 0 2 0 0 2 1 0 0 0 0 0 0 0 0 0 1 0 1 1 0 2 3 0 1 0 0 0 0 1 0 0 1 0 2 6 1 3 1 0 0 0 1 0 1 2 0 1 1 0 1 0 0 0 0 0 2 0 1 0 0 0 0 0 1 6 2 0 0 0 0 1 1 0 6 0 0 1 0 0 0 0 0 3 0 2 0 1 5 2 1 0 0 1 2 7 0 1 0 1 0 0 1 0 0 1 1 1 1 0 1 1 1 1 1 0 1 0 0 1 1 2 1 1 1 4 1 0 0 1 1 0 0 0 0 1 1 0 2 1 1 0 3 1 1 0 0 1 1 1 1 1 0 0 3 0 0 0 0 0 1 0 4 2 0 1 1 0 0 1 1 1 0 0 0 1 1 1 0 0 0 0 3 0 0 1 0 0 1 0 0 0 0 3 3 0 2 0 0 0 1 0 0 0 0 1 1 0 0 0 0 1 0 3 1 4 0 0 1 0 0 2 0 0 0 0 1 0 0 0 1 4 1 2 2 1 1 0 0 1 0 0 2 2 0 0 1 1 0 0 1 5 1 1 2 1 0 0 1 0 1 1 0 2 1 1 2 5 1 1 1 0 1 0 0 0 0 1 0 0 1 1 1 1 1 0 0 1 1 1 1 0 0 2 1 0 0 0 1 1 1 1 1 0 0 0 0 1 0 2 1 2 0 1 0 1 0 5 0 0 1 0 1 1 0 0 1 0 2 0 0 0 0 0 0 0 1 0 0 1 0 0 
0 0 0 0 0 1 0 1 5 0 1 0 0 0 0 0 0 0 0 1 1 0 0 0 1 0 1 0 0 0 2 5 1 0 1 0 0 1 0 0 0 2 0 1 0 0 0 0 0 2 0 0 1 0 1 1 0 0 1 2 0 2 1 0 1 1 0 0 1 0 0 1 1 1 0 0 1 1 0 0 1 1 0 0 1 0 4 1 0 0 0 0 0 0 0 0 0 0 0 0 1 0 0 1 0 2 0 0 0 5 6 8 0 0 0 0 0 1 1 1 0 0 0 2 0 0 0 0 0 0 1 1 0 1 1 1 0 0 1 1 1 1 1 0 1 1 1 0 0 0 2 1 0 0 6 5 1 1 0 0 0 0 0 0 0 0 0 1 0 0 1 0 3 1 1 2 7 0 1 0 0 0 1 1 0 0 0 0 1 0 0 0 0 0 1 0 1 0 0 1 0 0 0 1 0 1 2 0 1 0 0 2 0 1 1 0 1 1 1 4 1 1 0 1 0 0 0 0 2 0 2 1 1 2 0 1 0 0 1 0 1 0 1 0 3 0 0 0 0 1 0 2 1 0 0 1 0 0 0 0 2 5 0 0 0 0 0 1 0 0 0 1 0 1 0 0 0 0 1 2 1 2 0 1 0 0 0 0 0 1 2 0 2 0 0 1 1 0 1 2 4 0 1 1 0 0 1 0 0 0 0 0 0 2 0 1 0 0 0 0 0 2 0 2 0 1 1 0 1 0 1 0 0 0 0 0 3 1 1 0 0 0 0 0 0 1 1 1 0 0 0 1 4 0 3 0 0 0 1 0 0 0 0 1 1 0 0 0 1 7 0 0 1 0 0 1 3 2 0 1 1 0 1 0 2 2 0 5 1 0 0 0 1 1 0 0 0 0 0 0 2 4 2 0 0 0 0 0 0 0 0 0 1 1 0 0 1 0 2 1 3 2 0 3 1 1 0 0 1 1 1 2 0 0 0 0 1 0 0 0 0 0 1 1 0 0 2 0 1 0 0 1 0 1 1 0 1 0 0 1 1 2 2 0 0 1 0 0 0 0 0 0 0 1 0 0 3 0 1 0 1 1 1 1 1 1 0 1 0 0 1 0 1 2 0 1 0 1 0 1 0 2 1 0 2 0 0 0 1 0 1 1 0 2 0 0 0 0 0 0 0 1 0 0 6 1 0 6 5 0 0 0 3 5 0 1 0 0 0 0 0 1 2 1 1 0 0 0 1 1 0 0 0 1 0 0 4 0 0 1 0 1 0 1 1 1 0 0 1 1 0 1 1 1 1 4 0 0 0 0 0 0 0 0 2 1 1 0 0 0 1 0 0 0 0 0 1 4 1 2 0 0 0 0 0 1 0 1 1 0 0 0 2 1 0 1 1 3 0 1 2 1 0 1 1 0 0 1 0 1 1 0 0 0 0 1 1 0 0 1 
1 3 1 0 1 0 0 0 0 0 0 0 0 0 0 1 0 0 0 1 0 0 0 1 0 0 6 1 2 0 1 0 0 1 1 0 0 0 1 0 2 0 1 0 0 1 0 0 0 0 0 0 0 1 2 0 1 1 1 0 0 0 0 1 0 1 1 2 1 2 0 0 0 4 2 0 0 1 2 0 1 2 0 0 0 0 0 1 0 1 0 1 0 0 0 0 2 1 0 0 0 1 0 1 1 0 0 1 3 0 1 0 0 0 0 0 0 0 1 0 0 1 0 0 2 1 1 0 0 0 0 0 0 0 2 0 0 1 1 0 1 1 0 1 2 0 0 0 1 0 0 2 0 1 1 0 1 0 0 1 0 1 0 0 1 1 0 0 1 0 0 1 1 1 1 0 0 0 0 1 2 2 1 0 0 0 2 1 0 1 0 0 0 0 0 1 0 0 0 1 0 1 2 0 0 0 0 1 1 1 1 0 0 0 0 1 1 0 1 0 0 1 1 0 0 0 0 1 0 0 0 1 1 0 1 2 0 0 1 1 1 0 1 0 0 3 0 2 2 0 2 0 0 0 0 1 0 1 0 0 1 0 0 0 1 0 0 1 1 0 2 1 0 1 4 1 0 0 1 1 0 0 0 0 0 0 1 1 3 0 8 3 0 2 2 0 0 0 5 1 1 0 1 0 1 1 0 0 1 0 0 1 0 0 0 1 0 2 0 5 1 0 1 0 3 1 1 1 0 1 0 0 0 1 0 0 3 8 0 1 0 1 0 1 0 0 0 1 1 1 1 1 1 0 0 0 1 1 0 0 1 1 0 0 0 1 0 0 0 1 0 6 0 1 0 0 1 0 0 1 0 0 1 1 0 2 1 1 2 1 0 1 0 0 1 0 1 0 1 1 1 10 6 0 0 2 1 0 0 0 0 1 0 0 1 1 0 0 0 1 2 2 1 0 1 0 0 0 0 0 0 0 1 1 0 0 0 0 0 0 0 0 0 1 1 0 0 1 0 2 0 1 0 0 1 0 1 0 0 4 2 1 0 1 0 2 0 1 0 0 2 1 3 0 0 1 1 5 2 0 0 2 0 0 0 1 1 1 1 1 0 2 1 0 0 4 1 0 0 1 0 1 0 0 0 0 1 0 1 0 1 0 0 2 0 1 2 0 2 0 1 1 0 0 0 3 4 0 1 4 0 0 0 0 0 0 3 0 0 0 2 2 0 2 0 0 0 1 1 0 1 0 0 0 0 1 2 1 0 6 1 1 0 1 1 0 2 1 1 0 0 0 7 1 0 0 1 1 1 0 1 1 1 2 4 0 1 1 0 0 0 0 0 1 1 0 0 0 2 2 1 0 1 0 0 0 1 0 0 1 0 0 0 0 1 1 0 0 1 1 0 1 1 1 0 1 0 1 0 0 1 1 0 0 0 0 0 1 0 1 
0 0 1 1 1 0 0 0 1 0 0 1 0 1 1 0 1 4 1 0 0 1 0 2 0 0 5 0 0 1 2 0 0 1 0 0 2 2 0 0 1 0 1 1 0 1 0 0 0 0 1 4 0 0 0 1 1 0 2 0 0 1 4 8 0 1 0 1 0 0 1 1 0 1 0 0 0 0 2 1 1 0 1 0 1 1 1 1 0 0 1 0 0 0 0 0 1 0 0 1 1 1 0 0 2 1 0 2 2 0 1 0 2 0 0 1 0 0 1 1 0 2 0 1 2 0 0 0 1 2 1 0 0 0 2 1 1 3 1 0 2 3 0 0 0 0 1 0 0 0 0 0 0 6 1 1 1 0 1 1 1 0 1 0 0 0 1 1 1 0 1 0 1 1 1 0 1 0 1 1 1 0 1 0 1 1 1 0 0 0 0 1 1 0 0 1 0 1 1 0 1 0 2 0 0 0 0 2 0 1 0 0 0 1 0 0 0 0 1 0 0 0 0 1 0 0 1 1 0 1 0 0 0 0 0 1 0 1 1 1 0 0 2 2 1 0 1 5 0 0 0 0 0 1 1 0 1 0 0 0 1 0 0 0 0 0 0 0 2 1 1 0 0 0 0 1 1 0 0 1 1 0 0 2 2 1 1 0 0 0 1 7 5 1 0 0 0 0 0 1 2 0 1 1 0 0 1 0 0 0 0 1 0 0 0 0 1 1 2 6 0 0 0 2 0 0 0 0 7 1 0 0 2 2 1 1 0 0 1 0 2 0 0 1 1 0 1 0 1 0 2 0 1 0 0 0 1 1 0 1 0 1 1 0 1 0 0 0 3 0 0 0 0 0 0 0 1 0 0 2 1 0 0 4 2 0 0 1 1 2 0 1 1 0 1 0 1 5 0 0 1 0 2 0 1 1 0 0 1 1 1 0 0 0 2 0 0 1 0 0 0 0 1 1 1 1 0 0 0 0 0 2 0 0 1 1 0 0 2 1 0 0 0 0 0 1 2 0 1 0 0 0 0 0 0 0 0 3 1 0 0 1 1 2 1 1 0 0 0 0 1 1 0 1 0 0 0 0 1 1 0 0 1 1 0 1 0 9 0 0 1 0 0 0 5 0 0 1 1 1 2 1 1 0 1 2 0 2 0 0 0 0 2 0 0 1 0 0 1 0 0 0 0 0 2 3 0 0 0 1 1 2 0 1 0 0 1 1 0 0 0 1 1 1 1 0 1 1 1 0 1 0 1 0 0 0 0 1 1 0 0 1 0 0 0 0 0 1 0 0 0 0 0 0 0 0 0 1 6 1 0 1 1 2 2 1 0 0 0 0 0 0 0 1 0 1 0 1 0 0 0 1 0 0 2 0 0 0 0 0 2 0 1 1 1 0 0 0 1 1 0 1 1 1 0 0 0 1 0 0 0 0 1 2 1 1 1 0 0 0 
0 0 0 1 0 1 0 0 1 1 1 0 1 0 0 0 0 1 0 0 1 1 0 0 0 0 1 0 0 5 2 0 0 0 0 1 1 0 0 0 1 0 2 1 0 0 1 3 2 2 0 0 1 1 0 1 0 2 2 0 0 0 1 1 1 3 1 0 1 0 0 0 1 0 0 1 1 1 1 0 0 1 0 0 0 0 2 1 0 0 0 1 0 0 0 1 0 1 0 0 0 1 1 2 2 0 1 0 0 0 0 0 0 1 0 1 2 0 0 2 1 1 5 0 5 1 1 1 1 2 0 0 1 0 1 0 1 5 1 0 0 1 6 1 8 0 3 0 1 0 1 0 1 1 1 0 0 0 1 0 0 1 2 0 1 0 0 0 0 0 0 0 1 2 0 0 0 0 1 0 0 0 0 0 0 1 1 1 0 0 1 0 0 1 0 0 1 1 0 0 0 1 1 0 1 0 0 1 1 0 0 0 2 0 1 1 1 2 1 0 0 1 0 0 5 0 6 0 1 1 1 0 0 0 0 0 0 1 0 1 0 0 0 0 1 0 1 0 1 1 5 0 1 0 0 1 1 1 0 4 0 1 2 1 2 5 1 1 0 0 0 1 0 0 1 1 1 0 0 1 1 3 3 0 1 0 5 0 0 0 0 2 2 2 0 1 1 1 2 0 1 0 0 0 1 0 0 1 0 0 2 0 0 0 0 0 0 1 1 1 0 0 0 0 0 1 7 8 10 4 0 0 1 0 1 0 2 0 0 1 2 1 1 0 0 0 0 0 0 0 2 2 1 1 0 1 1 0 0 0 1 0 0 0 1 1 0 0 0 0 0 0 0 0 1 1 0 1 0 2 2 0 1 0 2 0 0 0 0 0 0 1 2 0 0 0 0 1 1 3 0 0 0 0 0 1 0 0 0 0 1 0 0 0 1 0 1 10 1 1 0 6 0 2 0 0 0 0 0 0 0 4 0 0 0 0 0 0 1 0 1 2 0 0 0 1 2 0 0 1 0 0 0 1 0 1 1 1 0 0 1 0 1 0 0 0 0 0 0 0 0 0 1 1 2 0 0 0 1 0 0 1 2 1 1 1 1 0 0 0 3 0 0 0 0 1 0 0 0 1 2 3 2 0 0 0 0 0 0 1 0 0 0 2 2 1 0 1 2 0 2 1 0 0 2 2 2 1 4 0 3 1 1 3 1 0 1 1 1 0 6 0 1 4 0 0 1 0 1 0 1 0 1 1 0 0 0 1 0 1 1 0 1 0 0 0 0 1 0 1 0 1 0 0 1 0 2 0 0 0 1 4 1 1 1 1 1 0 0 0 1 0 1 0 1 1 0 1 0 2 0 0 0 0 1 0 0 1 0 0 0 0 1 0 0 1 0 1 2 1 0 0 7 1 0 0 1 0 0 0 0 0 1 1 1 0 2 1 0 1 
1 0 0 0 1 0 0 0 0 0 0 1 0 0 0 0 0 1 1 1 2 2 1 0 1 1 2 1 0 1 1 1 3 2 1 0 1 0 1 0 5 0 0 1 1 0 2 0 1 0 0 0 0 0 1 2 0 0 1 2 2 0 1 2 0 1 0 8 1 0 5 0 1 1 0 0 1 0 2 0 1 0 0 1 1 0 0 1 0 0 0 7 1 0 1 0 1 0 0 5 0 0 0 0 1 0 0 0 0 0 1 0 1 1 0 1 3 1 1 0 0 1 0 0 1 0 1 0 0 0 1 3 0 0 0 1 0 0 1 0 0 2 0 1 0 1 0 1 0 1 5 2 0 1 0 0 0 0 0 1 3 0 0 0 0 0 1 0 1 1 1 0 0 1 0 0 0 0 2 0 2 0 1 1 2 0 1 0 0 0 0 1 0 0 0 0 0 0 0 0 1 2 0 4 1 0 2 1 1 1 0 0 0 0 0 0 0 0 1 0 1 0 0 0 0 0 1 1 1 1 0 0 0 3 7 0 0 1 0 0 3 1 1 0 0 1 0 0 0 1 1 0 0 1 0 1 1 0 0 0 0 0 0 0 0 0 4 0 1 0 2 0 0 0 0 0 0 4 1 0 2 1 0 0 1 0 0 0 0 0 1 0 1 1 2 1 1 0 1 4 1 1 0 0 1 1 0 0 0 1 2 0 0 1 0 1 0 0 0 0 2 0 0 1 0 1 3 1 1 1 2 1 0 0 3 0 0 0 0 1 0 0 1 0 0 0 0 0 0 0 2 1 0 0 1 0 0 1 0 2 1 0 0 0 0 1 2 0 0 1 0 1 1 1 0 0 0 0 6 1 1 0 0 2 1 0 0 1 0 0 0 0 0 1 0 1 1 0 1 1 1 1 1 2 1 0 0 0 2 5 0 0 1 1 2 1 2 0 1 4 2 0 0 0 0 1 0 1 0 1 1 0 0 2 1 0 0 2 0 0 1 0 0 0 2 0 0 0 1 0 1 0 0 0 1 0 1 6 3 0 0 0 0 0 1 0 1 0 1 1 0 0 1 0 0 0 2 0 0 1 0 1 0 0 1 6 0 0 0 0 0 0 1 2 1 1 1 1 1 0 0 0 0 0 0 0 1 0 1 6 1 1 0 1 0 0 1 1 1 0 1 1 0 2 1 1 1 0 0 1 0 2 0 0 0 0 0 2 0 0 3 1 0 1 0 0 0 2 2 3 1 2 3 1 0 1 1 0 0 1 1 0 1 0 0 0 1 1 0 1 4 2 7 0 2 0 0 0 2 1 1 1 1 0 0 0 0 1 1 2 1 0 1 3 0 0 1 1 0 0 0 0 0 1 1 0 0 0 0 0 0 0 0 0 0 0 0 1 0 0 0 0 1 0 0 0 0 1 1 1 1 0 2 1 0 3 2 1 1 0 
1 0 0 0 1 1 1 1 0 1 0 1 0 0 0 2 0 0 1 0 1 1 1 0 0 1 2 2 2 0 0 1 1 1 0 0 0 1 0 0 0 1 0 2 2 0 3 1 1 0 1 0 0 1 0 1 0 0 1 0 1 0 1 1 0 0 0 2 0 1 2 1 2 0 1 0 0 5 1 1 0 0 0 2 1 3 0 0 0 0 1 2 2 0 0 1 1 0 0 5 2 1 1 1 0 1 1 0 1 0 1 0 1 0 0 0 0 0 1 0 0 4 2 0 0 0 0 2 0 0 0 0 1 1 0 0 0 0 0 0 1 0 0 0 0 1 0 0 0 1 0 0 1 5 0 0 0 0 0 1 0 1 1 0 0 0 1 0 1 1 0 0 1 0 0 1 0 0 0 1 4 1 1 2 0 0 0 0 0 0 0 1 1 0 0 0 0 1 0 0 1 1 0 1 1 1 0 0 0 1 2 0 0 4 1 1 0 0 0 0 0 0 0 0 2 0 0 1 1 0 2 0 1 0 6 1 0 0 1 0 2 1 2 2 1 0 0 0 1 0 0 1 0 3 1 0 0 1 1 1 0 0 0 1 0 0 0 0 1 0 0 0 5 1 1 0 6 2 2 0 2 0 2 0 0 1 0 0 2 0 1 0 1 0 1 0 0 7 0 0 4 1 0 0 0 0 1 1 2 1 0 1 0 4 0 0 0 0 0 2 5 1 0 4 1 1 0 0 1 0 0 1 1 0 1 1 1 0 0 0 1 1 1 0 0 0 2 0 0 1 1 0 1 1 1 0 1 0 0 0 1 1 0 0 0 0 1 0 0 1 0 0 0 1 0 0 1 0 0 0 0 4 1 1 0 0 0 1 0 0 1 1 0 2 2 0 1 0 1 2 5 1 0 0 0 1 2 1 2 1 1 1 1 2 0 0 0 1 1 1 0 1 0 1 0 0 0 0 4 0 0 0 1 0 3 5 0 0 1 3 1 1 1 0 0 2 1 0 1 1 0 0 1 0 0 0 2 0 0 0 0 1 1 1 1 2 0 0 0 1 0 0 2 0 1 0 1 1 0 0 1 0 2 4 2 0 0 0 0 1 0 1 1 1 0 0 1 2 0 2 0 0 0 0 0 0 0 0 2 1 4 0 0 0 0 1 1 1 3 1 0 2 1 2 0 0 0 0 0 2 0 0 0 0 1 0 0 0 1 1 2 0 0 3 0 0 1 0 0 2 0 0 0 1 0 1 0 1 0 0 0 0 1 0 0 0 1 1 0 0 0 0 0 0 0 0 1 1 1 0 1 1 1 1 1 1 1 0 0 0 1 1 1 1 1 0 0 1 1 0 1 1 0 0 0 3 0 0 0 0 0 1 1 0 1 0 1 0 2 0 0 0 1 0 0 0 0 0 0 0 0 0 0 0 1 0 0 2 1 0 
1 0 0 2 5 1 0 1 1 0 2 1 1 0 0 0 1 0 0 0 0 0 0 0 0 0 1 0 0 3 0 1 0 0 1 0 0 9 1 1 0 1 2 0 0 0 2 0 0 0 0 0 1 0 2 0 0 0 0 1 0 1 2 1 2 0 1 0 2 0 0 0 0 0 0 0 0 0 0 0 0 0 0 0 1 0 2 0 0 1 0 0 3 1 0 0 0 2 1 3 0 2 1 6 0 0 0 1 1 1 0 1 0 1 0 1 0 0 0 0 1 0 0 3 1 1 0 0 0 1 2 0 1 2 0 1 1 0 2 0 0 0 0 1 0 1 0 1 1 1 0 3 1 0 1 3 0 0 0 0 0 0 4 0 1 0 1 0 1 0 1 0 0 0 1 0 1 1 2 1 0 2 0 4 0 1 0 1 0 1 0 3 0 0 0 1 1 2 0 0 0 1 0 0 0 0 1 0 0 0 0 1 4 2 1 4 1 3 1 1 0 1 0 1 0 0 1 0 0 1 3 0 1 0 0 0 0 0 0 0 0 0 0 0 0 1 0 0 1 0 0 1 1 1 0 0 2 0 0 2 1 2 0 1 3 2 1 1 1 1 1 0 0 0 1 2 0 1 0 0 0 1 0 1 1 1 0 0 1 6 1 1 1 0 2 1 1 0 0 0 0 2 1 1 1 0 1 0 0 3 0 0 0 0 0 1 0 0 0 0 0 1 0 0 1 0 0 1 1 3 1 2 0 1 1 1 2 4 0 1 0 1 1 1 0 0 1 1 1 1 1 1 5 5 0 0 0 1 0 0 0 1 2 1 1 0 0 0 1 0 0 2 2 1 1 2 0 0 1 1 1 2 0 0 0 1 1 0 0 0 1 0 1 2 0 1 0 0 0 2 0 1 0 0 1 0 0 0 1 0 2 0 0 1 1 0 0 0 0 0 0 1 2 0 0 0 1 0 1 0 0 0 0 0 1 1 0 0 0 0 0 1 1 2 2 0 0 0 1 0 0 1 2 0 1 0 1 1 1 0 1 1 0 1 1 2 0 0 0 0 0 1 0 0 2 0 1 0 1 0 0 0 0 0 5 1 0 0 0 0 1 1 1 1 0 0 0 1 0 1 0 1 0 1 1 4 2 3 0 1 1 1 0 0 0 5 3 1 0 0 0 3 1 5 0 2 1 1 0 0 1 0 1 0 0 11 1 0 1 2 1 1 3 0 1 0 1 1 0 0 0 1 2 2 0 1 1 0 0 0 1 0 0 0 0 0 1 0 0 1 0 1 0 1 1 1 1 1 0 0 1 0 0 4 1 3 0 2 0 2 0 0 0 0 0 1 1 2 0 1 0 1 0 0 0 0 0 0 0 1 2 1 1 1 0 4 1 0 0 0 1 1 1 0 6 0 0 0 0 0 0 0 0 0 1 1 0 0 0 1 
0 0 0 0 5 5 0 1 1 1 0 0 0 0 0 1 1 0 0 0 0 1 2 5 0 0 1 0 1 1 1 1 0 0 0 0 0 2 1 4 2 0 0 1 0 0 1 0 0 0 0 1 0 1 0 0 0 1 0 0 1 0 0 0 1 0 6 0 1 0 0 1 0 0 1 1 0 1 0 0 0 2 0 0 0 0 0 0 3 1 3 0 0 0 0 0 0 2 1 0 0 1 2 3 0 0 0 1 0 0 0 0 0 2 1 0 2 1 0 0 0 2 1 0 0 2 0 0 0 1 1 0 1 0 0 0 0 2 1 0 0 0 1 1 1 0 1 0 0 0 1 1 0 0 0 0 0 1 1 0 0 0 0 0 1 0 2 1 0 0 1 0 0 1 0 1 0 1 1 0 1 0 0 3 0 1 0 1 2 0 1 0 5 0 0 0 1 2 1 1 0 0 0 1 1 0 0 0 1 0 0 0 1 1 0 0 0 0 0 0 0 3 0 1 1 1 0 0 2 0 0 1 0 0 0 1 0 0 0 0 0 1 0 0 1 0 1 0 1 0 2 1 0 0 0 0 0 0 0 0 0 0 1 0 6 0 1 0 0 1 0 0 1 1 2 0 0 1 1 0 1 1 2 1 0 0 0 0 0 0 1 1 0 1 2 2 0 0 1 0 1 1 6 1 0 2 1 0 0 5 0 0 1 1 2 0 0 0 1 0 0 0 0 1 1 0 0 1 0 2 1 1 0 1 0 0 1 1 3 0 0 0 0 0 0 0 3 0 5 1 0 0 0 0 1 3 1 3 1 1 0 1 0 1 1 0 0 0 0 0 0 3 0 1 1 1 0 1 1 0 2 3 0 1 0 0 3 1 0 0 1 7 1 0 0 0 1 0 0 0 1 0 1 1 0 2 0 2 1 0 0 0 0 0 1 1 0 0 0 0 0 0 0 7 2 0 0 0 1 1 2 0 1 1 2 0 1 0 2 0 1 0 0 0 2 1 0 0 0 1 0 0 2 0 0 3 1 1 0 0 0 2 0 0 0 0 0 2 1 1 0 3 0 1 0 2 1 1 0 1 0 1 1 5 1 0 1 1 1 0 1 0 1 0 1 1 0 0 0 0 1 0 1 1 1 1 1 1 1 1 3 4 0 0 0 4 0 0 0 0 0 1 1 3 0 1 0 0 0 0 1 0 0 0 5 0 0 1 0 0 0 2 1 1 0 2 0 1 0 0 0 1 2 0 0 0 5 2 0 0 0 0 0 0 0 1 1 0 1 1 0 1 2 1 1 1 2 1 1 0 2 1 0 0 0 0 0 2 0 1 1 0 1 0 1 1 0 0 0 0 3 0 1 0 0 0 0 0 1 1 0 2 0 1 0 0 2 1 0 0 1 1 0 1 1 0 1 0 0 1 4 0 0 2 0 0 6 0 1 1 
1 0 1 1 1 5 1 0 1 0 0 0 0 0 1 0 0 1 0 1 0 0 2 0 1 1 1 0 1 0 0 1 0 1 0 0 0 0 0 2 0 0 1 1 0 0 1 0 0 1 1 1 0 0 0 1 0 0 0 1 2 0 0 0 0 0 0 1 1 0 0 2 0 1 2 3 1 1 0 0 0 5 1 2 1 0 0 1 2 1 6 0 0 0 0 0 0 1 0 1 0 0 0 1 0 0 0 0 0 1 1 1 0 1 1 0 0 0 6 0 1 0 0 0 1 0 0 1 0 1 0 0 0 0 0 1 1 0 0 1 1 1 3 1 0 2 0 1 0 0 0 1 0 1 0 1 0 1 1 0 0 0 0 0 0 1 2 1 1 0 0 0 1 1 0 9 1 0 1 2 0 0 1 0 0 1 0 0 1 0 2 1 1 1 0 0 2 1 0 1 0 1 2 3 3 1 2 1 1 1 0 0 0 1 0 0 0 2 1 1 0 0 0 2 1 0 1 0 0 0 0 0 0 1 1 0 1 0 1 0 0 0 7 6 2 0 0 0 0 1 1 0 1 0 1 1 0 0 0 0 0 0 0 0 0 0 0 2 1 1 2 6 5 6 0 2 1 0 0 1 1 0 0 1 0 0 0 0 0 0 1 2 0 0 0 1 0 1 0 0 0 0 1 0 0 1 0 0 1 0 1 0 2 0 1 0 0 2 0 0 1 0 0 1 1 0 0 0 0 1 1 7 1 0 1 0 1 1 0 0 3 1 1 0 0 1 1 0 0 1 0 1 1 0 2 0 0 0 0 1 0 0 1 0 0 1 1 0 0 0 0 0 0 0 0 0 0 1 0 1 2 4 1 1 1 1 0 0 1 1 2 1 2 0 0 1 2 0 2 0 1 0 0 0 0 1 1 1 0 0 1 1 1 0 0 1 0 0 0 1 0 0 0 1 0 1 1 1 0 0 1 1 0 1 0 0 1 4 0 0 1 1 1 2 0 1 1 0 0 0 0 2 1 3 0 0 0 2 1 1 0 0 0 1 1 1 0 1 1 0 2 0 1 0 0 2 0 0 0 0 1 0 0 1 0 2 0 0 0 1 1 0 1 0 0 1 0 0 1 1 1 5 0 0 4 1 0 1 9 1 0 0 0 1 1 1 0 0 0 1 2 0 2 1 5 1 0 0 0 0 1 1 2 0 1 0 1 2 0 0 1 0 1 0 0 0 0 0 1 1 0 1 0 0 0 2 1 2 1 1 0 1 3 5 0 1 0 1 1 0 0 0 0 0 1 0 2 0 1 0 1 0 0 0 0 1 0 0 1 2 0 1 0 0 0 0 1 0 0 0 1 0 1 1 2 0 1 0 0 0 2 1 0 1 0 0 0 3 1 1 0 0 0 3 0 0 1 4 0 0 1 0 0 1 0 1 2 2 1 0 
0 1 0 1 0 1 0 1 1 1 0 0 0 1 0 3 1 0 1 2 0 1 0 0 0 2 0 3 0 1 2 1 1 1 2 0 0 1 0 1 0 0 1 0 0 2 1 0 0 0 1 1 0 0 2 0 1 0 1 3 0 0 1 0 0 1 0 0 0 1 0 0 0 0 0 0 0 0 3 1 0 1 0 1 0 1 0 0 1 4 0 1 1 1 2 1 0 0 1 1 0 0 0 0 1 1 1 0 0 0 0 1 1 0 1 0 1 0 1 1 0 0 0 0 0 0 5 1 0 7 2 1 0 0 0 0 1 1 0 0 0 1 0 1 0 1 0 0 1 0 0 1 0 0 0 1 3 0 0 0 1 0 0 0 0 0 1 0 0 1 0 0 2 0 0 1 1 0 5 0 2 0 0 1 1 0 2 0 0 0 1 1 0 0 1 1 1 1 1 0 0 1 1 0 1 2 1 0 0 0 0 2 1 0 0 0 0 0 0 0 0 0 0 0 0 0 2 0 0 0 1 0 1 1 0 5 0 0 0 1 0 1 5 1 0 0 1 0 0 0 1 0 0 0 2 0 0 0 2 2 1 0 0 1 0 1 1 1 1 2 0 2 0 2 1 1 4 0 0 1 1 0 1 1 0 1 0 1 1 0 0 1 1 0 0 2 0 0 0 1 1 0 1 1 0 3 0 0 0 0 3 1 0 1 0 1 0 0 1 1 0 1 1 2 1 0 0 2 1 1 0 0 2 0 1 0 2 0 1 0 1 2 1 1 0 2 0 0 0 4 0 1 2 1 0 0 0 0 0 0 0 1 0 1 1 0 1 0 2 1 0 1 0 0 0 1 0 0 0 1 0 0 0 1 1 1 0 0 0 1 2 0 0 0 0 0 0 2 2 1 1 2 0 1 1 1 1 0 1 0 2 0 0 0 0 1 0 1 0 0 0 0 0 0 0 1 1 0 0 0 1 1 1 0 0 0 0 1 0 0 0 0 0 0 0 1 4 0 0 1 1 0 0 1 0 0 0 0 2 0 1 1 1 0 0 0 0 0 2 0 0 0 3 1 0 0 0 1 0 1 0 0 0 1 3 0 1 1 0 0 1 0 1 0 0 0 0 0 0 0 4 0 1 0 1 0 0 0 1 0 1 1 1 1 0 2 1 0 1 2 0 0 1 4 7 0 1 0 1 0 1 0 1 0 1 1 1 1 0 0 1 0 0 0 1 0 1 2 1 0 1 5 2 2 0 0 0 0 0 2 0 2 3 0 0 1 0 3 2 0 1 6 1 1 2 1 0 1 0 0 0 0 1 1 1 1 0 0 0 0 0 0 1 0 0 0 0 1 1 0 1 1 0 1 3 0 0 0 0 0 1 0 2 1 1 1 3 0 0 0 1 0 0 2 0 0 2 1 4 1 1 1 0 0 0 0 1 1 1 0 
0 1 1 0 2 0 1 0 0 0 1 1 0 0 1 0 0 1 3 1 1 0 0 1 1 2 1 0 0 1 1 0 1 1 2 0 1 0 1 1 0 1 1 1 0 6 4 0 0 0 0 0 0 1 5 1 0 5 3 0 0 0 1 0 1 0 0 1 1 2 1 1 1 0 1 0 1 0 1 2 0 0 0 1 1 0 0 0 1 1 1 0 0 0 1 0 0 2 0 0 0 0 0 0 0 1 0 0 0 1 0 1 0 0 1 0 0 1 2 0 1 1 0 1 1 0 1 1 0 5 0 0 0 4 0 0 1 0 0 0 1 1 0 4 1 1 2 0 0 0 0 1 0 2 1 0 1 0 0 0 0 1 6 1 1 0 0 0 1 0 1 0 0 0 1 1 0 1 0 0 1 0 1 1 1 1 0 0 0 0 0 0 1 9 7 0 0 0 1 6 1 1 0 1 0 1 0 0 1 0 0 0 0 0 0 0 0 1 0 0 0 0 0 0 0 0 0 0 1 0 1 0 0 12 1 1 1 0 1 0 1 0 0 0 0 0 1 1 0 1 1 1 0 0 0 2 0 2 1 0 0 0 0 0 0 0 0 0 1 0 0 0 0 0 0 1 0 0 1 0 1 0 0 0 2 0 1 0 1 4 1 1 1 0 0 0 0 0 1 0 0 1 2 1 0 2 2 1 0 1 0 1 0 0 0 1 0 2 1 0 2 0 5 5 1 1 4 0 1 0 0 0 0 0 1 0 0 0 0 1 0 1 1 1 1 3 1 1 2 1 7 0 0 0 0 6 0 1 0 0 2 5 0 2 0 4 1 0 1 0 1 1 5 0 0 0 1 0 0 0 1 1 1 0 0 0 0 1 2 0 0 0 2 2 0 0 0 0 0 0 0 1 1 1 0 0 0 0 3 1 1 1 0 0 0 2 0 0 1 1 0 1 0 0 1 0 0 2 6 0 1 0 1 0 1 0 0 0 0 0 1 3 0 1 1 1 2 0 1 1 0 0 0 0 0 2 1 0 0 0 0 1 1 0 1 1 2 1 2 2 1 0 0 3 1 1 0 0 1 0 1 2 0 1 1 3 4 4 2 1 0 0 0 1 2 0 0 0 0 1 2 0 1 0 0 0 1 1 6 3 0 0 0 0 0 0 0 0 0 0 1 0 1 1 0 0 2 1 1 1 1 1 1 1 0 0 1 1 1 1 0 1 0 0 0 0 1 0 1 2 0 0 1 1 0 0 1 0 0 1 0 0 2 0 0 4 0 1 0 0 0 0 1 1 2 0 2 0 0 0 0 0 0 0 0 7 2 1 0 0 0 0 1 5 0 0 1 0 0 2 1 0 0 0 1 0 0 0 0 0 0 0 6 4 0 0 0 2 0 0 0 0 0 1 0 0 1 5 1 2 0 0 0 0 1 1 1 1 1 1 
2 0 2 0 2 4 0 0 1 1 1 1 0 4 2 1 2 0 1 1 0 1 0 5 1 4 1 0 0 1 0 0 0 0 0 0 0 0 1 2 1 0 0 0 1 5 1 0 0 1 1 0 0 0 0 0 2 1 0 0 1 0 4 0 0 0 0 0 1 1 0 0 9 1 5 1 1 1 1 1 1 1 0 1 0 1 0 0 1 1 0 0 2 2 0 0 0 0 0 1 0 0 0 1 0 1 0 0 0 0 2 1 1 0 0 0 3 1 1 2 0 1 0 0 1 2 0 0 1 1 1 0 1 0 0 0 1 0 0 1 0 1 1 1 0 0 0 1 0 0 0 1 0 1 0 1 0 0 0 1 0 0 1 0 1 0 2 0 2 1 0 1 0 0 0 0 1 0 0 1 0 0 1 0 0 0 0 0 0 1 1 2 1 1 0 1 0 2 0 1 1 0 0 0 1 1 1 1 0 0 1 1 0 0 2 0 0 0 0 1 0 0 0 1 0 0 1 0 1 0 0 0 0 0 0 1 0 2 0 0 1 1 0 1 0 0 0 1 0 0 2 2 0 1 1 0 0 0 0 1 0 0 0 1 1 4 1 0 0 0 0 1 0 0 0 1 2 2 0 1 1 0 1 5 1 1 1 1 0 0 0 0 0 1 7 3 0 1 0 0 2 1 1 1 2 0 1 2 0 1 1 0 4 0 1 8 1 2 0 0 0 1 0 2 0 1 0 2 1 0 0 3 5 1 0 0 1 1 0 1 0 0 7 2 2 0 1 0 0 1 2 1 1 0 0 0 3 0 3 2 1 1 1 1 0 0 1 0 0 0 0 0 1 1 2 0 1 0 0 0 0 1 0 0 0 0 2 4 0 1 1 0 0 1 1 2 0 0 0 0 0 1 1 1 0 0 1 0 2 3 2 2 3 0 0 0 0 0 0 1 0 0 0 1 1 0 0 0 3 1 1 1 0 0 1 2 1 0 2 1 0 1 1 0 1 0 0 1 1 0 0 0 0 0 1 4 0 0 1 1 0 0 0 1 0 2 10 3 0 0 0 0 1 8 0 1 1 1 0 1 1 0 1 0 0 1 0 1 2 6 1 0 0 0 0 0 3 0 1 0 0 0 0 1 0 1 1 0 0 0 1 0 1 1 0 0 0 1 1 0 1 4 0 2 1 0 1 1 0 0 0 2 0 0 0 0 1 0 0 1 1 4 2 0 0 0 1 1 1 6 0 0 0 2 1 0 0 0 1 3 0 0 0 1 0 1 1 1 0 2 0 0 1 2 1 0 2 0 0 0 1 0 0 1 0 1 1 0 0 0 0 0 0 3 0 2 0 1 4 1 0 1 0 0 0 1 0 0 0 0 0 1 2 0 2 2 0 0 0 0 0 1 1 0 0 0 1 1 1 1 0 1 0 0 0 1 0 2 1 0 
2 8 1 1 2 1 0 0 0 1 0 0 1 1 0 0 0 2 2 0 1 0 0 1 1 0 0 1 0 0 0 0 1 1 0 0 1 1 1 0 1 1 0 1 1 1 0 0 2 0 1 0 1 1 1 0 2 9 1 0 1 0 2 1 1 0 1 0 0 4 1 1 2 0 1 0 1 0 1 2 0 0 1 0 0 0 0 0 0 0 0 1 0 0 1 0 1 0 0 1 0 1 0 1 0 1 0 1 0 1 1 0 0 0 1 2 0 0 1 1 1 1 0 0 0 0 0 2 1 1 0 1 1 1 2 0 0 1 0 1 1 1 1 0 1 0 0 2 2 1 0 0 1 1 1 2 0 0 0 0 0 1 2 1 1 0 0 1 1 1 1 0 1 4 1 4 0 0 0 1 0 0 0 1 2 1 0 1 1 0 0 6 2 0 0 0 0 0 0 0 0 10 0 1 1 1 2 0 0 0 1 1 1 1 1 0 0 1 0 2 1 0 0 0 2 1 0 1 0 0 0 1 0 0 2 5 0 1 0 0 0 0 0 1 0 1 1 0 0 0 0 1 0 2 0 2 0 0 1 2 0 0 0 6 7 1 1 1 0 0 0 0 0 0 0 0 0 0 1 0 1 1 0 0 1 0 2 0 2 1 1 0 4 1 0 0 0 0 1 0 0 1 0 0 0 0 0 1 0 0 0 1 0 1 0 1 1 0 2 4 0 1 1 1 0 0 1 0 0 2 2 2 1 1 0 0 2 0 0 0 0 2 5 8 1 0 0 2 4 2 2 1 0 1 1 0 2 0 0 0 1 0 0 0 0 0 1 1 1 0 0 1 0 1 0 0 1 0 3 1 0 0 1 0 4 0 0 1 0 0 1 1 3 2 0 0 3 0 0 0 2 1 0 0 1 6 0 1 4 1 0 0 0 2 0 0 0 0 1 0 1 1 0 1 0 1 0 1 0 10 10 2 0 1 1 2 1 0 0 0 0 1 1 3 0 1 5 1 1 4 1 0 0 0 0 1 0 0 0 3 1 8 0 0 1 0 0 1 1 0 2 0 0 0 0 0 1 0 0 1 1 1 0 1 0 0 1 2 1 0 1 5 0 2 1 1 0 1 1 0 1 0 0 0 1 0 0 0 0 0 0 0 0 0 1 0 4 0 0 0 0 0 1 1 1 1 1 4 0 0 0 1 0 0 1 0 0 0 0 0 0 0 0 2 2 1 0 0 3 0 1 1 2 0 1 1 0 1 1 0 0 0 0 1 3 0 0 1 1 1 0 2 0 0 1 1 0 4 0 1 0 0 0 0 1 0 0 2 0 0 0 1 0 1 1 0 2 1 0 2 1 5 0 1 0 0 0 1 0 1 0 0 0 0 2 0 1 0 0 0 0 1 0 0 1 0 0 0 2 0 1 0 2 0 1 1 0 0 1 1 
0 2 4 0 1 1 0 0 0 0 1 0 1 0 0 0 0 1 0 1 0 0 1 2 1 0 3 1 0 0 0 1 1 0 0 2 1 0 1 0 0 1 1 0 0 1 2 1 0 1 1 0 0 0 2 0 1 1 1 1 0 0 1 1 0 0 1 0 0 0 1 0 1 0 1 0 0 1 0 0 0 1 1 1 0 0 1 1 0 0 0 4 2 1 0 0 0 0 2 0 1 1 2 0 0 0 0 0 0 2 1 0 1 1 5 1 1 1 1 0 1 0 0 0 0 1 2 1 0 1 0 0 3 1 0 0 0 1 6 0 7 0 0 0 0 0 0 1 0 0 0 1 0 1 0 0 0 2 2 0 0 0 0 0 1 0 1 1 0 0 1 0 0 1 1 1 1 2 1 1 0 4 1 1 2 0 1 6 1 5 1 1 11 4 1 1 5 0 0 1 1 0 0 0 2 4 0 0 2 5 2 1 1 5 0 1 0 0 0 1 0 0 0 0 0 1 2 0 0 0 0 0 1 0 0 0 0 0 2 1 1 1 0 0 1 0 0 0 0 1 0 0 1 1 1 2 1 1 0 1 1 0 1 0 1 1 1 1 10 0 2 0 0 0 0 0 1 0 2 3 0 1 0 1 1 4 0 0 2 1 4 0 1 0 0 1 0 0 0 0 0 0 1 0 1 0 1 1 0 1 1 2 0 1 0 0 0 5 1 0 1 0 0 0 0 0 0 1 0 1 2 1 1 0 5 0 0 0 2 0 3 0 1 0 0 1 2 4 1 0 0 1 0 1 2 2 1 0 0 2 1 0 0 0 2 1 1 0 0 1 0 0 1 0 1 2 2 3 2 1 0 1 0 1 1 7 3 1 0 1 1 0 1 1 1 7 7 2 6 2 2 0 2 0 1 1 0 0 0 1 0 0 0 5 0 1 1 1 0 0 1 2 1 1 0 0 0 1 0 1 0 0 0 0 1 1 1 0 0 1 0 0 0 1 1 0 1 0 1 1 1 0 0 0 2 0 0 1 0 0 8 1 2 1 2 1 0 0 0 0 0 0 0 1 2 1 0 2 0 0 0 0 0 0 0 0 0 2 2 1 1 4 1 0 2 8 1 0 0 2 0 4 1 2 4 1 0 1 0 0 0 0 1 2 0 0 0 2 0 0 0 0 0 0 0 0 1 4 1 0 0 0 1 0 1 0 0 0 0 1 1 2 1 2 1 1 0 0 0 3 0 1 0 0 1 6 0 0 0 1 0 0 0 1 2 0 0 0 4 1 0 1 0 1 0 0 0 0 1 0 0 0 1 0 0 0 1 1 1 0 4 1 1 1 1 0 0 0 1 1 0 0 0 0 0 1 5 4 6 0 1 0 1 0 1 5 0 0 0 0 0 0 1 0 0 0 0 2 0 1 0 0 1 1 0 0 1 1 2 1 
1 1 7 1 0 0 0 1 0 1 0 1 0 1 0 1 0 0 0 1 0 0 2 1 0 0 0 0 0 0 1 1 0 1 1 0 1 1 0 1 0 0 0 1 0 1 0 0 0 0 1 0 1 1 2 0 3 0 1 0 0 1 3 1 1 0 0 0 0 0 0 0 1 1 0 1 1 1 0 0 0 1 1 2 0 1 0 0 1 1 3 1 0 1 0 0 0 1 0 1 0 0 4 4 2 1 1 2 1 0 0 0 0 0 1 2 1 1 0 0 0 0 0 0 0 1 0 1 0 0 0 0 1 0 0 2 1 0 1 2 1 2 0 1 0 1 0 0 8 1 0 1 1 2 4 0 1 0 1 0 2 0 0 5 0 2 0 1 2 1 0 0 0 0 0 0 1 2 5 1 1 1 3 1 1 0 0 1 0 0 1 1 1 1 0 1 0 3 1 1 0 1 0 0 0 1 1 0 1 0 0 0 0 2 0 0 1 1 0 0 1 1 0 0 4 1 0 2 0 1 1 0 0 2 1 0 0 1 1 1 0 1 0 0 1 0 0 0 1 0 0 1 0 0 1 1 0 0 0 0 0 0 0 0 1 0 0 0 0 1 0 0 0 0 0 2 2 6 4 0 0 0 1 0 0 0 0 0 1 1 1 0 0 1 1 0 0 1 1 0 1 1 3 0 0 0 0 2 0 0 1 1 0 0 0 0 0 1 1 1 0 2 6 1 0 1 0 0 0 0 6 0 1 0 1 4 1 0 0 0 0 1 1 0 1 1 0 0 1 0 2 0 0 0 6 1 0 2 2 0 1 0 2 6 2 0 1 0 3 0 0 3 1 0 0 0 0 2 1 0 4 1 0 1 0 1 0 1 1 1 1 2 0 1 0 2 2 1 1 3 2 0 1 0 0 2 0 0 0 0 2 0 0 1 0 1 1 0 0 0 0 5 0 0 0 1 0 0 0 0 0 1 1 0 0 1 4 1 3 1 1 0 1 0 1 0 0 0 0 0 0 0 0 2 0 0 0 0 0 0 1 0 0 0 6 3 1 0 0 0 1 1 0 0 0 0 0 0 0 0 0 1 0 1 1 0 0 1 0 0 1 2 1 0 1 3 2 3 0 0 1 2 0 0 1 0 0 1 0 2 1 0 0 1 1 0 2 1 1 0 1 0 0 0 1 3 1 1 2 3 1 3 1 0 0 0 0 1 1 0 0 1 1 1 0 0 1 4 1 1 0 0 0 0 0 1 1 1 0 1 0 1 0 0 0 0 1 1 7 4 0 0 0 5 1 1 1 0 1 1 1 1 2 0 0 0 3 1 0 0 1 1 0 0 0 0 0 0 0 0 0 0 0 0 0 0 0 1 4 1 1 1 0 0 0 3 4 1 0 0 0 0 0 3 1 0 1 0 1 1 1 1 2 0 0 0 1 1 1 0 
3 1 1 0 0 1 4 4 2 3 0 0 2 2 1 0 0 0 1 0 0 1 0 0 0 0 0 0 0 0 1 1 0 1 0 1 2 1 1 0 0 1 1 0 1 1 0 1 1 1 1 3 5 1 1 0 2 0 0 1 1 1 0 0 1 3 1 4 0 0 0 1 0 0 1 1 0 2 3 0 1 1 0 0 0 0 0 0 1 1 0 0 0 0 1 2 0 5 0 0 0 1 0 1 1 0 0 0 2 1 0 0 1 0 0 0 3 1 0 1 0 0 0 2 1 0 1 1 0 0 0 1 0 0 0 1 1 0 0 0 0 0 1 0 1 1 0 0 1 0 8 7 2 1 1 1 1 0 1 1 0 1 2 1 2 0 0 1 0 0 1 0 1 0 1 0 2 0 0 0 1 1 0 0 1 0 1 0 0 0 0 2 0 1 0 0 1 1 2 5 3 0 1 0 0 0 0 0 0 0 0 0 2 2 6 0 0 0 0 0 3 1 0 0 0 0 0 0 1 0 1 1 0 0 1 0 0 1 1 0 1 0 0 0 1 1 1 0 0 0 0 1 0 0 4 3 0 1 0 1 1 1 0 1 0 0 0 8 1 0 1 0 1 0 1 0 0 1 2 0 1 0 0 0 1 0 1 0 1 0 0 0 0 0 0 1 3 1 0 0 0 0 0 1 0 0 2 0 1 0 0 1 0 1 2 0 2 1 1 2 2 2 0 0 4 2 0 0 0 2 1 0 3 1 1 1 0 1 1 1 0 0 0 1 1 1 0 1 1 1 0 1 1 2 1 1 2 4 0 7 0 0 2 0 1 0 0 1 0 1 1 0 1 0 0 1 5 0 0 0 0 1 1 1 0 1 0 0 1 0 0 0 4 1 0 0 3 6 0 0 0 1 1 0 0 0 1 0 2 2 2 4 0 0 0 1 0 0 1 2 0 0 0 1 0 0 1 0 0 0 0 0 0 1 1 1 0 0 0 0 0 0 1 2 3 2 0 0 0 1 1 2 1 1 6 0 1 0 1 1 1 0 0 0 0 0 1 0 0 0 0 2 0 0 0 0 0 1 0 2 1 0 0 0 0 1 0 0 4 0 1 1 0 1 1 2 1 4 1 3 1 0 1 1 0 1 0 1 0 0 0 1 0 0 1 0 0 1 0 0 0 0 0 0 0 0 3 1 1 0 1 0 0 0 2 0 1 1 0 0 2 0 0 0 0 0 0 0 6 0 0 0 1 0 1 0 0 0 1 1 0 1 3 0 0 3 4 2 1 1 1 1 1 1 0 1 2 6 6 2 0 0 2 0 1 1 0 0 0 0 0 6 0 0 0 0 0 0 1 0 1 0 0 0 2 1 0 0 0 1 1 0 0 0 1 0 0 0 2 0 0 0 0 0 0 0 0 0 1 2 0 0 1 6 1 1 1 0 1 0 
0 0 1 0 0 0 2 1 6 0 1 0 1 0 0 0 2 0 0 0 0 0 0 0 2 0 0 0 0 1 0 0 1 1 0 0 0 1 1 0 0 0 0 1 1 0 0 1 0 1 7 0 1 0 0 0 1 1 1 2 2 0 0 0 1 0 1 2 1 1 4 2 1 1 1 0 0 0 1 1 2 3 2 1 1 0 0 0 1 0 1 0 0 0 0 1 0 0 1 1 0 1 0 1 2 1 0 1 0 0 0 0 0 1 3 1 1 5 2 0 2 1 3 0 0 1 1 1 1 0 0 0 0 0 1 0 0 1 1 0 0 0 1 2 8 0 0 0 0 1 1 3 0 0 0 0 0 0 0 0 0 1 2 9 1 0 2 0 1 0 0 0 0 0 0 4 1 2 0 1 0 0 1 1 1 0 0 1 2 0 0 0 0 0 2 5 0 1 1 0 1 1 1 0 0 1 1 1 0 2 1 1 0 0 0 0 0 1 1 1 1 6 1 3 1 0 0 0 0 0 1 0 0 1 1 0 2 0 0 0 1 1 7 0 1 1 0 1 2 0 0 4 0 1 1 1 0 0 0 0 1 0 1 1 8 0 1 0 0 0 0 1 1 0 0 0 1 1 1 1 1 0 0 1 1 1 0 0 2 1 1 0 0 0 2 0 0 1 0 1 0 0 1 0 0 0 0 1 0 1 3 1 2 0 1 1 2 0 1 0 7 1 0 1 0 1 2 0 0 0 0 1 1 0 0 1 1 1 1 1 0 0 2 0 1 5 2 1 1 0 1 1 2 5 0 0 1 0 1 0 0 0 0 0 0 0 0 0 1 0 0 0 0 2 2 4 2 0 0 2 0 1 1 1 0 0 0 1 0 0 0 0 1 0 0 0 5 2 2 1 1 1 1 7 3 4 0 2 2 3 0 4 1 1 0 0 1 0 2 0 1 0 0 2 1 1 0 0 1 1 0 0 0 1 0 1 0 0 0 1 0 0 0 1 1 4 0 1 0 0 0 1 1 0 0 0 2 1 0 1 0 1 0 0 1 0 0 3 1 1 0 0 0 0 2 0 1 2 1 1 1 1 1 1 0 2 0 0 0 0 0 1 0 1 1 0 1 1 0 0 0 2 0 0 0 0 1 1 1 1 0 0 0 0 1 1 0 0 0 1 0 1 0 1 0 1 1 0 0 0 0 0 1 1 0 1 0 0 1 0 5 0 3 0 0 0 0 0 0 1 0 0 1 0 0 0 0 1 0 1 1 0 2 0 0 0 0 0 2 0 0 1 0 1 2 0 0 1 1 0 1 0 0 0 2 1 0 1 1 0 0 0 0 1 0 0 0 0 1 0 0 0 0 0 0 2 0 0 0 0 0 0 1 0 0 0 0 0 2 0 1 0 0 1 1 0 1 1 1 2 0 2 5 5 1 1 1 0 1 1 
1 0 0 1 0 1 3 1 0 1 0 1 0 0 0 4 1 3 0 1 1 1 0 0 0 1 0 1 0 0 0 0 0 0 0 1 0 0 1 1 1 0 1 1 0 1 0 0 0 1 0 1 1 0 0 1 1 0 1 0 0 1 0 1 1 1 2 1 0 0 3 0 1 1 2 1 2 0 1 6 1 4 1 1 1 0 0 1 1 0 0 1 0 0 1 1 1 0 0 4 0 0 0 0 1 2 0 1 0 0 0 6 2 0 0 0 0 1 0 0 0 0 1 0 0 0 0 0 0 2 0 0 0 1 0 2 0 0 0 2 1 0 1 1 0 0 1 2 0 0 0 0 0 0 0 1 1 0 0 0 0 0 1 1 1 0 0 1 0 1 0 0 1 1 0 0 1 0 0 0 4 1 1 0 0 0 2 0 6 1 1 0 0 0 1 0 1 0 0 0 0 1 0 0 1 0 3 1 1 6 2 1 1 0 0 0 1 1 0 0 4 0 1 1 0 0 1 0 0 5 0 1 0 0 0 0 0 0 1 0 0 0 0 0 0 1 0 0 1 0 2 0 0 0 1 1 0 1 2 2 0 1 0 1 1 0 1 0 2 1 0 1 2 1 0 1 1 0 1 1 1 0 0 2 0 2 0 0 0 3 1 1 0 1 0 0 1 1 1 2 0 0 0 1 0 0 0 0 1 0 0 0 0 0 0 2 1 1 2 0 0 0 0 0 0 1 2 1 0 0 0 0 0 0 0 0 2 1 0 0 1 1 0 1 0 1 0 0 11 1 1 1 1 0 0 2 0 0 1 0 0 1 0 1 0 0 1 0 2 0 3 1 0 1 6 1 0 2 1 0 1 1 0 2 0 0 0 0 0 0 1 1 1 1 2 1 1 1 1 1 2 0 0 0 0 1 2 1 0 5 1 0 0 0 1 2 1 0 0 0 1 0 2 0 0 0 2 0 6 1 2 0 0 0 0 0 0 1 0 1 1 0 0 0 1 2 1 0 0 0 0 2 3 1 2 0 0 1 1 0 1 0 1 0 0 0 0 0 1 0 2 1 0 0 1 0 0 1 3 2 1 5 0 0 1 2 0 0 0 0 0 1 0 1 2 5 1 2 0 0 0 0 0 0 0 0 2 1 0 1 1 3 0 0 0 0 0 2 0 1 1 0 2 1 0 1 0 1 1 0 5 0 0 1 1 0 0 1 0 0 3 1 1 0 1 0 0 0 0 1 0 0 0 0 0 0 0 0 0 1 0 0 5 1 1 0 0 1 1 0 0 1 1 1 0 0 0 0 0 0 1 0 0 1 1 1 1 2 1 0 0 0 0 0 1 1 0 0 0 1 5 1 0 0 0 1 1 2 1 0 0 0 3 5 0 0 1 0 3 0 0 0 1 1 2 0 0 1 1 0 1 0 0 0 2 0 0 0 0 0 
0 0 0 0 1 1 0 0 1 0 1 0 0 0 0 0 1 2 0 0 1 0 0 0 1 1 1 0 0 0 0 0 0 2 1 2 1 0 1 0 0 5 1 1 1 0 0 0 1 0 0 1 0 1 1 0 1 1 0 0 1 0 1 1 1 0 1 1 1 0 1 1 0 2 0 0 4 1 2 9 7 0 6 1 0 1 0 0 0 0 1 1 0 0 0 4 0 0 0 1 0 3 0 0 1 0 3 0 1 0 1 2 8 1 0 0 0 1 2 0 1 0 1 0 0 0 0 1 1 0 0 0 0 2 1 0 0 0 1 5 0 1 0 0 0 0 2 0 0 1 0 0 0 0 0 4 2 0 0 1 0 2 1 0 1 1 0 0 2 1 1 0 0 0 0 1 0 0 0 0 0 2 1 1 1 1 2 0 0 1 0 0 0 1 0 7 9 1 2 0 0 0 1 2 1 1 1 8 3 1 4 0 1 0 1 1 2 0 1 0 1 1 0 0 0 0 0 1 0 0 0 0 0 0 0 1 0 1 0 0 0 1 0 0 4 0 2 1 0 0 0 1 0 1 0 0 1 2 1 1 1 1 0 4 1 1 0 1 0 0 0 0 1 1 1 0 0 1 0 1 2 1 2 1 2 0 1 0 0 0 1 0 0 2 1 0 0 0 0 2 3 1 0 1 1 1 1 0 0 0 1 0 0 0 0 1 1 0 0 1 1 1 0 0 1 5 0 0 2 0 0 0 0 0 0 0 0 0 1 0 0 0 1 0 2 0 2 0 1 0 0 0 0 1 1 1 1 0 0 1 1 0 1 2 1 0 1 1 0 0 1 2 1 1 0 1 0 2 0 2 8 5 0 0 0 0 1 0 1 1 0 0 0 0 0 0 0 0 1 0 1 0 0 0 1 1 0 2 0 2 0 1 0 0 0 0 1 0 2 1 0 0 0 0 0 1 0 0 0 0 1 1 0 0 0 0 0 0 1 0 0 0 2 1 0 0 1 2 1 1 0 5 1 3 2 1 0 0 0 0 0 1 3 0 0 0 1 0 1 0 0 1 1 0 0 0 2 0 1 0 0 0 0 1 0 0 2 1 0 1 0 0 2 4 0 1 0 1 4 1 0 1 1 2 0 2 7 2 2 1 1 1 0 0 1 0 2 0 0 1 1 0 0 0 0 1 1 5 0 0 1 0 2 0 0 0 0 1 2 0 1 2 4 2 0 2 2 1 0 1 1 0 1 0 0 0 0 2 0 0 1 0 6 1 0 0 1 1 0 0 1 1 2 1 0 1 0 1 1 0 0 0 2 1 4 0 1 0 0 0 1 0 0 0 1 3 1 0 0 1 0 2 1 1 0 0 6 0 0 0 0 0 0 0 0 0 0 1 2 1 0 2 1 0 0 0 1 0 0 0 1 0 0 0 0 1 0 1 0 1 
0 0 0 1 1 2 1 0 1 0 1 1 2 1 1 0 2 1 2 0 0 0 0 0 1 0 1 2 0 0 0 0 2 0 1 0 0 1 0 1 0 0 0 1 0 0 0 0 0 0 0 0 0 0 2 1 0 0 1 1 0 1 0 0 0 0 1 0 0 1 2 4 1 1 0 4 1 1 1 0 0 1 0 0 0 0 1 0 2 0 0 1 6 1 2 0 0 0 0 0 0 1 0 0 0 0 0 2 5 1 2 1 4 0 0 1 1 1 0 0 0 1 1 0 1 0 0 0 0 0 3 1 1 6 0 1 0 0 0 1 0 0 0 0 0 0 0 0 0 0 0 0 2 0 1 0 0 0 0 1 0 1 1 0 0 0 1 1 0 0 1 4 0 1 0 2 2 2 1 1 0 1 0 0 1 1 1 1 1 1 0 1 0 1 0 1 1 3 0 0 0 0 1 1 0 0 1 0 0 0 1 0 1 0 0 0 0 1 0 1 0 0 0 3 0 1 0 0 1 1 0 0 0 0 0 0 1 0 0 1 0 0 1 0 0 0 0 1 0 0 1 0 0 1 2 0 0 1 0 1 1 2 0 0 0 0 0 0 2 1 0 0 0 1 2 1 0 0 0 0 4 1 0 2 1 1 5 3 0 0 0 0 0 1 1 2 0 0 0 0 1 4 0 1 0 1 0 1 6 2 2 1 1 0 2 0 0 1 0 2 1 0 1 3 0 0 0 0 0 0 0 1 0 1 1 0 0 1 1 1 0 0 0 0 1 1 2 1 0 0 0 0 1 0 0 1 0 1 0 0 0 0 2 0 1 1 0 0 0 2 0 0 4 0 0 0 5 0 1 1 1 0 0 1 1 0 1 0 0 0 0 0 0 0 1 1 0 1 0 2 0 1 0 0 6 0 0 0 2 0 0 1 1 1 0 0 0 1 1 0 1 2 0 0 0 0 1 1 1 0 2 0 0 0 1 2 0 4 5 0 0 1 0 1 0 0 0 8 1 1 2 1 0 2 0 1 1 1 0 0 0 2 0 0 0 1 0 0 0 0 0 0 2 0 0 0 1 0 1 1 2 1 1 0 0 0 0 1 1 0 0 0 0 2 0 1 1 1 1 0 4 1 5 0 0 2 0 0 0 0 1 0 0 0 0 0 0 0 0 2 0 1 0 2 0 0 3 0 0 0 1 6 2 1 0 0 1 0 0 0 1 0 2 1 0 0 1 3 1 0 0 0 0 0 0 1 0 0 1 1 0 1 0 1 0 5 5 0 1 0 0 0 0 1 0 0 0 0 0 2 1 0 1 3 1 0 0 4 0 0 1 0 0 0 0 1 1 1 0 0 0 0 0 1 2 1 3 1 0 0 0 0 0 1 0 0 0 0 0 0 0 0 0 1 0 1 0 0 0 0 0 0 1 0 1 1 1 0 1 3 
0 1 4 2 1 1 0 2 1 2 1 0 1 0 1 1 2 3 0 0 1 2 0 1 1 1 0 0 1 0 1 3 1 0 1 0 1 2 1 1 0 1 0 0 1 0 1 0 0 0 1 1 1 1 0 1 2 0 1 1 0 0 1 0 4 0 1 1 0 1 1 2 0 1 1 2 1 0 0 0 6 1 0 0 2 0 1 1 1 1 0 1 0 0 0 0 0 0 2 1 0 0 1 1 0 0 0 0 1 0 0 0 0 0 0 0 1 0 1 0 3 0 1 5 0 0 0 1 0 0 0 0 1 2 0 1 0 2 0 1 0 1 0 0 1 1 1 1 1 0 2 0 0 1 1 4 2 1 2 0 0 2 1 1 0 1 0 1 1 0 2 1 0 0 2 0 1 1 0 0 0 0 0 4 1 1 4 0 0 1 0 0 2 0 0 0 0 0 0 0 0 1 1 5 1 1 0 0 0 1 0 0 0 0 0 0 0 1 1 0 0 0 1 2 1 1 4 1 0 0 1 0 1 1 0 1 1 2 3 1 0 0 1 4 1 0 0 1 1 0 0 0 0 0 0 3 0 0 0 0 6 0 1 0 3 0 0 0 1 0 0 0 1 1 1 1 1 0 0 0 0 1 1 0 0 0 0 1 1 0 0 0 1 1 0 1 0 0 0 8 1 0 0 0 0 0 0 0 1 5 1 1 0 0 2 0 0 0 2 0 0 0 0 0 0 0 0 1 1 0 1 2 0 0 0 1 1 1 0 0 0 0 0 0 0 1 0 0 0 0 0 0 0 0 0 0 4 1 1 0 0 1 1 0 0 0 1 0 1 0 1 1 0 0 2 0 0 0 1 0 1 0 0 0 0 0 0 2 1 1 0 1 0 0 0 0 0 0 0 0 0 0 0 1 0 0 0 0 1 0 0 0 1 1 1 4 1 0 0 0 0 0 1 0 0 1 1 4 1 0 0 1 0 0 1 0 4 4 1 1 0 0 3 5 4 0 0 1 2 0 0 0 1 0 0 1 1 0 4 1 0 1 2 0 1 0 0 1 0 0 0 0 1 1 0 0 0 1 0 0 1 0 0 1 0 0 0 1 1 0 0 1 1 0 0 0 0 1 1 1 1 0 2 1 0 1 0 0 0 0 1 0 0 1 1 2 1 0 6 1 1 1 1 0 2 0 1 1 0 0 0 1 0 0 5 0 0 1 1 2 0 1 1 0 0 0 1 0 1 0 0 1 0 0 0 1 0 0 2 0 0 0 1 1 1 1 0 1 0 1 2 1 0 1 0 2 0 1 1 1 1 0 1 6 0 2 0 1 1 1 1 1 0 1 1 1 2 2 1 3 0 0 2 3 0 1 1 0 2 0 3 1 1 0 0 0 1 0 0 0 0 0 0 0 1 1 0 1 0 0 1 0 0 1 1 2 0 1 1 0 
0 1 0 0 1 1 1 0 6 0 2 3 3 1 0 0 4 2 0 1 0 0 0 1 0 0 0 1 0 1 0 1 0 2 1 0 0 0 0 0 2 0 0 0 2 1 0 1 0 3 1 1 1 1 0 0 0 1 0 0 0 0 0 1 2 0 1 1 0 0 2 2 1 0 0 0 1 1 1 4 2 0 0 0 1 5 1 1 0 7 1 0 2 1 0 1 0 2 1 1 0 0 0 0 0 0 2 1 1 0 0 0 0 0 1 0 3 1 0 0 0 0 1 1 1 1 0 1 4 0 0 0 1 1 0 1 1 1 1 0 1 0 0 1 1 1 1 0 0 0 1 0 0 0 2 0 2 0 0 0 1 1 1 1 0 1 1 2 1 6 3 0 0 0 0 2 1 0 0 0 0 0 0 2 4 2 2 0 1 1 1 0 0 2 0 1 0 0 1 0 1 2 6 2 1 2 1 1 0 1 0 0 1 0 0 1 0 0 0 0 0 0 2 8 6 0 0 0 0 0 2 8 1 2 0 0 1 0 1 5 9 0 2 0 1 0 0 1 0 1 0 2 0 0 0 2 0 0 1 0 3 0 0 2 1 3 1 0 1 0 0 4 0 0 0 1 5 0 2 0 0 1 0 1 0 0 1 0 0 0 1 2 1 0 0 1 3 0 1 1 2 0 0 0 1 1 1 2 0 0 1 1 0 1 0 0 0 0 1 1 0 0 0 0 0 1 0 0 0 0 0 1 0 0 0 1 0 0 0 0 0 1 2 0 0 1 0 0 0 1 0 0 0 0 0 0 4 2 0 2 0 0 0 0 1 0 0 1 2 1 1 2 1 0 6 2 2 1 0 0 0 0 0 0 2 1 0 0 0 0 1 0 0 0 1 1 0 4 0 0 3 1 1 0 0 0 1 0 0 0 0 1 0 0 1 0 0 0 0 0 0 0 0 0 1 1 2 0 0 0 0 2 0 2 0 1 2 8 1 0 2 1 6 1 1 0 1 0 1 2 0 1 0 0 1 1 2 1 0 0 0 0 4 1 0 0 1 1 1 0 1 1 0 11 7 2 0 1 0 2 0 0 0 1 7 1 1 1 0 1 0 1 1 0 0 0 0 1 0 0 2 6 0 0 0 0 1 0 2 3 0 1 1 7 0 0 2 1 0 1 1 0 0 0 0 0 0 0 0 0 0 0 4 1 1 0 2 0 0 2 0 0 0 0 1 2 0 0 0 0 0 0 0 1 2 1 0 0 0 4 0 0 1 0 0 0 1 0 1 0 1 0 0 2 2 0 1 1 4 2 1 1 2 0 3 1 1 0 1 1 0 0 0 0 1 0 0 1 1 5 2 1 0 1 0 2 0 7 1 1 7 1 1 1 1 0 0 2 0 0 1 0 0 2 0 1 0 0 0 0 1 2 0 1 1 1 2 1 1 0 
1 3 0 0 0 0 0 2 1 1 0 2 1 1 1 1 0 0 2 1 1 1 1 0 0 0 0 1 3 0 1 2 2 2 1 1 0 0 0 0 1 1 0 1 1 0 0 0 0 1 0 1 1 1 0 0 1 0 1 0 1 0 0 0 1 0 0 1 2 1 1 0 1 1 2 0 0 4 2 2 1 0 0 1 1 1 0 2 1 0 0 0 2 1 1 5 1 0 3 1 0 0 0 0 1 2 1 2 3 1 1 0 1 0 1 0 0 5 0 2 1 1 0 0 0 1 2 0 1 0 0 1 0 1 2 2 1 3 2 0 0 0 0 1 5 4 6 0 1 0 1 0 0 0 4 2 0 2 0 0 0 0 0 0 0 0 0 0 0 2 1 1 2 0 1 1 1 0 0 0 0 0 2 6 9 1 0 1 1 1 0 1 1 0 0 0 0 0 0 2 0 0 0 1 0 1 0 0 1 1 0 0 1 0 0 0 0 0 0 1 1 0 1 1 2 0 1 1 0 0 0 0 2 2 0 0 0 1 0 2 1 0 1 0 1 0 4 5 1 0 1 1 3 3 7 1 0 0 0 0 4 2 0 1 0 0 0 1 0 1 0 1 1 0 0 1 0 1 0 1 0 1 0 1 0 0 1 0 1 0 3 4 1 0 1 0 6 1 0 0 0 1 2 1 0 0 1 0 0 1 0 0 1 2 1 0 0 0 0 2 1 0 0 1 1 0 0 1 0 0 1 0 1 0 0 1 1 1 0 0 2 11 1 1 2 0 0 1 0 0 0 0 0 2 2 0 0 0 3 2 0 0 0 2 1 2 2 0 0 1 0 0 0 0 1 0 1 0 4 2 0 1 0 0 1 0 0 1 0 1 0 1 1 0 0 0 1 1 0 0 1 1 0 2 0 0 0 4 2 1 0 0 0 0 0 1 2 0 0 0 0 0 0 1 2 0 0 1 1 0 1 0 1 0 0 0 1 0 2 1 5 1 1 2 0 1 0 0 0 1 0 0 1 0 1 1 0 0 0 0 0 1 1 1 1 1 0 2 0 0 0 1 0 1 0 5 7 1 0 0 1 0 0 1 0 0 1 2 0 0 1 1 1 0 1 1 0 1 1 1 0 0 0 0 0 1 1 0 0 1 0 0 6 4 2 5 0 0 1 0 0 0 1 1 1 0 0 0 1 1 0 0 0 1 1 0 0 1 0 1 0 1 2 1 2 4 0 0 0 3 1 0 2 0 0 0 0 1 0 0 0 1 1 0 0 0 1 0 1 1 0 0 0 0 0 0 0 0 2 1 3 0 1 0 1 3 0 0 0 0 0 0 1 1 2 1 1 3 1 0 0 2 6 1 1 0 0 1 0 0 0 2 1 0 0 1 2 0 0 1 1 0 1 0 1 1 2 0 1 0 0 0 0 0 1 0 1 0 1 4 
1 1 1 0 0 0 0 1 0 1 1 0 0 0 5 1 0 0 1 0 0 1 0 0 0 0 0 0 1 0 1 0 0 0 0 0 1 0 2 0 0 0 1 0 0 0 0 0 0 1 1 6 1 0 4 1 3 0 0 2 1 0 0 0 4 1 0 0 3 1 0 0 0 1 1 0 0 1 0 5 0 1 0 0 0 1 0 1 1 1 1 1 1 0 1 0 4 1 0 0 0 1 1 2 0 1 0 0 1 4 1 2 7 1 0 2 1 1 0 1 1 0 1 0 0 0 2 0 1 1 1 1 0 1 0 0 2 1 0 0 0 0 0 0 1 0 0 0 0 0 0 0 1 6 0 0 0 1 0 1 0 0 1 0 0 0 0 1 1 0 1 0 0 1 0 0 1 3 2 2 0 0 0 0 4 2 0 0 0 0 1 0 5 2 0 0 0 1 0 0 1 0 1 1 1 2 0 0 3 1 0 1 0 5 0 0 0 0 1 0 1 1 0 1 0 0 2 0 1 2 1 1 5 5 0 0 0 1 0 0 0 0 1 0 1 0 0 7 0 0 0 2 0 3 0 0 0 0 1 1 0 1 0 1 0 0 1 0 1 0 0 1 0 0 0 2 0 2 6 0 1 1 0 2 0 1 0 0 0 1 2 0 2 6 0 1 0 0 1 1 0 0 1 1 0 0 0 0 0 1 0 0 0 0 0 0 1 0 1 0 0 0 1 1 0 0 1 1 1 1 0 0 0 1 1 0 2 0 0 0 0 1 5 0 0 1 0 1 1 1 0 1 0 0 0 0 0 0 0 0 3 0 0 0 0 2 1 1 1 1 0 1 0 0 1 0 0 1 1 1 0 6 0 0 1 0 0 1 0 0 1 0 0 0 0 1 0 1 0 1 0 1 0 4 1 1 1 0 0 1 0 1 1 0 1 3 0 0 1 1 0 0 0 0 0 1 0 1 5 0 0 0 0 4 1 0 1 0 0 2 2 1 1 1 0 2 1 0 0 1 0 0 0 0 0 0 0 0 0 1 5 0 1 0 0 0 1 4 1 1 0 1 1 0 0 0 0 1 4 0 0 0 1 0 1 0 1 0 0 1 1 0 0 1 3 0 1 1 0 1 4 1 0 0 4 0 0 0 0 8 1 1 2 4 1 1 2 2 1 1 1 0 2 0 0 0 0 1 1 0 0 0 0 0 0 0 0 0 0 0 0 0 0 1 0 1 0 0 0 1 2 0 1 0 1 1 1 0 1 0 0 0 0 1 0 1 1 3 1 2 0 1 0 2 0 3 1 2 0 1 0 5 0 0 0 1 0 0 1 2 1 0 1 0 2 1 1 0 1 0 0 2 3 0 1 0 2 0 0 0 0 0 0 0 0 0 1 1 0 0 1 2 0 1 1 0 1 2 1 0 0 1 0 0 1 1 1 1 0 2 
0 0 1 0 1 0 0 0 0 2 1 2 0 1 0 0 0 0 0 0 0 0 0 1 0 0 0 1 0 1 1 0 1 0 0 0 0 0 1 1 3 0 1 0 0 0 0 2 0 1 0 0 2 3 0 0 1 0 1 1 0 0 1 0 0 2 0 1 0 0 0 0 0 0 2 0 0 0 1 1 0 1 3 1 2 1 0 1 1 1 1 1 1 1 0 0 0 1 1 0 0 0 0 0 1 0 0 0 0 0 1 0 1 0 0 0 1 1 1 4 0 0 0 0 0 0 0 1 0 2 2 2 0 0 0 1 5 0 4 0 0 1 0 0 0 0 1 1 0 0 1 1 5 0 0 2 1 0 0 1 0 0 0 0 0 1 1 0 1 0 0 0 1 2 6 0 0 1 0 0 0 2 5 0 1 1 0 1 0 0 0 0 0 0 2 1 1 1 0 2 0 1 0 0 0 0 1 0 0 0 0 0 0 1 6 1 0 0 0 0 0 1 1 0 0 1 0 1 1 0 0 2 0 0 1 1 0 1 0 0 0 1 1 2 0 1 0 0 0 0 2 2 1 0 0 1 2 0 0 0 2 0 1 4 1 1 2 0 1 0 0 0 1 1 1 1 0 0 1 0 4 1 0 0 1 1 1 0 1 0 0 1 6 5 1 0 0 0 2 0 0 0 0 0 0 0 0 1 0 1 0 1 0 0 0 1 1 0 0 0 0 2 0 0 1 1 1 0 2 1 1 3 0 0 3 0 0 1 4 0 0 1 2 1 0 1 1 0 2 3 1 2 0 0 2 1 1 0 1 0 0 0 0 1 0 1 0 3 0 0 1 0 1 1 0 0 0 0 0 0 0 2 0 0 0 1 0 0 0 0 1 1 0 1 1 1 1 1 0 1 0 0 1 0 1 0 0 1 0 1 10 5 2 0 0 0 0 1 0 0 0 1 2 2 0 0 1 0 1 0 0 1 1 0 1 0 1 1 1 0 0 0 0 0 1 0 2 1 0 1 1 1 0 0 1 1 6 1 1 2 2 1 0 0 0 1 0 2 1 0 5 0 0 0 2 0 0 0 2 0 0 0 0 1 0 0 0 6 0 4 5 5 0 1 0 1 1 4 1 0 0 1 0 1 0 0 1 0 0 1 1 1 7 0 4 0 0 0 1 1 5 3 0 0 1 0 1 0 1 1 1 1 1 0 3 0 0 1 0 0 0 1 0 0 1 3 0 1 0 1 0 0 1 2 0 1 0 0 0 0 0 0 0 0 0 1 5 1 0 0 0 2 0 3 1 1 0 1 0 0 0 1 0 1 0 0 1 0 0 1 1 0 0 1 3 0 0 1 0 1 2 2 0 0 0 2 1 0 0 0 0 0 1 2 0 0 0 0 0 1 1 0 0 1 0 1 0 0 0 0 0 0 0 0 0 0 1 1 0 2 
0 0 0 0 0 0 1 0 3 0 2 0 2 0 1 1 0 1 1 0 0 0 1 2 1 0 0 0 5 3 0 0 0 1 0 0 0 1 1 1 1 4 3 2 1 2 0 0 0 0 1 0 1 0 1 4 2 1 1 1 0 0 0 1 1 1 0 1 0 0 1 1 1 0 0 0 0 1 0 1 1 0 1 1 1 0 0 0 1 3 0 0 1 1 1 1 0 0 2 1 0 0 0 0 1 0 0 0 0 0 1 0 0 2 2 0 0 1 2 0 0 0 1 1 0 0 0 0 0 0 1 0 0 0 0 0 0 0 0 1 0 0 2 1 0 1 0 0 1 1 1 0 1 0 0 6 3 0 0 0 2 1 1 1 1 0 1 0 1 0 0 2 0 1 1 0 0 1 1 4 1 0 0 0 1 1 8 2 0 1 0 0 0 0 1 0 0 0 0 2 0 0 0 4 1 0 1 0 0 2 1 1 0 0 1 0 0 1 0 0 0 0 0 0 1 1 0 3 1 0 0 1 1 0 0 0 1 1 0 0 0 0 2 1 0 2 0 8 4 0 1 0 0 0 0 0 2 0 2 1 1 0 0 0 0 0 0 0 0 0 0 0 1 0 2 0 0 0 5 1 2 1 0 5 0 0 1 0 0 1 1 6 2 0 1 0 1 5 0 0 0 1 0 0 0 0 0 1 1 0 1 0 0 0 0 0 0 0 1 1 3 1 0 0 0 1 0 1 3 0 1 0 0 1 0 0 0 1 2 1 0 1 1 0 0 0 1 0 0 2 0 1 0 1 0 1 0 2 0 0 0 0 0 1 1 2 0 1 0 0 1 3 0 0 0 0 0 0 0 0 0 0 0 0 1 1 2 0 1 2 1 1 0 0 2 1 0 0 0 1 1 2 2 1 1 0 1 0 0 1 1 1 0 0 0 0 0 0 0 0 0 2 0 1 0 1 0 2 0 0 0 1 0 0 0 1 0 0 0 0 2 0 0 0 0 0 0 1 0 0 1 1 1 1 0 0 1 1 0 0 2 2 1 3 1 1 0 0 2 5 0 3 0 0 1 0 0 0 0 3 0 2 0 0 0 0 1 0 2 5 0 1 1 0 2 0 1 1 0 1 1 0 0 2 0 1 0 1 1 6 0 1 0 0 1 6 0 0 0 0 1 0 0 0 0 0 1 1 1 0 1 0 0 1 0 0 0 0 0 1 0 1 1 0 1 0 1 2 0 1 2 0 0 0 0 0 0 0 1 1 1 0 1 0 0 0 2 2 3 1 0 0 1 0 0 0 0 0 0 1 1 0 0 1 0 2 1 0 0 0 2 0 3 0 0 0 0 1 3 2 1 1 0 1 3 0 1 0 0 0 2 1 0 0 1 0 0 0 1 1 1 0 2 0 0 5 1 0 1 0 0 0 0 0 0 0 0 1 1 0 
4 1 2 0 1 0 0 1 1 1 0 2 0 0 0 1 3 1 3 0 0 0 0 0 0 0 0 0 2 0 0 0 0 0 0 1 0 1 0 0 0 0 2 3 1 0 0 1 0 0 0 2 1 1 0 2 0 0 0 1 1 2 1 1 0 0 1 0 0 1 3 0 3 2 1 1 0 0 0 0 4 0 2 1 0 0 0 2 0 1 1 0 0 3 1 0 0 0 2 1 0 1 0 0 6 2 0 0 2 0 1 2 1 1 0 1 2 2 0 0 0 0 0 0 0 0 0 1 0 2 1 2 0 6 8 0 0 0 0 0 0 2 0 0 0 0 0 0 0 1 2 1 0 1 1 6 1 2 1 7 2 1 0 0 1 0 1 1 2 0 1 3 0 0 1 0 2 4 0 1 1 0 0 1 2 1 1 0 0 1 1 1 0 0 0 0 2 2 0 2 0 0 1 0 0 0 1 1 1 0 0 0 1 1 0 0 0 0 0 1 1 0 0 0 2 0 0 0 0 0 1 1 2 1 0 0 1 1 1 1 0 0 1 0 0 4 2 1 1 0 0 0 1 2 0 1 0 0 2 1 0 0 1 0 3 2 0 0 1 1 1 1 2 0 0 0 2 0 1 1 0 2 0 4 0 0 1 0 0 0 4 1 1 1 0 0 0 0 0 2 0 0 0 1 0 1 1 0 0 0 0 1 0 0 1 0 0 0 2 1 0 1 1 0 1 1 1 1 1 1 0 0 0 0 0 0 1 0 0 0 0 3 0 0 2 0 1 0 0 1 1 1 5 1 5 0 0 0 1 0 1 0 2 0 0 1 0 0 0 1 0 0 0 0 1 1 0 0 1 0 0 0 0 1 2 0 1 1 0 1 0 1 2 0 0 0 1 1 0 0 0 1 1 1 1 0 1 4 0 2 0 0 0 6 0 1 0 1 3 1 0 0 0 0 1 0 1 0 0 2 0 0 7 9 0 0 0 2 0 1 0 0 0 0 0 2 0 0 0 0 0 1 1 0 1 0 1 1 1 0 1 0 0 3 2 1 1 0 1 0 2 0 0 1 0 0 0 1 0 1 0 2 9 0 0 0 0 0 0 7 0 0 0 0 0 0 0 0 0 1 0 1 0 0 0 1 2 6 3 6 0 0 0 1 1 0 1 0 0 1 1 1 0 2 2 0 0 0 1 1 0 0 0 0 0 1 0 0 0 1 1 1 0 0 0 0 0 1 0 0 1 1 0 0 0 0 0 1 0 1 1 1 0 0 0 1 0 0 2 1 0 1 0 1 0 0 1 2 0 0 0 0 1 0 0 3 3 1 1 0 1 1 0 0 0 0 0 1 1 1 0 0 1 1 1 0 0 0 0 1 0 1 0 1 0 1 1 1 0 1 0 0 0 0 1 0 0 1 1 0 0 1 1 1 0 0 1 1 0 0 
6 0 1 1 1 1 1 0 0 1 2 1 0 1 0 0 0 1 0 0 2 2 2 2 0 0 0 0 0 1 0 1 0 0 0 0 0 0 1 0 0 1 0 2 1 0 0 0 0 0 0 1 1 1 3 3 0 0 0 1 0 0 0 0 0 2 1 2 0 1 2 0 1 0 1 1 1 0 1 0 1 5 2 1 0 0 1 0 0 0 0 0 1 1 1 0 0 1 0 2 1 1 0 0 0 1 1 0 0 1 1 1 0 0 0 0 0 0 0 1 1 0 0 0 0 1 1 0 1 0 1 0 2 0 0 0 0 1 1 0 0 0 1 0 0 1 0 0 1 2 0 1 0 0 0 3 0 0 1 0 1 0 0 0 2 0 2 10 1 0 1 0 1 0 1 1 0 1 0 0 1 1 0 1 0 1 0 0 0 1 0 0 0 1 1 0 4 1 1 0 1 0 0 1 0 0 1 1 0 0 1 1 3 1 1 0 2 1 0 1 0 1 0 0 1 1 0 0 1 1 6 0 0 1 0 0 1 1 0 1 0 0 0 0 1 1 0 0 0 0 0 0 0 1 0 2 1 0 0 0 1 0 0 1 1 0 0 0 0 1 0 2 3 3 1 1 0 0 0 1 0 2 1 0 0 0 1 1 0 0 1 1 0 1 0 1 3 0 0 0 0 0 0 0 2 0 0 0 1 1 0 0 2 2 0 0 0 0 1 1 0 1 0 0 1 0 1 0 1 0 0 1 1 0 1 0 0 2 1 0 0 0 0 0 0 0 1 1 0 0 1 0 1 0 0 2 1 0 0 0 1 0 0 0 4 1 1 0 0 0 0 0 0 0 1 0 0 0 0 0 0 0 2 0 0 0 2 5 9 2 8 3 0 1 0 0 0 1 0 1 0 0 1 0 0 1 0 0 0 1 4 0 0 1 0 0 1 0 1 1 1 1 0 2 0 0 1 0 1 1 0 0 0 0 1 1 0 1 1 1 1 1 2 0 0 0 1 1 0 0 0 0 1 0 0 0 0 0 3 0 1 2 2 1 0 0 0 2 0 0 5 1 1 0 2 0 0 0 4 2 1 1 7 8 0 0 0 0 1 0 1 1 0 0 0 1 0 1 1 0 1 0 0 0 2 1 0 0 0 1 2 0 0 1 0 0 0 0 4 2 0 0 1 0 9 1 1 4 0 1 0 1 2 0 0 1 0 1 0 0 0 2 1 0 0 1 1 1 0 0 1 0 0 2 1 1 1 0 1 0 0 3 1 0 1 0 0 1 0 1 1 1 0 0 0 0 1 0 1 0 0 0 1 0 0 1 0 0 1 0 1 0 2 1 1 0 0 0 3 1 0 1 0 9 7 1 2 0 1 0 0 0 1 1 1 0 1 1 7 2 0 0 1 0 1 1 0 0 0 0 0 0 2 3 0 0 0 0 0 0 
1 0 0 0 0 0 0 1 5 1 1 0 1 1 0 2 0 0 0 0 0 1 1 0 0 2 1 1 1 5 1 0 0 4 1 0 0 0 1 0 0 0 0 1 1 0 1 0 1 0 0 1 0 0 0 0 0 0 0 2 1 1 0 0 0 1 1 4 1 0 0 0 0 0 0 0 1 0 1 0 0 1 0 0 2 1 2 0 0 0 0 1 1 0 1 0 0 0 0 1 0 0 0 0 0 2 1 2 3 0 1 0 0 0 0 1 0 0 0 0 2 3 2 0 2 1 1 0 0 0 0 0 1 0 1 0 1 0 0 0 0 0 1 1 0 0 1 2 0 1 0 1 1 0 0 0 0 1 0 0 1 0 0 1 0 0 0 2 1 0 2 0 0 0 1 0 0 0 0 0 4 0 0 1 1 0 0 1 1 0 1 0 0 0 1 0 0 0 0 0 1 0 1 1 0 0 2 0 0 0 0 0 1 1 0 1 1 0 1 1 2 0 0 0 1 0 0 0 1 6 1 0 1 0 0 1 0 0 0 0 1 1 2 0 1 0 0 1 0 0 1 1 0 0 0 2 6 0 1 3 0 0 5 0 1 0 3 0 0 0 1 0 2 1 0 0 0 1 2 1 0 1 0 0 0 1 0 2 2 2 2 1 1 1 1 0 0 1 1 1 0 2 0 1 0 0 0 0 0 1 0 0 0 0 0 0 2 5 0 0 1 0 0 1 1 0 1 0 1 0 1 0 1 1 0 1 1 0 0 0 0 0 2 0 0 0 0 2 0 1 0 2 2 0 4 0 0 4 1 0 0 1 0 0 0 1 0 1 1 0 0 0 0 0 0 1 0 1 0 0 0 2 6 0 0 1 0 0 2 5 0 0 1 4 1 2 1 1 1 2 1 0 0 0 0 1 1 0 1 1 0 0 0 1 3 11 0 0 0 0 0 0 1 1 1 0 0 0 0 0 0 2 1 0 0 0 2 0 0 1 2 1 1 0 1 1 1 1 0 0 1 3 0 5 0 0 0 0 1 1 1 1 1 0 0 0 0 0 1 0 3 1 0 0 0 2 2 0 0 0 0 3 9 3 2 0 0 0 0 4 1 1 0 0 0 1 2 7 1 2 0 0 1 1 0 0 0 1 1 1 1 0 0 0 2 0 1 0 0 0 0 2 0 0 0 1 1 4 0 0 0 0 2 0 1 1 0 1 0 0 0 0 0 1 0 0 1 0 0 0 0 1 8 1 1 1 0 1 0 2 0 0 2 7 1 3 2 0 0 1 2 1 1 1 1 1 0 0 0 1 0 0 0 0 1 1 1 1 0 0 1 0 0 1 1 0 1 0 3 0 1 2 0 8 1 1 0 0 0 0 0 0 0 0 0 1 1 0 1 0 1 0 1 1 0 0 0 1 0 0 0 0 0 0 0 0 0 1 0 0 
2 1 0 1 0 0 0 2 5 8 0 1 0 0 0 1 2 3 1 1 0 2 1 1 2 1 0 0 1 2 1 1 0 0 1 0 1 2 3 1 0 1 0 2 0 0 0 0 1 2 1 0 0 1 0 1 0 0 2 1 0 1 0 0 1 0 2 0 0 1 0 1 1 1 2 1 1 1 1 1 1 2 0 1 4 2 1 0 0 0 1 1 1 0 0 0 1 0 1 0 1 1 0 0 0 0 1 2 2 1 0 0 0 0 1 0 1 0 0 4 0 0 0 0 0 1 1 1 0 2 0 0 10 0 1 0 0 0 0 0 0 1 0 1 0 0 1 1 1 0 1 0 0 0 0 0 1 1 0 1 0 2 0 0 1 0 0 0 3 0 0 0 0 0 0 0 0 1 0 0 0 1 0 0 0 1 0 0 0 0 2 0 0 1 0 3 0 0 1 1 0 1 1 1 0 0 1 1 0 1 1 1 1 0 1 2 1 0 1 0 0 0 1 1 1 0 0 2 3 1 0 0 0 3 1 0 0 1 8 1 5 1 0 0 1 0 0 0 0 0 2 0 0 1 1 0 1 0 0 0 0 1 2 1 0 4 1 0 1 1 0 1 1 1 2 0 1 0 0 0 1 0 0 2 0 0 1 5 0 0 0 1 2 1 0 0 0 1 1 0 1 0 0 0 1 0 1 0 1 1 0 0 0 0 0 0 0 1 1 0 1 0 1 0 0 4 1 0 1 1 1 1 5 0 1 0 0 0 0 0 0 2 0 0 1 1 0 0 0 0 2 0 0 1 0 0 0 1 1 0 1 0 3 5 0 2 0 1 7 2 0 0 2 0 1 1 1 0 0 0 0 0 1 0 0 0 0 0 0 0 0 0 1 0 1 1 0 0 1 0 0 1 0 0 0 1 0 1 1 4 0 1 0 2 3 0 0 0 0 0 0 0 1 1 0 0 0 0 0 1 0 1 0 0 0 0 0 1 0 0 1 7 1 1 5 1 0 4 4 1 1 0 0 0 1 1 0 0 1 2 0 1 0 0 0 1 0 1 1 1 0 0 1 0 0 0 1 0 1 0 0 0 1 0 2 0 0 0 1 1 0 1 1 3 1 1 1 0 0 0 0 1 1 1 0 1 1 2 1 2 1 1 0 3 1 1 0 1 0 0 1 0 0 0 1 1 1 0 1 0 0 1 1 0 6 1 1 1 1 1 0 0 0 0 0 0 0 0 1 0 1 0 1 0 1 0 0 0 2 0 1 1 2 1 0 1 0 1 0 1 1 1 0 1 0 0 0 0 0 0 0 0 2 1 0 1 2 1 1 0 0 0 0 0 0 0 0 2 1 1 2 0 1 0 0 0 3 1 0 1 0 0 0 1 1 0 0 1 0 0 1 0 0 0 0 0 1 0 2 0 0 1 1 1 1 0 1 0 2 0 
1 2 1 4 0 1 0 0 0 0 0 2 0 0 0 1 0 0 0 2 1 0 1 0 0 0 1 0 0 0 1 1 4 1 0 0 1 1 0 0 0 0 1 0 4 1 0 0 1 1 5 0 0 1 0 0 0 1 0 0 0 2 0 0 6 1 0 0 0 1 0 0 2 0 2 0 0 1 2 1 0 0 1 1 1 9 5 0 0 0 0 0 0 0 1 0 1 0 0 1 3 1 1 0 1 0 0 2 0 4 0 0 0 1 2 7 1 0 1 0 5 1 0 1 1 0 0 1 0 0 2 1 0 0 0 0 2 0 1 1 0 0 1 0 0 2 2 0 0 2 0 2 0 1 1 0 5 0 0 0 0 0 1 0 0 0 0 1 0 0 1 0 0 2 0 1 1 0 0 0 1 0 0 1 0 0 0 1 0 1 0 0 1 0 1 0 6 3 1 1 1 2 0 1 0 0 5 1 0 1 4 0 0 0 0 0 0 1 0 0 0 0 1 0 1 1 0 0 0 0 0 1 1 0 0 4 2 0 0 0 0 0 0 1 0 0 0 0 1 2 0 1 2 0 1 0 0 0 0 0 0 1 0 2 1 4 1 0 1 1 2 1 0 0 0 0 0 0 0 0 0 0 0 1 0 0 1 0 0 0 8 1 0 0 0 1 0 1 5 1 0 0 0 0 0 0 1 1 0 1 0 0 0 0 0 0 0 1 0 1 0 0 1 0 1 0 1 0 0 0 0 1 1 0 0 0 1 1 1 0 0 0 0 0 0 1 1 1 1 1 0 1 1 3 0 0 0 0 1 0 0 0 3 2 0 0 1 1 0 0 1 0 5 1 1 0 1 0 0 0 0 0 0 1 2 0 0 0 1 6 1 0 0 0 1 0 0 0 0 1 0 1 1 1 0 0 3 0 0 1 1 1 0 0 2 0 0 1 1 0 0 0 0 0 0 0 1 1 1 0 0 0 0 1 0 0 1 1 0 0 5 2 1 1 5 2 0 1 4 1 2 0 0 0 0 3 0 0 0 0 0 1 0 0 0 0 1 1 1 1 0 0 4 1 1 0 0 1 0 1 1 1 1 6 10 0 0 1 1 0 1 1 1 2 0 1 1 0 0 0 0 0 0 1 1 0 1 0 0 0 0 0 1 3 0 1 0 0 0 0 0 0 0 0 1 1 2 0 1 2 1 0 1 0 2 0 0 1 1 2 0 0 0 0 5 0 0 0 0 1 0 2 0 3 3 0 0 0 1 0 1 1 0 0 2 5 0 0 0 1 1 0 0 0 1 0 0 0 1 1 0 1 1 0 0 0 1 5 0 1 1 0 1 1 0 0 0 0 1 0 0 1 0 0 1 1 0 0 0 0 1 1 0 1 0 0 1 0 1 0 0 0 2 0 1 0 0 5 1 1 1 1 0 1 2 0 0 0 0 2 
6 6 0 2 1 2 0 0 0 0 0 0 0 1 0 1 1 0 2 1 0 0 0 3 0 0 1 0 0 0 0 0 1 0 1 0 1 0 0 0 1 0 0 0 3 1 1 0 8 1 2 0 0 0 0 0 0 0 1 0 1 2 2 6 2 4 2 1 1 1 1 0 0 0 0 0 1 0 1 0 0 0 1 2 0 2 1 0 0 0 0 0 1 1 0 0 1 0 1 1 1 0 0 0 1 0 0 0 1 0 3 2 1 0 0 0 1 1 0 0 0 0 0 1 1 0 1 0 0 2 0 1 0 1 0 0 1 1 0 0 1 2 3 0 1 4 1 0 0 0 0 0 0 0 0 0 0 0 0 0 1 0 0 1 1 1 0 1 1 0 0 1 0 0 0 0 1 0 1 1 1 0 1 2 1 0 1 0 0 4 0 2 0 0 0 2 2 0 2 0 0 1 1 2 1 1 0 0 1 1 0 1 0 0 1 1 0 0 1 0 1 0 0 1 0 0 0 1 2 1 0 0 0 0 1 1 1 1 0 0 0 0 0 0 0 0 0 1 3 2 0 4 1 0 1 0 0 0 0 0 1 1 0 0 1 0 0 0 1 1 2 0 0 0 0 1 0 0 2 1 0 1 0 0 1 7 8 1 0 1 0 0 6 0 3 0 1 2 3 1 5 0 1 0 0 0 0 0 0 0 0 0 0 0 0 0 1 0 1 0 0 0 1 0 0 0 0 0 0 1 0 0 0 2 1 1 0 1 2 0 0 0 0 0 2 0 0 1 0 1 1 0 0 0 0 0 0 0 5 0 1 0 1 0 0 0 0 0 0 1 1 0 4 5 0 0 0 1 1 0 0 6 0 0 0 0 0 1 0 0 0 0 1 1 2 1 0 0 0 0 1 1 0 0 1 0 0 1 0 0 1 2 1 2 0 0 1 0 0 1 1 1 0 0 1 0 0 2 0 0 1 0 1 0 0 1 0 1 0 2 0 0 2 1 1 0 1 1 1 1 1 0 0 2 1 0 0 2 0 1 0 0 6 3 1 0 1 0 0 0 0 1 1 0 2 0 0 0 0 0 0 0 0 10 9 2 0 2 1 1 1 0 1 1 7 2 0 1 1 1 0 0 0 0 0 0 0 0 0 1 0 0 1 1 0 1 0 0 1 0 1 1 2 0 0 0 0 0 0 1 1 0 1 1 0 1 1 0 2 1 1 1 2 0 1 1 1 0 0 0 0 1 0 1 0 1 0 1 1 0 0 0 1 0 0 1 1 0 0 0 0 0 0 0 1 0 0 0 0 3 1 1 1 1 0 0 0 0 0 0 0 0 1 0 0 0 1 1 1 0 0 0 1 0 1 7 0 1 1 1 0 1 0 0 0 1 1 2 1 3 0 1 1 0 0 0 0 1 2 1 0 0 1 0 0 0 0 0 1 0 
1 0 2 0 0 0 0 0 1 0 0 0 0 0 0 1 0 0 1 1 0 0 1 0 0 0 0 1 4 0 1 0 0 1 1 0 1 0 0 2 0 0 1 0 2 2 0 0 2 0 0 0 0 1 0 0 0 1 1 1 3 1 1 1 1 0 1 0 1 0 2 1 1 0 1 1 1 1 0 0 0 1 1 0 1 1 0 1 1 2 0 0 0 1 1 0 0 1 2 0 0 1 0 4 0 1 0 1 0 0 0 1 0 1 0 0 0 0 1 0 0 0 0 0 0 0 2 0 2 0 0 5 1 0 2 2 1 1 0 1 1 1 1 1 1 1 0 1 1 0 0 1 0 1 1 1 2 1 0 1 0 0 0 1 3 2 1 0 0 1 0 1 1 0 1 1 1 0 0 0 0 0 0 0 0 1 0 0 0 1 0 0 0 5 0 2 2 0 1 5 0 0 1 2 0 0 0 0 1 1 1 1 0 1 0 4 1 0 1 0 2 0 0 0 0 6 2 0 3 0 1 1 0 0 0 0 1 2 2 0 0 0 0 0 0 0 0 0 1 1 1 1 0 1 0 0 1 0 0 1 3 4 2 2 1 0 0 0 1 0 0 0 0 0 0 0 0 0 1 0 1 1 4 4 2 5 0 0 1 1 0 2 2 0 1 0 1 0 3 1 0 1 4 0 0 1 0 1 1 0 1 0 0 0 0 0 0 0 1 0 3 1 0 1 0 1 0 1 0 0 1 1 0 0 0 0 1 1 1 0 0 0 1 0 0 1 2 0 0 1 1 6 2 1 1 0 1 1 1 0 1 0 0 0 1 4 0 0 0 2 0 0 0 0 0 1 0 0 2 1 0 1 0 0 0 1 0 1 1 1 1 1 0 0 0 1 1 0 0 0 0 0 0 1 1 1 1 0 2 6 1 0 2 0 1 0 0 1 2 2 0 0 0 2 0 0 7 2 1 2 0 1 0 0 0 0 6 0 0 0 0 0 1 2 0 0 0 1 0 0 1 1 0 0 1 0 0 0 0 2 1 0 0 0 2 0 0 0 1 0 0 0 2 1 5 0 1 1 0 1 1 1 1 0 2 0 0 1 0 0 1 0 2 0 1 0 0 0 0 0 0 0 1 0 0 0 0 0 0 0 1 0 0 0 0 2 0 0 1 3 0 0 1 0 0 1 1 0 0 0 0 0 0 0 0 1 2 0 0 1 0 0 0 0 0 0 0 0 1 0 1 5 0 1 0 0 0 0 0 1 1 0 2 1 6 1 1 0 0 0 0 0 1 2 1 0 0 1 1 1 1 0 0 0 0 0 0 0 1 0 0 0 0 0 0 0 5 0 0 0 1 1 0 1 1 3 2 1 0 0 0 0 1 0 0 1 4 1 1 2 0 1 0 0 0 1 0 0 0 0 1 0 1 1 2 1 0 0 0 1 
0 0 0 0 0 0 0 2 3 0 1 0 0 0 1 2 0 1 0 0 0 1 4 3 0 1 0 0 1 0 1 1 0 0 1 0 0 1 3 0 1 0 1 0 4 0 2 1 0 1 0 1 0 0 0 0 2 1 1 0 1 1 0 1 0 0 0 0 0 1 1 0 1 0 0 0 1 0 4 1 0 3 1 0 3 1 1 1 2 0 0 0 0 0 1 1 1 0 0 0 0 0 0 1 0 0 0 1 2 0 1 4 0 1 0 0 0 0 1 0 0 0 0 1 2 3 1 0 2 0 1 1 0 1 0 1 0 0 0 0 0 0 0 3 4 0 0 0 1 3 6 1 0 0 0 1 1 7 0 1 1 0 1 0 1 0 2 1 8 0 0 1 0 0 0 1 1 2 3 0 0 1 1 0 3 2 0 0 1 0 0 1 1 1 1 2 0 1 0 1 0 1 1 1 1 0 0 0 2 3 4 1 0 2 2 0 0 0 0 1 0 1 0 0 0 0 2 0 0 0 0 1 1 1 0 0 0 0 1 0 0 1 0 1 0 4 4 2 1 3 0 4 1 0 0 2 1 0 0 0 7 2 3 1 0 0 2 0 1 0 0 0 0 0 0 0 2 1 1 0 1 0 1 1 0 0 0 0 1 0 0 1 1 1 0 0 1 0 0 2 1 1 0 1 1 0 1 0 0 0 1 0 0 0 0 0 0 1 1 1 0 0 0 0 1 0 0 1 1 1 1 0 1 1 0 3 0 1 0 0 1 2 0 1 1 0 0 1 0 0 0 1 1 0 0 5 1 3 0 0 1 1 0 0 1 0 0 1 1 0 1 1 1 0 0 1 0 0 0 1 0 1 0 0 0 0 2 1 4 0 2 2 1 0 0 0 0 1 0 1 1 1 1 1 0 0 4 0 1 5 2 0 0 0 1 1 0 1 0 4 1 0 1 0 0 1 0 1 1 2 0 0 1 0 0 0 0 3 0 0 1 0 0 1 0 1 0 0 1 2 1 6 0 0 0 2 0 0 2 0 0 0 2 0 1 1 0 1 0 2 1 1 3 0 0 5 1 0 0 1 1 3 0 0 0 0 2 5 2 0 1 0 1 1 0 2 1 0 0 1 2 0 0 1 0 1 1 0 0 0 0 0 0 0 0 0 2 5 0 0 1 0 2 0 1 1 0 0 2 1 4 0 0 4 0 1 2 0 0 0 0 0 0 0 1 0 0 5 2 1 0 0 0 0 1 0 0 1 3 2 0 1 0 0 5 2 0 0 0 0 0 1 1 1 0 0 0 2 0 0 0 0 1 1 0 0 0 0 0 0 1 0 0 1 0 1 1 1 0 0 1 1 9 0 1 1 1 0 0 0 1 0 0 0 0 0 0 1 0 1 0 0 1 0 0 0 2 2 0 0 0 2 0 0 0 0 0 1 1 1 
0 1 1 0 0 1 1 1 1 1 5 0 1 0 0 0 0 1 1 1 3 0 1 0 0 1 2 0 1 1 3 0 0 1 0 0 1 0 0 0 0 1 0 0 0 2 0 0 2 4 1 1 0 0 0 0 1 0 0 3 9 0 0 1 0 0 0 2 0 0 1 1 3 0 0 1 0 0 0 0 0 0 3 1 1 0 1 2 0 1 0 3 0 0 0 0 0 0 2 0 0 1 0 2 2 0 0 0 1 0 0 2 0 0 0 0 1 1 0 1 0 0 0 1 0 1 6 1 1 0 1 0 1 0 0 0 1 1 0 0 1 0 1 1 0 0 0 0 1 1 1 0 1 1 0 1 1 0 1 0 0 0 0 0 0 1 4 1 1 0 0 1 0 0 0 1 0 0 0 1 0 0 0 1 0 1 0 1 0 0 0 1 1 1 0 0 0 1 3 0 0 1 0 1 0 0 0 1 1 1 0 0 0 2 0 1 0 0 3 3 1 1 0 1 1 0 2 2 0 0 1 2 1 1 0 0 0 1 0 0 0 0 0 1 0 1 0 3 2 0 1 0 1 1 1 0 0 0 0 1 1 0 0 0 1 1 1 0 0 0 1 0 0 0 2 0 1 0 2 0 1 0 0 1 0 1 3 0 1 0 0 0 0 0 0 0 0 1 0 1 1 0 1 0 0 0 0 1 0 1 1 0 0 0 1 0 1 0 2 1 1 2 1 2 0 1 0 0 4 0 0 2 1 0 0 0 1 0 1 0 0 0 1 0 0 0 2 5 0 0 0 1 0 0 0 1 3 0 0 1 1 3 1 9 8 1 0 0 1 0 0 1 1 0 0 1 0 0 1 1 1 0 1 0 2 0 0 1 1 0 0 3 5 2 1 0 1 0 2 1 0 1 0 0 1 1 0 0 0 0 0 1 0 0 0 1 1 0 0 0 0 7 0 0 0 0 0 0 0 1 2 1 2 5 0 0 2 1 0 0 0 1 1 1 0 0 2 1 3 1 1 7 1 1 0 1 1 1 0 1 1 5 1 0 0 0 0 0 0 0 0 1 0 1 1 1 1 1 2 0 1 1 2 0 2 0 0 1 0 1 0 1 1 1 0 0 1 0 0 1 0 2 1 1 0 0 0 0 0 0 1 0 0 0 1 1 1 0 0 0 0 1 0 0 0 0 1 4 0 1 0 0 0 2 0 0 0 0 0 0 0 0 1 0 0 0 1 0 0 0 0 0 0 0 1 0 1 0 0 1 2 0 1 0 2 2 1 1 0 0 0 0 1 1 1 1 0 0 1 0 0 1 0 0 0 0 2 0 0 0 1 1 0 0 1 1 0 0 1 0 0 0 0 0 2 1 1 1 0 1 0 2 0 1 0 0 1 0 3 8 4 0 1 0 0 0 0 0 3 0 0 0 0 1 1 0 1 0 0 1 
0 0 0 0 1 1 0 1 4 0 0 0 0 0 2 2 1 1 1 1 0 0 0 0 1 1 0 1 0 1 1 1 0 2 3 0 0 0 2 0 0 0 0 0 5 1 2 0 1 3 1 0 0 1 1 1 0 0 0 0 0 0 1 1 1 1 2 1 0 0 0 1 0 0 1 0 1 1 0 1 0 0 4 0 1 1 0 1 0 0 1 0 1 0 4 1 1 0 2 1 2 0 2 0 1 0 0 0 0 1 0 1 0 0 0 0 1 0 1 0 1 1 1 0 0 1 1 2 1 1 1 0 3 1 0 0 0 0 0 0 0 1 0 0 0 1 0 0 0 0 0 1 0 0 0 1 6 5 1 0 0 0 0 0 0 0 0 4 0 0 1 0 0 0 0 0 0 1 0 0 0 1 1 0 1 0 1 0 0 1 0 0 0 1 2 2 2 0 0 1 0 4 6 8 1 0 0 0 0 0 1 2 2 1 4 0 1 0 0 3 0 0 1 0 0 0 0 0 0 1 0 0 0 0 0 0 1 0 1 3 1 1 0 1 1 4 0 1 0 0 0 1 1 0 0 0 1 0 2 0 2 1 0 0 0 0 5 0 0 0 0 0 0 0 1 0 1 0 0 0 0 0 1 0 0 1 3 1 1 0 0 1 1 0 1 1 0 0 1 0 0 0 1 0 1 1 1 1 0 0 0 2 1 1 0 1 0 1 3 6 2 0 1 1 0 0 0 0 2 0 0 0 0 0 0 3 0 0 1 5 1 1 1 1 1 4 0 1 0 0 2 1 0 0 0 1 0 0 0 0 0 1 1 2 1 4 1 0 0 0 0 0 1 1 0 5 2 0 0 0 0 1 9 2 0 1 4 0 0 0 0 0 3 6 1 0 0 1 4 2 0 0 0 0 1 0 1 0 1 1 2 1 1 0 1 1 0 1 1 0 1 1 2 2 0 1 0 0 0 1 0 1 6 3 1 0 1 7 1 0 0 0 1 0 1 6 0 0 1 0 1 0 0 0 1 0 1 0 1 0 0 0 0 0 0 1 0 0 0 0 0 1 0 0 0 1 0 1 0 1 0 0 1 0 1 0 0 0 1 7 2 1 0 1 0 0 0 1 0 0 0 5 0 1 0 0 1 2 0 0 1 0 0 0 0 0 0 1 0 0 2 1 0 2 0 1 0 0 0 0 0 1 0 1 1 2 1 3 1 0 0 0 0 0 0 0 0 0 0 0 2 0 0 0 1 0 1 0 0 0 0 0 0 1 0 1 0 1 3 0 0 0 2 0 0 1 1 1 0 0 2 1 1 1 0 1 1 1 0 1 0 0 1 0 1 0 0 1 0 0 3 0 1 1 2 0 2 0 1 0 0 1 0 0 0 0 1 0 0 1 1 1 0 0 1 0 0 0 1 0 2 0 0 0 1 0 6 0 0 1 
0 2 0 0 0 2 0 1 1 0 0 0 1 0 0 1 1 0 1 1 0 0 0 0 0 1 0 1 0 0 0 1 1 0 1 2 0 0 1 1 5 2 0 1 2 3 1 2 2 0 0 0 0 0 0 0 0 0 1 0 0 0 0 1 3 0 1 0 7 1 0 0 1 1 1 1 0 0 5 0 0 2 0 1 0 0 1 0 0 1 0 1 6 1 2 0 0 0 0 0 1 1 0 1 0 0 1 1 1 0 0 1 0 1 0 0 0 1 1 0 0 1 0 0 0 0 2 0 0 0 1 0 2 1 0 1 0 0 0 0 0 0 0 4 0 0 1 1 0 0 1 0 0 0 3 1 0 2 0 0 1 0 0 0 3 0 1 1 0 0 0 0 0 0 0 1 1 1 1 1 2 1 0 0 1 1 0 3 0 0 0 1 1 0 2 1 0 0 0 1 0 0 1 0 0 0 0 0 0 0 3 12 1 2 2 0 0 0 0 0 1 0 0 0 0 0 1 1 0 1 0 0 0 0 0 0 0 1 0 0 1 0 0 0 0 1 0 0 1 1 0 0 0 0 0 5 0 0 0 0 0 1 1 4 1 1 0 2 0 0 0 0 0 0 2 0 2 0 1 0 1 1 0 3 1 0 0 0 1 1 2 6 0 0 1 0 1 0 1 0 0 2 1 0 0 0 4 0 0 1 0 5 0 1 1 1 0 1 1 3 1 0 0 2 1 0 0 0 0 2 0 1 2 0 1 1 1 0 4 2 0 0 0 2 1 1 1 2 2 0 0 0 0 0 0 0 0 2 1 1 0 1 1 0 0 0 0 1 1 0 0 0 0 0 0 1 0 0 1 0 0 1 2 1 1 0 0 0 0 5 2 0 0 0 0 1 6 2 0 0 1 0 0 1 10 1 1 0 0 1 0 0 0 1 0 2 1 1 2 0 0 1 0 0 0 1 2 1 0 1 0 0 2 0 1 1 0 1 0 1 0 0 0 0 0 0 0 1 3 0 0 4 0 0 0 0 1 0 0 0 0 0 1 0 1 0 0 1 0 0 1 0 0 0 0 0 0 0 1 0 1 0 0 1 0 2 0 0 1 0 2 0 0 0 0 0 1 0 2 3 0 1 0 0 0 0 0 4 0 0 0 1 0 1 0 0 0 2 0 1 0 0 1 0 2 0 1 0 0 0 1 1 0 1 0 0 6 2 0 0 0 0 1 1 1 0 0 1 0 0 0 1 0 0 3 1 0 0 0 0 1 1 1 1 0 1 1 0 1 0 2 1 0 5 0 0 0 2 0 0 0 1 3 4 1 0 1 0 0 1 0 2 0 0 1 1 0 0 0 1 0 0 0 1 0 0 1 0 1 0 0 1 1 1 1 0 0 0 0 0 0 1 0 1 1 1 0 0 1 2 0 0 3 1 0 4 2 0 0 1 
1 0 0 3 0 1 1 2 0 1 0 1 1 0 0 2 1 1 3 0 0 1 1 1 1 0 0 0 0 0 0 2 1 0 1 0 0 2 1 1 0 1 0 1 4 3 0 0 0 0 1 0 0 0 0 1 0 0 0 0 2 0 0 0 0 0 0 1 0 0 0 1 0 0 0 0 1 0 1 0 0 0 0 1 0 0 1 0 1 1 3 1 0 4 1 0 0 1 0 0 1 0 0 0 0 1 0 1 1 1 1 1 1 1 1 0 1 1 0 1 2 0 0 1 1 0 2 1 1 0 1 0 2 2 1 0 0 1 2 0 0 1 0 1 0 1 0 1 0 0 0 1 0 0 1 0 0 1 0 0 2 0 0 0 0 0 1 0 1 0 2 2 0 0 0 1 3 0 0 0 0 0 0 0 0 0 0 0 0 1 1 1 0 0 1 0 1 0 0 1 0 0 0 0 2 1 1 0 0 0 2 0 2 1 5 0 0 0 1 0 1 0 1 0 1 0 0 0 1 0 0 2 2 0 1 0 0 0 0 0 1 1 0 0 0 1 1 0 0 2 0 0 0 0 0 0 0 0 0 1 8 1 0 0 1 0 0 0 1 6 1 1 0 0 1 1 0 0 1 4 9 1 0 0 0 5 0 0 0 0 0 0 2 0 1 1 0 1 1 0 1 2 6 1 0 0 0 0 2 0 1 2 1 0 0 1 0 1 6 0 1 0 1 0 1 0 1 1 0 0 0 1 0 0 0 0 0 2 0 0 1 0 1 0 0 1 0 0 0 0 2 0 1 0 0 1 0 3 0 1 0 0 0 1 0 0 1 2 0 0 0 1 2 0 1 0 0 0 0 0 3 0 0 0 1 0 0 0 0 0 1 1 0 1 2 0 1 4 0 0 0 2 3 3 0 2 2 1 1 0 0 0 0 0 0 1 0 2 1 0 0 1 3 0 0 1 1 0 1 0 1 0 0 1 1 0 0 1 0 0 0 1 2 0 0 0 0 0 0 1 1 5 1 1 4 2 1 0 0 0 0 1 0 0 4 1 0 1 0 1 0 1 2 0 1 0 0 1 0 1 12 3 3 0 0 0 1 0 0 0 0 0 0 0 0 0 0 1 0 2 0 0 0 1 1 1 1 0 0 0 0 3 1 0 0 0 1 0 2 0 0 1 1 0 4 0 2 1 7 1 1 1 0 1 0 5 1 1 3 0 0 0 0 0 1 1 1 0 0 0 1 0 2 0 0 1 0 0 0 0 0 5 0 0 0 1 0 0 1 1 1 3 0 3 0 0 0 0 0 0 0 2 0 2 5 3 2 1 1 0 0 0 0 0 1 4 0 0 0 1 2 1 0 0 0 4 0 0 0 1 0 1 0 3 0 0 0 1 0 1 6 0 0 1 2 1 0 0 0 2 0 1 0 0 0 0 0 1 2 0 
0 0 6 1 0 0 0 0 0 0 0 0 4 1 1 0 1 0 0 0 1 0 0 1 0 0 2 1 1 1 1 0 1 3 1 1 2 2 0 1 0 0 0 0 3 1 0 0 0 4 3 0 3 0 0 1 1 4 0 0 0 0 0 0 0 2 1 0 0 0 0 0 0 0 0 1 1 0 1 2 0 0 0 0 2 0 0 0 0 0 1 0 0 0 0 0 0 0 1 0 0 0 0 2 0 3 0 0 1 1 0 0 0 0 0 1 2 0 2 0 0 0 1 1 0 0 1 0 1 2 1 0 0 0 0 0 0 2 2 2 1 0 0 0 2 0 0 0 0 1 0 0 5 1 2 0 5 0 0 1 0 0 2 1 0 0 0 1 0 0 0 0 0 0 0 0 0 0 1 0 1 1 2 1 0 2 0 0 1 0 0 1 0 1 1 2 0 0 0 1 0 0 1 0 2 1 1 1 0 1 1 0 3 0 2 1 1 0 0 1 1 0 3 1 0 0 0 1 0 0 0 0 0 0 0 1 1 6 2 1 0 1 1 0 1 0 0 0 0 0 0 0 1 0 1 1 0 0 1 5 2 1 1 1 1 0 0 1 1 0 1 0 0 3 1 1 1 1 1 0 2 0 0 0 1 0 1 4 1 1 1 0 0 0 0 1 0 0 0 0 0 0 1 1 0 1 0 1 0 1 1 0 0 1 0 0 1 1 5 1 0 0 0 0 2 0 0 0 0 1 2 0 0 1 2 2 0 6 0 0 1 0 0 0 0 1 0 0 0 1 2 8 0 0 1 0 0 0 0 1 1 1 0 0 2 4 1 1 0 0 0 0 1 0 3 0 1 1 8 1 2 0 1 1 1 1 1 0 1 1 1 1 0 1 0 0 1 0 0 0 0 0 1 1 1 0 5 2 1 1 0 0 0 0 0 1 0 1 0 0 1 0 2 1 0 0 1 0 1 1 0 1 0 0 0 0 1 0 0 0 0 0 0 0 0 0 0 1 0 0 2 2 2 1 0 0 0 1 0 2 0 0 0 0 0 0 1 0 1 0 2 1 0 1 0 1 0 1 1 3 1 1 1 0 0 0 0 1 0 0 0 1 4 1 0 0 0 0 1 0 0 1 2 1 6 1 1 2 1 1 0 0 0 1 1 1 0 4 0 0 1 0 1 1 0 1 1 0 1 2 0 0 1 1 1 1 1 0 1 3 2 1 0 1 1 0 1 0 0 0 0 1 0 1 0 0 0 2 0 1 0 1 0 0 1 0 0 0 0 1 6 2 0 0 1 1 0 2 0 0 0 1 0 0 1 1 0 1 0 0 1 0 0 1 0 0 1 0 0 1 0 0 0 0 0 1 2 0 0 1 0 1 0 0 0 0 0 2 2 1 3 2 1 0 1 1 3 2 1 1 0 1 0 1 0 0 0 1 0 5 
0 0 0 2 0 5 1 0 0 2 0 0 2 0 4 1 1 1 0 2 0 0 0 0 1 1 9 0 0 0 1 0 1 1 0 0 0 1 2 1 0 0 0 1 0 0 1 0 0 2 1 1 2 1 1 1 0 5 0 1 4 0 0 0 0 0 1 1 0 0 1 0 3 1 1 0 1 0 0 0 2 0 0 0 1 1 0 0 0 0 1 2 2 1 0 0 1 0 1 1 0 0 0 1 1 3 2 0 0 0 0 0 0 0 0 0 1 0 1 0 0 1 1 0 1 3 2 1 0 0 1 0 0 0 0 0 0 0 0 1 1 0 0 1 1 0 1 0 0 0 0 1 1 0 0 1 0 1 0 0 0 0 2 0 3 0 0 0 1 0 0 0 0 1 1 0 0 1 2 0 2 0 0 0 0 1 1 0 0 0 0 2 0 4 0 0 0 1 0 0 0 1 0 0 1 2 0 0 1 11 0 2 1 1 1 2 1 4 0 0 0 1 0 1 3 1 0 1 1 0 1 0 0 0 1 0 0 1 1 0 3 2 0 0 1 0 0 0 0 0 0 0 1 0 0 0 1 0 1 1 2 1 0 1 0 0 0 1 0 0 0 1 1 0 1 1 0 1 0 1 0 0 1 1 10 7 1 0 0 0 0 5 1 0 0 1 0 1 0 1 5 1 0 0 1 2 7 1 3 4 1 0 1 0 0 0 2 1 2 1 0 2 0 0 1 1 0 0 0 1 0 0 1 1 5 0 0 0 0 0 1 1 0 1 0 0 0 0 1 0 0 2 0 0 0 0 8 1 5 0 0 0 0 2 2 1 5 2 0 2 1 0 0 0 1 1 0 0 0 1 0 0 3 4 0 1 4 0 0 1 1 2 1 0 1 2 1 0 0 0 0 0 0 0 1 7 6 0 1 0 0 1 1 0 0 1 0 0 0 0 1 0 1 3 1 0 0 0 0 1 1 0 0 0 0 1 0 0 2 1 0 5 2 0 0 0 0 0 1 0 5 2 0 0 0 0 1 1 7 0 0 1 1 1 0 0 1 1 3 2 0 0 0 0 0 0 2 0 0 0 0 1 0 0 0 4 1 1 0 1 1 2 0 1 1 0 0 0 0 2 0 1 0 0 0 1 0 1 0 2 1 0 0 1 4 1 0 1 2 4 0 1 0 0 1 0 1 1 0 1 0 0 0 0 0 1 0 0 1 0 1 0 0 2 1 0 0 0 1 0 0 1 6 6 1 0 0 1 0 1 1 0 0 1 0 1 1 0 0 1 2 0 0 0 0 0 0 0 0 0 0 0 0 1 0 1 1 0 0 1 0 0 2 1 0 0 0 0 1 1 1 0 0 0 1 0 1 0 1 1 3 1 0 1 0 0 1 0 1 1 1 0 1 0 0 1 0 1 1 1 1 1 0 0 1 0 1 1 5 2 
1 1 0 1 0 2 0 0 0 0 1 1 2 0 1 2 0 0 1 0 2 1 1 1 0 0 1 1 1 0 2 1 0 0 0 1 2 3 1 0 1 0 0 4 0 1 1 0 0 2 0 1 1 0 1 0 0 3 0 4 1 1 0 0 0 1 1 0 0 1 0 1 0 0 0 0 0 0 1 2 0 1 2 5 0 0 0 2 1 0 3 11 0 0 0 0 1 2 1 1 4 1 1 1 1 1 1 1 0 0 0 0 0 0 0 4 1 1 0 0 1 0 0 1 1 4 1 0 0 1 0 1 0 0 2 0 1 1 1 0 0 2 0 0 1 2 1 0 0 0 2 0 0 0 1 1 1 1 0 3 0 1 1 0 1 0 1 8 0 0 1 0 1 2 0 0 0 0 0 6 2 0 1 0 0 1 1 0 0 0 0 0 0 2 2 3 1 0 0 0 1 0 0 3 0 1 0 0 4 2 0 4 0 1 1 1 1 1 0 2 1 0 2 0 0 0 0 1 2 0 1 1 1 1 1 0 1 0 1 0 4 2 1 1 0 1 1 0 0 1 0 3 2 0 1 0 0 2 1 0 2 1 0 0 1 1 0 2 1 0 0 0 0 0 0 0 1 0 0 0 0 1 0 4 0 5 5 1 1 0 1 2 0 0 0 2 0 0 0 0 1 0 0 0 0 1 0 0 1 1 0 0 0 0 0 1 2 1 2 0 0 0 2 1 6 1 0 1 0 1 0 0 0 0 1 0 0 0 0 1 1 1 0 0 0 0 1 0 1 0 0 0 1 1 0 1 0 0 0 0 1 1 0 0 5 0 1 1 1 4 1 0 0 0 1 0 0 0 0 0 0 2 1 1 0 0 1 1 0 0 6 1 1 0 3 1 1 0 1 4 2 0 0 0 0 0 1 0 0 0 1 1 1 0 1 1 0 0 0 0 1 0 0 2 5 1 1 1 0 0 1 0 0 0 0 1 0 1 3 0 0 1 1 1 0 0 1 4 0 0 1 2 1 0 1 4 3 1 1 1 0 0 0 0 0 2 2 1 0 1 1 1 0 0 0 0 0 0 1 1 2 0 2 0 1 1 4 2 1 0 0 1 2 0 2 0 0 0 1 0 2 0 0 0 0 0 0 1 6 0 0 2 1 0 1 1 1 0 3 0 0 0 0 1 0 0 0 0 0 1 0 2 0 0 1 0 2 1 0 0 0 1 1 1 1 5 0 1 0 2 4 2 1 0 0 0 0 0 0 0 0 0 1 0 0 0 1 0 2 4 0 1 1 2 1 2 2 1 2 1 0 4 0 0 1 1 0 1 0 1 1 1 0 0 0 1 0 1 0 0 2 0 1 0 0 1 0 1 2 3 1 0 0 2 0 0 0 0 0 0 0 0 0 0 0 1 1 6 0 1 1 1 0 0 0 0 0 0 0 0 
0 0 0 0 1 1 1 0 0 2 0 1 0 0 4 0 0 0 0 3 1 2 1 1 0 0 0 0 0 0 0 0 1 0 0 2 0 2 0 0 0 0 0 0 1 0 1 1 1 0 0 0 0 0 0 0 0 1 2 7 1 0 0 0 0 0 0 0 0 1 0 0 0 0 0 0 0 0 0 1 1 2 0 0 0 0 0 6 4 1 2 0 0 2 0 1 0 1 1 0 0 6 1 0 0 0 0 0 1 1 0 0 1 0 1 1 1 0 0 0 0 1 0 1 0 1 0 1 1 2 0 0 0 1 3 0 0 0 1 0 0 0 4 0 0 0 1 0 1 1 0 1 0 0 0 0 1 0 1 0 4 0 0 0 0 0 0 3 1 2 6 0 0 1 2 1 0 1 0 1 0 0 0 3 0 2 1 0 0 0 0 0 1 1 1 0 0 0 1 1 9 2 2 0 2 0 1 0 1 1 1 0 0 0 1 0 0 1 0 1 2 1 0 0 0 0 0 1 0 0 1 1 0 0 0 1 1 2 0 0 0 0 1 1 0 0 2 0 0 0 0 1 0 0 0 2 1 0 0 2 0 1 2 1 1 0 0 0 0 2 1 0 0 0 0 1 1 0 0 0 0 0 4 1 0 0 1 0 0 0 1 1 1 0 0 1 0 1 1 4 0 0 0 1 0 1 0 0 0 1 0 0 2 1 1 1 0 1 5 0 2 1 0 0 1 0 1 0 0 0 0 1 0 0 1 5 1 2 0 1 0 9 0 2 0 5 0 4 0 2 1 1 0 2 0 0 1 0 1 1 6 1 0 1 0 1 0 0 6 1 6 1 1 1 1 0 7 1 1 1 0 0 0 1 0 1 0 0 1 0 1 0 0 0 5 5 0 0 0 1 1 0 0 0 0 0 1 1 0 1 0 0 0 0 4 0 0 1 0 0 0 0 0 0 1 0 2 1 1 0 0 0 0 0 0 0 1 1 1 0 1 0 1 3 1 1 1 0 0 1 1 0 1 0 0 4 1 2 1 0 1 0 0 0 0 0 1 0 0 1 2 0 1 1 0 0 1 0 0 0 0 2 1 0 2 0 0 1 2 0 0 0 0 1 1 2 0 0 1 0 1 1 0 1 0 1 4 0 0 0 0 0 1 1 1 0 1 0 1 4 1 0 0 0 0 1 0 1 0 1 1 0 0 2 2 2 1 1 0 0 0 0 0 0 0 2 1 0 1 0 0 0 1 0 0 0 0 1 2 0 0 1 0 0 0 1 1 0 0 1 2 1 1 1 3 4 0 1 1 0 1 0 1 2 0 2 1 3 0 0 1 1 1 1 0 1 1 1 0 0 3 1 3 0 0 1 0 0 0 0 1 1 0 1 0 1 1 0 0 0 0 0 1 0 0 1 0 2 1 1 0 2 0 1 0 1 0 1 0 0 
0 0 0 0 0 1 0 0 0 1 1 2 0 0 0 1 0 0 1 0 0 0 0 0 1 0 0 1 1 0 0 0 0 0 2 0 1 0 0 0 2 0 0 0 0 1 0 1 1 1 0 0 0 2 1 1 0 1 0 0 0 0 2 1 0 1 1 0 1 2 2 0 0 0 1 1 0 1 0 1 0 0 3 0 1 0 0 1 0 0 0 0 0 0 0 0 1 1 0 1 0 0 0 0 0 1 1 0 0 0 2 1 1 1 0 0 0 0 0 1 0 0 2 0 0 1 0 2 1 2 1 0 0 1 0 2 1 5 0 0 1 1 2 1 1 0 1 4 6 0 0 0 2 0 0 0 0 0 1 0 1 0 1 1 0 0 1 1 2 0 1 0 1 0 2 1 0 0 1 1 0 0 2 0 0 2 0 0 0 0 0 0 2 0 0 0 0 0 0 1 1 0 0 0 0 1 0 0 1 0 1 0 0 0 0 0 0 0 0 0 1 0 0 0 0 1 1 0 0 0 0 1 1 0 1 1 0 1 0 0 1 0 1 1 0 0 0 1 0 0 1 0 0 1 0 0 1 0 0 0 1 2 0 0 0 1 0 1 1 3 0 1 1 0 1 5 1 0 0 7 0 0 2 1 0 1 3 1 0 0 0 0 1 1 0 1 0 1 0 0 0 0 0 1 0 0 0 1 0 0 0 1 0 0 0 0 1 3 5 0 0 0 1 1 0 1 0 0 1 1 2 0 1 0 2 1 2 0 1 1 1 1 1 1 1 0 1 4 0 1 0 0 1 0 0 0 0 0 0 0 0 3 1 2 1 0 4 2 1 0 0 1 0 0 0 0 2 0 1 0 0 0 0 1 0 0 1 1 1 0 3 1 0 0 2 0 1 1 1 0 2 1 0 0 2 1 0 0 0 1 0 1 0 1 1 0 1 1 0 0 0 0 0 1 1 1 1 1 2 0 0 0 0 0 0 0 7 0 0 0 1 0 0 0 0 1 1 0 0 0 0 0 2 0 0 1 0 2 0 1 0 0 0 1 1 1 0 0 1 0 0 1 0 0 0 0 0 0 1 0 0 1 0 2 0 0 0 2 0 1 1 1 1 1 1 0 0 1 1 0 0 0 0 0 0 1 2 1 0 0 0 1 0 0 0 0 0 0 0 1 0 0 1 5 0 0 2 1 1 0 0 0 1 6 2 0 2 1 0 0 0 0 1 3 0 0 0 1 0 0 1 2 0 1 0 1 0 0 0 0 0 1 1 3 0 1 1 1 1 0 4 2 0 0 1 1 0 0 1 0 0 0 0 1 0 0 1 0 0 1 0 6 0 1 2 0 1 0 1 0 0 0 0 0 0 0 1 0 0 0 0 0 1 0 1 1 1 0 0 0 1 2 0 0 1 1 1 0 2 1 1 0 4 1 0 5 1 0 0 0 
1 0 0 1 0 0 2 0 0 0 0 1 6 0 0 0 0 1 0 0 0 0 1 1 0 1 1 1 1 0 0 0 1 0 0 1 0 0 0 1 0 0 2 0 1 0 1 0 1 1 0 0 1 1 1 0 0 1 1 0 0 0 0 2 0 2 3 1 0 0 1 0 1 1 0 0 1 0 0 1 1 1 1 0 1 0 1 0 0 0 4 1 0 0 8 1 1 3 0 0 2 0 0 1 0 0 0 1 0 1 0 0 0 0 0 3 1 0 0 0 0 0 0 0 0 1 0 1 2 0 1 1 0 2 1 1 0 1 1 1 5 2 1 2 0 0 1 4 1 2 0 1 0 0 1 2 1 1 1 0 0 1 1 0 1 0 0 1 6 0 1 1 0 0 1 1 0 0 0 1 0 1 1 1 0 6 3 0 1 1 1 6 3 1 0 0 1 0 0 0 0 0 0 1 0 0 1 1 1 0 0 0 0 1 0 0 1 0 1 0 0 0 0 0 1 0 1 0 1 2 0 0 0 0 0 0 0 1 0 0 0 0 0 0 0 0 1 0 2 0 1 0 0 0 1 0 0 0 5 0 2 7 0 0 2 0 1 0 0 0 4 0 1 0 0 0 0 0 0 4 1 0 1 1 0 1 0 1 0 1 2 0 0 0 2 2 0 0 0 0 0 0 1 1 0 0 1 1 2 0 0 1 1 2 6 4 0 1 1 0 1 1 0 1 0 0 0 1 1 0 1 1 1 0 2 0 5 1 1 3 1 0 0 1 3 0 1 0 0 0 1 0 1 0 0 1 1 0 0 0 0 1 2 0 0 0 1 0 1 0 0 0 1 0 1 0 0 0 0 1 0 1 0 0 1 1 1 3 1 0 1 6 1 2 0 0 0 6 2 0 0 3 1 0 0 1 1 0 0 1 0 0 0 0 1 0 4 0 0 5 0 1 0 0 0 0 2 1 5 1 3 0 2 0 0 0 0 1 1 1 1 0 0 0 0 0 1 0 0 1 0 0 0 1 0 1 0 0 1 5 0 0 0 0 3 0 1 1 2 1 0 0 1 0 1 0 0 1 2 1 0 1 0 0 0 0 1 0 0 1 1 0 0 0 1 0 0 1 0 1 0 0 0 0 0 0 5 0 1 1 1 0 0 1 1 1 0 1 1 0 1 0 1 1 1 0 0 1 0 0 2 0 1 4 6 1 1 6 3 0 0 0 0 1 1 0 1 0 2 2 0 7 0 1 0 1 0 0 0 0 3 0 0 0 0 0 0 0 0 4 1 4 0 1 5 6 0 2 0 1 1 0 1 0 0 0 1 1 0 1 0 0 0 0 0 2 1 0 2 0 0 1 0 0 0 2 0 1 0 0 0 1 1 1 1 0 1 0 0 1 1 1 1 0 1 0 2 0 2 1 0 0 0 0 2 1 0 1 0 0 
0 0 1 1 0 1 1 0 1 0 0 0 0 0 0 0 1 2 1 0 0 1 0 0 0 0 4 0 0 1 1 1 2 2 0 0 1 1 0 0 1 4 1 1 1 0 0 0 0 0 0 0 1 2 1 0 1 0 0 0 0 5 0 0 0 0 1 0 0 0 0 1 5 0 1 0 0 1 1 1 0 0 0 0 0 1 0 1 0 0 1 4 0 1 1 1 0 1 0 1 2 3 1 0 0 0 0 0 0 0 0 0 0 0 0 1 0 0 0 0 0 1 1 0 0 1 0 0 0 0 0 0 0 0 0 0 0 0 1 1 1 1 0 1 1 0 0 0 1 0 1 0 1 0 2 0 0 0 0 1 0 0 0 1 0 0 0 1 1 0 0 0 0 4 1 1 0 0 0 1 6 0 7 1 1 2 1 1 5 0 4 7 11 2 0 0 4 6 0 4 1 1 2 0 0 1 2 1 1 0 0 1 0 0 1 0 0 0 0 0 2 0 0 2 1 1 1 0 1 0 0 0 0 0 0 0 2 1 0 0 0 0 0 0 0 0 0 0 0 0 0 0 0 1 1 0 0 1 1 0 1 1 1 0 1 0 0 0 0 3 0 0 1 1 1 1 0 1 1 0 1 2 4 0 0 0 1 4 2 0 1 0 0 0 0 0 0 1 1 0 1 3 0 1 0 0 0 0 1 1 7 2 2 1 5 0 1 0 0 0 0 0 0 0 4 0 0 4 0 1 1 1 0 0 1 6 0 0 1 1 1 1 0 0 0 1 2 2 0 1 3 0 3 0 0 0 1 0 0 1 0 3 2 0 0 0 1 0 1 1 1 3 1 1 0 0 0 1 1 0 0 7 0 0 0 0 10 2 0 4 1 2 1 1 0 0 0 1 0 0 0 1 2 0 0 1 0 0 0 1 0 0 1 5 1 0 0 0 0 0 1 0 0 0 0 0 1 2 0 0 0 1 1 0 0 0 0 1 0 0 3 0 1 1 0 0 0 0 1 0 0 0 1 1 0 0 0 0 0 0 0 0 0 0 0 0 0 1 1 0 0 1 3 1 1 7 2 3 2 0 0 0 1 2 1 0 1 1 1 1 1 0 1 0 3 0 0 2 0 1 0 0 0 2 1 0 1 1 0 1 0 0 0 0 0 1 2 0 1 1 0 1 2 7 2 0 1 1 0 0 1 1 2 1 1 1 1 5 0 0 0 1 0 0 1 1 0 1 0 1 1 0 0 1 1 1 0 2 1 2 0 1 0 0 0 0 0 1 1 9 8 1 2 0 1 0 2 1 1 1 1 1 0 0 0 0 0 0 0 0 1 2 0 1 0 0 1 1 0 0 0 0 0 0 0 0 0 0 0 0 1 2 0 1 2 1 0 4 3 0 0 0 1 0 1 8 6 0 0 0 1 0 0 1 0 1 2 0 2 0 
0 1 2 1 0 5 0 1 1 0 0 1 4 1 0 1 1 0 0 0 1 0 1 0 1 0 0 0 0 1 0 1 1 2 1 0 0 0 0 0 1 0 2 1 0 2 0 2 6 1 1 1 1 0 1 0 0 0 1 0 2 1 0 1 0 0 5 1 0 0 0 5 0 1 0 1 3 0 1 2 0 0 1 2 1 1 7 1 1 1 1 0 1 0 0 0 1 0 0 1 1 1 0 1 0 1 0 0 0 0 0 0 0 0 0 0 0 0 0 0 1 0 0 0 0 0 0 3 1 0 0 0 0 2 0 0 1 1 1 0 0 2 0 0 1 0 1 2 1 0 0 0 0 0 0 0 0 0 1 2 1 0 0 0 0 1 0 1 0 2 3 1 0 2 0 0 1 0 1 1 0 1 0 5 1 1 1 6 1 1 1 0 5 9 2 0 1 0 0 0 0 2 0 0 1 0 1 1 1 0 0 2 2 0 1 0 0 0 0 0 0 3 0 2 0 1 5 1 1 1 0 0 1 1 0 2 0 2 0 1 0 0 0 1 0 0 1 0 1 0 0 0 0 1 1 1 1 0 1 0 0 1 1 2 0 1 0 0 0 0 2 0 2 0 0 0 1 0 1 1 4 1 1 0 0 1 1 2 0 0 0 0 0 2 0 1 0 0 1 1 1 0 1 0 0 0 0 0 0 1 5 1 1 2 12 2 0 1 0 0 2 0 1 0 0 0 0 1 1 0 0 0 0 0 6 0 0 0 0 0 0 1 0 1 5 2 6 0 0 0 0 0 0 1 0 0 0 0 0 0 0 0 1 0 0 1 0 0 0 0 0 0 0 0 2 1 1 0 2 0 1 0 0 0 0 1 3 0 0 1 0 1 0 0 0 1 1 1 0 0 1 6 0 10 1 0 2 1 3 0 0 1 1 4 0 1 2 0 0 0 0 0 0 0 0 1 0 0 0 1 0 0 0 1 1 1 0 0 0 2 1 1 1 2 4 0 0 0 0 1 0 0 1 2 0 0 0 0 0 1 0 1 0 2 0 0 0 1 1 0 0 0 0 1 0 0 0 1 1 1 0 0 0 3 0 0 0 0 0 1 1 1 4 4 1 0 0 3 1 1 0 0 0 1 0 0 2 0 0 0 0 0 0 0 1 0 0 1 0 0 1 2 2 1 0 0 0 1 0 0 0 1 3 1 1 0 1 0 0 1 1 0 0 3 0 1 1 0 1 1 0 2 0 0 0 0 1 1 0 0 0 0 1 0 1 2 1 1 1 0 2 4 0 1 0 0 0 3 0 1 6 2 1 1 1 0 0 0 2 2 6 0 1 1 0 2 1 0 2 0 0 0 0 0 0 1 1 1 1 1 1 3 1 1 1 1 2 0 0 0 1 3 1 0 0 1 0 0 1 0 0 0 1 1 2 0 1 1 0 0 
0 0 1 1 6 3 0 1 0 0 0 2 2 1 0 5 0 0 1 1 1 1 0 3 1 0 1 0 0 7 1 0 0 2 0 0 0 0 0 1 4 1 0 1 0 1 8 0 0 1 1 7 1 0 1 0 1 0 1 1 0 0 0 0 0 0 0 0 2 0 1 2 0 1 2 4 0 2 1 1 0 2 0 0 0 0 0 2 0 0 1 1 0 0 0 1 0 0 0 0 0 0 0 1 0 0 0 0 0 1 0 1 0 0 0 0 0 0 0 0 2 0 0 0 4 2 8 0 2 0 1 1 1 0 1 0 0 0 0 2 0 0 0 1 0 1 0 0 1 1 0 1 2 3 0 0 0 1 0 0 0 0 0 0 0 0 0 0 0 1 1 0 1 0 0 1 0 0 0 0 0 1 0 1 0 0 0 0 1 1 1 1 2 1 1 6 2 0 0 0 1 1 0 1 0 0 1 4 0 1 1 1 2 0 1 0 0 0 0 1 2 1 1 1 0 1 1 0 0 0 0 1 0 1 1 0 1 1 0 1 1 1 1 0 0 0 0 0 0 0 0 0 2 1 1 2 0 0 1 0 0 1 0 2 0 1 1 0 2 0 2 0 1 1 2 1 5 1 0 2 2 2 1 1 0 1 1 0 0 0 1 0 2 0 0 0 1 0 0 5 2 2 1 5 2 1 0 0 0 0 0 0 1 0 1 0 0 1 0 2 0 0 0 0 0 0 0 1 1 1 1 0 0 0 1 0 1 0 0 0 1 1 1 0 0 1 1 0 0 0 2 1 0 1 0 0 0 1 1 1 0 0 0 0 0 3 2 1 1 1 5 1 1 0 1 1 1 0 1 1 0 1 0 0 4 0 0 0 0 2 0 0 0 1 1 0 0 1 0 0 0 0 1 0 4 0 1 0 3 0 2 1 1 0 1 0 0 2 1 0 0 0 1 1 0 1 1 1 1 0 0 1 1 0 1 0 0 1 0 1 0 0 1 1 1 0 1 0 1 0 1 0 1 0 2 1 0 2 0 1 0 0 1 1 1 0 0 1 2 0 0 1 0 0 2 1 0 0 0 1 0 0 0 0 1 4 0 0 1 0 0 0 0 0 1 3 0 0 4 1 0 1 1 0 0 0 0 1 1 0 0 0 0 0 0 0 0 0 0 0 0 0 0 0 0 1 0 1 0 0 1 2 0 0 1 0 1 0 2 0 1 0 0 1 0 0 0 1 0 1 0 1 0 2 2 3 0 0 3 0 0 5 1 1 1 1 0 0 0 0 1 1 2 1 1 0 0 0 0 2 2 1 0 3 2 0 1 1 0 6 2 1 0 0 3 0 0 1 0 2 0 1 1 0 2 0 0 0 0 0 0 1 3 3 1 5 1 2 0 0 0 2 0 1 0 0 0 0 1 1 1 1 0 0 1 1 0 1 0 0 
0 0 0 0 0 0 1 2 0 0 0 1 0 0 1 1 0 0 0 0 0 1 2 1 0 1 2 2 1 1 8 2 1 2 0 1 0 0 0 2 0 0 1 0 1 1 2 1 0 0 1 1 1 0 1 2 1 1 0 0 1 0 0 0 8 1 0 3 1 0 0 0 0 1 1 6 1 0 0 1 0 1 0 1 0 0 0 0 4 0 0 2 3 0 0 1 3 1 0 0 0 0 0 0 0 0 0 0 1 0 0 0 1 1 1 0 0 2 1 0 2 1 0 0 3 0 0 0 0 1 0 1 1 0 0 1 0 0 0 4 0 0 0 0 0 1 7 0 1 1 0 0 1 1 0 0 0 0 0 1 0 4 1 1 2 0 0 0 1 3 0 2 1 0 1 0 1 0 1 2 0 0 0 1 1 0 1 0 1 2 1 5 3 1 0 2 0 0 0 0 1 3 0 1 1 5 1 1 0 0 0 0 0 1 0 0 0 0 0 1 0 0 0 1 0 0 0 0 0 0 0 0 0 0 0 7 1 0 1 1 0 1 2 7 5 0 1 0 0 1 1 1 0 0 0 0 0 4 0 0 2 3 1 1 1 1 6 3 0 0 1 0 0 2 0 0 0 0 2 1 0 3 0 0 0 2 5 1 0 0 0 0 1 0 1 1 0 0 0 0 1 0 0 0 0 1 0 0 1 0 1 1 3 1 0 1 2 1 1 2 1 0 2 0 0 0 0 1 4 0 1 0 0 0 1 1 1 1 8 1 0 0 0 0 0 0 0 0 0 0 0 1 2 0 5 1 1 0 1 0 1 1 0 1 0 1 1 3 1 0 0 0 0 0 1 2 3 0 1 0 0 1 0 3 1 0 0 0 1 0 2 0 0 0 1 0 0 0 1 0 1 1 1 0 0 2 0 0 2 0 0 0 0 1 0 1 4 0 4 0 0 0 2 1 2 1 1 1 1 0 0 0 0 0 1 0 0 0 0 0 1 0 1 2 1 2 1 0 3 0 1 1 3 0 1 0 0 0 1 0 0 5 0 0 2 0 1 0 0 1 0 1 1 1 4 0 1 0 0 1 4 2 0 0 0 1 5 2 1 1 1 2 0 0 0 1 0 1 2 1 1 2 1 0 2 0 0 2 0 0 0 0 1 1 0 0 0 0 1 0 1 0 1 1 1 3 1 0 0 3 0 0 1 0 1 1 3 0 1 0 1 1 0 0 0 0 0 2 0 0 0 0 1 1 0 0 0 1 0 0 0 1 2 0 0 0 1 0 1 2 1 0 0 2 0 1 4 2 0 0 1 0 0 1 2 0 1 1 0 1 1 1 0 2 1 1 0 0 1 0 1 0 0 0 0 0 1 0 1 0 0 1 1 2 1 1 0 0 2 1 1 1 0 1 0 0 0 1 0 0 0 0 1 0 0 0 0 1 0 0 
0 0 0 0 2 0 1 1 1 1 1 0 0 0 1 1 0 0 0 2 0 3 4 2 0 0 1 0 0 1 1 0 0 1 1 0 0 1 0 1 1 1 1 1 6 1 1 0 1 1 1 5 1 0 0 1 0 0 0 1 0 0 0 1 2 0 0 0 4 0 1 5 0 0 0 4 8 1 0 0 1 2 0 1 0 1 1 2 0 0 0 0 2 0 0 0 3 1 0 1 1 1 0 0 1 2 0 0 0 0 1 0 0 1 0 1 0 0 0 3 1 1 0 0 1 0 2 0 0 0 0 0 0 2 1 1 1 0 0 1 1 1 2 5 0 0 0 1 0 1 1 0 0 2 0 1 1 0 0 1 0 0 0 1 1 0 0 0 0 1 1 4 1 0 0 0 0 0 1 0 0 1 4 6 1 2 0 2 3 1 1 1 1 0 0 0 0 1 0 1 0 0 1 1 0 2 3 0 1 0 0 1 0 2 0 1 0 1 3 0 0 0 2 1 1 0 3 0 0 0 1 1 0 1 1 7 1 0 1 3 0 0 1 1 0 1 0 0 1 0 0 0 2 1 1 0 0 0 3 0 0 1 0 5 4 1 0 1 1 1 1 2 0 1 0 1 0 0 0 0 0 0 0 0 0 4 1 0 0 1 1 0 2 1 0 0 1 4 1 1 0 0 1 0 0 0 1 1 0 0 0 2 4 1 0 0 1 0 0 0 1 0 0 0 1 0 0 0 1 0 1 1 1 0 0 3 1 0 0 0 0 1 2 0 0 0 1 1 1 0 1 0 1 2 4 7 0 1 0 2 2 0 1 0 2 2 0 1 1 1 1 0 0 0 3 0 0 1 1 1 0 1 0 2 1 0 1 2 0 0 0 2 5 0 0 0 0 0 0 1 1 0 0 1 2 0 1 5 0 0 0 2 0 0 0 2 2 0 0 2 0 1 1 0 2 1 0 0 1 0 1 0 0 0 0 0 1 0 0 1 1 1 1 1 0 0 0 0 1 1 1 1 2 1 0 0 0 0 0 0 1 1 2 1 1 1 0 0 0 1 6 8 1 0 0 1 0 2 0 1 0 2 5 1 0 0 3 2 0 1 1 0 0 1 0 7 1 1 1 2 2 1 2 0 2 1 0 0 1 1 0 1 1 1 0 0 0 1 2 2 4 0 0 1 0 0 0 0 0 0 0 0 0 1 1 1 2 0 2 0 0 0 0 0 3 1 0 0 0 0 1 0 0 1 2 1 0 0 0 0 1 0 1 1 0 0 1 0 0 0 2 1 1 0 0 0 1 0 0 2 0 1 2 0 0 0 1 1 0 0 0 2 0 2 0 0 0 0 0 0 1 1 0 1 0 0 0 0 0 0 0 0 1 1 0 3 1 0 3 1 0 1 1 1 0 0 1 0 2 0 0 0 0 0 0 1 0 0 1 3 
0 0 0 0 1 0 0 0 1 1 1 2 0 0 1 0 2 0 1 0 1 1 1 1 1 0 1 0 1 0 0 0 0 0 0 0 0 0 0 1 0 0 0 0 2 2 0 0 1 0 0 0 1 0 0 0 0 1 0 0 1 1 0 0 1 1 0 0 1 1 1 1 1 1 1 2 1 0 0 6 6 1 1 1 0 1 1 0 0 0 0 0 1 0 1 1 3 1 1 2 0 1 1 0 0 1 1 1 7 0 1 0 0 1 1 1 1 1 1 0 1 1 0 0 1 1 1 0 0 0 0 0 2 1 1 0 0 2 1 1 1 0 0 0 0 0 0 0 0 0 0 0 0 1 1 0 1 0 0 3 0 0 0 1 1 1 0 0 1 1 0 1 0 2 1 0 0 1 1 0 0 0 1 0 2 5 0 1 0 0 2 2 0 1 1 0 5 1 0 0 0 0 0 3 1 0 3 2 2 1 2 0 0 0 0 1 2 0 1 0 0 0 1 1 0 1 0 1 1 0 1 0 2 0 0 2 0 2 0 1 0 0 0 0 0 4 2 5 1 0 0 1 2 0 3 0 1 0 2 0 0 1 0 2 2 0 0 2 1 0 0 0 0 0 1 0 1 1 1 1 0 0 0 0 0 1 1 1 0 0 1 0 0 0 0 0 1 0 3 0 2 1 0 0 0 1 0 2 1 1 0 0 0 1 2 0 0 0 0 1 7 1 0 0 0 1 0 0 0 2 0 1 1 1 0 0 1 0 0 0 1 0 0 0 1 1 1 0 1 0 0 0 1 5 0 0 1 0 1 0 0 0 2 0 0 2 1 7 0 1 1 1 0 1 0 1 3 0 2 0 0 0 1 0 0 0 0 0 0 0 0 1 1 1 0 0 5 0 0 0 1 0 0 0 0 1 0 0 0 0 8 2 0 2 0 2 0 0 4 1 1 0 1 0 0 0 0 0 2 6 0 2 5 3 2 0 0 0 0 0 0 0 0 0 0 1 0 0 0 1 0 1 1 0 0 0 0 2 0 0 1 0 0 0 1 0 0 0 0 1 3 1 0 1 1 4 1 1 0 0 0 0 0 0 1 1 0 2 4 0 2 0 1 0 0 0 0 2 1 2 1 0 0 0 0 1 1 1 0 0 0 1 1 0 1 0 1 0 0 1 0 0 5 0 1 0 2 0 1 0 0 1 0 0 0 1 1 2 1 0 3 0 0 0 0 1 1 0 0 0 1 2 0 0 1 2 0 0 1 1 1 0 1 0 0 1 1 1 0 0 0 0 0 0 0 0 4 1 1 0 0 0 0 1 1 1 1 0 1 1 1 1 0 2 0 0 0 0 0 1 1 1 0 0 0 1 0 0 0 2 1 1 0 0 2 7 1 0 2 1 2 1 0 1 1 1 0 0 1 0 0 0 0 3 2 1 0 0 1 0 
1 1 0 0 0 0 1 1 0 1 0 1 2 1 0 0 0 0 1 0 0 1 1 0 0 1 1 4 0 0 0 0 0 0 1 0 0 0 0 1 0 1 1 4 0 0 0 0 1 0 1 1 2 1 0 0 0 0 0 0 0 0 0 1 1 0 4 1 1 0 1 0 1 0 1 1 1 3 0 1 5 1 1 0 0 1 0 0 0 1 0 4 2 0 0 2 0 0 1 0 0 1 0 0 0 1 0 0 0 1 0 0 1 0 1 0 0 1 3 5 1 1 0 0 1 1 0 2 0 0 2 0 5 0 0 1 0 0 2 1 1 0 1 1 0 1 0 1 2 0 1 1 0 0 1 1 0 2 0 0 0 0 0 0 1 0 0 0 0 0 1 0 1 0 0 0 1 1 1 2 1 0 0 1 0 0 1 0 1 0 0 1 0 2 0 0 0 1 0 1 0 1 0 1 0 8 0 2 0 0 1 0 0 0 1 2 10 1 1 0 0 0 0 1 1 0 0 1 1 1 0 1 0 2 0 0 0 0 0 1 0 0 0 2 1 0 0 1 0 1 1 1 0 0 0 0 1 1 0 1 0 1 1 0 0 0 0 0 2 17 1 4 1 0 1 0 1 0 0 9 0 0 2 2 1 0 0 0 0 2 0 1 1 0 1 0 0 1 0 1 1 1 1 0 0 0 0 0 10 0 0 1 8 0 0 1 0 0 0 1 0 0 3 1 0 1 1 0 1 1 1 1 1 1 0 0 2 0 0 6 0 0 0 0 3 2 1 0 1 5 0 3 0 1 1 0 0 0 1 1 1 0 0 1 0 0 7 1 1 0 2 1 1 0 0 0 2 1 1 1 0 2 0 1 0 0 0 0 1 0 0 0 0 1 1 3 1 0 1 1 0 0 0 0 0 1 1 0 0 2 0 0 7 1 0 0 0 0 0 1 0 0 0 3 0 0 0 1 1 1 0 0 1 2 0 1 0 1 0 0 0 1 2 2 0 0 1 0 0 0 2 0 0 0 0 0 0 2 1 0 0 1 0 0 0 1 1 1 1 0 5 9 2 0 1 9 9 1 0 1 0 0 1 1 1 0 0 5 2 7 1 1 1 1 0 0 0 0 0 0 1 1 1 5 5 0 0 0 0 0 0 0 0 1 0 0 0 0 0 2 0 1 1 1 0 0 1 1 1 2 1 0 0 0 0 1 0 0 0 0 1 0 1 0 0 0 0 1 2 0 0 0 0 0 1 0 1 1 0 1 0 0 0 0 0 1 1 0 0 0 2 0 0 0 1 3 0 2 0 1 0 0 1 0 2 0 0 1 0 2 2 0 0 2 6 1 1 1 0 1 0 0 0 1 1 1 0 1 0 0 0 1 0 0 1 1 0 0 1 1 1 0 0 0 0 1 0 0 1 1 0 0 0 0 0 1 1 0 1 0 
8 2 0 1 0 0 0 0 1 0 0 2 1 1 0 0 1 0 0 0 1 1 1 3 1 1 0 1 0 4 0 0 1 0 2 1 0 0 3 1 0 1 1 1 2 0 2 1 0 0 0 1 2 1 1 1 2 0 0 0 0 1 1 1 0 1 2 0 0 0 0 0 0 0 0 1 0 0 3 0 0 1 0 1 0 0 1 1 0 1 2 0 0 0 1 1 0 0 0 0 0 1 1 1 1 0 1 0 0 0 0 1 0 0 0 1 1 1 1 0 0 0 2 1 0 0 0 2 1 0 1 0 1 2 0 8 1 0 2 0 0 0 1 1 2 0 0 1 5 2 0 0 1 0 1 0 1 0 0 0 0 0 0 0 1 0 0 0 0 0 2 0 1 0 0 0 1 0 0 0 0 0 0 1 1 3 0 0 1 0 0 0 1 5 1 2 0 1 0 0 1 0 0 1 0 1 0 1 6 0 1 0 0 0 0 1 1 0 1 0 1 0 0 1 0 0 5 1 1 1 0 0 0 0 0 1 2 1 0 0 1 0 0 0 0 1 7 1 0 1 0 0 1 0 1 1 1 0 0 2 0 1 1 0 4 0 0 0 1 1 0 1 0 0 1 2 1 0 0 1 1 1 1 0 7 1 0 0 0 1 1 2 0 0 1 1 0 0 0 1 1 1 1 0 0 0 0 0 1 1 0 0 1 1 0 0 4 1 2 0 1 1 4 0 0 1 1 1 1 0 3 3 1 0 1 0 1 8 0 1 1 0 0 0 1 0 1 1 0 0 1 0 1 0 1 1 0 1 0 0 1 0 1 0 2 1 1 0 2 0 1 1 0 1 1 1 0 0 0 1 0 0 0 0 1 1 2 1 0 0 1 0 0 1 2 9 1 2 1 0 0 0 0 1 0 0 0 0 1 0 0 3 1 0 0 1 0 0 1 6 1 5 0 1 0 1 1 0 0 0 0 1 1 0 1 4 0 1 1 0 0 0 0 0 0 1 1 1 0 0 1 0 2 0 1 0 0 6 1 1 0 0 0 0 0 0 0 0 0 0 2 2 2 1 1 2 1 3 1 0 0 1 1 0 0 1 1 2 6 0 0 1 1 0 0 1 1 0 1 0 0 1 1 1 10 0 0 1 2 2 0 1 0 0 0 0 0 1 1 1 1 0 1 1 1 1 6 3 1 6 1 1 0 0 1 0 2 1 0 1 0 0 1 1 0 0 0 0 1 0 1 0 1 0 1 0 1 0 1 2 0 0 0 0 2 0 0 1 0 0 0 0 0 0 0 2 1 1 1 2 0 1 1 0 0 1 0 1 1 0 0 0 1 1 1 4 0 0 1 2 0 0 0 1 1 0 0 0 1 1 0 0 1 1 0 1 1 1 0 1 1 1 0 0 0 0 1 0 0 2 0 1 1 3 0 1 0 0 0 0 
2 3 0 0 0 0 1 1 0 1 0 1 1 0 0 4 0 0 0 1 0 2 0 0 0 2 0 0 2 1 1 1 1 1 0 0 1 0 0 0 0 0 0 2 0 0 1 0 1 1 0 0 0 0 1 0 4 1 0 0 1 0 0 0 0 0 1 1 0 0 2 2 1 1 0 0 2 0 0 1 0 1 0 1 0 0 1 1 0 0 0 0 0 2 2 8 0 0 0 0 2 1 0 0 1 0 2 1 1 0 0 1 0 0 1 2 0 1 6 0 0 1 2 0 1 0 1 0 0 1 0 0 2 0 0 0 1 0 1 1 2 0 0 0 0 0 2 0 0 0 0 3 2 0 1 0 0 2 0 0 0 0 0 1 0 1 1 1 1 0 1 1 0 0 2 0 0 0 1 0 1 0 1 0 0 0 1 0 2 7 0 0 0 0 5 0 0 0 1 0 0 0 1 0 0 0 0 0 5 1 1 1 0 1 1 0 1 0 1 0 0 0 0 0 0 1 3 5 0 1 0 2 0 0 1 1 0 0 0 1 0 0 1 1 1 0 1 1 1 1 2 0 1 0 2 1 3 0 0 0 1 0 0 3 2 1 1 0 0 2 0 0 0 1 1 1 0 0 0 5 0 1 0 1 1 1 0 1 0 0 4 0 0 0 0 1 0 0 0 0 0 0 0 1 0 0 0 0 1 0 1 0 0 0 2 1 1 1 0 0 0 1 0 0 0 3 0 2 2 1 0 2 1 1 1 0 0 1 4 0 1 4 0 1 1 0 1 1 0 0 1 0 3 0 0 0 0 5 0 0 0 1 0 2 1 0 0 0 1 1 0 4 0 0 7 2 1 3 0 0 1 1 2 1 0 0 3 6 0 0 1 0 0 1 2 1 0 0 0 1 1 0 0 0 1 1 0 0 0 0 0 1 0 1 0 0 1 1 2 0 1 1 0 1 1 1 1 1 1 0 0 0 1 1 1 1 0 2 0 2 1 0 0 0 0 0 1 0 0 0 0 0 3 0 0 0 1 7 0 1 2 0 0 0 1 0 0 1 1 1 2 1 1 5 1 2 0 0 2 0 0 0 2 0 0 0 2 0 0 0 1 1 0 1 1 1 0 1 1 1 0 0 0 0 1 0 4 1 1 0 0 0 0 0 0 0 1 2 5 0 1 0 5 1 0 1 2 3 1 1 0 1 0 0 0 0 0 1 0 0 0 0 0 1 1 1 0 0 0 0 0 0 0 0 1 2 0 0 2 3 0 1 0 0 8 0 3 0 1 0 0 0 0 0 0 0 2 5 1 2 0 0 1 0 1 1 0 1 0 0 0 0 1 0 3 1 0 2 0 0 0 2 2 0 0 1 2 0 0 0 1 0 1 1 1 2 1 9 1 1 2 0 0 2 1 0 0 1 0 0 1 1 0 0 0 2 1 1 2 0 
1 0 1 0 0 0 0 0 0 1 1 1 0 0 0 0 0 1 0 0 1 0 0 1 1 0 0 5 2 0 0 0 0 0 0 2 1 1 0 1 1 0 0 0 0 1 1 0 2 1 0 0 1 1 1 1 0 0 0 0 0 1 1 0 1 0 0 0 0 0 0 2 0 0 0 0 0 0 2 0 0 0 0 0 1 2 0 0 0 2 2 1 1 0 0 1 0 1 1 0 5 2 0 1 4 0 0 1 2 1 5 0 4 0 2 0 2 1 1 0 0 0 1 1 0 0 0 0 1 0 0 1 0 0 1 1 0 1 2 0 0 0 0 1 0 0 1 0 1 0 0 0 1 1 0 0 0 0 1 1 0 0 1 0 1 0 0 1 0 0 0 0 2 0 0 1 1 1 0 0 0 1 0 0 0 0 0 0 0 1 1 1 0 0 0 0 0 0 1 1 0 1 2 5 4 0 0 0 1 1 1 0 3 2 0 1 1 0 0 0 0 0 0 0 1 1 2 2 1 2 1 0 1 0 2 1 1 0 0 1 0 1 0 0 0 0 1 0 2 2 0 1 1 1 0 0 1 0 0 0 0 1 0 0 0 0 1 1 2 0 1 2 2 2 1 0 0 1 1 0 0 0 1 0 0 2 2 3 0 1 0 2 2 0 0 0 1 1 5 0 1 1 1 1 0 0 0 1 0 0 1 1 1 0 0 0 0 0 1 1 1 1 0 0 1 0 0 0 1 2 0 0 0 0 0 1 0 1 2 0 1 2 2 3 0 1 0 1 0 0 0 0 0 1 1 0 0 1 0 0 1 1 1 0 0 2 0 0 0 1 2 0 0 0 11 11 1 0 0 0 0 0 0 0 1 1 1 0 0 1 0 2 1 0 1 1 1 0 0 0 1 0 0 0 0 0 0 0 0 1 2 5 7 1 0 1 0 0 1 0 2 0 0 0 1 0 0 1 1 0 0 0 4 1 0 1 0 2 1 1 0 1 0 3 2 2 2 0 0 1 1 2 0 4 0 0 1 0 0 2 0 0 1 1 1 0 1 1 1 0 2 0 0 0 0 0 0 0 1 0 1 0 1 0 1 2 6 0 0 0 1 0 0 0 1 0 0 0 1 1 0 0 1 0 1 1 0 1 0 1 0 2 1 0 2 0 0 0 1 0 1 0 1 2 1 1 0 0 0 1 0 1 0 0 1 0 1 0 2 0 0 2 1 0 1 0 1 0 0 0 0 1 0 0 6 1 1 4 0 0 0 0 0 0 0 0 0 1 0 0 8 0 1 0 0 0 1 0 1 1 0 2 0 0 0 0 1 1 0 0 0 2 1 0 1 0 6 0 1 0 0 0 0 0 0 0 0 0 1 1 0 0 1 0 5 0 1 0 1 1 1 0 1 0 1 1 2 2 5 2 1 1 1 1 1 1 0 0 0 1 
0 0 2 0 0 0 0 0 0 2 0 2 4 0 0 0 0 0 0 1 2 0 1 0 0 0 0 0 0 2 2 1 0 0 0 1 2 0 1 0 0 0 0 1 1 0 0 0 0 0 0 0 0 1 0 0 2 0 3 0 0 1 0 1 2 1 0 1 1 0 0 1 0 0 1 1 2 1 1 0 1 0 0 0 0 0 1 0 1 0 0 1 0 2 0 1 3 0 0 0 1 0 1 1 2 0 0 1 0 1 1 1 0 0 2 1 0 0 2 0 2 0 0 2 0 0 0 0 0 0 1 0 1 0 0 1 0 0 2 1 1 0 5 0 3 0 0 0 0 0 0 0 1 2 2 1 1 1 0 1 1 1 1 0 0 1 0 0 1 2 0 0 1 1 1 0 0 0 0 4 1 0 0 1 0 2 0 3 0 0 1 1 0 1 0 0 0 0 0 0 1 0 0 1 1 0 1 1 6 1 0 0 1 0 0 1 1 2 5 0 1 1 0 2 0 0 1 13 11 1 0 1 1 2 2 0 1 0 0 0 1 0 0 1 1 5 1 1 0 0 0 0 2 0 3 2 0 0 0 1 0 0 8 0 0 0 2 1 1 1 0 1 0 2 2 0 12 4 1 0 1 0 2 0 0 1 0 1 2 0 10 0 1 0 0 1 0 0 1 1 0 1 0 0 6 1 1 1 0 0 5 6 1 0 0 0 1 0 0 2 1 1 1 1 0 2 3 1 1 1 0 1 1 0 1 0 4 0 0 0 0 4 1 1 4 2 0 0 1 0 0 1 1 0 1 0 1 1 0 0 0 0 1 0 1 0 0 0 0 0 0 0 0 2 0 8 2 0 0 0 2 0 0 1 1 0 1 0 0 0 3 1 1 2 0 0 1 0 0 0 0 1 1 1 0 0 0 0 1 0 2 1 1 1 1 2 0 2 0 0 0 2 0 1 0 2 0 0 1 0 0 1 0 0 1 1 1 0 0 0 3 0 0 1 0 3 0 0 1 0 0 1 1 0 1 0 2 0 2 0 0 1 3 0 0 1 4 0 0 1 0 0 0 1 0 0 1 0 1 0 1 0 0 1 1 1 0 0 0 2 0 0 0 0 3 0 1 1 0 0 0 0 1 2 6 5 1 0 0 0 1 5 2 0 0 2 0 1 0 1 1 0 1 1 0 1 1 0 0 0 1 2 0 0 0 0 1 0 0 0 0 0 1 0 1 1 0 1 0 1 2 0 0 1 0 5 1 1 1 0 1 0 0 1 0 1 0 0 0 0 2 4 1 1 1 0 0 1 1 1 0 0 1 0 0 0 1 1 1 0 2 0 1 1 2 1 0 5 1 3 0 2 1 6 1 0 2 1 1 0 0 1 1 1 1 0 1 1 5 0 1 0 0 1 0 0 1 0 1 4 1 0 0 1 1 0 1 1 0 0 
0 0 1 1 0 0 0 1 4 0 0 1 0 0 0 0 1 0 0 0 0 0 3 0 1 0 1 2 0 0 0 0 1 0 0 1 0 1 0 0 1 0 0 0 0 0 0 0 0 1 0 1 0 0 0 0 1 1 0 0 0 0 0 1 1 0 0 1 2 1 0 1 1 0 1 0 0 4 2 1 0 1 0 1 1 0 0 0 1 0 3 2 0 1 0 0 0 1 1 1 0 0 1 0 0 1 6 0 1 0 0 0 0 0 1 0 0 0 0 1 0 0 0 1 1 0 0 1 1 0 1 0 1 1 0 1 0 1 1 5 0 0 0 0 1 0 1 8 1 6 0 1 0 0 0 1 1 0 0 0 0 1 2 2 1 0 0 0 1 0 2 0 0 0 0 0 0 2 0 1 0 2 1 0 1 0 1 0 0 0 0 0 1 0 0 1 0 1 2 1 2 0 3 0 1 0 0 0 0 0 0 0 1 1 0 1 0 4 0 1 0 1 0 1 1 0 1 1 4 2 0 8 0 1 0 1 7 2 3 0 0 0 0 0 0 2 1 0 0 0 1 1 1 1 1 1 2 1 3 0 0 0 2 1 0 1 0 0 0 0 1 1 0 1 0 1 1 0 3 0 1 0 2 0 0 0 0 1 0 2 1 0 1 0 0 1 0 4 0 2 0 1 0 0 1 1 0 0 1 0 2 0 1 0 0 1 1 2 0 1 2 2 4 0 0 4 0 0 1 0 0 1 0 1 0 1 1 2 1 0 0 0 0 0 1 0 1 1 3 1 0 0 1 0 1 0 0 0 1 0 0 0 0 0 1 1 0 1 1 1 0 4 1 1 0 0 3 1 1 1 0 0 0 0 0 2 0 0 1 1 2 0 1 0 1 1 1 1 1 0 1 0 0 0 0 1 2 0 1 1 0 0 1 0 0 2 2 7 2 1 8 0 1 1 0 0 0 0 1 0 1 0 0 1 0 3 0 0 0 1 1 0 0 0 0 0 1 2 1 1 1 6 1 1 1 0 0 1 0 1 0 0 0 0 0 1 1 1 0 1 0 0 0 1 0 0 1 2 1 0 0 0 1 0 1 0 0 1 0 1 1 0 0 1 0 1 6 0 0 1 0 1 0 0 1 4 0 1 0 0 0 1 1 1 0 2 0 1 5 1 0 2 5 0 0 0 1 1 1 0 1 0 0 4 1 2 1 0 0 1 0 0 0 1 1 0 1 5 0 1 0 0 0 1 1 1 1 1 0 0 0 0 5 1 0 1 0 4 1 2 0 0 1 0 0 1 0 0 0 1 0 0 0 0 0 0 0 0 1 1 1 0 1 6 6 1 0 2 1 0 0 3 1 0 2 1 1 0 0 1 0 1 0 9 1 1 1 2 0 0 0 1 0 0 0 1 0 1 0 1 0 1 0 0 0 3 7 1 0 1 
0 0 0 3 0 2 0 0 10 1 0 0 2 0 0 0 0 0 1 0 0 1 0 1 0 0 2 1 0 1 0 0 1 0 1 1 1 0 0 0 1 1 0 1 0 0 1 0 0 1 1 0 1 3 1 1 1 0 1 0 0 0 0 3 3 2 0 2 1 0 0 0 0 1 2 1 0 1 0 0 0 0 0 0 1 0 1 1 1 1 1 2 0 0 0 0 0 1 0 0 0 0 0 1 1 0 1 1 1 0 1 1 0 2 0 0 0 0 0 0 0 1 0 0 3 1 0 0 0 1 0 1 1 0 1 1 0 0 0 0 1 1 0 1 1 1 0 1 1 0 0 0 0 1 2 0 0 0 0 1 1 1 0 0 0 0 0 0 0 6 0 0 1 1 0 0 0 1 0 2 0 0 1 0 0 0 1 0 0 0 0 1 0 0 0 1 2 4 1 1 1 0 1 0 0 0 1 0 1 0 0 0 0 1 1 0 0 0 1 0 3 1 0 0 1 1 0 2 2 1 3 0 1 0 0 0 1 0 1 2 5 1 1 1 0 1 0 1 0 1 0 0 0 1 0 0 1 0 0 2 0 2 7 1 0 0 2 1 0 0 0 0 0 0 1 0 2 1 0 0 1 3 3 1 0 0 1 5 0 1 0 0 0 1 1 0 0 0 6 0 0 0 1 0 1 0 0 1 1 0 0 0 0 0 1 0 1 0 0 0 1 0 1 1 1 1 1 1 0 3 0 1 1 1 2 1 0 1 8 1 2 0 0 0 0 0 2 1 0 0 1 0 1 2 1 2 0 1 0 0 1 1 0 0 4 1 1 1 1 2 1 2 0 1 3 0 1 1 1 0 1 0 1 2 2 5 0 6 1 1 1 2 1 1 1 1 1 1 1 1 0 1 2 0 0 3 0 0 0 4 0 2 0 1 1 1 1 5 0 1 0 2 1 6 1 0 0 1 0 0 0 0 0 0 0 2 1 0 0 1 1 0 0 1 1 1 1 0 0 1 0 1 0 0 0 0 0 0 0 0 1 0 0 0 3 1 1 0 1 1 2 0 2 0 1 0 0 0 1 0 0 0 0 0 0 3 1 1 0 0 0 1 1 1 2 1 0 0 0 0 1 0 1 1 0 0 1 0 0 0 0 1 0 0 0 1 1 2 1 0 1 1 0 1 0 0 3 2 0 0 0 0 1 4 3 1 1 1 0 1 0 0 1 1 1 0 0 1 1 0 1 0 0 0 0 0 1 0 0 2 1 2 0 0 5 0 0 1 0 1 2 0 1 0 0 0 0 0 1 0 0 1 0 0 0 0 0 0 0 0 0 1 6 0 0 1 1 1 0 0 1 1 0 0 0 0 0 1 2 1 2 0 1 5 0 1 5 1 1 0 0 0 1 0 0 0 1 1 2 0 0 0 0 1 0 2 6 0 0 1 
1 3 1 0 0 1 2 0 1 3 0 1 0 0 0 1 0 1 0 5 1 0 0 2 0 0 1 0 2 1 0 1 1 0 0 0 0 0 2 1 2 1 0 1 1 0 0 0 2 1 1 1 2 6 7 1 0 1 0 1 0 1 1 2 1 0 0 0 1 1 1 1 0 0 1 0 1 1 6 0 2 1 2 1 0 0 0 1 0 0 1 1 1 0 0 0 1 0 1 0 1 1 0 0 0 0 1 0 0 1 2 0 0 3 0 0 3 0 0 1 1 0 0 0 0 0 0 1 1 0 0 1 0 1 1 1 1 0 0 0 2 0 1 3 1 0 1 0 0 0 1 0 5 0 1 1 6 0 1 0 0 0 0 0 1 2 0 1 1 1 1 0 1 1 1 0 1 0 1 7 1 1 1 0 0 4 1 1 3 4 0 0 1 0 0 0 1 0 1 1 0 1 1 1 0 0 0 1 0 0 1 0 2 0 0 0 0 0 1 0 0 0 1 0 2 0 0 4 2 2 1 1 0 1 0 0 0 2 1 2 0 4 0 9 7 1 3 0 0 0 0 1 0 1 0 0 1 0 0 0 0 2 2 2 1 1 6 0 0 1 0 0 0 1 0 3 0 0 0 0 0 0 0 0 1 0 0 0 0 2 0 3 1 1 2 0 0 1 9 4 1 0 0 1 3 0 0 2 1 0 0 2 2 0 0 0 0 0 0 1 1 0 0 0 1 1 1 1 0 4 2 1 2 0 0 1 3 2 1 0 1 0 2 1 0 0 2 2 1 0 1 4 1 0 2 1 0 0 0 0 0 0 0 1 1 1 0 1 0 0 0 1 0 0 0 1 0 2 0 0 1 1 2 1 1 0 0 0 1 1 4 0 0 0 0 2 0 1 1 0 1 0 2 1 1 1 1 0 0 3 0 0 0 2 2 0 1 2 0 3 1 0 0 0 0 0 4 0 0 4 1 0 0 0 2 0 1 2 0 0 0 0 0 0 0 0 0 0 1 1 1 3 2 0 0 1 1 1 1 1 0 0 0 1 1 0 0 0 0 1 4 3 4 0 1 2 1 0 0 0 0 0 0 2 0 2 1 1 0 0 0 0 0 1 0 0 4 1 0 1 0 0 1 0 1 0 0 0 1 2 0 0 0 0 0 1 0 3 2 0 0 0 0 2 2 4 0 1 0 0 0 1 1 0 0 0 1 0 1 0 0 0 0 0 0 0 1 1 2 0 0 1 2 0 0 0 1 0 1 0 1 2 1 2 0 0 1 0 1 0 1 2 0 0 0 0 1 1 0 1 0 1 3 0 0 0 0 1 0 0 0 0 1 0 0 1 1 1 0 0 1 0 1 6 1 1 0 0 1 1 1 0 0 1 0 4 0 0 0 2 0 0 0 2 2 0 0 0 1 0 0 1 1 1 0 0 0 0 2 0 
1 0 1 1 1 4 1 0 0 1 0 0 0 0 0 0 1 0 1 0 0 1 0 0 7 1 0 0 0 0 0 1 0 0 0 1 0 0 2 0 0 1 2 6 1 4 1 0 0 1 1 0 1 1 4 1 1 0 0 1 1 1 0 1 0 1 0 2 4 1 4 0 1 0 1 1 2 0 0 1 0 0 1 0 0 0 0 0 0 0 0 0 0 0 1 2 0 0 0 2 1 1 0 1 0 0 0 0 0 0 0 5 0 0 0 1 0 2 2 0 0 0 0 0 1 0 0 0 3 0 0 0 2 0 0 0 1 0 1 0 1 0 1 0 4 1 0 0 0 0 0 0 0 1 2 0 1 1 0 0 5 0 1 1 1 0 1 0 4 0 0 0 5 1 0 0 0 0 1 2 0 0 0 0 7 1 0 0 1 0 4 1 2 0 1 0 0 0 0 0 1 0 1 0 1 1 1 0 1 0 2 0 2 0 0 0 0 0 0 1 0 1 0 1 1 0 0 1 3 1 1 1 1 0 0 0 0 1 0 1 1 0 0 1 1 0 1 0 0 1 1 0 0 1 7 0 2 0 2 0 2 0 2 0 1 2 0 0 0 1 0 2 1 0 1 1 0 0 0 0 3 1 0 2 0 0 0 0 1 1 0 1 0 2 6 1 0 0 0 0 1 1 0 1 1 0 1 1 1 2 5 1 0 1 0 1 0 0 0 0 1 1 1 2 0 0 1 3 1 0 1 5 2 6 2 0 0 7 1 2 4 1 1 1 1 1 0 2 9 6 2 1 0 2 0 0 1 1 0 0 0 0 0 1 0 1 1 1 0 0 0 0 0 1 0 0 0 0 0 1 0 0 1 1 1 0 2 1 1 1 0 0 0 0 0 0 1 0 1 1 0 0 0 1 0 0 0 0 0 1 0 0 3 2 1 0 1 1 0 0 1 0 0 0 3 1 0 0 0 0 0 3 0 0 0 0 0 0 0 0 1 0 0 0 1 2 0 0 0 1 2 0 1 2 0 0 0 0 0 0 0 1 1 1 1 0 4 1 1 0 1 1 2 0 1 1 1 0 0 0 1 1 0 1 1 0 0 1 5 0 0 2 1 0 0 0 0 1 0 1 2 0 0 1 0 2 1 0 0 0 0 0 1 4 2 0 0 5 4 0 0 0 1 1 4 0 1 0 0 0 0 0 0 1 0 0 1 1 3 0 0 0 0 1 0 0 2 1 1 1 5 1 6 1 1 0 0 0 0 0 0 0 1 0 2 1 0 0 0 0 1 0 0 1 0 0 0 1 0 0 0 0 0 0 0 0 0 0 6 1 0 0 1 1 0 1 0 0 1 1 1 0 1 5 2 1 0 0 0 0 0 2 1 1 0 0 1 0 1 0 0 1 0 1 0 0 0 1 4 1 0 0 4 2 3 0 0 0 1 0 
0 0 0 0 1 2 2 0 3 0 1 1 1 0 0 0 0 1 0 0 0 1 0 4 0 1 2 0 0 1 2 1 0 0 2 4 0 1 2 1 1 0 0 3 5 1 1 0 0 1 0 1 1 5 1 1 0 1 0 0 1 0 0 0 1 4 1 0 1 0 0 0 0 1 1 3 1 0 0 1 0 3 4 1 1 0 0 1 0 0 0 0 0 1 2 1 0 0 0 0 0 1 0 0 0 5 1 1 0 0 0 1 0 0 0 0 0 0 0 1 0 0 0 1 1 0 0 1 0 0 2 2 1 0 0 1 0 1 0 1 0 4 2 7 3 0 0 0 1 0 0 2 1 0 0 1 1 1 0 1 1 0 1 0 1 1 0 1 2 0 2 1 2 1 0 1 0 0 0 0 0 1 0 1 1 1 2 1 0 2 0 0 0 0 1 0 2 2 1 1 0 1 0 1 0 0 2 1 0 0 0 1 1 1 2 0 1 1 1 0 1 0 1 1 1 0 1 1 1 1 1 1 2 2 1 1 1 0 1 6 0 0 0 0 0 0 0 0 1 1 0 1 6 1 6 0 7 1 5 0 0 0 2 1 0 6 0 2 2 0 0 0 1 0 1 0 0 2 0 0 0 2 0 0 1 0 0 1 0 0 0 0 1 8 3 1 0 1 0 0 1 0 1 0 0 1 0 2 5 0 0 0 1 1 1 1 0 1 0 1 0 2 2 1 1 0 2 2 0 2 0 0 3 0 1 0 2 1 1 0 0 0 0 1 0 1 0 0 0 0 1 0 0 0 0 0 0 2 1 3 1 1 0 4 0 1 1 1 1 1 0 1 0 0 0 2 0 0 0 1 0 1 0 1 0 1 0 2 1 1 1 0 1 0 0 0 0 0 1 0 0 0 0 1 1 0 1 1 0 1 2 1 0 0 2 1 1 0 0 1 1 0 0 1 0 1 1 0 0 0 0 0 0 1 0 0 0 0 0 0 0 0 0 0 2 2 1 6 1 1 1 1 1 2 1 0 0 0 0 0 0 1 0 1 0 0 1 0 1 0 2 1 1 1 0 1 0 0 0 2 7 0 0 1 2 0 0 1 1 0 1 0 5 0 1 1 1 0 0 1 0 0 0 0 0 1 1 0 0 0 0 0 0 1 0 0 0 0 1 0 0 0 1 1 1 0 0 1 0 1 0 0 1 0 4 1 0 1 1 0 1 0 0 1 0 0 0 0 0 1 2 2 0 0 1 0 0 2 0 0 0 0 0 0 1 3 0 0 0 1 1 0 0 0 0 0 1 1 0 1 0 0 0 1 0 1 1 0 0 1 0 1 1 1 1 0 1 0 0 0 1 3 0 1 1 4 1 0 1 1 1 0 0 2 0 0 0 1 1 4 1 0 0 3 2 0 0 1 1 1 0 3 1 0 1 2 0 0 0 0 
0 1 1 0 0 3 7 2 0 1 0 1 0 0 0 1 1 0 0 1 0 0 0 0 1 2 1 0 0 1 0 0 1 0 1 0 0 0 0 1 0 1 1 1 0 0 0 1 1 0 0 1 0 1 0 1 2 0 0 0 1 2 1 1 1 1 1 2 5 0 0 0 0 1 1 1 0 0 2 1 1 1 6 1 1 0 2 0 2 1 0 0 0 1 0 0 0 0 0 1 0 0 0 0 1 0 0 0 0 2 0 0 0 1 1 0 1 1 0 2 1 0 0 1 0 0 0 1 1 0 0 1 0 0 0 0 1 0 1 0 1 2 0 0 0 2 0 1 1 0 2 1 0 0 4 1 0 0 0 1 1 1 2 0 0 0 0 0 1 0 1 1 0 1 0 1 0 1 1 0 5 0 2 2 1 1 0 1 0 0 0 0 1 0 0 0 0 0 1 1 1 1 0 0 1 0 3 1 0 1 0 1 1 1 0 0 1 1 5 1 1 0 0 1 1 0 0 0 0 0 0 0 1 5 1 0 0 0 0 2 2 0 0 0 0 0 0 1 0 1 2 1 0 0 1 1 1 1 1 0 0 2 0 0 1 2 0 1 0 0 1 1 0 0 0 2 0 1 0 0 0 0 0 0 0 1 4 2 0 0 0 0 1 0 1 1 1 1 0 1 0 0 0 2 1 1 0 3 0 0 1 1 1 1 1 0 1 0 0 2 0 2 0 0 0 1 1 9 2 1 0 1 0 0 0 4 0 2 2 0 1 0 0 0 0 0 0 0 0 0 0 1 1 0 1 0 0 0 0 0 0 1 2 0 0 1 4 8 0 2 1 0 1 1 1 1 0 1 7 2 2 1 1 1 1 0 0 1 1 2 0 0 0 1 2 0 0 0 0 0 0 0 0 0 1 7 5 0 0 1 1 3 0 1 0 2 2 1 0 0 0 1 0 0 0 1 2 1 1 1 0 0 1 1 1 0 2 1 1 1 0 0 1 0 0 1 8 1 0 0 2 0 0 0 0 0 0 0 0 0 0 0 1 0 0 1 0 0 1 0 0 5 1 0 0 0 0 0 1 0 0 0 0 1 0 1 0 0 1 3 0 0 0 0 0 0 1 1 0 0 1 2 0 0 0 1 0 1 2 2 0 0 2 0 2 3 1 0 1 0 0 0 0 0 0 0 0 0 0 0 1 1 0 2 1 0 1 0 1 0 0 1 0 0 0 0 6 0 1 1 0 0 0 0 0 1 0 0 0 0 0 0 0 0 1 0 0 1 1 1 1 0 1 0 0 1 0 0 0 1 3 1 1 0 1 0 0 0 3 2 0 0 1 0 0 2 0 0 2 1 2 4 1 0 0 1 0 0 1 3 1 0 3 0 0 0 1 0 0 2 0 6 1 2 1 0 0 1 0 0 1 0 1 0 0 1 0 0 0 0 
1 1 0 2 1 1 2 0 0 0 1 0 0 0 0 1 0 0 0 0 5 0 0 0 1 1 0 1 1 0 1 0 0 4 1 0 1 0 0 2 0 0 1 2 0 1 0 0 0 0 1 0 0 0 0 1 2 0 0 0 0 1 0 0 0 0 0 2 0 0 1 0 0 5 0 5 1 0 1 1 1 0 0 1 1 0 2 1 2 0 0 0 0 0 1 1 0 0 0 4 0 0 0 0 1 1 1 0 0 1 0 0 0 0 0 0 0 1 1 1 0 0 2 1 1 2 1 0 1 1 0 0 0 0 0 0 0 1 0 0 0 0 1 1 1 1 1 2 0 1 1 2 0 1 1 1 2 1 0 0 1 0 0 0 0 1 0 0 1 0 0 2 1 0 0 0 0 0 1 1 4 0 0 1 0 0 3 0 1 3 0 1 2 0 1 1 0 1 2 2 0 1 0 1 0 0 0 0 0 2 2 0 1 0 0 2 1 1 0 0 0 0 2 1 0 0 1 1 1 0 0 2 1 0 0 1 1 1 0 0 5 0 0 1 0 0 0 0 0 1 0 1 1 0 0 1 0 0 0 0 2 1 1 1 0 1 0 0 0 0 1 0 1 2 0 0 1 0 0 0 0 0 0 0 1 1 1 1 0 2 0 0 0 7 1 2 0 2 0 0 0 0 0 4 6 0 1 3 0 2 1 1 1 1 0 1 0 2 0 1 1 0 0 5 2 0 0 7 0 0 1 5 0 0 0 1 5 0 0 1 0 3 2 1 0 2 0 0 0 0 1 0 1 1 1 1 1 2 0 2 0 1 0 1 0 0 0 2 0 5 1 0 1 0 0 1 2 1 1 1 0 0 1 0 0 0 0 6 1 1 0 0 4 0 0 0 0 1 1 0 0 1 0 2 0 0 1 0 0 1 0 0 5 0 1 0 0 0 1 6 0 0 2 0 1 0 0 0 1 1 1 0 0 1 0 2 1 0 1 0 0 0 1 0 1 4 0 0 1 0 1 1 0 0 0 1 0 0 0 0 0 1 1 0 0 2 5 0 0 0 0 0 0 0 0 0 2 1 1 0 0 0 0 1 5 1 0 0 0 0 0 0 0 0 0 0 0 2 1 0 1 1 2 0 0 0 0 1 0 5 0 0 0 1 0 6 4 1 0 1 0 1 1 0 1 0 1 1 0 0 1 0 0 0 1 0 0 0 0 2 3 0 0 1 0 1 0 1 0 0 2 1 2 2 1 1 2 0 1 2 0 0 0 0 1 1 1 0 0 1 0 0 1 1 0 0 0 1 1 0 0 1 1 0 2 0 1 1 6 0 0 1 1 1 0 0 0 2 2 0 1 1 0 0 0 1 1 0 1 0 1 0 0 0 0 1 0 0 0 0 1 9 0 1 0 0 0 0 1 2 0 0 1 0 1 0 0 2 1 0 
0 2 1 4 1 1 0 0 0 6 1 0 1 0 0 0 1 1 0 1 1 1 1 1 0 2 0 2 3 0 0 0 0 1 0 0 0 1 0 0 0 0 0 1 1 0 0 1 1 0 0 0 1 2 1 0 0 0 0 0 1 2 0 0 0 0 1 1 0 0 1 0 1 0 10 0 1 1 2 0 0 1 0 1 1 0 3 0 1 1 0 1 0 0 0 1 1 0 0 0 0 0 0 0 0 1 0 0 0 0 0 1 0 0 1 0 1 1 0 0 0 3 2 0 1 2 1 0 5 1 0 2 1 0 0 0 1 1 0 0 0 0 0 7 0 0 1 0 0 0 0 0 0 1 0 1 0 4 1 1 2 1 0 1 1 0 1 0 0 1 2 0 0 0 0 1 0 1 0 0 0 0 0 0 1 0 0 0 0 0 1 1 0 0 0 0 1 0 0 0 0 2 1 1 0 0 1 0 1 1 0 0 1 0 0 2 6 1 2 0 1 1 6 2 0 0 0 0 0 0 0 0 0 1 2 1 2 0 1 0 0 1 0 0 0 0 0 0 1 0 1 2 0 0 0 1 0 0 0 0 1 0 2 7 1 0 0 2 0 1 1 5 1 0 0 0 1 1 2 5 2 1 0 0 0 2 1 0 1 11 0 5 2 0 1 2 1 3 2 0 1 1 0 0 1 0 0 1 0 0 0 1 0 0 1 1 0 4 1 0 0 0 1 1 0 0 0 1 0 5 0 0 2 0 2 0 0 1 0 0 0 1 1 0 1 0 2 1 0 1 0 0 0 0 1 1 1 0 1 1 0 2 1 1 5 1 1 0 3 0 0 1 0 0 0 1 0 1 0 0 0 1 0 0 0 1 1 1 2 0 2 0 0 1 1 1 1 0 1 0 0 1 1 0 0 0 0 0 9 1 0 2 0 2 1 0 0 2 1 0 1 0 0 1 7 0 1 0 0 0 2 0 1 1 1 0 0 0 0 0 1 1 1 1 1 3 2 0 2 0 1 0 0 4 5 1 0 0 5 2 1 1 2 3 1 1 1 0 1 2 0 2 0 1 1 0 1 6 0 0 0 2 2 0 1 0 0 0 0 1 0 0 5 1 1 0 1 1 1 1 1 0 0 0 2 0 0 1 2 4 1 0 0 0 2 2 2 0 1 0 1 0 0 1 0 0 0 0 0 0 5 0 1 0 0 1 1 1 1 1 2 0 0 1 0 0 1 1 0 2 1 0 2 0 1 5 2 2 0 0 0 0 0 1 0 1 0 0 0 2 0 0 1 1 0 0 0 1 0 0 1 0 2 1 0 1 0 0 2 0 1 0 0 0 0 0 0 0 0 0 1 0 1 0 0 1 4 2 0 0 0 1 0 1 0 1 1 0 0 2 9 1 1 0 0 0 0 1 0 0 1 1 0 0 0 1 0 1 2 3 
0 0 1 0 0 1 1 0 0 1 1 0 0 0 0 0 0 1 7 1 1 4 0 1 2 0 0 0 1 1 0 1 1 0 1 0 0 4 1 0 2 0 1 2 0 0 2 0 0 2 2 0 1 0 3 1 0 1 1 2 4 3 0 0 1 0 1 1 0 1 4 1 1 2 0 1 0 0 1 3 0 2 1 0 0 0 0 0 1 0 1 0 0 0 0 0 3 1 1 0 0 0 0 1 0 0 1 1 2 1 2 1 1 0 0 0 1 0 0 0 0 4 0 1 1 2 1 0 0 0 1 1 0 0 0 1 1 0 0 0 0 1 0 1 1 0 0 2 0 1 4 0 4 0 1 0 0 0 1 2 2 0 1 1 0 1 0 0 0 0 0 3 1 2 0 5 0 2 1 0 0 3 1 1 1 1 0 0 0 1 0 1 0 0 0 0 0 0 0 0 0 0 0 0 0 0 0 0 0 1 3 1 0 0 1 0 1 1 0 1 3 0 0 1 1 0 0 0 0 1 2 0 0 0 0 1 2 2 0 2 0 0 0 1 0 0 0 0 0 0 5 0 0 1 2 2 1 0 0 0 0 2 0 0 1 1 0 2 2 1 1 1 0 0 0 1 1 0 1 1 0 0 0 1 1 0 1 1 1 1 4 8 2 0 0 2 1 0 5 0 0 0 1 1 1 0 0 0 1 0 0 0 0 1 0 4 0 1 1 0 1 1 1 0 4 0 6 0 1 1 1 0 0 0 0 0 1 1 5 1 2 2 1 1 0 0 1 1 0 1 1 1 4 4 2 0 1 3 0 2 0 1 0 0 0 0 0 0 0 0 0 0 0 0 2 1 0 0 0 0 0 1 0 1 1 0 3 0 1 1 0 0 0 1 1 1 0 1 3 0 0 0 1 0 1 1 1 0 0 1 1 0 0 0 0 0 2 0 2 2 6 2 1 0 0 1 0 1 1 0 0 0 0 2 1 1 0 0 0 1 2 0 3 0 0 3 1 3 0 0 0 0 0 0 1 0 0 0 1 0 1 1 0 0 1 1 0 1 1 1 0 0 0 2 1 2 0 0 0 1 0 0 1 0 0 0 0 0 0 1 0 1 1 1 0 0 0 0 2 0 0 0 0 0 1 0 0 0 1 1 0 2 0 1 0 0 0 0 1 2 0 0 0 0 1 1 0 0 2 0 1 1 0 0 0 2 1 1 0 0 1 0 0 0 0 1 0 0 1 0 1 2 8 8 0 0 0 1 1 0 1 0 0 0 1 0 0 0 0 0 0 0 0 0 0 1 0 0 1 1 2 3 1 0 0 1 0 1 0 2 0 0 1 0 0 0 0 2 2 1 6 0 0 0 0 1 3 5 2 1 0 0 1 0 4 0 0 0 0 1 0 5 2 0 2 0 0 1 0 0 0 0 0 0 3 0 1 1 0 1 
0 1 0 0 0 1 1 0 0 0 2 0 0 0 0 0 2 0 0 1 1 0 3 2 0 0 0 0 0 0 0 1 1 0 0 5 2 0 0 0 0 1 1 1 0 0 0 0 0 4 0 1 1 1 1 1 1 1 0 0 0 0 2 0 0 0 4 1 1 1 0 2 1 1 0 0 1 0 0 0 2 2 0 2 1 0 2 0 0 0 0 0 2 1 0 1 0 1 0 1 0 0 0 0 0 1 1 0 0 0 4 0 0 2 2 0 0 0 1 0 0 0 0 0 0 1 0 0 2 0 1 0 0 0 0 1 0 1 0 0 0 0 1 0 1 0 0 0 0 0 1 0 0 0 0 0 1 0 0 0 1 1 0 0 3 0 3 2 0 0 1 1 7 1 1 1 0 0 0 0 1 1 1 0 0 0 1 0 0 0 1 0 1 0 1 1 0 0 2 1 2 0 0 1 1 0 2 1 2 0 0 1 1 1 1 0 0 1 1 0 1 0 0 0 0 1 1 1 2 1 6 2 0 1 0 2 0 0 2 0 0 0 2 0 0 0 2 0 0 1 1 8 0 1 1 1 0 0 0 0 2 0 0 3 0 0 0 2 1 0 0 1 1 1 1 1 1 0 0 0 2 1 2 0 0 3 0 0 2 0 1 5 1 0 0 0 0 1 2 1 2 8 0 0 0 0 0 0 2 0 1 1 0 0 0 0 0 0 1 0 2 1 1 0 2 1 1 0 7 11 4 1 1 0 1 1 1 0 0 0 1 0 0 0 2 2 1 3 1 0 0 0 0 0 0 0 1 0 0 0 0 0 0 0 1 0 0 0 1 0 0 1 0 1 0 1 1 2 2 1 2 0 0 0 1 2 1 1 1 0 0 0 0 0 0 0 0 5 1 1 0 0 6 0 0 0 0 1 0 0 0 0 1 0 1 0 0 0 0 1 1 0 1 0 1 1 0 0 2 0 1 2 0 1 0 0 0 0 0 0 11 4 1 5 0 3 2 2 1 0 1 0 0 0 0 0 1 0 0 0 6 3 2 0 2 1 1 0 1 0 0 0 0 0 0 0 0 1 0 1 1 0 0 1 1 1 0 2 1 0 0 0 0 1 0 0 0 1 1 0 0 1 1 0 2 2 0 0 0 0 1 0 0 0 0 0 0 0 3 4 2 0 1 0 0 0 1 1 1 0 0 0 0 0 0 0 0 0 0 0 0 0 2 1 1 0 4 1 1 2 1 8 9 4 1 1 0 1 1 1 1 0 1 0 0 2 0 1 0 1 3 0 0 1 1 0 0 0 0 1 1 0 0 0 0 0 0 1 1 0 2 0 0 0 0 4 1 2 1 1 2 1 0 1 0 1 0 1 0 1 0 0 5 1 0 2 0 1 0 0 1 1 1 1 1 0 0 0 1 1 0 0 0 2 3 2 0 0 1 1 
0 0 1 0 2 0 1 0 0 0 0 0 1 1 0 1 0 0 0 1 0 0 1 0 0 0 1 0 0 0 2 0 0 1 0 1 8 0 0 0 2 0 0 2 0 0 1 0 0 1 0 0 0 1 0 1 0 1 0 0 0 0 2 0 2 0 0 0 1 1 0 0 1 0 0 0 0 1 1 1 1 1 2 0 1 0 0 1 0 3 1 1 0 0 0 1 1 0 1 0 1 1 1 1 0 0 0 5 0 0 0 2 0 1 1 0 0 2 0 0 1 0 1 1 1 0 1 0 0 1 0 0 0 0 1 0 1 1 1 0 0 2 0 1 0 1 1 2 1 0 0 0 1 0 1 0 2 0 0 0 1 1 0 0 1 1 0 0 0 0 0 0 2 1 1 1 0 7 2 0 1 0 1 0 0 0 2 2 0 2 1 0 2 0 0 1 5 0 1 1 2 0 0 0 0 0 1 0 1 0 0 0 2 3 4 2 0 0 1 1 2 1 1 1 0 2 0 0 1 0 2 1 0 0 2 4 2 0 1 1 0 1 6 1 0 0 0 1 0 0 2 1 1 1 0 0 0 1 0 1 1 0 2 3 1 0 2 6 1 2 2 1 0 1 0 1 1 0 0 0 1 0 0 1 1 6 2 7 4 0 0 0 0 0 1 0 0 0 0 2 1 1 2 2 0 1 0 1 1 0 2 3 0 0 0 0 0 5 1 0 2 0 8 4 0 2 0 0 1 1 1 1 0 1 0 0 0 1 0 0 0 1 0 0 0 0 0 1 0 2 2 0 2 0 0 0 1 0 0 1 1 1 0 1 0 1 0 1 2 3 0 0 0 0 0 0 0 1 0 1 0 0 3 1 1 0 0 2 0 0 1 0 1 0 0 2 0 0 0 2 0 1 2 0 1 1 0 0 1 0 0 1 2 0 0 1 1 1 0 1 0 1 0 1 1 1 1 1 0 0 0 1 2 2 1 1 0 0 1 0 0 1 0 1 0 0 0 1 0 6 0 0 0 6 1 0 0 0 0 0 2 0 0 1 0 1 1 1 0 5 0 0 0 0 1 1 0 0 2 2 0 2 1 1 0 0 1 0 1 1 0 0 1 0 1 0 0 2 0 0 0 0 1 0 1 0 1 0 0 0 1 0 0 0 0 1 0 2 1 1 0 0 0 0 0 0 1 0 0 0 0 0 0 1 0 0 0 0 2 1 2 1 0 2 0 10 1 1 0 1 7 1 2 0 1 0 0 0 0 0 0 0 0 0 3 0 1 2 0 0 0 1 0 2 5 0 1 1 0 1 0 1 1 0 0 2 0 0 0 0 0 0 1 2 0 0 2 0 1 5 1 0 1 0 0 0 0 0 1 1 0 1 1 1 1 1 0 1 1 0 0 1 1 0 1 1 0 0 0 1 0 0 1 0 0 0 0 0 0 1 
0 0 1 0 0 2 0 0 1 0 0 0 0 0 1 0 1 0 0 2 0 2 0 0 0 0 0 0 0 0 0 1 0 1 0 1 1 0 0 0 0 0 1 1 0 0 0 2 0 0 1 0 1 0 0 0 0 0 0 0 0 0 0 0 0 0 0 0 1 0 1 1 2 0 0 1 0 0 5 1 1 0 0 1 0 1 0 0 0 0 4 0 0 0 1 0 1 0 2 1 0 1 0 1 1 1 0 1 1 0 2 0 3 1 3 0 0 0 0 1 0 1 0 2 1 0 0 0 1 0 1 1 0 1 0 0 0 1 1 1 1 1 0 0 0 1 0 1 0 0 0 1 0 0 0 1 0 1 0 3 1 0 0 0 2 1 2 1 1 1 1 2 7 1 1 0 2 0 1 0 2 1 0 0 2 1 2 0 1 8 1 1 0 0 0 2 0 1 2 0 2 0 1 0 0 0 0 0 0 1 0 0 0 0 0 0 0 0 1 1 1 0 1 0 3 1 0 1 2 1 0 0 1 0 0 1 2 1 1 0 1 0 4 7 1 1 0 0 1 4 1 6 7 1 1 0 0 0 0 0 0 0 1 9 1 0 0 2 0 1 1 0 0 0 1 0 1 1 0 0 0 1 0 0 2 3 0 1 1 0 4 0 1 1 0 0 1 0 0 1 1 0 1 0 0 0 1 0 0 0 0 1 0 1 1 0 2 1 2 1 0 0 2 6 1 1 1 0 0 1 0 0 0 0 0 1 0 0 0 0 0 1 0 2 1 0 1 0 0 0 1 1 1 1 0 0 2 2 0 0 1 0 1 2 1 1 1 1 0 1 0 0 1 0 0 6 1 0 0 1 3 3 0 1 4 0 5 1 1 1 1 0 0 0 0 3 2 0 0 0 0 0 0 0 1 0 0 0 1 0 0 1 3 1 2 4 4 0 0 1 0 3 1 2 1 4 1 0 1 0 1 0 7 0 1 1 0 0 1 0 0 0 0 0 0 0 1 1 0 0 1 0 2 0 1 1 1 1 2 0 1 0 6 0 1 3 1 0 0 0 1 0 0 0 1 0 1 2 1 1 0 0 1 5 0 2 0 2 4 0 0 0 0 1 1 0 0 1 2 1 1 0 0 2 0 1 0 0 0 1 0 0 2 0 0 1 0 0 0 0 0 1 0 1 1 0 0 0 0 1 1 2 1 0 0 1 1 2 0 1 0 1 0 1 1 0 1 0 0 0 1 0 1 0 1 1 1 0 0 0 0 0 0 0 1 0 0 0 1 1 0 1 1 1 1 0 1 6 1 1 0 1 0 1 1 2 2 0 2 0 0 0 1 0 1 0 4 2 7 0 0 0 0 1 1 1 0 0 0 0 4 0 1 4 0 6 0 7 1 0 2 0 1 0 0 0 0 0 1 0 0 0 2 2 1 1 0 0 0 0 
0 1 1 0 1 1 1 0 0 0 1 0 0 1 0 0 0 1 1 0 0 1 1 0 0 0 1 0 0 0 1 0 0 0 0 0 0 0 0 0 0 1 1 1 0 1 0 0 1 0 0 1 0 1 0 2 1 1 8 1 0 0 0 1 0 1 4 0 1 0 0 2 0 0 0 1 0 1 1 0 0 0 0 0 0 1 2 0 0 0 2 1 0 0 0 1 1 0 1 0 0 1 1 0 0 1 0 0 1 0 1 0 0 0 1 1 0 0 1 0 0 0 2 1 0 0 0 1 0 0 0 1 1 0 0 0 0 1 7 0 1 0 1 0 1 0 1 1 1 0 0 0 0 0 1 7 1 1 0 1 0 1 0 1 2 1 1 1 0 0 1 1 9 7 0 0 1 1 1 0 1 2 4 0 1 0 0 1 0 0 1 1 0 0 0 0 0 1 0 0 0 1 2 1 1 1 1 1 1 0 0 0 0 1 2 2 0 0 0 0 0 0 0 2 1 0 0 1 0 1 0 3 0 1 1 1 0 1 1 0 0 7 0 0 2 0 0 0 0 1 2 1 1 1 2 1 1 0 0 0 0 0 1 2 1 0 1 0 6 0 1 0 0 0 0 0 0 0 3 1 2 1 0 0 1 1 0 0 2 0 0 2 2 8 0 0 0 0 1 2 1 0 6 3 8 1 0 0 1 1 2 0 1 0 0 0 0 0 1 0 1 0 0 1 0 1 2 0 0 2 0 0 1 1 0 1 1 1 1 0 1 0 1 4 3 0 1 1 0 0 0 0 0 0 0 1 5 0 0 0 0 2 0 0 0 1 0 0 0 1 0 0 0 0 1 2 0 0 1 1 0 0 1 0 0 0 4 0 0 0 0 2 0 1 1 0 0 0 0 0 0 1 0 2 1 1 0 1 1 1 1 0 0 0 1 0 0 0 0 1 6 0 2 1 0 0 1 0 1 1 1 0 1 3 0 0 1 0 0 5 0 6 1 1 0 2 0 0 0 1 0 0 1 0 1 1 0 1 0 0 0 0 1 3 1 0 0 1 0 0 0 0 2 0 0 1 2 0 1 0 3 1 1 0 0 1 0 0 1 1 0 1 0 0 0 0 1 0 5 2 0 1 0 1 0 0 0 2 0 1 0 1 0 1 1 2 0 1 2 0 2 1 0 0 1 1 0 0 0 0 0 1 0 0 1 1 1 2 1 0 1 0 0 0 0 0 1 0 1 0 0 1 2 0 1 0 0 2 0 0 4 0 1 0 0 0 0 1 0 0 0 3 0 0 1 0 0 4 1 1 1 0 2 0 0 0 1 1 1 6 2 0 0 2 3 2 0 1 0 0 0 0 1 0 0 1 0 1 0 2 0 0 1 1 0 1 1 0 0 0 0 5 0 0 0 2 1 2 0 3 1 0 0 1 1 1 0 1 0 0 
0 0 0 0 2 8 0 0 0 1 2 1 1 0 0 0 1 0 1 0 0 1 1 0 0 2 1 0 0 0 0 1 1 0 1 0 0 0 0 0 0 0 0 0 1 0 0 0 1 0 2 0 0 0 0 1 0 2 1 5 2 1 1 2 0 1 0 4 2 0 0 0 1 2 0 0 1 0 0 1 0 1 1 0 0 4 0 0 1 0 0 1 0 0 0 1 1 0 0 0 1 1 0 0 0 1 1 0 0 2 0 0 1 0 0 0 0 2 0 0 0 1 5 6 1 1 0 1 0 0 0 1 0 0 1 2 8 6 0 0 2 0 0 2 2 0 0 1 1 0 1 2 2 2 1 0 0 1 0 1 0 1 1 0 0 0 0 0 0 1 8 1 0 2 0 0 0 0 1 1 1 2 0 1 0 3 0 0 0 0 3 1 0 0 0 0 0 0 1 0 0 1 4 6 6 0 1 1 1 2 10 1 1 0 0 2 0 1 1 1 0 2 1 5 0 0 0 0 1 1 2 0 2 0 0 1 0 2 1 0 2 2 2 0 0 1 0 2 0 2 1 0 0 1 0 0 0 1 0 0 0 0 2 0 0 1 0 0 2 0 1 1 0 0 0 1 0 0 0 0 1 0 0 1 0 1 1 1 1 0 1 1 2 1 1 0 1 1 2 1 9 2 0 1 1 0 1 2 0 1 0 0 0 1 0 1 1 0 1 0 1 1 3 1 0 0 1 0 1 2 1 2 2 0 1 0 1 2 1 1 1 0 0 1 9 2 0 0 1 0 1 5 1 1 1 1 1 1 0 0 1 0 0 0 2 0 2 1 0 1 1 2 0 0 0 0 0 0 0 0 0 0 0 0 2 0 0 2 1 0 5 1 2 1 1 0 1 3 0 0 1 2 1 1 1 0 0 0 2 0 1 0 4 0 0 0 2 0 1 0 2 0 0 0 1 2 0 1 0 1 2 0 0 0 1 0 1 2 0 1 2 1 1 0 0 0 0 0 2 1 0 0 1 0 0 1 1 0 1 0 0 1 1 1 0 0 1 3 1 0 1 0 0 0 0 0 1 1 0 0 0 1 0 0 1 0 0 1 0 1 0 0 1 1 1 1 1 0 1 1 1 1 0 0 0 0 1 0 0 0 0 1 1 0 1 2 1 7 1 0 0 1 0 1 1 2 0 0 0 1 0 1 0 0 0 1 0 1 0 1 1 0 0 0 2 4 0 1 0 1 1 0 1 2 0 0 0 0 2 1 1 0 0 0 1 0 0 0 0 5 0 0 0 2 1 0 1 1 6 2 0 0 2 0 2 0 0 1 2 1 0 1 2 4 0 1 2 1 1 0 0 0 0 0 0 0 0 0 0 0 3 1 0 0 1 0 0 0 3 0 0 0 2 1 0 0 0 2 0 0 1 0 1 0 0 0 1 1 0 0 
0 0 0 0 0 0 1 1 1 0 1 1 0 0 1 1 0 1 0 1 0 1 0 0 0 0 1 1 0 1 0 0 0 0 0 1 0 0 0 0 0 1 0 1 0 0 1 0 2 0 1 0 0 1 0 2 0 0 2 3 1 1 6 1 0 0 2 1 1 2 3 0 0 1 0 1 0 1 6 1 0 0 1 0 0 0 0 0 0 1 0 1 1 1 0 0 1 0 0 0 2 1 0 1 1 0 2 0 1 0 1 1 0 0 0 0 1 1 0 0 1 1 2 0 0 0 0 1 0 0 0 1 0 0 0 1 0 1 1 0 1 0 0 0 2 1 1 0 0 0 2 1 0 0 0 0 1 0 0 0 0 0 0 0 1 1 0 0 1 0 0 1 0 2 2 2 1 2 1 1 0 6 0 0 0 0 1 1 0 1 0 0 1 1 0 1 0 0 0 0 0 1 1 1 1 1 1 0 0 1 0 1 5 1 1 1 1 1 1 0 0 0 1 3 1 0 1 1 1 0 0 0 0 0 0 2 0 0 0 0 0 1 1 1 2 1 0 1 0 0 0 1 0 4 0 0 0 0 1 2 0 0 1 0 1 1 1 0 0 0 0 0 0 0 0 0 1 0 1 1 2 1 2 1 1 2 1 1 1 7 2 1 0 2 1 1 0 0 1 0 2 1 7 4 0 1 2 1 0 1 1 2 0 0 0 0 0 0 0 0 1 1 8 0 1 1 0 0 0 0 1 1 0 4 1 1 0 5 0 1 1 2 0 2 11 6 0 1 2 5 1 0 1 0 0 0 1 1 0 0 2 1 0 0 0 4 1 1 0 0 1 1 1 0 0 0 0 0 0 0 2 1 1 0 1 1 0 0 1 2 2 1 2 0 0 0 1 1 3 0 1 1 0 0 0 0 0 1 1 0 0 0 1 0 0 0 0 1 0 0 2 0 0 0 1 0 1 1 1 0 1 0 3 1 2 1 1 0 0 1 0 0 0 0 0 0 1 2 5 0 1 1 4 1 0 0 2 1 0 0 1 1 0 1 1 1 0 1 3 2 0 1 0 0 0 0 0 0 0 0 0 0 1 1 2 0 3 0 0 2 1 0 0 2 0 4 2 3 0 1 0 0 0 0 1 0 1 1 0 0 4 1 0 1 3 2 1 0 6 0 0 5 2 0 0 0 1 1 6 0 1 0 1 0 0 0 0 0 1 0 2 0 0 1 1 0 0 0 0 0 0 1 0 1 0 0 0 0 0 5 1 0 0 0 1 0 2 0 0 0 4 0 0 0 0 0 0 1 0 1 2 1 0 0 1 1 4 0 0 2 0 1 1 1 1 0 1 0 0 0 0 1 0 0 0 1 0 1 1 1 1 1 1 0 1 1 1 0 0 0 0 0 1 1 0 1 0 0 0 0 0 0 0 0 0 0 0 0 0 0 
0 0 0 0 0 0 0 1 4 0 0 8 1 0 0 1 0 0 0 1 0 0 4 0 0 0 0 2 2 1 0 0 1 0 2 0 1 1 1 1 1 1 1 0 0 0 1 0 1 0 0 0 0 0 0 0 0 0 0 1 1 1 2 0 0 1 0 1 1 1 1 0 2 1 1 0 0 1 1 2 2 0 1 1 0 0 2 1 2 0 0 0 0 1 1 0 2 0 1 1 0 0 2 2 0 0 0 2 1 0 1 0 0 1 0 4 0 0 0 0 1 0 1 2 0 0 5 0 0 1 1 0 0 2 3 0 1 0 1 0 1 1 0 0 0 1 0 0 2 1 1 0 0 0 0 0 1 0 0 0 1 0 0 1 0 0 0 1 0 0 1 0 1 1 0 1 0 0 0 1 0 4 0 2 1 1 0 0 1 0 0 2 1 0 0 2 2 0 1 4 5 0 0 0 0 0 0 0 0 0 1 4 1 2 0 1 0 1 0 0 1 0 2 3 1 0 0 0 1 1 0 0 1 4 0 0 0 0 0 0 0 0 0 1 1 5 1 0 1 1 0 0 1 0 2 1 1 5 0 1 1 2 0 1 0 2 0 1 1 0 0 0 0 1 0 0 0 1 1 1 0 2 0 1 1 0 1 2 0 1 1 0 1 0 2 1 1 1 1 0 1 0 0 1 2 0 1 1 5 1 1 0 1 1 1 0 0 0 1 0 1 0 0 1 1 0 2 0 1 0 1 1 0 1 0 0 1 1 3 0 0 0 0 1 1 0 0 0 1 0 1 1 0 1 1 1 0 0 0 1 0 1 1 1 1 5 0 1 0 0 1 1 1 1 0 0 0 1 0 1 1 2 1 0 0 1 0 0 1 1 0 0 1 0 0 4 0 1 1 0 0 1 1 0 1 1 1 1 1 0 2 1 0 2 0 0 1 0 1 5 0 1 0 0 1 0 0 1 0 4 0 2 1 11 3 1 1 1 1 0 0 1 1 1 1 1 0 0 2 0 0 1 0 0 0 0 0 0 0 0 0 0 0 0 6 9 0 0 1 0 0 0 0 1 1 0 0 1 1 0 2 2 1 1 5 1 1 0 0 0 6 1 2 0 1 6 0 1 0 0 1 1 0 2 0 0 1 1 0 0 0 1 0 0 1 0 2 1 1 0 1 0 1 1 1 0 2 0 0 0 0 0 0 3 0 0 0 1 1 1 1 1 1 0 0 1 0 1 1 0 0 1 0 2 0 0 0 0 1 0 3 0 0 1 2 1 0 1 0 3 0 0 1 2 1 1 3 0 1 2 0 0 1 0 0 0 1 1 3 2 0 1 1 0 2 0 0 0 0 0 0 0 1 0 0 1 1 0 0 1 2 1 0 0 0 0 0 0 0 1 0 1 1 0 1 0 0 0 0 1 0 0 0 0 1 0 0 1 0 0 
0 0 0 0 1 0 0 1 3 1 0 0 1 0 0 0 1 1 0 4 5 0 0 4 2 4 0 0 2 1 2 1 1 1 0 1 0 0 0 0 0 0 0 5 0 2 0 0 0 0 1 1 1 1 1 0 0 0 2 0 0 0 0 4 2 0 1 1 4 1 0 1 0 1 1 1 1 0 0 0 0 2 1 1 1 0 0 0 0 2 1 0 1 0 1 1 0 1 0 3 0 1 0 0 0 0 2 1 0 0 5 0 0 0 1 1 0 0 0 0 0 1 1 0 1 0 1 0 2 0 0 1 1 0 0 1 0 0 2 0 0 3 6 0 0 1 0 0 0 0 0 1 0 2 0 0 0 0 0 0 0 0 0 0 2 0 4 1 0 0 0 2 0 2 0 0 0 0 2 1 1 5 0 0 0 0 0 1 0 1 1 0 0 0 0 1 1 1 1 1 0 0 0 0 1 1 1 0 0 0 0 0 1 1 0 1 7 0 0 0 0 1 1 0 0 1 3 1 2 0 0 1 0 1 0 1 1 3 0 0 0 2 1 1 0 0 2 0 0 1 0 0 0 0 0 1 0 1 2 0 0 0 0 0 2 0 2 0 0 2 5 0 0 1 1 3 0 8 3 0 1 0 0 0 0 0 0 0 0 1 1 1 0 1 1 0 0 1 0 0 1 1 0 0 1 1 0 0 0 0 1 1 1 0 0 0 0 1 1 1 0 0 0 1 2 1 1 1 4 1 0 0 1 1 0 1 1 1 11 0 1 2 0 0 1 0 2 0 1 0 1 0 0 1 1 0 2 1 7 1 0 1 1 1 1 6 0 9 1 0 0 0 1 1 0 1 3 1 1 0 1 1 4 1 0 1 1 1 0 0 0 1 2 0 1 0 1 1 1 1 1 0 0 2 6 5 0 1 1 6 0 0 0 0 0 0 0 0 0 1 0 0 0 1 2 0 0 0 0 0 1 1 4 0 2 0 0 1 2 0 0 0 1 2 0 0 1 0 1 0 6 0 0 0 0 0 1 2 0 0 1 0 0 1 1 7 1 1 6 1 0 1 1 1 1 1 0 0 0 6 2 2 1 0 0 1 0 1 1 1 1 1 1 0 5 3 1 0 1 1 0 4 2 0 1 1 0 1 1 1 0 0 1 0 0 0 0 1 0 0 1 2 0 0 0 1 0 0 2 0 0 0 0 1 0 1 0 3 0 0 0 0 1 1 0 1 0 1 0 0 0 1 2 0 0 2 0 1 1 0 1 6 3 2 0 1 0 0 0 0 0 3 1 3 4 1 0 1 0 3 0 0 1 4 0 1 1 0 4 0 0 0 0 0 1 1 0 0 0 1 0 0 1 1 0 0 1 1 4 1 1 4 0 1 0 0 1 4 0 1 0 0 0 0 1 2 0 2 5 1 0 2 0 0 1 1 0 0 1 0 
1 0 1 1 0 0 2 1 0 0 0 0 0 0 0 0 0 1 0 0 1 3 1 1 4 1 1 0 1 0 0 0 1 1 0 0 0 5 0 0 2 4 2 1 3 1 0 0 1 3 1 2 0 0 0 0 0 0 0 0 0 0 0 1 0 0 0 0 1 1 0 1 0 1 1 1 1 1 0 1 0 1 2 0 2 1 0 0 0 0 0 0 0 0 0 1 0 2 0 0 1 0 2 0 0 0 0 0 1 1 0 1 0 0 0 1 0 1 1 1 1 0 0 0 0 0 0 1 2 1 0 1 0 0 1 0 4 1 1 0 0 0 1 8 0 0 0 1 1 1 0 1 0 1 0 0 0 1 0 3 0 0 1 0 0 1 1 2 1 0 0 0 2 1 0 0 0 0 1 1 0 0 0 0 0 0 0 1 2 0 1 2 1 0 1 0 0 0 0 0 0 0 0 0 1 0 0 1 2 1 7 0 2 0 0 1 2 0 0 1 0 0 0 0 1 0 8 0 0 0 3 1 0 2 7 1 1 0 0 0 2 0 0 2 2 1 9 1 0 0 0 0 0 0 1 0 0 4 0 0 1 1 0 1 0 0 0 1 0 2 1 0 0 0 0 1 2 1 2 1 0 0 1 0 0 0 2 0 1 4 1 1 1 4 0 1 1 0 0 0 0 1 1 2 3 1 2 0 0 0 0 1 1 0 0 1 0 0 6 3 0 1 0 7 2 4 0 4 0 3 0 0 1 1 1 1 1 0 0 0 1 0 0 2 2 3 1 8 1 1 0 2 2 2 2 0 1 0 0 1 0 0 1 2 3 0 1 1 1 0 4 0 1 0 0 2 0 1 2 0 1 8 3 5 3 0 0 1 0 0 1 0 1 1 0 0 4 0 0 0 4 0 0 1 0 0 0 1 0 0 1 0 0 0 5 1 0 0 0 0 0 0 1 0 0 0 1 0 1 0 1 4 1 0 0 0 0 0 0 1 0 2 0 1 1 0 0 1 0 1 1 1 1 2 1 0 1 1 1 1 0 0 0 1 1 0 0 1 2 1 2 0 0 0 1 0 0 1 0 0 0 0 0 1 0 1 0 0 3 0 1 1 1 0 1 2 0 0 0 0 0 0 1 1 0 0 0 0 0 0 0 0 0 0 1 0 1 0 1 1 0 1 0 1 1 0 1 1 0 0 1 0 0 0 1 1 11 1 0 1 0 1 1 0 1 0 0 0 0 3 0 0 0 0 0 1 1 1 1 0 0 0 1 0 0 5 0 3 1 0 0 0 0 2 0 0 5 2 1 0 1 0 1 1 0 0 0 0 0 0 1 0 0 1 0 0 0 1 0 0 0 0 0 0 2 1 1 0 1 2 0 1 1 1 0 0 0 3 1 1 0 0 1 0 2 5 0 1 0 1 2 1 0 0 0 1 0 1 4 0 
1 0 0 1 0 0 1 1 0 0 0 0 1 0 0 0 0 0 0 1 0 0 0 0 0 0 1 0 0 2 1 2 2 0 1 0 0 0 1 0 0 8 1 0 0 1 1 0 0 0 0 2 0 0 2 0 2 1 2 0 0 1 1 2 0 1 0 0 0 0 2 0 0 3 1 1 1 0 0 2 4 0 0 1 1 0 0 0 1 2 1 0 1 4 1 0 2 0 1 1 2 0 0 0 1 1 0 1 2 0 0 1 0 0 1 0 0 0 0 0 0 2 1 1 1 0 1 0 1 1 0 0 0 0 1 1 1 0 1 0 0 0 1 0 0 0 0 1 1 3 0 0 0 0 0 0 2 1 1 1 2 0 0 0 1 0 1 0 1 2 1 1 1 0 2 0 1 0 0 0 1 0 0 0 1 2 0 0 0 0 1 1 0 0 0 0 1 0 1 0 0 0 0 1 0 0 1 0 0 0 2 1 0 1 0 2 0 0 1 1 0 0 0 0 0 1 0 1 3 0 1 1 10 2 0 0 0 0 1 1 1 1 1 1 0 2 7 0 1 2 1 1 1 0 2 1 0 0 0 0 1 0 0 0 2 1 0 0 1 0 0 2 0 0 0 0 2 0 0 0 0 0 0 0 1 3 1 1 2 3 3 0 1 0 1 3 0 0 1 1 0 0 1 2 0 2 0 0 0 3 2 1 2 6 0 1 0 10 4 0 0 1 0 1 13 2 2 4 14 4 1 2 4 26 5 3 19 4 3 2 2 5 13 2 0 5 4 0 1 0 1 0 1 0 2 1 0 4 0 0 0 1 0 1 1 0 1 0 2 0 0 1 0 1 1 2 0 0 0 0 1 1 2 1 2 8 1 0 0 1 2 0 0 0 1 1 0 2 3 1 1 0 0 1 0 0 0 0 0 1 0 0 1 0 1 0 0 0 0 0 0 0 0 0 0 0 0 0 0 0 0 1 2 0 3 0 0 0 0 1 0 0 0 1 0 1 0 0 0 1 0 1 0 1 0 4 0 0 0 3 0 0 1 0 1 1 0 0 1 0 2 1 1 2 0 1 0 0 1 2 0 0 0 0 1 0 3 1 1 0 1 0 0 0 0 1 1 0 1 1 2 0 1 0 0 1 0 0 0 0 0 0 1 2 1 1 1 0 1 1 1 0 2 0 0 0 1 0 1 0 2 0 0 1 0 0 1 0 1 2 2 0 5 0 1 0 1 0 0 1 0 1 0 0 0 3 0 0 2 4 0 1 1 0 0 5 2 1 0 0 0 0 0 1 1 0 0 0 1 0 1 0 0 1 0 2 1 1 0 0 1 1 0 1 5 0 0 0 0 1 1 0 0 0 0 1 1 1 0 1 0 0 1 1 0 0 0 0 0 0 0 1 1 2 0 1 4 1 1 1 7 2 0 0 0 1 4 1 1 1 
0 0 0 0 0 0 1 0 0 1 0 1 0 0 0 0 1 1 0 0 0 0 0 1 0 0 1 0 0 1 2 0 8 1 1 0 0 0 0 0 0 2 1 1 3 1 0 0 0 0 2 1 0 0 0 0 0 0 0 0 0 0 0 1 1 0 0 0 0 2 0 1 0 0 0 0 1 1 1 2 0 0 0 0 1 0 1 0 1 2 0 1 0 0 0 2 4 2 2 0 1 3 1 0 0 1 0 1 0 2 1 1 0 0 1 0 0 0 1 0 0 1 3 1 0 1 1 2 2 7 2 0 0 1 0 3 1 0 0 2 0 2 0 0 0 1 2 4 2 0 0 2 0 0 1 1 0 1 0 0 0 1 1 1 0 0 0 1 8 1 0 1 0 1 1 1 0 0 0 1 1 0 1 0 0 1 0 0 0 1 0 0 0 0 2 0 0 4 0 0 0 0 0 0 0 0 0 0 0 1 2 6 1 0 0 2 0 0 7 1 0 2 1 0 1 0 0 0 1 8 1 1 1 1 0 2 2 0 0 1 0 0 1 0 0 0 5 1 0 0 2 0 1 0 0 0 1 0 1 1 0 0 1 0 2 0 0 0 1 0 1 1 0 1 0 1 0 0 0 0 2 0 0 0 1 9 2 0 2 1 4 1 1 0 0 0 0 0 3 0 0 0 0 0 0 0 0 2 0 1 1 5 0 0 1 0 13 8 3 2 5 9 16 31 44 51 53 55 57 57 55 58 58 59 60 68 62 62 68 63 60 65 64 30 19 9 5 4 3 19 13 1 7 1 4 0 1 0 0 0 0 0 0 0 0 1 0 1 1 0 2 0 1 0 0 1 0 2 0 2 1 1 1 0 0 1 0 0 1 0 0 0 2 1 1 0 0 0 0 0 0 0 0 0 1 1 0 0 1 1 2 0 0 0 0 0 1 0 0 0 1 1 5 0 2 0 1 2 2 0 1 1 0 1 0 0 1 0 1 1 0 0 0 1 1 0 0 1 0 0 0 0 0 1 0 0 2 0 0 0 0 2 0 0 6 2 1 0 1 0 0 0 3 0 0 1 1 1 1 1 0 2 0 1 0 0 5 2 1 2 1 5 0 1 1 1 1 0 0 1 1 0 3 2 0 0 0 0 0 1 0 0 1 1 0 0 0 0 2 1 1 1 0 1 0 0 0 2 1 1 0 0 1 1 0 1 1 1 0 1 1 0 0 0 0 1 2 0 0 0 0 0 0 0 0 7 2 0 0 1 0 0 0 1 1 2 1 1 1 0 0 2 0 2 0 0 0 0 0 0 1 4 2 0 1 1 1 2 1 0 0 0 1 1 1 1 0 1 0 2 1 0 1 1 0 0 0 1 0 1 0 0 0 0 0 1 0 0 0 0 0 0 0 0 0 1 1 0 0 0 0 0 1 0 1 0 1 1 1 1 
1 1 1 0 0 0 0 3 0 2 0 1 0 1 1 1 1 0 1 0 0 1 0 0 1 0 0 0 0 1 0 0 4 0 0 0 0 0 1 2 1 0 3 0 1 2 0 0 1 1 0 1 0 1 0 0 0 0 1 0 0 1 1 1 0 0 0 0 0 1 0 0 1 0 1 0 0 0 0 0 1 1 0 0 1 1 1 0 0 0 1 0 2 2 2 0 0 0 0 1 0 1 0 0 0 1 0 0 1 0 1 1 1 3 1 1 0 1 2 0 0 0 0 1 1 0 1 0 2 1 0 1 2 0 0 1 0 0 0 0 2 2 2 0 0 0 0 2 0 0 0 0 1 1 0 0 0 2 0 0 2 0 0 0 0 0 3 2 1 1 1 0 0 1 0 0 0 0 0 0 2 6 1 0 0 0 0 0 2 1 0 0 0 0 0 2 0 1 0 1 1 4 1 1 1 0 1 0 0 0 1 1 0 0 2 1 0 0 1 0 0 0 0 0 0 0 1 1 0 2 0 1 2 0 1 7 3 1 0 0 1 1 1 4 0 0 0 0 1 0 1 2 0 0 0 0 0 0 1 0 1 0 0 0 0 1 1 0 0 0 0 0 1 2 1 1 0 0 3 2 2 1 0 1 3 6 0 2 2 1 0 0 1 0 1 1 2 0 0 1 2 1 1 0 1 2 0 1 0 2 2 1 2 5 5 11 24 39 56 74 95 113 127 138 144 148 149 151 150 151 152 150 151 151 150 151 150 150 149 149 150 148 141 133 123 107 92 74 69 53 55 25 15 7 5 4 4 15 2 2 2 0 0 1 0 1 0 0 0 0 0 0 1 1 0 4 1 0 0 1 10 1 0 9 1 0 0 0 0 1 0 0 0 0 0 0 0 1 0 1 0 0 0 2 2 1 1 0 1 0 2 1 0 2 0 1 1 2 1 2 2 1 0 2 10 4 2 0 0 0 0 1 1 0 0 1 5 0 1 0 0 1 0 0 0 0 0 1 1 1 1 1 1 0 0 0 1 0 0 0 1 1 0 1 8 2 1 1 0 0 0 0 1 0 0 0 2 2 1 1 1 0 0 0 1 1 5 1 0 0 0 1 4 0 0 1 0 1 1 0 2 0 0 0 1 0 0 2 0 1 2 2 0 0 0 0 0 0 0 1 2 2 0 1 0 0 0 1 0 0 0 1 0 0 0 0 1 0 0 3 1 2 1 1 1 0 0 0 1 0 0 0 2 1 2 1 4 1 2 1 0 0 0 0 0 1 0 0 1 1 1 0 0 0 0 0 1 0 0 0 1 4 1 1 0 1 0 0 0 3 1 0 0 0 0 0 0 0 3 0 0 0 1 0 1 0 1 9 2 0 0 0 0 0 0 0 1 0 0 0 1 0 0 0 0 1 0 1 0 1 0 1 0 2 1 1 1 1 1 1 
0 0 1 0 2 1 0 0 0 0 0 0 1 7 2 3 0 1 6 3 0 0 0 0 0 0 0 0 0 2 1 7 1 1 0 1 0 1 0 0 1 1 0 0 1 0 0 1 1 0 1 0 0 1 2 0 4 1 2 0 1 0 1 1 1 1 0 0 2 1 1 0 1 0 1 0 1 1 1 1 0 1 0 1 0 0 0 0 0 1 0 0 1 0 5 1 1 0 0 2 0 0 1 2 0 1 0 1 1 0 0 1 0 1 0 1 8 0 0 0 1 0 0 0 0 0 0 2 0 1 0 1 0 0 0 0 0 2 2 1 0 0 0 0 2 0 0 2 0 1 1 0 0 0 1 2 2 0 0 1 0 0 0 1 0 0 0 1 1 0 0 0 0 0 1 0 0 0 0 0 0 1 0 0 1 0 0 1 0 0 1 1 1 0 1 1 1 1 0 0 0 2 0 1 1 7 7 1 1 1 1 10 1 6 2 0 2 1 0 1 1 3 0 0 0 1 0 2 1 0 1 1 1 0 1 8 0 0 1 0 1 0 0 0 0 1 2 0 0 0 0 0 0 0 0 2 0 0 1 0 1 1 1 2 2 1 0 1 1 0 0 0 0 0 0 2 1 1 1 0 2 0 1 10 9 1 1 0 0 0 1 3 1 3 9 2 0 1 0 0 0 1 3 0 1 1 0 4 34 47 31 47 66 87 82 122 138 148 154 158 161 165 167 154 172 175 177 177 179 177 179 177 178 177 178 177 178 178 175 162 177 161 177 175 171 150 163 140 153 147 106 94 115 103 89 75 60 42 44 6 4 2 0 0 1 10 2 1 0 0 0 1 1 1 1 4 1 0 0 2 0 1 0 2 1 1 0 1 1 1 0 0 1 1 0 0 0 3 2 0 2 2 1 1 7 0 1 1 0 0 0 0 0 3 0 1 0 0 2 1 2 2 0 0 0 2 1 2 0 2 0 0 1 0 1 0 0 0 0 2 0 0 0 1 1 2 1 0 0 0 4 0 0 0 0 0 1 0 0 0 0 0 1 1 0 0 0 0 1 1 1 0 0 0 0 1 0 0 0 3 1 2 1 1 0 0 0 3 1 0 0 0 1 1 2 1 0 1 0 0 0 0 0 0 1 0 0 2 0 1 6 0 1 1 1 0 1 0 0 0 0 0 2 1 0 0 0 1 0 0 1 3 0 0 0 0 0 0 0 4 0 10 0 1 0 0 0 0 0 1 2 0 1 0 2 0 0 0 0 1 6 0 0 2 0 0 1 1 0 1 0 1 0 0 2 4 0 0 2 1 0 0 1 2 0 1 0 2 0 1 0 3 1 4 1 0 1 0 0 0 1 0 1 1 0 0 0 0 1 1 0 0 0 4 0 1 0 0 0 1 1 1 0 0 0 1 1 0 0 1 0 1 1 0 1 0 1 0 1 0 
0 1 1 0 0 0 0 0 0 0 2 0 1 4 1 1 1 1 1 0 0 1 2 1 1 0 1 1 0 0 0 0 0 0 3 1 0 0 1 0 0 1 0 0 0 1 0 0 0 0 1 1 1 0 0 1 0 1 3 1 0 1 0 0 0 1 0 1 0 1 1 1 1 2 3 0 0 1 1 1 1 1 1 0 0 0 1 1 0 1 1 0 1 0 0 0 0 0 0 1 0 0 0 0 1 0 2 1 0 0 0 1 0 2 0 4 3 2 1 1 1 0 0 1 7 2 1 2 0 3 2 0 0 0 2 1 0 0 0 0 1 0 0 0 0 0 1 0 0 0 0 0 0 0 0 0 1 1 0 0 8 1 0 0 1 0 0 0 1 0 0 0 0 1 3 1 0 1 1 1 0 1 1 0 0 0 0 2 3 4 1 2 0 0 0 0 0 0 1 2 5 0 5 0 1 0 0 1 1 0 1 0 1 2 1 1 0 1 0 2 2 0 0 1 4 1 0 0 0 0 0 0 0 0 1 0 0 1 1 0 0 0 1 0 0 0 0 0 0 1 1 0 0 1 0 2 1 1 0 0 0 1 0 0 1 0 2 1 6 0 2 0 0 0 1 1 0 0 2 0 8 1 0 2 1 1 1 6 0 3 1 0 1 4 0 1 8 0 1 1 0 0 2 1 13 4 15 46 86 122 145 154 159 139 164 146 170 172 175 176 177 164 180 167 181 181 182 168 181 182 183 184 184 183 183 183 184 184 184 182 160 155 184 184 185 182 183 182 181 178 175 153 168 139 161 157 151 141 122 93 65 47 16 5 3 1 1 0 0 2 1 1 0 1 0 1 2 2 0 1 0 1 5 0 0 4 7 1 0 2 0 0 0 2 2 1 1 1 2 0 1 1 1 1 1 0 0 0 0 0 0 0 0 0 1 1 0 1 1 0 0 0 0 0 1 0 1 2 1 1 0 1 2 0 2 0 1 0 0 1 1 0 0 1 0 0 1 1 1 6 1 1 0 1 0 0 1 0 0 0 0 2 0 2 0 0 0 0 0 1 1 0 6 4 2 0 0 1 2 0 0 0 3 0 0 0 0 1 0 1 1 0 0 1 4 1 1 1 7 0 0 0 1 1 0 2 2 1 0 0 8 1 1 0 1 3 1 1 1 3 0 0 3 0 3 1 1 1 0 0 1 0 0 1 1 0 0 0 0 0 1 0 1 1 2 1 0 1 1 0 0 0 2 1 0 1 1 0 0 0 0 0 1 1 1 0 0 0 0 1 1 0 2 1 1 0 1 0 1 1 0 1 0 0 0 0 1 1 1 1 1 1 4 2 1 0 0 1 1 0 0 0 1 1 0 0 0 0 0 0 1 0 0 1 2 0 0 0 0 1 0 0 0 0 0 1 1 1 1 3 0 1 0 0 0 0 1 1 0 0 
1 1 0 1 0 0 1 1 0 0 0 0 0 2 0 0 1 1 1 2 0 1 2 2 2 1 2 0 0 0 0 0 0 1 0 1 0 1 1 2 0 1 1 2 6 1 2 0 2 0 1 0 1 0 0 0 2 0 7 1 0 0 0 0 0 0 1 0 0 0 0 0 1 7 1 2 1 1 0 1 1 0 0 0 2 0 1 0 1 1 0 2 0 0 2 1 0 1 1 0 1 0 0 2 1 1 0 0 1 1 0 1 0 2 1 1 1 0 1 0 1 0 0 1 7 1 0 0 1 1 0 0 0 5 0 1 0 2 1 0 0 0 0 0 0 1 0 0 1 1 0 1 1 0 2 1 1 1 0 0 3 0 0 0 0 0 0 2 7 1 1 0 1 1 0 0 1 1 0 0 0 1 0 0 0 1 1 1 1 0 0 2 2 0 0 1 0 1 0 1 0 0 0 3 1 0 5 9 0 5 1 0 0 4 1 1 0 1 1 11 0 1 0 0 1 1 0 0 0 1 1 0 0 0 2 1 1 1 2 2 1 0 0 0 1 1 0 0 0 1 0 1 0 1 1 1 0 0 0 1 1 0 2 0 0 1 0 0 0 1 3 0 0 1 0 0 0 0 0 5 1 1 1 0 0 1 2 0 1 0 6 0 2 0 1 0 0 2 0 1 6 5 24 19 53 69 97 151 135 168 172 173 176 176 179 178 180 183 181 157 155 180 181 169 179 178 176 174 176 175 171 175 175 175 174 176 174 176 176 176 173 161 176 179 181 183 184 183 185 184 186 184 185 183 182 183 179 156 148 164 155 140 99 88 59 34 14 6 1 2 0 0 0 0 0 0 0 1 1 7 3 0 2 0 1 1 0 0 3 0 4 0 1 1 0 2 0 0 1 1 1 0 0 1 0 1 0 2 8 0 0 0 1 1 1 0 0 1 0 1 0 2 0 0 0 0 0 3 2 0 0 1 1 1 1 1 6 6 0 1 1 0 0 0 0 0 1 1 0 1 0 0 2 1 0 0 0 0 0 0 1 0 0 2 0 1 0 0 0 1 1 0 0 0 0 1 0 1 0 0 0 1 1 0 1 0 0 1 2 0 2 2 2 1 0 0 0 1 0 0 1 1 0 0 1 7 7 0 1 1 0 1 2 0 2 1 1 1 1 0 1 0 2 0 1 1 1 0 0 1 1 4 1 1 0 0 1 1 0 0 0 0 1 1 1 1 1 0 0 0 0 0 0 1 0 1 2 0 2 0 0 1 1 0 0 0 1 0 0 2 3 0 0 0 0 0 2 2 1 0 0 1 2 1 0 0 1 1 0 0 0 1 1 1 0 1 1 0 0 0 1 1 0 1 0 0 1 0 1 0 0 0 0 7 0 1 0 2 0 1 0 0 1 1 1 1 0 1 0 1 1 0 0 4 2 0 3 1 0 0 
1 1 1 0 0 1 0 0 1 0 0 0 0 0 0 0 0 0 2 1 0 0 0 0 1 1 1 0 0 1 0 0 0 0 0 0 0 1 1 4 0 1 1 0 1 0 0 1 0 1 0 1 0 1 1 0 0 2 1 1 0 0 0 0 0 1 1 0 0 0 0 1 0 0 1 1 0 0 1 0 1 0 0 0 7 1 1 0 0 0 0 1 0 1 1 0 0 1 0 0 0 1 0 1 0 0 1 3 5 1 0 0 0 0 0 0 1 1 0 3 1 0 0 1 6 1 2 6 1 1 0 0 2 1 0 0 0 0 0 1 0 1 0 1 0 0 0 0 1 0 0 1 1 1 1 0 0 0 1 0 1 2 0 0 0 0 0 4 3 2 2 1 0 0 0 0 0 1 1 0 0 4 0 0 4 1 0 0 1 1 0 1 0 0 0 0 2 2 1 0 4 0 1 0 0 1 1 6 2 0 0 0 0 2 0 0 0 0 1 1 1 0 0 2 1 0 0 1 0 1 1 0 1 1 0 0 1 1 0 1 1 0 1 1 2 1 1 0 1 0 0 1 1 1 1 0 0 1 0 0 1 2 5 1 2 0 1 3 2 0 5 0 1 0 0 0 3 1 2 1 0 0 1 0 1 1 1 1 0 0 1 0 0 0 1 8 0 11 3 6 24 70 105 109 154 136 169 153 174 177 160 153 166 181 161 179 158 178 177 174 158 173 171 170 162 168 165 164 163 162 144 160 139 159 161 156 162 162 160 160 160 157 137 161 165 163 170 173 175 178 179 180 183 181 184 185 186 162 185 185 183 178 171 144 151 117 114 85 58 32 12 5 2 0 0 1 0 0 2 0 0 3 5 1 1 1 0 0 0 1 0 1 1 1 0 1 2 0 1 0 0 0 0 0 1 0 0 1 0 2 1 0 8 1 0 0 1 0 1 2 0 1 0 0 0 1 0 1 0 0 0 1 0 1 1 1 2 2 9 9 1 0 1 1 0 1 0 0 0 0 1 0 2 0 1 3 7 0 1 1 0 0 0 0 1 2 0 1 0 0 1 3 0 0 1 0 0 0 0 1 0 0 0 1 1 0 1 1 1 1 0 0 0 0 0 1 1 0 0 0 0 0 0 0 0 7 0 1 0 0 0 0 1 0 0 0 1 0 0 1 1 0 1 0 0 0 2 0 0 1 0 0 1 1 1 0 5 2 0 0 0 0 1 0 0 0 1 0 0 0 0 0 0 0 0 1 1 0 1 1 0 1 0 1 1 5 0 4 1 1 0 1 0 0 0 0 1 2 1 2 0 1 10 0 0 1 0 0 0 0 0 0 0 0 0 0 2 1 1 0 0 0 1 0 1 0 0 0 0 0 0 0 0 0 1 0 0 1 0 0 0 1 0 1 0 0 0 0 0 0 1 0 1 0 3 0 1 1 1 2 
0 0 0 2 1 0 1 0 0 0 0 1 0 0 0 1 1 0 0 0 2 0 0 0 0 0 0 0 3 0 0 0 0 1 1 1 1 0 1 0 0 0 0 3 1 0 5 0 0 0 0 0 0 0 0 1 1 0 1 0 0 0 1 0 0 0 0 1 0 1 0 1 0 1 1 0 0 0 0 0 0 1 2 1 1 1 0 1 1 1 1 0 0 0 0 1 0 0 2 0 0 1 3 0 1 2 0 2 0 0 0 0 0 0 1 0 1 0 0 1 1 1 1 1 1 2 0 1 0 1 0 1 1 1 0 1 1 0 1 0 0 2 6 4 2 0 0 1 0 0 0 0 0 1 1 0 2 0 0 0 1 0 1 0 0 0 1 2 0 0 0 0 0 2 1 0 0 1 0 1 0 0 0 1 1 0 1 0 0 1 2 0 0 1 0 1 0 1 1 0 2 1 0 0 1 1 1 1 0 6 5 1 0 1 3 0 0 1 1 1 1 1 0 1 1 0 0 1 1 1 0 1 0 0 2 0 1 1 0 0 0 0 0 1 2 1 2 0 5 2 5 1 0 0 1 0 6 1 0 0 1 1 1 0 1 1 0 3 1 2 6 0 0 0 0 1 0 2 0 1 2 1 0 1 0 1 0 0 1 1 0 0 0 1 10 4 10 29 66 111 143 162 170 173 158 176 160 180 173 182 181 180 177 175 159 173 152 169 169 155 164 163 158 140 152 149 147 143 143 141 108 95 90 102 134 112 137 134 113 132 133 101 92 113 146 149 152 151 156 159 162 165 166 171 172 157 176 157 166 184 186 187 186 162 181 178 172 162 121 132 109 81 54 23 5 2 0 1 4 7 1 1 0 1 0 0 0 0 0 0 0 0 1 5 2 0 2 0 1 0 2 1 1 1 1 0 1 1 1 8 1 0 0 0 0 0 0 0 13 0 2 1 1 0 0 0 1 0 4 0 0 0 1 0 0 1 0 4 1 3 0 0 1 0 0 1 0 0 2 0 0 0 2 0 1 0 1 0 0 0 0 0 0 0 1 1 0 0 1 1 1 4 1 0 1 1 1 1 2 0 0 0 2 0 0 0 0 0 0 2 3 0 0 0 0 0 2 0 0 0 1 0 0 0 0 0 0 0 1 1 0 1 0 0 1 0 1 0 0 0 0 0 0 0 1 2 1 0 1 1 0 1 1 0 1 1 1 0 6 0 1 0 0 2 5 0 0 2 2 1 1 0 0 0 0 1 0 0 0 1 1 0 1 0 1 1 0 0 1 0 0 0 0 0 0 1 0 0 4 1 2 1 0 0 0 2 1 0 1 2 0 0 0 0 3 1 5 0 1 2 0 0 0 0 0 0 1 3 0 0 0 0 4 1 0 0 1 0 0 0 0 3 1 0 0 0 1 1 1 0 1 0 0 1 4 1 1 0 1 1 
0 0 1 0 0 0 0 1 0 1 1 1 0 0 1 0 4 1 0 1 0 0 0 0 2 0 0 0 0 1 0 0 1 1 0 1 1 1 1 0 0 1 2 0 0 0 1 0 0 1 1 0 0 0 1 0 1 0 1 1 0 2 1 1 0 1 0 0 0 0 0 4 0 0 0 2 0 0 1 0 0 1 1 0 0 1 1 2 0 0 0 0 1 0 0 1 0 0 0 0 0 0 0 0 1 5 5 3 0 0 0 1 1 0 0 0 0 0 3 1 0 0 1 1 0 2 3 0 0 1 0 0 0 0 0 6 1 1 0 0 1 0 0 0 2 2 2 0 0 0 0 0 0 0 1 0 0 0 0 1 4 0 1 1 1 0 1 0 0 1 0 0 1 0 1 0 2 1 2 2 0 0 1 0 2 7 0 1 0 1 0 0 0 1 0 1 0 0 1 0 1 0 0 1 0 1 1 2 1 1 2 2 0 1 1 3 2 0 0 1 2 0 1 0 0 0 1 0 0 0 0 1 4 7 1 0 1 0 0 0 0 0 0 0 3 0 0 0 2 0 1 0 0 0 0 0 1 2 1 2 1 1 0 2 1 4 0 0 1 0 0 1 0 1 1 0 0 0 1 1 0 0 2 1 0 2 0 0 0 0 0 12 5 35 27 75 123 150 167 174 160 179 181 182 180 183 169 161 178 178 176 174 155 166 163 161 159 135 153 149 143 132 98 106 91 79 65 64 62 58 54 47 50 53 48 45 45 43 41 41 53 53 66 80 92 80 114 125 130 133 124 142 136 150 152 135 137 161 168 173 176 181 183 173 185 187 186 185 181 162 171 161 150 125 84 42 13 4 2 2 6 1 1 0 0 0 1 0 1 1 0 1 1 4 1 1 1 1 0 2 1 0 0 1 0 0 1 0 1 1 0 0 0 0 1 1 1 1 0 0 0 0 1 1 0 0 1 0 0 2 6 0 0 0 1 0 0 1 0 2 2 2 0 1 2 2 0 0 0 0 0 1 0 1 1 2 1 2 1 0 0 0 1 1 0 0 1 1 1 0 1 0 1 0 0 2 0 0 1 2 0 0 1 1 1 5 0 0 0 0 1 1 0 2 1 0 0 0 6 2 0 1 0 0 0 1 2 3 0 0 1 1 1 0 0 1 0 1 1 1 1 0 0 0 1 1 0 1 2 0 0 4 5 2 1 0 0 1 1 0 0 0 1 0 1 0 0 1 1 0 0 0 0 0 1 0 1 1 0 4 0 0 1 0 1 1 0 0 1 2 0 2 1 1 2 0 1 0 1 0 1 1 1 1 1 1 0 1 2 0 0 0 0 0 0 1 3 1 0 2 0 0 0 1 0 0 0 1 4 0 2 1 1 0 0 0 0 1 0 1 1 0 1 0 2 0 3 1 2 0 0 0 0 0 0 0 0 0 0 0 
0 0 1 1 1 0 0 1 0 0 1 0 0 0 1 1 0 1 0 1 1 1 6 0 0 2 2 0 0 0 0 0 0 0 3 1 1 0 2 1 1 0 1 0 0 0 0 0 0 0 0 0 0 1 0 0 1 0 1 0 0 0 1 0 1 0 0 0 1 0 0 1 0 0 1 0 1 0 1 1 0 0 2 0 0 0 0 0 0 1 0 1 1 10 1 0 0 0 0 0 0 0 1 0 4 4 1 0 2 1 1 1 0 0 0 1 0 0 2 0 0 0 0 1 0 3 0 1 0 0 0 0 0 1 0 1 0 1 1 0 0 0 0 1 1 0 0 1 0 1 0 2 0 0 0 2 0 1 0 1 1 0 8 2 1 0 0 1 0 0 0 0 0 0 9 2 0 0 1 0 0 0 0 1 1 1 0 0 0 2 1 0 0 0 0 6 0 0 0 0 0 0 0 0 0 0 0 1 1 1 0 0 0 6 1 0 1 1 2 2 0 1 0 0 0 0 0 1 0 1 2 0 0 1 1 0 5 1 0 0 0 0 1 0 1 0 0 1 0 0 0 2 0 0 2 0 0 0 0 1 0 1 1 0 2 1 1 0 1 0 1 0 0 0 1 1 0 1 0 1 1 0 6 2 0 1 0 0 2 3 2 8 53 81 144 168 177 179 179 180 181 182 182 183 182 179 176 173 173 170 168 159 123 146 114 131 119 81 86 71 49 52 19 8 6 5 19 6 3 17 4 4 19 3 17 3 1 2 7 3 14 3 4 4 6 11 18 31 43 60 71 74 103 116 125 132 138 144 149 154 147 153 170 175 167 180 164 186 187 186 172 185 182 175 162 142 108 65 27 31 3 0 0 1 0 0 0 3 1 6 6 2 1 1 0 2 0 0 1 1 1 2 0 0 2 5 1 0 0 3 0 0 1 0 1 1 0 0 0 0 0 0 0 1 0 1 1 1 0 1 0 1 1 0 0 1 2 0 0 0 0 0 1 1 0 2 2 0 1 1 2 0 1 0 6 1 3 1 0 2 0 0 1 5 1 3 1 0 0 0 0 0 1 2 0 2 0 0 1 5 2 0 0 0 0 1 0 0 0 1 0 0 0 1 0 0 7 2 1 0 0 2 2 1 1 1 2 1 1 0 1 0 0 0 2 0 0 0 0 3 2 1 0 3 0 1 1 0 0 1 1 0 2 1 1 1 0 1 0 1 3 1 1 0 0 1 1 0 2 1 0 0 0 4 1 0 2 1 1 0 1 4 0 0 2 1 0 0 0 0 0 1 0 1 0 0 0 0 1 0 1 0 0 0 0 1 1 1 0 1 5 0 0 1 0 0 0 0 1 0 1 1 1 0 0 0 1 2 1 0 0 0 0 2 0 1 0 2 0 0 1 1 0 2 1 0 0 0 2 1 1 0 2 0 0 0 0 0 0 1 
0 0 1 1 0 0 0 0 0 0 1 4 1 2 1 2 0 3 1 0 0 0 0 0 0 0 2 1 1 3 2 0 0 0 0 0 0 0 0 1 0 0 0 0 1 1 0 0 0 0 0 1 1 0 0 0 0 2 0 2 0 0 1 0 0 0 0 0 0 0 2 0 0 1 1 0 2 5 2 0 0 5 1 1 0 0 0 1 2 0 0 0 1 2 1 0 0 0 2 0 2 1 0 0 0 3 0 1 1 0 1 0 0 1 1 1 1 0 0 0 1 2 1 0 3 0 1 0 0 0 2 1 1 0 0 1 0 0 0 3 0 1 1 0 1 0 0 0 0 0 1 1 2 1 0 0 0 1 0 2 1 2 2 0 0 0 2 3 0 0 0 1 0 1 0 5 1 1 1 1 2 1 0 0 0 2 1 2 1 0 1 1 0 0 3 0 0 0 1 1 0 0 1 2 2 1 0 0 2 0 0 1 1 0 0 0 1 0 0 1 1 1 1 1 1 1 1 1 0 1 3 0 0 2 0 0 1 0 4 0 0 1 0 1 0 0 0 0 0 0 0 0 1 0 1 0 0 1 1 0 1 0 0 1 5 0 0 1 1 0 0 3 1 1 1 1 0 2 0 0 0 0 1 1 1 0 1 2 31 51 49 95 151 135 146 180 179 166 181 168 183 182 169 167 174 172 171 168 163 154 137 95 83 64 43 29 16 7 4 4 1 2 12 1 6 1 1 0 1 4 2 0 6 2 1 1 0 0 1 1 2 0 0 0 0 12 2 2 3 8 14 20 39 57 78 89 105 120 128 124 139 145 153 159 149 166 154 175 170 183 183 169 188 187 185 179 171 154 128 90 46 14 5 13 0 3 0 5 0 1 0 0 1 1 1 2 0 1 0 2 11 7 6 1 2 3 0 0 1 1 0 1 1 0 1 0 0 0 2 0 1 0 0 0 1 0 0 0 1 0 1 1 0 2 1 0 1 2 1 1 1 0 0 0 0 0 0 1 1 1 0 0 0 0 0 0 1 0 0 1 1 0 0 0 0 0 1 3 1 0 0 1 1 0 0 0 1 0 4 1 0 3 0 0 1 0 0 0 1 0 5 0 0 0 0 0 0 2 1 1 0 1 2 1 0 1 1 0 0 2 0 0 0 0 0 1 0 1 8 1 1 0 0 5 0 0 0 0 1 1 1 1 1 1 0 1 0 1 2 0 0 0 1 0 1 0 1 0 2 0 2 0 1 0 0 0 1 2 5 2 1 1 0 1 0 2 1 0 1 0 1 1 0 1 1 0 0 2 1 1 1 0 1 0 0 1 1 0 0 0 1 0 1 0 0 2 1 1 1 1 0 2 0 1 1 0 0 1 0 0 1 1 0 1 0 0 1 5 0 1 0 0 0 1 0 1 0 0 1 0 2 1 1 0 2 0 2 0 0 0 
0 1 0 1 0 1 0 0 0 2 1 1 1 1 0 2 0 0 0 5 1 3 0 1 1 1 0 1 0 1 1 0 0 0 1 1 1 1 1 1 0 0 0 1 0 2 1 0 0 0 0 0 0 0 2 0 0 1 0 1 0 0 1 0 0 0 0 0 3 1 0 2 0 0 0 0 1 0 1 0 1 0 1 1 0 0 0 1 0 0 0 2 0 5 1 0 7 1 0 0 2 0 0 0 1 0 0 0 1 0 0 0 0 0 1 0 0 0 0 0 0 0 1 1 0 0 0 1 0 0 0 2 1 0 1 1 0 1 0 0 1 1 2 0 0 1 1 0 0 0 0 0 0 0 2 1 1 1 1 0 1 2 1 1 0 0 0 1 1 0 0 1 4 0 0 1 1 4 0 0 1 0 0 0 1 1 1 0 5 1 1 0 2 0 0 1 0 1 1 0 1 0 0 0 0 3 0 4 4 1 0 1 0 0 1 0 0 1 0 0 0 0 0 0 0 0 0 0 0 1 1 3 1 4 0 0 0 0 1 2 0 2 2 0 0 0 0 0 0 0 0 0 0 1 1 0 0 0 0 1 0 1 0 1 1 0 0 1 0 0 0 0 1 1 0 2 1 0 1 2 0 5 13 4 3 9 5 13 58 98 158 174 180 180 179 181 165 183 183 162 177 174 171 169 167 161 152 138 112 77 36 9 5 4 2 1 0 0 3 4 0 0 0 1 2 2 2 2 1 2 0 0 2 1 0 1 2 0 0 0 0 0 2 1 1 2 1 3 16 7 4 13 9 25 33 47 67 83 98 112 109 124 121 135 141 128 132 158 165 169 162 176 181 185 175 166 187 183 175 162 107 109 68 29 7 3 1 1 1 1 0 0 0 0 1 0 0 0 1 1 2 13 4 2 1 1 1 0 3 1 2 0 0 0 1 1 0 0 1 0 0 0 1 0 0 2 0 0 1 3 0 0 1 1 1 0 1 0 2 1 0 2 3 0 1 1 1 1 0 3 2 0 0 0 0 1 1 1 2 1 0 2 2 1 0 0 1 0 1 1 0 0 1 0 0 0 0 0 5 1 0 0 0 6 0 0 0 1 0 0 1 0 1 1 0 0 0 1 0 0 0 0 1 2 0 0 0 0 0 1 0 0 0 0 1 0 1 1 1 0 1 1 2 1 2 1 1 5 1 0 0 0 1 0 0 0 0 0 0 0 0 0 1 0 1 1 0 1 1 0 0 0 1 1 5 0 1 1 2 1 0 0 1 1 0 0 0 0 1 0 0 0 0 1 0 1 1 1 0 0 2 1 0 1 0 0 1 0 1 1 1 0 1 0 0 0 1 1 1 1 1 0 0 0 0 0 1 0 0 0 1 0 0 2 0 0 7 0 0 1 1 0 0 2 0 1 1 1 1 0 1 0 0 1 0 0 0 1 0 0 
2 0 0 0 0 0 0 0 0 0 0 1 0 1 0 1 0 0 1 0 0 3 2 2 2 1 0 0 2 0 0 2 6 2 0 0 0 2 0 0 0 1 0 0 0 0 3 0 1 0 0 2 2 0 0 1 1 0 0 1 0 0 0 0 2 0 1 1 0 1 1 0 0 0 0 0 1 5 3 3 0 0 2 0 0 1 0 1 1 0 1 1 1 1 1 1 0 1 5 0 1 1 0 0 1 0 1 0 3 1 0 0 0 1 0 0 4 0 0 0 0 1 1 0 0 0 1 1 0 1 1 0 1 1 1 1 0 1 0 0 1 0 1 2 0 0 0 0 0 0 2 0 1 0 1 4 1 1 1 0 0 1 0 0 0 0 0 0 1 0 0 1 3 0 2 2 2 0 0 0 0 0 1 0 1 0 0 0 0 0 0 1 0 0 0 1 0 1 0 0 1 2 0 1 1 1 0 1 5 1 0 0 1 2 0 1 1 7 1 1 1 0 0 0 0 0 2 0 1 0 1 1 1 1 0 0 0 0 1 1 2 1 2 1 1 1 0 1 0 1 0 0 1 0 0 1 0 1 0 1 6 0 0 1 2 0 0 0 1 0 3 0 1 0 0 1 0 0 1 0 0 1 0 2 6 44 69 130 163 146 181 183 183 174 184 184 183 180 178 172 154 145 159 152 137 94 71 62 13 3 2 0 1 1 8 1 13 2 1 1 1 1 1 1 1 1 11 4 4 5 5 7 8 8 7 33 9 8 8 10 11 13 41 38 8 3 4 23 4 12 18 2 2 1 7 29 39 55 67 86 104 112 116 114 120 123 130 120 128 142 156 161 168 174 179 182 185 163 160 146 139 138 155 131 93 49 17 4 4 7 2 0 1 1 1 1 1 0 1 0 1 0 1 1 0 0 1 0 0 1 0 4 1 0 1 0 3 0 0 0 0 0 0 1 0 0 1 0 1 0 0 2 0 3 1 0 1 0 1 0 1 0 0 1 1 0 0 0 1 0 0 1 0 0 1 2 1 0 0 1 0 0 0 1 0 1 1 2 1 0 1 0 0 0 1 1 1 1 0 0 1 0 1 0 1 1 0 2 1 9 0 1 2 0 0 1 0 0 0 1 0 1 4 0 0 0 0 0 0 1 0 1 0 0 0 1 0 0 0 2 1 2 0 0 0 0 1 1 1 0 0 0 2 0 2 2 2 0 0 0 0 0 0 0 0 0 0 0 2 0 2 0 1 0 0 1 0 0 0 1 6 1 1 0 1 0 0 0 1 0 2 0 0 0 0 1 5 5 1 0 2 0 1 0 1 1 0 3 1 2 2 0 0 0 1 0 1 0 0 1 1 0 1 1 0 1 1 0 0 1 0 0 0 2 0 0 0 1 1 0 0 1 0 1 0 5 0 0 1 5 1 1 0 1 2 1 0 0 0 0 
1 0 0 0 0 0 0 0 1 1 2 1 0 1 1 4 0 0 1 1 0 1 1 1 0 0 0 0 2 1 1 1 2 1 2 1 0 0 0 0 1 1 0 0 0 1 1 0 0 1 0 1 1 1 2 1 0 0 1 0 2 1 0 4 1 1 1 8 2 0 1 1 1 0 1 1 1 2 2 0 1 1 1 1 0 0 1 0 0 0 0 0 1 1 0 0 1 1 1 5 1 0 1 0 1 0 0 0 0 0 0 0 0 2 0 0 0 1 0 1 0 0 2 0 0 0 0 0 1 1 0 0 0 0 1 0 0 0 0 0 0 0 0 0 0 0 0 0 0 0 1 0 0 1 3 1 0 5 2 0 0 0 0 0 0 1 1 0 1 2 3 0 2 0 2 4 0 0 0 0 0 1 0 0 0 1 1 0 0 0 0 1 2 0 4 0 0 0 1 1 1 0 1 2 0 1 0 0 1 1 0 8 4 0 1 0 1 5 1 1 0 1 2 1 2 1 0 0 0 0 0 1 5 0 0 1 0 2 1 1 1 0 0 1 4 1 0 2 0 0 8 0 1 10 2 0 0 0 0 0 0 0 0 1 0 0 0 2 1 1 1 0 0 1 0 0 1 0 1 6 3 2 5 22 77 134 134 179 184 184 184 169 184 185 184 173 177 173 152 162 151 133 104 68 33 11 4 3 2 11 0 2 2 0 2 2 12 9 1 3 4 17 6 32 17 31 48 68 89 100 103 103 105 103 66 78 104 71 71 104 108 111 97 101 87 73 69 46 32 22 14 8 4 5 6 13 19 28 46 63 74 92 106 112 115 115 115 116 119 120 133 141 139 158 164 169 160 179 163 185 187 187 184 177 164 146 115 71 35 6 2 1 0 0 1 0 1 0 0 0 3 0 1 1 0 0 0 0 1 1 0 1 0 1 0 3 2 2 1 1 0 0 0 0 1 0 0 1 1 0 0 1 0 0 0 0 0 0 1 6 0 0 1 0 1 2 4 0 1 1 0 0 0 0 1 0 0 2 0 0 0 1 0 0 1 0 1 0 0 0 0 1 0 0 0 1 2 4 0 1 4 0 0 1 1 0 0 1 1 1 1 1 0 0 2 0 2 0 1 0 0 0 0 1 0 1 1 0 0 1 0 0 0 0 0 1 0 0 1 0 0 0 0 0 2 0 0 0 0 0 0 1 0 0 1 1 1 0 0 0 0 1 1 1 1 1 1 0 0 0 0 0 0 0 0 1 0 0 0 0 0 1 0 1 2 1 0 0 0 0 0 0 2 0 1 0 0 0 0 0 0 0 2 1 0 0 0 0 0 1 0 0 0 0 0 0 0 0 0 0 0 0 0 1 1 1 0 1 0 4 1 1 0 0 2 2 1 1 0 0 0 1 1 0 2 1 1 1 2 0 0 1 0 0 0 1 0 0 1 1 
0 1 0 1 1 0 2 2 0 1 2 0 0 0 0 6 1 0 0 1 1 0 0 1 1 1 0 1 1 1 1 0 0 1 1 0 0 0 1 0 0 0 0 0 0 1 1 1 0 0 0 1 0 1 1 0 2 0 0 1 1 2 0 6 0 0 8 2 0 0 0 0 0 0 0 4 2 1 0 1 1 0 2 0 0 1 0 1 0 0 0 0 0 1 3 0 2 1 8 1 0 0 0 0 0 0 0 0 0 0 0 2 2 0 1 0 1 2 0 1 0 0 0 0 0 0 2 0 1 2 1 1 1 0 0 0 0 0 0 0 1 1 1 1 0 0 1 0 0 0 0 0 5 1 0 0 0 2 1 0 0 0 0 0 0 1 1 1 0 0 0 1 1 0 0 2 6 1 2 0 1 0 0 1 2 0 6 1 2 0 1 2 1 1 1 1 1 1 0 1 1 2 9 0 2 1 0 2 0 1 1 0 4 5 0 1 1 0 0 0 2 1 0 1 0 1 1 0 0 1 0 1 0 1 0 0 0 0 0 7 9 0 0 0 0 0 0 1 1 1 1 1 1 0 1 0 0 0 1 1 1 1 6 1 0 1 1 7 7 1 3 0 0 0 0 1 1 0 2 3 25 24 79 140 172 183 185 185 185 185 185 185 168 180 176 173 171 162 145 98 71 30 34 5 0 1 0 1 2 1 1 0 0 1 5 22 5 9 19 37 54 74 97 113 98 138 120 151 154 139 158 157 156 127 122 152 154 152 118 124 151 132 151 150 145 144 137 133 124 114 105 93 82 68 58 57 34 54 32 44 58 74 87 89 101 115 114 115 108 113 112 115 125 136 136 131 159 168 161 180 185 187 188 188 176 182 171 126 97 70 39 6 2 5 11 13 1 2 1 1 0 0 1 0 2 1 0 0 1 2 0 0 2 0 2 1 1 0 1 1 1 0 3 1 2 0 0 1 5 0 0 2 1 1 1 0 1 1 0 2 1 2 1 1 1 1 4 0 2 1 1 4 0 1 0 1 0 0 0 0 0 0 0 0 0 0 2 0 0 0 0 1 1 0 1 1 0 1 0 1 0 0 1 0 1 0 0 1 2 1 2 1 0 2 1 2 5 0 1 1 1 0 1 1 2 6 0 0 0 1 1 1 1 0 1 1 0 1 0 1 3 0 2 0 0 0 0 1 1 0 1 0 0 1 1 0 1 1 0 0 1 0 0 1 3 0 0 0 0 1 1 0 1 2 1 0 2 0 2 0 1 1 0 2 0 1 1 1 2 1 1 0 0 0 0 1 2 2 0 0 1 0 0 0 3 2 0 0 1 1 1 1 1 0 0 1 0 1 1 1 0 0 0 0 2 0 1 0 0 1 4 0 1 0 0 1 0 1 1 0 0 0 0 1 0 0 0 0 0 1 0 2 0 0 1 1 1 2 0 0 
0 1 1 0 1 0 0 0 0 0 0 1 0 6 1 1 0 0 0 1 1 2 1 0 1 0 1 0 0 0 0 1 1 1 4 1 0 0 2 0 1 0 1 1 4 0 0 0 1 0 0 0 0 0 0 0 0 0 2 1 1 1 0 0 0 1 1 0 0 0 0 0 0 1 1 1 2 0 0 0 0 0 3 1 0 1 0 0 2 2 1 1 0 1 2 0 1 0 1 1 0 1 1 0 0 1 0 0 2 1 2 0 1 8 2 0 1 2 1 2 1 1 1 0 0 1 1 2 0 2 6 3 2 0 4 1 0 1 0 0 1 1 0 0 1 1 1 0 0 0 0 1 0 0 2 2 2 0 0 0 0 0 0 0 1 0 0 2 1 1 0 0 0 1 2 0 1 0 2 0 0 1 0 4 1 0 0 0 0 0 0 0 0 0 0 0 2 1 1 1 0 0 1 1 0 2 2 0 2 6 1 0 1 1 2 1 0 0 3 0 0 1 1 1 1 2 0 1 0 0 0 0 0 0 0 1 2 0 1 1 0 0 0 1 1 2 0 0 1 0 2 1 1 2 1 1 2 0 2 0 1 0 3 0 1 0 2 1 2 0 0 1 0 1 1 1 1 1 5 52 86 141 172 184 187 180 187 186 186 187 184 163 174 157 170 164 144 88 61 9 2 2 2 0 0 1 0 0 1 1 2 4 5 16 55 81 104 120 136 147 153 124 161 163 144 165 164 155 158 167 167 168 166 166 165 166 167 164 163 138 163 144 164 164 162 148 158 135 145 151 132 145 140 138 131 127 118 105 83 69 61 64 74 83 104 111 112 112 110 112 111 110 110 113 109 112 126 141 159 166 171 177 181 181 186 189 186 156 172 154 104 62 18 25 18 2 7 1 0 0 0 0 1 0 1 0 1 1 0 3 0 0 2 1 0 0 0 2 4 0 2 1 2 0 5 6 4 4 2 1 0 0 2 0 1 0 1 1 1 0 0 0 0 0 0 0 1 2 0 0 2 8 1 2 0 1 0 2 1 1 4 0 0 1 1 0 0 1 0 1 1 0 0 2 2 0 8 0 1 1 0 0 1 1 1 0 0 0 1 1 0 0 0 1 2 1 1 1 1 2 0 2 1 6 1 0 0 0 1 0 1 0 1 0 0 0 0 0 0 0 0 0 1 1 0 0 1 1 0 1 0 1 1 0 1 3 0 2 1 0 1 0 0 1 0 2 0 0 0 1 0 1 4 3 0 1 0 0 0 0 1 0 0 0 0 0 0 2 0 0 0 0 4 1 1 1 1 1 0 1 0 0 0 1 0 1 0 0 0 2 1 1 1 0 0 0 0 1 0 1 1 1 2 0 0 1 0 0 0 1 6 0 1 1 1 0 0 0 0 0 1 1 0 0 0 4 1 0 1 1 0 1 0 0 0 1 4 0 5 0 
0 0 0 1 0 0 2 0 4 0 1 0 1 2 0 0 0 0 4 0 1 0 7 2 0 0 1 2 1 0 1 1 0 0 0 0 0 1 1 1 0 1 0 2 1 3 0 0 0 0 1 1 1 0 1 0 2 0 0 0 0 0 0 0 0 1 0 0 1 0 0 1 1 1 0 0 1 2 1 7 2 1 0 1 1 1 0 2 0 4 1 0 0 1 11 2 3 0 1 4 2 2 0 2 0 0 0 0 0 1 1 2 1 1 2 5 0 0 0 0 1 1 0 0 0 0 0 0 0 0 1 0 0 0 0 0 0 0 0 0 0 0 0 0 2 0 0 0 1 0 1 0 0 0 1 0 0 1 0 0 0 1 1 1 1 1 0 0 1 0 8 2 0 0 1 1 0 0 0 0 0 1 0 0 0 1 1 2 2 1 0 1 1 2 0 1 0 0 0 0 0 0 0 1 12 3 0 0 0 0 0 0 1 1 7 1 1 2 0 2 0 0 0 0 0 0 1 2 0 0 2 1 1 0 1 12 1 0 0 1 0 0 2 1 0 0 0 1 1 0 1 1 0 2 1 0 1 0 1 1 0 0 0 0 1 5 1 4 1 0 0 2 0 1 0 1 3 22 80 141 134 182 170 188 187 186 187 187 186 184 175 136 134 160 146 107 50 9 2 0 0 0 1 0 0 0 1 8 21 43 58 54 98 100 113 160 165 152 170 170 169 169 170 159 170 171 164 171 172 174 173 167 172 172 164 160 171 171 172 170 155 161 170 169 169 156 167 164 164 146 147 161 148 157 156 154 138 144 123 129 118 107 101 96 101 105 110 110 111 111 110 110 110 108 107 104 112 119 136 146 155 162 169 174 181 185 186 190 188 161 172 150 112 55 14 2 0 0 0 2 2 1 1 0 0 0 1 0 0 2 0 0 0 0 0 0 1 1 2 0 1 1 1 1 7 2 2 1 1 1 4 1 1 0 2 7 2 0 1 0 0 0 1 0 0 0 0 0 0 0 1 1 2 1 0 0 0 3 1 1 1 1 2 0 0 4 0 1 0 0 0 1 1 0 2 1 2 0 1 1 1 2 1 1 1 0 0 0 0 0 0 0 3 0 1 0 0 2 1 1 1 0 1 2 0 1 2 1 2 0 1 1 0 1 1 0 0 0 1 0 1 1 0 1 0 1 1 1 1 0 1 1 0 0 0 0 0 1 0 2 1 0 0 0 1 1 0 0 0 0 1 0 1 2 1 2 0 0 1 2 1 2 1 0 0 0 3 0 0 0 0 1 1 0 0 1 0 0 0 1 1 0 1 0 0 0 0 0 0 0 1 1 2 0 0 1 1 0 1 1 0 0 0 0 0 0 1 0 0 6 1 3 0 1 1 0 1 0 0 1 0 0 1 0 1 0 0 0 0 1 2 1 2 3 0 0 1 1 2 0 
0 1 1 0 1 1 0 3 1 1 3 1 2 0 0 1 0 0 1 3 0 0 0 0 0 2 0 0 1 0 0 0 0 0 0 1 0 0 0 0 0 0 0 0 0 1 1 0 0 0 0 1 1 2 2 0 2 1 0 0 1 2 0 0 0 0 0 6 0 2 0 0 1 1 3 2 6 0 0 4 1 0 0 0 0 0 0 1 0 0 1 0 1 0 2 0 0 0 0 1 0 2 1 0 2 0 0 0 1 0 0 1 1 1 0 0 1 2 1 2 0 0 0 1 1 1 0 0 1 0 0 0 0 0 1 0 0 1 0 0 0 0 0 0 0 0 0 0 0 0 1 0 0 0 1 1 0 1 0 0 1 2 0 0 1 0 0 2 1 1 1 1 1 0 1 1 1 1 1 1 2 0 1 0 0 0 1 6 1 1 4 1 1 0 0 0 1 1 0 1 3 0 0 1 0 0 0 0 0 0 1 0 1 1 8 0 2 1 3 1 2 1 1 0 0 0 0 0 1 0 1 0 1 1 0 0 1 1 1 0 0 0 1 0 0 0 1 1 2 0 1 0 1 0 1 1 0 1 1 1 1 2 0 0 2 2 4 0 1 2 2 11 0 1 4 20 76 140 171 183 185 174 170 186 173 168 173 185 181 174 145 116 103 82 49 8 3 7 1 0 0 1 0 0 1 4 31 21 54 103 109 155 139 168 170 172 174 174 175 175 175 175 175 175 175 165 178 176 175 177 176 175 175 173 173 173 174 163 162 173 171 173 171 171 171 171 169 169 168 159 169 166 165 155 164 164 151 160 159 154 150 144 137 129 117 114 113 106 111 109 110 108 108 107 93 106 106 97 107 110 121 139 151 159 156 170 166 182 187 188 189 182 172 147 103 49 10 3 0 1 0 1 0 1 0 1 0 0 0 0 0 0 0 0 2 1 0 1 1 0 1 0 3 0 0 0 0 1 9 1 1 2 1 1 0 0 0 2 0 0 0 0 0 2 2 1 0 0 0 0 0 0 0 1 1 0 1 1 1 1 0 0 0 0 0 1 3 0 1 0 1 0 0 0 1 0 0 2 4 1 1 0 0 0 1 1 0 1 0 0 1 0 0 4 0 0 0 0 1 0 1 1 1 0 0 2 2 0 1 0 7 8 1 0 0 0 0 0 1 1 0 0 0 0 1 0 0 0 2 2 0 0 0 0 6 1 1 1 0 1 1 1 0 2 5 0 1 0 0 1 0 0 0 1 4 1 0 0 0 1 1 0 0 0 0 0 3 0 1 0 2 0 0 0 2 8 1 2 0 1 1 0 2 0 0 1 0 0 5 0 1 0 0 3 0 1 1 0 0 0 0 0 0 0 1 0 1 1 1 1 0 1 0 3 2 1 0 1 0 1 0 4 1 0 0 0 1 0 0 0 0 2 0 0 1 1 0 0 0 0 
0 6 0 0 0 1 0 0 1 0 0 1 1 1 0 1 2 1 0 1 0 3 0 1 0 0 1 0 0 1 0 1 0 0 1 0 1 0 1 1 0 0 0 0 0 1 1 0 0 0 1 1 1 0 0 1 0 0 0 1 1 1 1 0 1 1 4 1 2 5 3 0 1 9 2 1 0 0 6 0 0 1 1 0 0 0 1 1 1 0 1 0 2 0 0 0 0 0 0 0 2 0 3 3 1 1 0 0 0 0 0 1 0 0 1 0 0 1 0 1 1 0 0 1 2 3 0 3 0 0 1 0 1 0 0 1 0 0 2 0 0 0 0 0 2 1 3 1 1 0 0 0 0 2 10 1 0 0 0 0 2 0 0 1 0 0 1 6 0 0 1 0 0 0 0 2 0 0 0 0 0 0 0 0 0 1 0 1 0 1 0 0 1 2 0 0 1 1 0 1 1 0 1 0 0 0 0 0 1 0 1 6 0 1 3 2 0 1 1 0 0 1 1 10 1 0 1 0 1 1 8 1 0 0 0 4 2 1 0 0 0 1 0 2 1 1 0 0 1 0 0 0 0 0 0 0 0 4 1 4 1 0 0 3 2 6 0 0 0 1 2 12 4 21 73 141 171 184 175 190 187 189 186 172 175 184 169 177 173 166 148 115 58 14 2 1 1 3 1 7 0 0 1 4 20 57 106 136 102 121 169 174 174 162 175 167 175 176 178 178 177 179 178 177 169 175 177 177 177 177 176 172 176 176 175 175 175 175 174 174 173 172 161 173 172 174 171 171 170 169 170 168 155 155 167 168 166 165 165 164 163 161 156 153 148 139 135 127 122 115 111 108 107 107 101 105 96 105 102 103 98 98 99 122 125 155 140 150 180 184 186 179 187 180 141 141 80 43 8 2 2 1 3 12 2 0 0 0 0 1 1 0 0 1 0 0 0 0 7 0 1 1 3 2 0 2 1 2 1 0 0 0 0 4 0 0 1 0 0 2 0 0 0 1 1 0 0 0 0 0 1 0 0 0 0 0 2 0 6 1 0 1 1 2 1 9 1 0 0 1 0 0 0 1 0 0 1 2 0 2 0 0 0 1 1 6 5 1 0 0 0 1 0 1 4 0 0 0 0 0 6 1 0 0 0 0 1 0 0 1 0 1 0 1 0 1 1 0 2 5 2 1 1 2 1 2 1 0 2 0 1 1 2 2 1 1 0 0 0 0 1 1 0 2 0 2 1 0 0 0 0 0 0 0 0 1 1 0 1 1 1 0 1 0 1 0 1 0 0 1 0 0 0 0 1 1 1 6 0 1 0 0 1 2 1 2 1 0 0 1 1 0 1 1 1 2 1 3 0 1 0 1 0 0 1 0 1 0 1 0 0 1 0 1 1 0 1 1 1 1 0 1 1 2 0 0 0 0 0 0 0 1 6 1 1 1 0 0 1 0 
1 0 2 1 1 0 0 0 0 2 1 0 1 2 0 2 0 1 1 1 0 1 1 1 1 0 0 1 0 0 0 0 0 0 1 0 0 0 1 1 6 0 0 0 1 0 0 0 0 0 0 1 1 0 0 0 3 0 1 1 0 0 1 0 0 0 1 2 1 0 2 0 1 3 0 5 0 0 1 0 1 1 5 0 0 1 1 0 5 0 0 2 7 1 0 0 0 0 1 2 0 1 0 2 0 1 0 0 0 0 1 1 0 1 1 2 5 0 0 0 0 0 1 1 1 0 0 0 0 0 0 0 0 0 1 5 0 1 0 0 0 0 4 1 1 0 0 1 0 1 0 0 1 5 14 1 0 1 0 0 1 0 0 0 1 0 0 0 2 1 1 1 1 0 0 1 1 0 0 1 1 0 0 0 1 2 0 0 0 0 1 0 1 1 0 0 0 1 0 2 1 0 0 1 0 0 1 0 0 0 1 1 0 0 1 1 1 0 0 1 1 1 7 1 0 2 0 0 1 0 4 0 0 2 1 0 1 0 0 0 1 0 5 1 1 0 0 1 0 0 1 1 0 0 3 1 0 0 1 1 1 1 1 0 1 0 1 1 0 1 3 20 74 139 172 183 177 188 190 191 190 187 188 188 186 181 176 172 157 97 63 48 6 1 0 1 1 1 1 0 1 6 35 93 139 161 169 145 135 172 175 175 174 162 175 176 162 174 165 177 178 179 179 178 177 179 177 179 178 172 176 177 175 176 176 175 170 174 166 173 175 173 174 174 164 174 173 173 171 171 162 172 172 170 169 169 170 167 150 146 164 164 165 163 161 159 155 138 145 141 132 122 112 107 107 106 104 104 105 102 98 90 79 61 71 108 140 137 165 174 180 185 188 175 185 151 164 139 90 37 7 1 2 1 1 0 0 1 0 1 3 4 0 1 0 0 1 9 1 0 0 0 1 1 0 0 1 6 0 0 0 1 0 1 3 1 1 0 0 1 1 0 1 1 1 0 0 0 0 0 1 0 0 2 0 0 0 0 1 0 0 0 0 0 0 0 1 0 1 0 0 0 0 0 0 2 0 0 4 0 0 0 1 0 1 1 1 0 1 0 0 1 0 0 0 0 0 3 2 2 0 5 0 0 0 0 1 0 2 0 0 1 0 0 0 0 2 0 0 0 2 0 0 1 3 1 0 0 1 0 2 1 0 3 2 0 0 1 1 0 0 1 0 1 0 1 1 1 1 1 0 0 1 2 0 0 1 1 0 0 1 1 4 1 0 1 0 0 0 0 5 0 0 1 1 0 0 0 0 0 1 4 1 0 0 0 1 0 1 0 1 0 1 0 0 0 2 1 1 1 0 2 0 0 0 1 0 0 0 1 0 0 0 0 5 0 0 3 1 1 5 2 7 1 0 0 1 1 0 0 0 0 0 1 0 0 0 0 1 0 
1 1 0 0 0 1 0 1 0 1 6 0 1 1 1 2 1 0 1 1 0 2 2 1 0 0 0 0 1 0 0 0 1 0 0 1 0 0 1 2 0 1 0 2 0 4 1 1 0 0 0 0 5 1 0 0 0 1 1 1 1 1 0 1 1 1 0 0 2 2 3 0 0 0 0 1 2 2 0 0 0 0 4 5 1 0 1 0 0 0 0 2 0 4 0 1 2 0 0 0 0 1 1 2 1 1 0 1 1 0 0 0 1 0 0 1 0 0 0 0 0 0 0 1 0 1 0 0 1 1 3 0 0 1 0 0 1 1 1 1 0 1 2 0 0 0 1 1 0 1 2 0 1 1 1 5 0 0 0 1 0 1 1 0 0 1 0 1 1 3 1 1 0 0 0 0 0 1 0 0 1 1 0 7 0 6 0 0 2 1 0 0 1 1 0 0 0 2 8 0 0 0 1 0 0 0 2 1 0 1 1 0 0 2 2 2 1 2 0 0 2 1 1 0 0 0 0 1 1 0 0 2 0 0 1 0 0 0 0 2 0 5 1 7 1 0 1 0 0 0 1 2 1 0 0 0 0 1 3 1 0 2 0 0 2 0 2 0 2 17 71 138 172 184 171 171 188 190 192 190 190 189 189 185 178 174 170 149 81 22 21 3 2 0 1 1 2 7 2 7 35 94 151 172 176 156 159 175 151 175 177 176 174 177 174 173 156 174 168 176 176 177 177 179 165 163 177 180 178 177 168 177 177 178 176 162 175 176 176 175 176 175 160 173 175 170 174 167 173 163 173 172 174 171 163 170 158 170 168 155 167 163 168 163 166 164 153 161 147 156 153 147 138 126 115 109 105 103 102 94 100 92 82 70 65 49 66 114 145 158 167 176 180 185 188 189 188 178 162 113 83 33 5 2 3 1 3 0 0 0 2 1 1 0 0 1 1 11 6 1 0 0 3 0 1 0 1 1 0 1 0 0 0 0 0 4 0 0 0 0 3 0 4 0 1 0 0 0 1 1 0 0 0 6 1 1 0 1 2 0 0 0 0 0 0 7 1 1 2 0 0 0 0 0 0 0 1 0 0 0 1 1 2 0 2 1 0 0 0 1 1 0 1 0 1 1 1 0 3 0 0 1 0 1 2 0 0 2 0 0 1 1 1 0 0 1 1 1 1 1 1 0 1 1 1 1 0 0 2 0 1 1 0 0 3 4 4 1 1 2 0 0 0 1 0 0 0 7 1 6 1 2 1 0 5 1 0 0 0 0 0 2 1 1 0 1 0 0 1 0 1 5 5 1 8 0 0 0 0 0 0 2 0 2 0 1 0 0 2 0 0 0 0 1 2 0 1 1 2 0 0 1 0 1 0 0 0 1 0 0 0 0 1 2 0 1 0 1 0 1 1 3 1 0 0 0 1 2 4 0 0 1 0 1 1 2 3 1 0 1 
1 0 1 3 0 0 0 0 0 3 0 0 0 0 1 2 0 0 0 3 2 0 0 6 0 1 4 0 1 0 1 4 1 1 0 2 1 1 0 0 0 7 3 7 11 3 0 1 1 0 0 0 0 0 1 0 1 0 1 4 1 0 0 0 1 0 0 0 0 1 1 0 1 0 2 1 0 3 1 0 0 0 1 0 0 2 0 0 0 0 0 1 1 0 0 0 1 1 0 0 0 1 1 1 4 0 0 1 0 0 0 0 0 1 0 2 1 1 1 0 1 1 0 0 2 0 0 2 5 1 1 1 0 0 0 0 0 0 1 0 2 0 0 1 0 0 0 1 2 0 4 0 0 0 1 1 7 0 0 1 0 0 0 0 0 1 0 0 1 0 2 3 3 0 1 1 0 1 0 2 0 1 0 5 2 2 1 0 0 1 0 1 10 15 0 0 0 0 0 1 0 2 0 0 1 0 0 0 0 1 0 0 0 0 0 1 0 0 0 1 0 0 0 0 0 1 1 0 0 0 0 1 1 1 0 0 1 1 0 1 2 0 1 1 0 2 0 0 0 2 2 1 1 0 0 0 4 1 0 0 0 0 0 2 12 12 22 17 70 134 171 183 187 189 190 190 192 192 185 190 183 188 184 177 172 165 138 66 7 1 0 0 1 12 2 0 2 5 26 83 147 172 179 179 165 176 167 177 175 175 175 175 174 174 173 172 173 172 172 173 173 174 177 168 176 165 177 179 181 178 178 160 179 178 166 175 161 176 163 161 177 175 177 171 171 175 174 176 162 172 174 174 173 174 173 171 171 172 156 143 168 169 169 168 168 166 160 159 165 160 153 160 155 141 131 123 120 110 104 101 100 103 92 82 69 55 43 70 96 122 146 139 166 176 182 185 188 190 169 176 161 126 62 12 3 1 0 0 0 1 0 0 6 6 1 1 0 0 1 0 0 1 3 1 1 0 2 1 0 0 1 1 0 0 0 2 2 1 0 0 0 0 0 0 0 0 0 0 0 1 1 0 0 0 0 1 0 1 0 1 0 0 0 0 0 0 0 1 3 1 0 2 1 0 1 0 0 2 1 1 0 4 10 0 8 0 0 0 0 1 0 0 0 1 1 0 0 1 0 2 0 2 1 1 3 1 2 1 0 0 1 1 0 0 0 0 0 2 0 0 1 0 0 0 0 1 1 0 2 1 1 1 0 3 1 0 0 0 0 0 0 0 0 0 0 1 1 0 0 0 1 0 0 0 0 0 0 1 1 0 1 0 0 1 1 1 1 0 0 0 1 1 1 1 3 0 0 0 1 0 0 0 1 1 0 0 1 0 1 0 0 0 0 1 1 0 0 0 0 1 0 0 0 2 1 0 0 0 0 1 0 2 0 1 0 0 1 0 1 2 0 1 1 0 0 0 1 1 1 0 0 1 0 0 1 0 5 1 0 0 
1 1 1 1 0 0 0 0 0 1 1 0 0 0 0 0 0 0 1 0 0 0 2 9 0 0 1 1 0 0 0 0 1 1 0 0 1 1 0 1 0 1 6 1 0 1 2 0 0 1 0 0 1 0 0 0 0 0 0 0 1 1 0 0 1 2 1 1 0 0 2 0 1 0 1 1 0 1 0 0 0 0 0 1 0 1 1 0 0 1 0 0 1 0 0 0 0 0 0 2 1 0 2 6 5 0 0 1 1 0 0 1 0 0 1 0 1 1 0 1 0 0 4 1 0 0 1 5 0 5 1 1 1 5 0 0 0 1 1 1 0 2 0 0 0 2 2 1 0 1 1 0 0 0 0 6 0 1 1 0 3 0 1 1 0 1 0 1 0 0 0 1 1 0 0 1 1 0 0 1 0 5 0 1 0 1 4 1 1 1 5 0 1 0 0 0 0 0 0 0 0 0 1 0 0 0 0 0 0 0 1 1 0 1 0 0 3 2 0 2 0 0 0 0 0 0 0 0 1 4 0 0 2 0 4 1 4 1 0 0 0 1 0 1 0 1 0 1 0 1 5 0 1 0 1 0 2 1 0 1 0 2 0 1 4 15 66 134 169 181 161 187 178 191 191 192 191 190 190 190 187 183 176 170 159 100 59 4 0 0 0 0 2 12 19 4 21 78 141 169 154 179 181 179 179 175 175 176 175 174 174 172 173 172 166 171 172 158 170 171 169 171 166 172 172 175 175 177 179 178 179 170 178 177 158 176 156 177 177 177 177 172 175 176 178 176 176 176 176 176 175 163 174 174 172 174 173 173 171 143 148 153 170 170 167 167 168 167 164 165 164 164 162 161 158 153 148 138 125 114 105 99 93 82 70 58 49 52 33 65 81 98 121 161 168 167 182 187 176 187 183 152 145 86 46 4 2 0 0 0 0 1 7 1 0 0 1 1 2 3 0 0 1 0 0 1 0 0 2 7 1 5 0 1 0 2 0 1 1 3 0 1 1 2 1 0 1 0 0 0 1 0 0 1 1 0 1 1 2 2 0 0 0 1 0 1 0 1 1 0 1 1 1 2 0 0 2 1 0 0 1 1 0 0 1 1 0 0 1 0 1 0 2 0 0 0 0 1 0 1 2 0 0 2 0 0 1 0 0 2 0 6 2 1 1 0 1 1 0 0 0 1 0 0 0 0 1 0 0 2 0 5 4 6 1 0 0 3 2 1 0 2 5 0 0 1 2 0 0 1 2 1 1 2 0 0 0 0 0 0 0 1 0 1 0 3 1 0 1 0 0 1 0 0 9 1 0 0 1 10 2 1 1 1 4 0 0 2 1 0 2 0 0 1 1 0 0 2 1 1 0 0 0 0 0 0 0 0 1 2 0 1 1 0 0 1 1 1 7 0 0 1 1 3 1 0 1 2 1 0 1 0 2 0 0 5 0 1 0 0 
1 1 1 0 0 1 0 0 0 1 0 0 0 0 1 1 0 0 1 0 0 1 0 0 0 1 7 7 2 0 1 5 0 0 1 0 0 0 0 3 0 0 2 0 0 0 0 0 0 1 0 1 1 0 1 1 0 0 1 0 0 1 1 0 1 1 1 0 0 0 1 3 1 1 0 0 0 1 0 0 0 2 2 1 2 3 2 0 2 1 2 1 0 0 1 0 1 0 1 0 2 0 0 1 0 2 0 1 0 2 1 1 0 0 0 0 0 0 1 2 0 1 7 0 0 0 2 1 2 3 4 0 1 0 1 2 0 0 0 2 2 0 1 2 1 0 1 3 0 0 0 1 0 2 2 0 0 0 1 1 2 0 0 1 1 0 1 0 0 0 1 0 1 2 0 0 1 2 0 2 0 1 0 1 1 1 1 3 1 1 5 0 0 0 0 1 0 0 1 1 0 0 1 0 1 0 1 0 1 2 1 0 0 0 0 1 1 0 0 0 2 0 0 0 1 0 0 0 3 1 0 1 2 0 0 2 0 1 0 0 0 0 1 3 1 0 1 0 0 0 0 3 0 1 0 1 1 3 0 0 1 1 3 12 59 130 170 182 171 187 166 188 173 191 193 181 178 190 192 189 179 174 169 117 93 23 4 0 0 0 0 1 1 4 16 77 107 168 181 182 181 179 167 168 176 163 175 175 168 173 173 173 168 171 171 169 169 170 170 167 166 169 169 169 168 171 172 173 175 165 178 179 166 164 164 179 178 178 179 177 163 176 162 177 178 176 177 168 175 175 176 174 175 176 175 174 174 174 172 173 172 171 173 172 156 170 160 170 163 162 168 167 163 163 162 162 159 156 150 141 127 120 104 85 69 61 46 42 27 27 46 63 101 139 156 163 171 176 182 186 188 187 180 161 121 58 31 3 1 0 1 0 1 2 13 5 0 0 1 1 0 0 1 0 0 0 2 0 0 2 1 1 0 3 0 0 0 0 0 0 1 0 3 1 2 1 0 0 0 0 0 2 1 0 1 1 0 1 2 1 1 1 0 1 1 0 1 1 0 0 0 0 1 2 0 0 1 1 0 0 0 0 0 1 0 1 0 1 2 0 0 0 2 0 1 0 0 1 1 1 1 0 2 0 0 0 0 1 0 1 0 0 0 0 1 0 2 2 1 0 0 0 1 0 0 1 0 0 1 0 0 0 1 2 1 1 0 0 1 0 0 0 0 0 0 0 1 0 1 0 0 0 1 0 0 0 0 0 2 0 1 1 0 0 0 1 0 1 0 0 0 0 1 2 1 2 1 0 2 0 2 7 1 2 0 0 1 0 1 0 2 0 1 0 0 0 1 1 2 0 0 0 0 2 2 0 0 1 1 0 0 2 1 2 0 2 0 1 1 0 1 1 0 0 1 1 0 0 7 1 0 6 0 1 0 0 0 0 0 0 
0 1 0 0 0 1 1 2 0 1 0 0 0 0 1 1 0 2 0 1 0 2 5 0 1 1 0 1 2 1 2 0 0 0 1 0 0 0 0 0 0 2 2 0 1 0 0 1 2 0 0 1 0 1 0 0 1 2 1 0 0 0 0 1 0 0 0 2 0 2 1 2 1 1 0 0 0 0 0 1 0 1 0 0 0 2 1 1 5 1 0 0 1 2 1 0 1 1 1 0 0 1 0 1 1 0 1 0 0 0 0 1 0 0 0 0 1 1 1 1 1 0 0 0 0 0 1 5 0 1 1 2 1 1 0 0 0 2 5 1 0 0 0 2 0 1 2 0 5 1 0 0 1 1 0 0 1 0 1 4 1 0 0 0 1 0 0 0 1 0 1 2 0 1 0 2 0 0 1 4 0 0 1 0 0 0 0 1 1 0 0 1 1 0 0 1 2 2 0 0 0 1 1 1 1 0 0 0 1 0 1 1 0 0 0 0 1 0 1 2 9 1 0 0 0 0 1 0 0 1 0 4 1 1 0 1 2 0 1 1 0 1 1 1 1 1 1 1 2 0 1 1 1 2 0 0 5 0 0 0 5 40 50 117 118 181 186 178 188 191 177 193 194 193 176 189 179 189 186 174 173 166 139 67 42 3 0 0 1 4 1 1 6 60 131 168 179 182 182 182 171 179 177 177 176 175 175 174 175 174 173 160 172 171 169 168 169 169 169 167 167 167 167 168 166 167 159 169 171 172 167 177 179 177 178 164 169 179 179 179 179 177 158 177 176 177 177 166 176 176 175 176 173 174 175 174 160 173 162 173 175 166 172 172 168 172 171 171 171 171 168 168 158 154 165 165 163 161 160 159 153 146 124 113 101 76 51 34 29 23 25 40 64 91 126 144 156 166 171 179 186 187 189 174 171 142 85 44 3 4 0 1 0 1 1 0 0 0 1 0 2 2 1 3 1 1 2 2 1 0 1 0 2 3 0 0 0 0 0 1 0 1 0 6 0 1 0 0 1 0 0 1 2 2 1 0 1 0 2 5 0 0 3 1 2 1 0 0 1 0 1 0 1 1 1 0 1 0 2 0 2 6 0 1 0 0 2 0 1 1 1 2 6 1 0 1 0 1 0 1 1 0 0 1 0 0 0 0 0 0 1 1 1 2 1 1 0 5 1 3 1 0 0 0 1 1 0 1 1 0 1 0 1 0 0 1 2 0 0 0 4 2 1 0 0 0 0 0 2 1 0 0 1 1 0 0 1 0 1 0 2 1 0 0 1 2 0 0 2 1 0 0 1 2 0 0 0 0 0 0 0 0 0 0 1 0 0 0 0 0 3 1 1 2 1 0 1 0 1 0 1 1 1 0 0 0 1 1 4 4 3 1 3 1 0 0 0 0 0 1 1 1 1 3 0 0 1 2 0 1 0 2 0 0 0 0 1 2 0 0 
0 0 0 1 0 0 1 1 0 0 2 1 1 1 1 0 0 0 0 1 1 0 2 1 0 1 0 1 0 1 1 0 2 1 5 0 0 0 0 0 0 1 1 1 0 0 0 0 0 1 1 0 1 1 0 0 0 0 0 0 1 1 0 1 0 1 0 0 0 0 3 1 1 0 1 0 0 0 0 0 0 0 0 3 0 0 0 1 7 1 1 0 0 0 0 1 0 0 0 0 1 1 0 1 0 0 0 1 0 0 1 2 0 0 1 0 0 0 0 1 0 1 1 0 0 0 0 1 0 0 0 0 1 0 0 0 0 7 10 0 0 1 1 0 0 0 0 0 1 0 0 1 2 7 0 1 1 0 1 1 0 0 3 0 0 0 0 0 0 0 0 0 0 0 0 1 0 0 1 1 2 1 1 1 5 0 0 1 0 0 0 1 0 1 0 0 1 1 1 2 1 0 0 0 2 1 0 1 0 2 0 0 2 2 1 0 0 1 1 5 1 1 0 0 0 0 3 1 0 0 0 1 0 2 1 1 0 1 0 1 3 0 1 1 0 0 0 1 1 0 1 0 1 0 0 1 1 1 0 6 39 108 159 178 161 186 190 189 185 192 193 195 194 194 192 192 190 187 180 172 162 124 46 5 2 1 0 1 1 0 3 17 83 120 178 184 185 184 181 182 180 179 178 176 177 175 173 174 174 173 172 170 164 169 170 169 168 168 167 167 157 166 166 165 158 165 164 164 166 169 168 172 167 177 179 178 180 178 180 178 177 176 165 175 163 176 169 177 176 174 176 177 176 175 167 165 174 172 175 169 174 173 163 174 173 173 172 172 172 173 171 170 164 168 166 166 165 166 164 162 163 159 155 150 137 110 91 61 39 36 17 22 41 69 98 112 133 147 160 166 175 176 187 190 186 177 127 90 46 6 1 2 0 0 0 0 0 0 0 1 0 1 0 0 0 0 0 0 2 2 1 1 0 0 1 0 0 2 1 1 0 1 0 1 1 1 0 0 1 0 0 0 1 0 1 1 1 0 0 1 1 2 0 0 1 4 0 1 0 0 0 2 0 0 1 7 0 0 1 0 3 2 1 0 0 2 1 5 1 0 0 1 0 0 0 0 2 1 1 3 0 2 0 1 1 0 0 1 0 3 1 0 0 0 1 1 1 1 1 0 0 1 0 0 1 1 7 0 0 1 4 0 0 0 0 1 0 0 0 0 6 0 2 1 3 0 0 0 1 3 0 0 0 1 1 1 1 0 1 1 3 2 1 0 6 0 1 3 0 0 0 1 0 5 2 1 1 1 5 0 0 2 1 0 0 0 0 0 0 0 5 7 0 0 1 0 0 0 0 1 0 0 2 1 0 1 2 1 0 1 1 1 1 1 0 0 0 0 1 2 1 2 9 2 2 3 0 0 2 0 1 0 3 0 0 0 0 1 0 0 
1 0 0 4 1 2 1 2 0 1 0 4 0 1 1 0 0 2 0 0 0 1 0 0 1 1 0 2 1 1 0 0 1 0 1 1 1 0 0 4 1 0 1 0 0 0 1 1 1 0 1 2 0 4 1 0 1 1 1 0 0 0 3 1 0 3 1 0 0 0 1 6 0 2 1 1 0 0 4 1 1 0 0 0 0 2 0 0 0 1 0 0 1 0 0 0 0 0 2 0 1 0 1 2 2 0 0 0 0 0 0 0 1 0 0 0 0 0 0 0 0 1 0 1 0 2 1 2 1 2 0 0 0 1 1 2 1 1 0 1 0 0 1 0 0 1 0 0 0 2 1 0 0 6 0 0 1 1 4 0 1 1 0 0 1 0 0 1 0 0 2 0 0 1 0 0 0 1 0 0 0 1 1 1 1 0 0 0 0 1 0 0 2 1 1 0 0 1 0 0 0 0 0 1 1 0 1 0 1 0 2 2 2 0 0 0 0 1 0 1 0 0 1 1 0 1 1 0 1 1 0 0 0 0 7 1 0 0 0 5 1 0 1 2 4 2 1 1 0 0 0 1 0 0 1 2 2 24 24 91 151 146 184 188 176 191 192 193 188 193 194 194 193 193 191 191 189 182 172 157 103 50 4 0 0 2 3 1 0 5 36 127 171 182 185 185 184 183 181 179 177 170 174 176 175 161 157 173 173 164 172 171 169 169 169 168 163 168 156 167 165 165 166 166 165 164 164 163 164 164 166 165 168 172 177 170 171 179 179 168 179 178 179 178 177 178 176 177 176 177 177 177 176 176 176 174 163 175 175 175 159 175 174 174 174 172 173 173 168 172 173 171 171 171 156 168 169 167 166 165 164 163 163 160 155 147 135 116 86 50 23 30 24 53 76 106 117 125 138 152 164 166 179 185 187 187 182 168 110 75 21 4 5 1 2 0 1 1 0 2 1 2 1 2 0 0 1 0 0 0 1 10 13 2 0 0 1 0 1 1 0 1 1 0 0 0 0 0 0 0 1 2 1 1 1 6 1 1 0 0 0 0 3 0 0 1 0 1 0 1 0 0 1 0 1 0 3 2 1 1 1 0 2 7 0 1 0 1 2 0 0 0 0 0 1 0 0 0 0 0 0 0 1 0 0 1 2 1 0 0 0 0 0 0 1 0 0 0 4 0 0 1 0 5 0 0 0 1 2 0 3 3 0 1 1 2 0 0 1 1 0 2 3 1 0 1 0 2 1 0 1 0 1 1 5 0 1 1 0 0 1 1 0 0 0 0 0 0 0 1 0 0 2 0 4 1 4 2 0 0 0 0 0 0 1 0 1 1 0 0 0 0 2 1 0 0 1 0 0 1 0 1 1 1 0 0 1 1 1 1 0 0 0 0 0 0 1 2 0 2 1 0 1 1 0 2 1 1 0 1 0 1 1 0 3 3 1 0 0 0 
0 0 0 1 1 2 0 0 2 1 0 0 0 1 0 0 0 1 1 1 0 0 1 1 1 0 0 4 0 0 0 6 1 0 2 0 0 3 0 1 1 1 1 1 1 0 1 0 1 1 0 0 2 1 1 0 0 2 0 0 0 0 2 0 0 0 1 0 3 2 0 0 0 0 2 2 0 0 1 3 0 5 0 1 1 1 1 1 1 0 0 0 0 1 0 3 0 0 0 0 0 1 1 0 0 0 2 1 0 1 1 1 0 1 2 2 0 1 0 1 1 0 0 0 0 0 2 0 0 0 1 3 0 1 1 2 7 0 0 0 3 8 3 2 0 0 0 1 0 2 0 0 0 0 0 0 0 2 0 0 1 1 0 0 0 0 1 3 0 2 0 0 0 2 0 1 0 0 1 1 1 1 1 2 1 1 0 0 0 1 0 4 2 0 1 1 1 1 0 0 0 0 0 5 0 0 6 0 0 0 6 0 3 0 1 0 1 0 0 0 2 4 0 0 0 1 1 0 0 0 0 0 1 0 0 3 1 1 0 0 0 0 0 0 1 0 0 0 1 1 1 0 6 0 0 2 10 62 137 173 164 187 189 191 190 190 191 195 193 195 194 179 192 192 191 189 171 173 153 80 14 3 0 1 0 1 9 2 9 74 145 179 185 176 184 183 174 173 175 178 179 178 176 161 161 163 172 171 167 173 170 171 170 170 171 169 167 167 158 164 166 156 164 163 163 165 163 161 163 162 161 164 166 167 170 173 177 178 179 175 179 178 179 179 179 177 178 167 178 179 175 167 176 176 171 176 176 177 176 176 174 176 175 174 174 165 159 172 162 173 172 172 172 162 172 170 169 167 167 166 166 164 154 161 149 145 154 145 119 111 81 44 43 26 56 86 109 120 122 131 147 158 168 175 180 170 190 187 174 153 105 43 7 1 1 0 1 0 0 0 1 0 1 7 3 2 1 0 0 0 0 0 6 1 2 0 0 0 1 0 0 0 6 1 0 0 1 1 3 2 0 0 1 1 0 0 1 1 0 0 0 0 0 0 1 8 1 0 1 1 1 4 6 1 0 0 1 0 0 0 0 0 2 1 0 0 0 0 0 1 0 0 1 0 0 1 1 0 0 0 0 0 0 0 0 1 0 1 3 1 0 0 2 0 1 1 1 1 1 1 1 0 0 1 0 2 1 0 0 0 1 1 0 1 3 0 0 0 0 0 0 0 0 1 1 1 0 0 0 0 0 1 1 1 0 1 1 1 1 0 1 2 1 0 1 1 0 0 0 0 1 0 0 2 2 0 1 8 0 0 0 2 0 1 0 0 1 0 1 0 0 1 0 0 0 0 0 0 0 1 2 1 1 3 0 0 0 0 2 0 0 0 0 1 0 0 1 0 1 0 0 1 5 4 1 0 2 1 0 0 0 0 2 2 0 0 1 1 0 0 
0 0 1 0 0 0 0 0 1 3 0 0 0 0 0 0 1 0 0 0 0 1 2 6 1 0 2 1 0 0 1 0 2 9 2 0 3 1 1 0 4 0 0 0 0 0 0 0 0 0 0 0 0 0 0 2 1 0 0 0 2 0 0 0 0 1 2 2 2 0 0 0 0 0 0 0 1 2 0 0 0 0 0 1 2 5 2 1 5 3 0 0 0 1 0 0 0 0 0 0 0 0 0 0 0 1 2 1 0 1 1 1 1 1 1 0 0 0 0 0 0 0 1 1 2 0 2 0 1 1 1 0 2 0 2 2 1 1 0 1 0 1 1 0 1 0 1 0 0 0 0 0 1 0 1 1 0 2 0 0 1 1 0 0 0 5 1 5 1 0 2 1 1 0 0 0 3 1 0 0 0 1 1 0 2 0 0 0 0 1 0 0 0 0 0 0 1 0 1 1 1 0 0 1 0 0 1 0 1 0 1 1 0 0 3 0 0 0 2 1 0 0 6 6 2 0 0 0 0 1 0 0 1 6 1 0 1 0 0 2 2 2 1 1 0 1 0 1 0 1 1 0 3 3 6 51 110 163 183 186 188 192 192 191 167 158 173 192 195 196 194 193 193 191 176 164 171 158 88 10 2 1 0 0 1 2 20 14 81 160 184 186 186 185 182 183 181 179 179 178 174 177 176 174 174 173 173 172 171 172 170 167 170 163 169 169 168 168 167 165 166 159 165 165 164 162 162 162 159 150 161 161 154 162 165 168 166 174 177 179 180 179 172 177 179 168 177 178 174 176 167 159 177 176 177 177 178 174 177 172 176 175 174 175 174 174 172 175 174 174 171 172 173 171 171 171 168 170 157 153 147 167 156 164 164 150 160 158 152 143 130 107 76 43 39 60 88 116 122 124 128 142 153 148 157 162 186 190 188 150 137 131 70 16 3 1 2 2 1 1 0 2 0 2 1 1 0 0 0 1 1 0 2 1 1 2 0 0 1 0 0 3 1 0 0 2 0 0 0 1 0 0 0 1 0 0 4 2 0 4 0 1 0 0 2 2 0 3 1 0 0 2 9 1 0 1 0 0 1 0 1 0 1 0 0 0 0 0 0 0 0 2 0 1 0 0 1 4 1 1 1 1 0 0 2 1 1 0 0 0 0 1 0 0 0 0 1 0 3 2 1 0 1 1 1 2 1 1 1 0 2 5 0 1 1 0 0 0 0 0 0 0 0 1 0 1 1 1 0 0 1 0 1 0 0 0 0 1 0 1 0 0 0 0 0 0 0 0 0 0 0 0 0 0 0 0 0 0 1 0 0 0 0 0 7 1 0 0 0 0 1 0 4 1 1 0 0 0 0 1 4 0 0 1 0 0 0 0 0 1 0 0 1 0 0 6 1 0 0 1 1 0 0 1 1 1 1 0 0 1 0 1 0 0 0 0 1 4 2 0 
2 1 0 0 0 0 0 1 1 0 1 0 0 0 0 0 0 0 4 0 2 0 0 0 0 0 0 2 1 0 2 0 1 5 1 3 0 6 2 0 0 0 1 0 0 1 0 0 1 1 0 0 1 0 0 1 0 1 0 0 0 0 8 0 0 2 1 1 0 1 0 0 0 0 0 0 1 1 0 0 0 0 0 0 1 0 1 0 5 0 1 0 1 0 0 0 1 1 3 1 0 0 1 2 2 0 0 1 0 0 1 1 0 1 0 0 2 1 1 1 0 1 2 1 1 0 1 1 1 2 1 0 0 6 0 1 0 0 1 0 0 0 0 0 0 1 0 0 0 0 0 2 3 4 0 0 4 0 0 0 0 0 1 0 0 0 0 1 2 1 0 1 0 0 1 1 0 0 0 1 1 4 0 0 1 2 0 0 3 0 0 0 0 0 2 0 0 0 0 1 1 0 0 1 1 2 0 2 2 3 0 0 0 1 1 0 4 0 1 6 2 0 2 8 1 1 2 0 0 2 0 0 2 1 4 4 1 2 2 9 7 2 4 0 1 0 2 0 0 0 0 3 37 57 69 101 174 186 188 190 191 193 193 192 174 169 171 194 197 187 194 193 193 190 184 171 123 99 16 15 3 1 0 2 1 4 64 115 169 173 186 187 186 183 179 169 179 179 179 177 178 175 176 163 174 170 172 171 172 174 172 169 170 169 170 168 169 166 154 166 165 165 166 165 163 156 164 161 163 161 161 160 161 160 160 154 164 159 159 175 168 179 179 179 178 180 177 178 177 170 178 177 178 177 178 178 176 176 176 176 176 176 176 175 176 176 176 173 174 173 165 164 173 173 164 172 171 171 169 151 169 170 168 160 166 159 164 162 162 150 153 143 107 76 70 55 68 101 119 123 124 127 134 148 159 169 177 183 187 189 184 175 150 98 34 4 1 1 1 2 1 1 2 1 0 0 0 1 0 1 0 1 2 0 1 0 1 0 0 0 1 0 6 2 1 0 0 0 0 0 1 0 2 0 1 4 0 1 1 1 1 1 1 0 1 0 0 0 0 0 1 0 0 0 1 0 1 0 1 0 1 0 1 0 0 0 0 0 0 0 0 1 0 0 1 0 2 0 0 0 1 1 1 2 7 0 0 0 1 0 0 0 1 0 0 0 0 2 1 12 2 2 1 0 1 0 0 1 0 7 0 0 0 1 0 1 1 0 0 0 1 1 0 2 2 1 0 0 2 1 1 0 0 0 0 0 1 0 0 1 0 3 1 1 0 1 0 0 0 2 1 1 0 0 0 1 0 1 1 7 3 1 0 1 1 5 1 0 3 1 1 1 0 5 1 1 0 1 0 2 1 0 0 0 6 3 0 1 1 1 0 0 0 0 1 0 1 0 0 6 0 0 1 0 1 0 0 1 0 1 0 1 0 1 1 0 2 3 0 0 
0 0 0 0 0 0 0 1 0 0 0 1 0 0 0 1 3 1 1 0 0 1 0 0 0 1 0 0 0 0 0 0 1 1 0 0 0 0 1 0 1 0 0 3 1 1 0 0 0 2 1 2 1 2 1 0 0 1 1 1 5 1 1 1 1 0 1 0 0 1 1 0 0 1 0 0 3 0 0 1 0 0 0 0 1 1 1 0 4 0 0 0 0 1 0 0 0 1 7 1 0 0 1 1 1 1 1 0 2 1 0 0 1 1 2 1 2 0 1 0 0 1 1 2 0 0 2 2 2 2 1 1 1 2 1 0 9 1 0 1 0 0 0 1 0 0 1 3 0 0 0 0 1 0 0 1 5 1 0 0 1 1 1 1 1 0 0 1 2 4 0 0 0 0 6 0 0 0 1 1 1 0 0 0 0 1 0 0 0 6 0 0 0 0 1 2 0 1 0 0 0 0 0 1 0 0 2 1 1 1 2 0 1 0 1 1 0 0 2 0 0 2 9 2 4 4 1 2 4 2 1 1 0 0 1 1 0 0 0 8 0 1 1 1 0 0 0 0 13 1 2 36 80 115 120 138 162 190 193 191 193 194 193 196 184 194 194 196 196 196 184 192 190 184 175 162 112 54 4 1 0 1 1 0 4 39 131 180 174 185 187 181 185 182 182 180 180 181 179 175 176 165 161 173 175 174 174 172 172 162 171 170 169 169 169 157 154 167 166 166 150 157 164 163 165 157 162 160 153 161 156 157 159 157 160 152 161 162 164 169 174 178 179 178 178 179 179 179 178 178 178 176 179 177 166 176 176 177 175 175 167 175 175 176 174 175 175 175 175 176 173 174 173 173 173 172 172 156 171 170 171 171 170 169 168 166 165 154 162 162 161 156 149 114 101 103 77 84 109 121 124 125 125 131 144 157 157 160 180 187 189 189 181 160 117 46 6 15 9 0 0 2 2 1 1 1 2 1 1 1 0 0 0 2 0 1 0 0 0 1 0 1 1 1 0 0 0 0 0 0 1 1 0 1 0 1 0 1 2 0 1 0 0 0 1 1 0 0 0 1 0 1 0 1 0 1 1 0 0 2 0 2 0 1 0 2 0 1 0 0 0 2 1 1 1 0 6 0 0 0 0 0 0 0 0 0 0 0 0 1 1 2 0 1 0 1 2 0 2 1 0 1 1 5 0 2 8 0 1 0 0 0 0 0 0 0 1 0 0 0 0 0 0 1 2 0 0 1 8 1 0 1 0 0 0 0 0 0 0 2 1 3 3 1 1 1 1 0 0 1 1 0 0 4 2 0 1 0 0 1 0 3 6 1 0 0 2 0 1 2 1 0 1 1 1 0 0 0 1 0 0 0 1 1 1 2 1 0 1 0 1 1 0 0 0 0 0 0 1 1 0 0 1 1 0 0 0 1 0 0 1 1 0 0 1 0 0 2 1 3 
1 2 0 0 0 0 0 0 1 0 0 1 2 1 0 1 0 0 1 0 0 0 1 0 7 0 0 0 0 1 0 1 1 6 1 0 0 0 0 0 1 0 0 1 1 1 3 0 0 1 1 2 0 3 1 0 1 0 0 1 0 1 0 0 0 2 1 3 0 0 0 0 0 1 1 0 0 0 0 1 0 1 5 0 2 0 0 1 1 1 0 1 0 0 0 0 0 0 0 4 2 1 0 2 2 1 4 1 0 0 1 4 0 3 0 1 0 1 1 1 1 0 0 1 2 0 1 0 0 0 0 1 2 5 1 0 1 0 2 0 0 1 2 4 2 0 0 0 0 0 0 0 0 4 1 1 1 2 1 0 0 0 0 0 3 1 0 1 3 1 1 0 1 4 2 0 0 1 1 0 0 0 0 2 2 0 1 2 1 1 0 0 0 1 2 0 1 1 1 0 0 1 0 1 1 1 0 0 2 0 1 0 0 7 2 1 5 2 0 0 1 1 0 0 0 5 0 1 1 3 0 0 1 0 1 0 1 1 1 0 1 2 2 1 1 2 1 9 1 1 6 56 115 176 185 188 190 192 192 193 187 193 183 196 195 197 196 198 195 194 194 191 186 176 163 96 57 35 1 1 0 1 0 8 58 148 182 188 188 189 186 186 183 182 181 181 179 180 178 178 167 176 174 173 174 173 166 173 172 171 172 169 170 170 169 167 146 149 166 165 165 165 166 164 164 163 162 165 160 149 160 161 162 159 159 159 158 152 161 165 163 174 179 180 173 179 178 179 178 178 178 173 178 177 168 164 177 176 160 176 177 165 176 174 161 174 175 176 175 175 176 175 173 175 173 172 164 172 157 169 156 171 158 168 153 151 168 167 165 157 164 161 160 136 149 137 118 111 114 118 123 126 110 114 128 138 151 161 170 176 172 187 161 145 163 127 57 39 2 0 2 0 0 2 1 0 1 1 0 1 0 0 0 0 0 0 0 0 1 0 0 0 2 0 2 1 1 10 0 1 0 3 7 0 1 0 2 2 0 0 4 0 0 0 0 0 0 0 1 0 0 1 3 5 1 1 0 1 1 0 0 1 1 0 0 1 5 1 2 0 1 0 1 8 3 0 0 0 1 2 1 0 1 5 0 0 1 0 0 0 1 1 0 1 1 0 1 0 1 1 0 1 0 2 0 0 1 0 1 1 1 0 0 1 0 4 2 0 0 1 0 0 1 1 0 2 0 1 1 1 1 1 0 0 0 0 2 0 0 0 0 0 0 0 0 1 1 0 1 2 0 1 0 0 4 1 1 0 0 1 0 0 0 1 1 1 1 0 0 0 1 1 1 0 0 2 0 1 0 1 3 0 1 0 0 1 1 1 0 1 1 1 0 1 0 0 0 1 0 0 4 1 2 0 1 1 1 2 1 1 1 1 0 0 2 0 0 0 1 0 
0 0 0 0 0 0 0 1 0 0 0 1 0 0 0 0 0 1 0 0 1 2 2 1 2 1 1 6 1 0 1 1 0 0 0 1 0 1 0 2 4 1 0 1 1 2 1 7 1 9 1 1 3 0 2 1 0 1 1 0 1 0 0 1 0 1 1 0 1 0 0 0 3 1 0 0 0 0 0 1 0 1 0 0 1 0 0 0 3 0 1 0 0 1 0 0 1 1 0 0 0 0 1 0 0 1 0 0 2 0 2 2 0 0 1 0 0 0 0 0 1 0 1 1 0 1 1 1 0 0 2 1 0 1 1 0 1 1 0 0 0 0 0 1 0 0 1 0 0 0 0 0 0 0 0 0 1 1 1 0 1 1 0 1 0 0 6 0 1 2 0 2 0 0 1 1 0 2 0 1 0 0 2 1 0 1 8 0 0 0 0 0 1 1 0 0 0 1 0 0 0 1 0 0 0 0 0 1 1 1 0 0 1 0 1 1 0 1 9 1 1 0 0 1 0 2 0 0 0 0 0 0 0 0 1 0 1 5 0 0 0 1 1 1 0 1 1 1 20 16 86 159 182 189 188 178 190 192 193 183 195 197 195 187 185 195 197 195 188 177 191 186 178 169 129 34 5 13 1 0 0 0 6 69 159 188 188 176 187 186 172 178 174 183 181 180 179 179 178 168 175 174 160 172 164 173 156 173 171 171 170 171 170 159 156 168 167 144 165 165 166 167 166 157 164 153 163 163 162 160 156 161 161 161 160 150 144 158 156 160 162 169 173 179 180 180 180 180 171 178 179 178 178 178 177 176 177 165 176 176 176 164 165 175 165 175 176 164 175 164 175 163 174 175 175 163 172 159 154 144 153 172 171 169 154 170 170 158 168 165 149 163 162 161 161 155 145 130 112 112 122 110 111 124 129 129 131 144 156 165 174 182 185 148 148 167 111 66 10 1 2 7 0 1 1 1 0 1 1 0 1 0 0 0 1 0 0 0 2 2 1 1 1 2 1 8 0 1 1 0 2 2 1 0 0 0 5 0 1 5 1 0 0 1 0 0 1 0 1 0 1 1 2 0 0 2 5 0 0 2 0 1 0 1 1 1 1 1 1 0 1 0 0 1 1 1 0 1 10 1 1 0 0 0 0 0 1 0 0 1 0 0 2 1 1 0 1 3 0 1 0 0 0 1 0 1 1 0 1 1 2 1 1 0 0 1 1 0 1 0 0 0 0 0 0 1 2 0 0 0 0 3 2 0 0 2 0 0 1 1 1 2 0 0 0 0 0 0 1 1 0 2 0 1 0 1 0 0 1 0 0 0 1 1 0 2 6 0 0 0 1 1 0 1 6 1 1 0 3 0 1 1 0 1 0 1 2 3 1 0 0 1 0 5 0 0 0 1 0 0 0 1 0 1 0 1 2 1 0 0 0 1 0 1 1 1 0 0 0 0 
0 0 0 0 0 0 0 0 1 1 1 0 0 0 0 2 1 0 0 0 2 1 0 1 1 0 4 2 1 1 1 0 0 0 1 0 0 0 0 1 1 0 0 0 0 2 3 4 1 1 0 0 1 0 0 1 0 0 0 1 0 0 1 0 0 0 1 0 2 1 0 0 0 1 7 1 0 2 0 1 0 0 0 0 0 0 0 0 0 0 1 0 0 0 0 0 0 1 1 0 0 1 0 1 0 1 0 0 0 0 0 0 0 2 4 1 1 1 0 0 0 0 2 0 0 1 1 1 0 2 3 0 0 0 0 1 0 0 0 0 1 0 2 1 1 1 0 0 0 0 1 1 1 0 0 0 0 0 0 0 0 0 0 2 1 2 1 1 0 1 0 0 0 0 0 1 1 1 0 0 0 1 2 3 0 3 0 0 0 0 1 0 0 0 0 1 0 0 5 3 0 0 0 1 1 1 0 0 0 1 0 0 0 0 0 0 0 1 1 8 2 0 1 0 0 2 0 1 0 0 1 2 0 0 3 0 2 0 0 0 2 1 1 0 1 1 2 4 32 119 171 188 179 192 192 172 168 180 193 186 196 196 196 197 197 196 197 179 193 180 189 177 170 138 66 4 1 0 2 0 0 4 65 124 185 189 190 188 188 188 184 184 182 181 182 179 179 178 176 178 165 175 174 157 156 174 171 170 171 161 170 171 168 170 168 157 167 168 167 166 166 162 165 164 164 164 164 157 162 164 162 161 161 161 160 158 158 158 148 158 160 154 166 174 178 178 180 179 179 173 178 179 178 176 178 177 176 177 176 178 177 175 177 177 177 176 177 176 177 175 164 175 173 173 175 160 151 172 172 163 171 162 163 166 162 171 171 171 170 161 168 168 159 164 163 161 158 149 137 122 119 123 113 125 127 115 114 116 130 138 161 172 180 162 187 185 154 141 75 12 1 2 0 0 0 3 1 1 0 2 0 1 0 1 0 0 1 1 0 0 0 0 0 0 1 1 1 0 0 0 0 0 3 0 0 0 0 1 2 0 0 0 0 0 1 0 0 0 0 0 1 0 0 1 0 0 0 0 0 1 0 0 1 0 0 0 2 0 0 1 0 1 1 0 0 0 0 1 1 3 4 0 0 1 1 1 1 0 1 0 0 0 0 1 1 0 0 3 1 0 1 1 5 0 0 1 0 0 0 0 0 0 1 0 2 9 2 1 0 1 0 1 1 0 0 1 1 1 1 0 0 2 0 1 0 0 0 0 2 1 1 0 1 0 0 1 0 1 1 1 0 3 0 0 0 3 3 0 0 0 0 1 0 1 1 0 6 1 1 1 1 1 2 0 1 1 0 1 1 1 0 3 0 0 0 0 1 1 1 0 2 0 0 1 0 0 1 2 0 1 0 1 0 0 0 2 4 1 1 0 6 1 1 0 3 2 0 1 0 0 
0 0 0 0 0 0 0 1 2 0 0 0 0 0 1 1 1 0 0 0 0 6 0 0 0 0 0 0 0 0 1 0 0 0 2 9 2 1 0 1 0 2 1 0 1 0 0 1 11 1 1 0 0 1 0 0 0 1 0 0 0 1 0 1 0 2 0 0 0 2 1 0 2 2 0 0 0 0 0 1 0 0 0 0 3 2 1 0 0 0 2 0 1 0 5 0 1 1 0 0 1 0 1 1 1 1 0 6 0 1 1 0 1 0 0 0 0 1 0 1 0 0 2 0 0 1 0 1 1 1 0 3 1 0 2 1 0 1 1 11 9 3 0 1 2 0 1 2 1 2 1 0 4 0 2 0 0 0 0 1 0 2 0 0 1 0 1 0 0 0 0 1 0 1 0 0 0 0 0 0 1 0 0 0 0 0 0 0 1 1 0 0 3 0 1 0 1 0 0 1 0 1 0 1 2 0 2 0 1 1 0 0 1 4 1 0 0 0 1 0 1 0 0 3 1 1 2 1 1 0 0 0 0 1 3 1 0 0 0 0 0 0 2 0 0 6 5 57 143 178 190 190 191 191 195 192 193 196 195 194 189 197 187 197 197 196 195 195 194 191 182 169 144 54 7 0 2 0 1 10 5 45 147 183 190 189 190 188 187 185 185 183 181 182 181 180 178 178 166 175 174 174 163 151 172 173 151 150 152 170 170 172 170 171 168 168 169 167 166 157 166 166 165 156 164 159 163 163 163 163 162 163 161 159 160 159 159 159 156 157 144 144 160 167 173 178 180 180 179 178 172 179 179 178 179 178 177 177 177 176 177 179 176 167 164 163 176 177 177 175 176 174 163 153 172 174 173 174 174 174 162 167 172 172 172 171 172 171 161 171 169 169 168 166 157 164 163 161 155 144 129 122 119 119 126 120 110 96 97 112 139 158 169 166 186 189 185 175 146 85 19 7 11 1 1 0 2 1 0 1 0 2 1 1 3 0 1 0 2 1 1 0 1 0 0 1 4 0 0 0 0 2 2 1 1 1 0 0 1 0 1 0 0 0 1 1 1 2 1 0 1 1 1 4 0 0 1 1 1 1 0 1 0 1 0 1 1 0 0 0 1 0 0 0 1 0 0 0 16 3 4 1 0 0 0 0 1 0 1 2 0 1 1 1 2 0 1 1 0 2 3 7 2 0 0 1 1 1 0 0 0 0 0 0 2 3 1 0 1 2 4 0 0 1 0 1 1 1 0 2 0 5 0 0 0 1 0 0 0 0 0 0 0 0 0 0 1 1 0 0 0 0 0 0 2 3 5 2 0 1 1 2 0 0 0 1 0 0 0 1 1 1 2 0 0 3 0 0 1 0 1 2 5 1 1 0 0 0 0 0 6 1 1 0 1 0 0 0 0 0 0 2 1 0 0 0 1 2 0 0 1 0 2 5 0 0 1 2 0 1 
0 1 0 0 0 0 0 2 0 0 0 0 0 2 0 0 2 1 0 5 2 8 1 1 0 0 0 4 0 0 2 0 1 1 2 0 2 1 1 0 9 1 2 1 1 6 0 0 1 0 2 2 1 1 2 3 1 0 1 1 0 1 0 0 0 0 1 0 0 0 0 1 0 0 0 0 0 0 0 0 0 0 0 0 2 1 0 0 0 0 0 0 0 0 1 0 2 1 1 0 0 1 0 0 0 1 0 2 0 0 2 0 1 0 2 0 2 4 0 2 1 0 1 0 1 0 0 0 1 0 0 0 1 0 0 0 0 0 3 0 0 1 0 0 1 0 1 0 2 1 5 1 0 0 0 0 0 0 0 0 0 0 1 1 0 0 2 0 1 1 2 0 0 1 0 0 0 0 0 1 1 0 0 1 0 0 2 0 0 0 1 0 0 0 0 7 1 1 5 0 1 0 2 0 1 0 1 1 1 1 0 0 0 0 1 0 2 1 0 0 1 1 0 0 0 3 1 1 2 1 0 0 0 0 0 1 1 0 1 0 0 0 1 0 2 16 88 160 185 189 191 193 192 175 194 195 196 196 187 196 197 185 197 198 182 196 196 195 194 187 173 147 61 5 0 0 1 8 3 27 28 135 157 190 189 188 190 189 186 186 186 184 182 180 180 176 178 176 163 174 160 176 174 174 173 172 170 158 171 171 171 171 170 168 170 168 170 167 168 165 163 166 167 163 164 164 168 165 163 163 159 162 155 160 161 160 160 159 158 156 146 156 159 161 164 173 177 181 180 179 179 174 177 178 179 177 172 178 178 179 171 175 176 161 175 176 165 174 176 163 169 176 173 175 175 174 175 175 175 175 173 174 173 173 173 171 170 152 170 170 170 162 170 168 155 167 163 162 159 157 150 137 125 124 125 115 99 84 80 75 88 132 156 169 179 186 190 188 176 151 94 25 3 7 1 5 10 1 4 1 0 0 0 0 1 1 0 0 1 0 1 1 2 0 2 1 0 0 0 0 0 1 0 0 1 0 0 2 0 0 0 5 1 0 1 0 0 1 4 1 0 0 0 0 1 7 3 1 1 2 1 0 1 1 0 0 0 0 1 0 0 0 0 0 0 0 0 1 1 2 0 0 0 0 0 1 0 1 0 2 1 1 0 0 10 2 2 0 0 2 1 7 1 0 1 1 1 1 0 7 0 0 0 0 0 2 1 1 0 0 2 1 0 1 1 1 0 1 0 1 0 0 0 1 1 0 0 1 1 4 0 0 1 1 0 1 0 0 0 1 3 1 5 2 0 2 0 0 2 2 0 1 0 0 1 3 0 1 0 0 0 2 1 1 2 1 0 0 0 3 1 0 0 1 0 0 0 0 2 0 1 4 5 1 1 2 2 1 0 0 0 0 2 0 1 0 0 0 0 0 1 0 0 1 1 9 7 8 1 1 
1 1 0 0 0 0 1 0 2 0 4 0 0 1 0 0 0 1 0 0 1 0 1 1 0 1 0 0 0 0 1 2 0 0 1 0 1 0 0 1 0 0 1 0 1 0 0 2 2 1 1 2 3 0 0 0 1 6 0 1 4 2 0 0 0 0 0 2 0 1 0 0 0 0 0 0 0 0 0 0 0 0 0 0 0 0 1 1 0 1 1 1 0 1 0 1 1 5 1 1 0 0 0 0 0 0 0 0 0 1 1 0 1 0 2 1 1 1 0 1 0 0 0 1 0 0 0 0 0 0 0 1 2 0 0 0 1 5 0 0 0 1 0 0 1 0 1 3 1 0 1 0 0 0 1 0 0 0 0 0 0 0 3 0 0 0 0 0 3 0 1 5 1 0 1 1 0 1 1 0 1 2 0 0 3 1 1 0 0 1 0 1 0 0 1 7 0 0 0 0 0 1 0 0 0 0 2 2 0 0 0 1 0 4 1 0 1 1 0 0 0 0 1 2 1 1 0 1 1 0 0 0 1 1 1 0 1 1 0 0 1 0 0 4 31 120 172 188 191 183 192 190 194 194 195 195 196 187 196 197 198 198 198 197 197 183 194 194 190 180 164 91 11 0 0 1 6 0 4 62 128 183 189 191 190 181 179 189 187 186 186 183 174 181 180 179 178 177 176 176 169 175 176 174 155 155 158 172 172 172 171 171 170 169 169 169 168 168 168 166 166 154 164 165 164 161 163 164 164 163 162 160 160 161 160 159 156 159 159 157 154 156 158 158 160 159 173 179 179 179 180 180 178 180 175 178 178 178 177 179 177 177 177 176 177 175 177 164 176 175 176 166 176 175 176 165 175 175 176 177 175 170 174 174 173 156 149 156 172 172 170 171 170 171 169 168 167 165 152 161 159 154 143 131 125 115 98 82 77 65 54 71 121 153 167 176 175 189 188 179 156 87 32 5 14 13 1 1 11 3 0 2 0 1 2 2 1 0 1 0 1 0 1 4 0 0 1 2 0 0 0 0 0 0 1 0 1 1 1 1 0 0 8 0 0 0 0 1 6 1 0 0 0 0 0 0 0 5 2 3 0 0 0 0 0 0 0 0 1 1 1 0 2 2 0 0 0 0 0 2 0 0 1 2 1 0 2 1 1 0 0 1 0 1 0 0 0 0 0 0 0 0 2 0 0 0 1 6 2 0 0 0 1 0 1 0 1 0 0 0 1 1 0 2 0 0 1 1 1 1 1 2 1 0 0 6 1 2 1 0 0 1 1 0 1 1 0 0 0 0 0 0 0 2 1 0 0 0 0 1 1 0 1 2 2 0 0 0 2 2 1 7 2 2 1 1 0 0 1 1 0 1 0 2 2 1 0 1 2 2 0 0 1 2 1 0 0 1 0 0 0 1 4 1 1 3 0 0 0 0 0 0 1 1 3 0 0 2 2 1 
5 0 0 0 1 1 0 0 1 0 0 1 1 0 1 3 1 0 2 1 0 0 3 0 1 0 2 0 4 0 1 0 0 1 0 0 0 0 0 1 1 0 1 1 0 1 1 0 0 0 0 2 1 1 0 2 1 0 0 1 0 1 0 0 0 1 1 0 0 0 1 1 1 0 1 0 0 1 1 0 1 1 0 2 0 0 0 1 1 0 0 1 0 1 0 1 1 1 0 1 0 1 1 0 0 1 0 1 0 0 0 2 0 2 0 0 0 0 0 0 0 0 0 0 0 2 1 1 1 0 2 0 0 0 0 0 0 1 0 0 0 1 2 0 2 2 1 2 0 2 3 1 1 1 6 1 1 1 1 0 0 2 1 0 0 0 0 0 0 2 1 0 0 0 1 1 0 1 0 1 0 0 0 0 0 1 2 1 1 0 0 1 0 1 1 5 1 0 0 0 1 0 0 0 0 0 1 0 3 1 0 1 1 4 2 0 3 0 0 0 1 0 0 0 2 1 3 0 0 0 1 1 1 2 0 0 1 0 0 1 2 1 7 58 143 179 170 189 192 193 194 194 194 196 196 184 197 196 196 184 198 198 199 191 197 180 193 184 184 171 135 63 31 2 1 1 2 1 18 115 147 190 191 193 190 179 190 189 187 187 185 183 182 180 179 179 177 177 176 177 176 175 174 158 148 172 173 171 172 172 170 170 164 168 170 169 168 167 160 167 155 151 166 165 165 164 160 164 163 164 163 161 161 163 160 160 158 158 158 157 155 159 157 156 156 152 166 173 171 180 178 180 178 179 179 177 176 178 178 169 177 178 179 177 175 163 177 176 175 176 176 163 176 174 176 176 176 175 176 175 174 175 173 174 174 174 172 173 172 171 163 155 170 171 171 171 169 167 165 166 163 161 158 147 135 123 108 88 69 59 41 49 50 107 149 150 176 184 176 187 181 159 115 45 36 3 5 0 1 0 4 1 0 1 1 1 0 0 1 1 1 0 0 0 0 2 0 0 1 0 0 0 0 0 2 2 1 4 2 0 0 0 2 0 3 0 0 1 1 0 0 0 0 1 1 0 10 5 2 3 1 0 1 0 0 0 0 0 1 0 0 0 1 0 0 0 1 1 6 1 0 2 2 0 0 0 1 1 0 0 0 3 0 1 0 0 0 1 1 0 0 1 0 1 0 2 0 1 1 0 0 0 0 1 1 0 1 0 0 0 1 0 2 0 5 1 0 1 2 1 3 0 1 1 2 1 0 0 0 0 3 2 1 0 1 1 0 1 0 0 1 0 0 0 0 0 1 3 2 2 1 1 2 1 1 2 0 1 0 1 9 7 7 2 0 0 1 1 0 2 0 1 0 0 1 1 3 1 1 0 0 0 1 2 0 1 2 1 4 0 0 1 1 1 0 0 0 0 0 0 1 0 0 0 1 1 1 0 0 0 
0 0 1 1 0 0 1 1 1 0 0 0 0 0 0 2 3 0 0 6 0 0 0 0 0 0 1 1 2 1 1 0 2 1 6 1 1 2 1 1 2 0 2 0 0 1 1 6 0 0 1 0 0 0 1 1 0 1 1 0 1 0 1 0 2 1 0 0 2 1 0 2 1 1 5 0 2 0 0 0 0 0 0 0 0 1 0 0 1 0 0 0 2 0 0 1 2 0 0 0 2 2 6 1 0 1 0 1 17 4 6 35 9 34 7 5 5 6 6 28 6 3 1 1 0 0 0 1 0 1 0 2 1 2 0 7 2 0 0 0 1 0 1 3 0 0 2 1 1 0 1 3 0 0 0 0 0 0 0 1 0 0 0 0 2 0 0 0 0 1 0 0 6 9 1 0 1 0 1 1 0 1 2 0 0 0 1 0 0 0 1 0 0 1 1 1 1 7 1 0 0 0 0 0 1 0 1 1 1 1 7 2 1 1 0 0 0 3 0 1 2 1 2 0 0 0 2 0 0 0 1 1 0 0 0 0 0 1 1 1 21 16 88 163 185 178 191 192 192 195 190 196 196 196 177 182 197 179 198 197 176 181 197 198 196 195 195 189 161 155 80 6 10 13 1 0 1 11 88 176 191 192 191 186 191 190 191 189 185 186 165 182 181 180 170 178 177 179 176 175 176 173 174 173 158 173 173 172 170 172 171 170 169 170 168 167 168 169 167 159 166 148 164 165 164 165 164 164 162 163 162 160 160 160 162 157 161 160 159 157 158 155 156 146 155 156 160 165 173 177 179 170 178 178 166 178 179 179 179 179 170 178 178 177 177 162 177 166 178 177 169 177 176 162 169 175 177 176 175 174 161 175 173 167 173 174 173 166 172 174 171 171 171 171 168 170 170 169 167 165 151 165 162 158 151 141 110 102 71 49 33 21 16 35 98 144 163 174 181 188 188 170 163 123 51 5 1 15 1 0 1 0 1 1 1 0 0 2 0 0 0 0 2 1 1 1 1 0 0 0 0 0 0 1 0 0 0 1 1 1 1 0 0 0 2 1 0 1 0 0 0 7 1 1 0 0 1 4 0 0 0 2 0 0 2 1 0 3 0 2 0 0 0 0 0 1 0 0 0 3 0 1 2 0 2 0 0 1 1 0 0 1 0 0 0 1 0 1 0 0 0 0 1 0 0 1 1 2 0 0 0 0 0 0 0 0 0 2 0 0 0 0 0 2 1 0 4 1 0 0 0 0 4 1 0 1 0 0 0 2 4 0 1 0 0 0 1 1 3 1 0 1 1 1 0 0 0 0 4 0 1 0 0 1 1 1 0 1 0 0 1 7 0 0 0 1 0 1 1 0 1 1 0 1 0 0 1 0 2 0 0 0 1 2 0 0 0 0 1 0 0 0 2 1 0 0 0 0 2 0 0 0 0 0 0 0 0 0 0 1 
0 0 1 1 1 0 2 1 1 1 0 1 0 1 1 2 0 0 0 2 0 0 1 1 1 0 3 1 1 1 1 0 0 1 2 0 0 1 0 0 0 0 1 1 0 0 0 1 1 0 0 0 1 1 0 1 0 0 1 1 0 1 3 1 2 0 0 1 0 0 2 4 0 1 0 0 0 0 0 0 0 0 0 0 1 1 1 1 3 1 1 1 1 0 1 1 0 2 1 1 1 11 1 0 2 3 5 13 54 71 91 108 122 118 113 121 117 100 120 118 104 78 57 39 26 12 6 6 5 2 2 0 0 0 0 3 0 0 2 11 2 1 1 0 4 0 3 1 0 0 0 0 0 2 1 1 0 1 5 0 1 1 0 0 0 0 0 0 0 1 1 0 2 0 0 0 0 0 1 0 1 1 2 1 2 0 1 2 1 0 1 0 1 0 1 1 0 1 10 4 0 0 0 0 2 1 2 0 1 0 0 1 2 1 0 1 0 1 1 0 0 0 1 0 1 2 0 0 2 1 0 1 2 0 0 1 0 0 1 4 30 121 174 189 190 191 193 194 193 196 196 197 196 198 197 199 197 185 198 198 197 197 185 198 190 195 192 183 168 115 15 2 3 0 1 6 7 74 167 190 182 191 192 190 191 192 191 189 187 186 185 183 182 180 180 177 177 176 176 176 175 175 174 174 172 174 172 161 171 171 170 171 170 169 169 157 168 157 167 159 167 159 165 166 166 164 164 163 163 161 155 161 161 162 160 161 157 159 157 142 157 158 160 156 156 155 157 149 165 166 178 180 179 179 180 179 180 177 178 167 179 178 173 177 177 177 172 178 176 177 177 172 176 159 175 176 175 177 171 176 174 175 175 158 157 174 174 160 159 173 173 172 171 171 172 171 170 161 168 165 149 165 164 159 136 135 144 115 104 76 33 18 13 11 25 86 141 162 174 184 188 189 168 166 132 61 7 14 0 1 0 0 1 0 0 1 1 0 0 0 5 1 0 1 1 0 0 0 0 0 1 0 1 7 2 0 1 1 0 1 0 0 0 3 0 1 0 1 0 1 0 0 0 1 0 1 1 2 1 0 2 2 1 1 0 0 0 5 0 0 0 0 0 0 0 0 1 2 1 0 1 6 0 0 0 1 0 4 2 1 0 0 0 0 0 0 2 0 1 0 0 0 0 1 0 1 1 2 0 0 0 0 0 0 0 0 1 1 0 1 0 0 0 1 0 1 0 1 1 0 1 9 9 0 5 1 0 1 0 0 0 0 1 0 1 0 2 0 0 0 0 3 0 1 6 0 0 0 1 0 0 1 0 0 0 1 0 0 0 0 0 1 1 2 0 3 0 1 0 0 1 1 1 1 0 0 0 0 0 0 0 0 0 0 0 1 0 1 0 0 0 1 0 0 0 0 1 0 1 0 0 0 1 3 0 0 0 0 0 0 
0 1 2 0 0 1 2 0 1 0 1 0 0 1 1 0 0 0 0 0 0 0 0 0 1 0 0 0 1 0 0 0 0 2 0 0 1 1 0 0 0 0 0 0 1 0 0 0 1 0 0 0 0 0 1 1 1 0 2 1 0 0 0 1 0 0 0 0 1 0 1 2 1 1 1 0 0 0 0 3 0 0 1 0 0 0 0 0 0 1 0 2 1 1 1 1 0 1 0 1 0 1 16 4 17 79 131 158 135 184 159 201 202 204 203 201 165 200 201 202 198 194 188 182 170 113 109 122 88 69 25 8 5 3 15 0 0 0 4 3 5 0 3 1 7 1 1 0 2 0 0 0 0 2 0 0 1 0 2 0 0 1 1 0 2 0 1 1 1 0 0 1 4 5 0 0 0 0 0 0 0 0 1 0 0 0 2 3 0 1 1 1 0 1 1 0 0 0 2 1 0 2 0 1 0 0 0 1 1 1 2 1 0 0 1 0 0 0 0 1 5 1 1 2 0 1 0 1 8 1 1 2 3 0 0 1 12 4 5 54 103 179 190 183 192 194 193 194 195 196 197 196 197 191 198 196 198 199 198 201 198 184 198 198 187 194 187 174 146 46 24 2 0 1 1 4 54 158 188 182 192 183 192 172 190 192 192 188 181 187 184 184 180 179 178 178 177 169 169 175 169 175 172 175 173 174 173 171 171 171 171 170 160 169 170 168 167 168 168 167 167 167 166 166 164 164 165 164 163 162 164 162 161 162 159 161 159 160 159 159 157 149 155 156 146 154 144 147 160 165 173 179 180 169 178 179 169 179 178 164 177 166 178 178 178 178 178 179 177 177 177 171 176 176 175 164 176 176 175 169 175 165 175 160 161 173 173 174 174 174 174 171 165 173 174 173 171 171 170 158 168 167 158 164 163 161 158 148 133 108 57 24 7 4 2 13 72 137 159 171 182 187 188 185 171 136 59 27 3 1 0 0 1 1 0 0 0 6 0 2 1 1 0 0 1 1 0 1 0 0 2 0 2 0 0 0 1 0 2 1 0 0 1 0 1 0 0 0 1 1 1 0 0 1 1 1 0 0 0 2 0 0 1 1 7 1 1 2 2 0 0 0 2 2 0 1 0 1 3 0 0 1 2 1 0 0 1 2 5 1 1 2 0 0 1 0 0 0 0 0 0 0 1 2 1 0 0 0 1 0 0 2 0 1 0 0 1 2 0 0 1 1 0 1 1 0 0 0 2 0 0 2 2 2 1 2 1 2 0 1 0 0 2 0 0 1 6 0 0 1 0 1 0 0 0 0 0 1 0 1 0 0 0 2 0 1 0 0 0 0 0 1 0 0 2 0 0 0 0 0 6 0 2 1 0 1 0 0 1 0 0 1 1 0 0 1 1 0 1 1 0 2 0 8 1 2 2 2 2 1 0 0 1 2 1 2 0 0 0 1 
0 0 2 0 0 0 2 1 0 1 0 1 0 0 0 1 0 0 1 0 0 1 0 1 0 1 2 0 0 0 0 0 0 0 1 1 1 0 5 1 1 1 2 0 0 0 1 0 0 0 0 0 0 1 1 0 1 1 0 0 0 0 0 2 0 1 0 0 0 3 8 2 0 0 0 0 1 1 1 1 1 1 0 1 0 1 1 0 0 0 2 0 0 1 0 0 0 0 0 3 1 7 61 80 160 195 204 179 205 206 207 207 207 206 206 206 204 206 206 187 188 207 208 206 207 204 201 199 193 184 167 141 103 60 56 12 5 1 1 0 0 1 2 1 0 1 1 1 1 0 1 0 2 0 1 0 1 1 0 0 0 0 0 1 0 0 0 1 0 0 1 0 2 0 1 1 0 0 0 0 4 0 1 6 0 0 0 0 0 1 0 2 0 1 1 0 3 1 1 0 0 0 0 0 1 1 1 1 0 1 3 0 4 0 1 2 0 0 1 1 0 0 1 1 0 3 1 1 2 0 0 0 1 1 1 2 3 12 82 121 183 189 192 193 192 194 180 194 177 186 195 184 196 198 197 198 185 199 199 199 199 199 197 195 195 191 180 162 91 7 1 3 0 1 19 25 138 158 192 192 192 192 191 191 190 175 190 174 189 187 185 173 179 179 171 177 180 177 176 177 174 175 175 173 174 172 172 171 162 170 161 159 169 168 169 169 169 168 166 167 167 166 165 165 165 165 164 163 164 164 161 156 162 157 161 162 161 159 159 159 152 156 157 157 156 155 153 136 155 159 166 175 178 175 181 178 178 179 179 178 176 177 177 177 178 176 176 175 174 175 176 161 174 168 175 160 175 176 176 177 175 175 175 167 174 175 175 174 174 174 175 172 173 173 173 171 156 171 171 158 169 170 169 167 165 166 163 159 150 130 109 55 16 7 0 0 7 63 130 137 170 180 167 169 184 169 129 50 5 5 2 2 1 1 0 0 0 0 0 1 1 1 0 0 1 0 1 0 0 0 1 1 2 1 1 0 2 0 2 1 1 0 0 0 0 0 1 0 1 0 1 1 0 0 2 0 1 0 1 0 1 7 1 0 12 4 0 1 1 0 0 0 1 0 0 0 1 0 2 0 1 1 1 1 0 0 0 1 0 1 0 0 0 1 9 1 1 1 2 0 1 0 0 1 0 0 0 0 0 0 0 0 0 0 1 1 0 1 1 1 0 0 0 0 1 7 0 1 0 0 1 0 1 1 6 0 1 1 6 1 1 1 0 0 1 0 0 1 0 0 0 1 3 0 1 0 1 0 1 2 0 2 2 0 0 0 1 1 1 3 2 1 1 0 1 0 0 0 0 0 5 1 0 0 0 1 0 1 1 0 1 0 1 1 0 2 1 0 0 1 2 0 1 0 1 2 0 2 1 1 0 0 1 1 4 2 0 1 0 0 
1 1 0 0 0 1 0 1 1 1 1 0 2 2 0 0 1 0 2 1 5 1 1 0 2 0 0 0 0 0 0 0 1 0 2 3 0 0 0 3 9 3 0 0 0 0 1 1 1 0 0 0 0 0 0 0 1 0 0 0 1 3 1 0 0 1 0 1 1 1 0 0 3 1 0 2 0 1 0 1 1 0 1 2 1 0 0 2 0 1 1 0 0 0 0 0 0 0 0 1 33 70 160 196 184 209 209 206 204 187 203 202 194 202 202 201 200 200 198 179 197 190 201 203 202 205 204 207 207 206 205 201 196 187 171 145 103 54 18 3 1 0 0 0 1 6 0 1 0 1 0 0 0 0 0 1 0 0 0 0 1 0 1 1 0 0 0 0 0 0 0 1 0 0 2 1 4 0 0 2 0 1 1 5 2 0 0 0 1 0 3 0 1 0 0 1 0 10 1 0 0 6 1 1 1 0 0 1 0 0 0 1 1 0 1 3 5 0 1 0 0 1 0 2 1 0 0 0 0 1 0 1 1 1 18 28 27 90 171 185 174 191 193 194 181 195 195 183 196 196 188 197 184 198 199 199 199 199 186 198 189 198 197 197 194 185 172 134 28 0 0 2 0 12 8 82 142 191 193 192 192 193 186 192 191 175 169 173 189 182 185 174 180 180 178 178 176 176 177 167 175 177 174 173 172 172 163 169 171 172 170 169 157 154 169 169 168 168 168 167 166 167 160 166 167 166 164 165 164 163 150 161 163 162 161 161 161 159 157 159 158 157 157 156 157 155 154 128 152 157 158 158 175 179 178 180 175 179 172 178 163 174 172 168 164 164 162 159 157 156 157 156 160 165 169 173 175 177 170 177 177 168 176 175 176 174 176 175 174 176 174 175 175 172 171 155 165 174 171 171 171 170 171 168 167 165 156 163 158 151 125 117 63 13 2 1 1 5 53 125 154 169 177 170 187 184 165 123 42 29 2 7 1 0 0 2 0 0 0 0 1 1 0 0 1 4 0 0 0 1 1 0 2 7 1 0 0 0 1 1 0 0 0 0 1 0 0 1 0 0 0 2 2 0 0 1 8 1 0 0 0 0 2 1 9 1 1 7 0 1 1 0 0 1 2 0 1 0 0 0 1 0 1 1 1 0 1 2 1 0 0 2 4 0 0 1 0 2 1 2 1 0 1 2 2 0 0 0 1 0 0 0 1 0 0 0 2 2 0 0 0 3 0 0 0 0 0 1 1 0 1 9 2 2 2 0 1 5 0 2 1 0 0 0 3 0 1 0 0 1 1 0 1 1 0 0 0 0 1 0 0 0 0 0 0 0 0 0 1 2 0 0 1 0 0 0 1 0 0 0 2 0 1 0 0 0 0 0 0 0 0 0 2 3 1 4 0 1 1 1 1 0 0 0 0 0 0 0 0 0 0 0 0 2 6 7 0 1 0 1 
0 0 2 1 0 0 1 1 0 2 6 1 0 1 1 0 0 1 0 2 0 0 1 2 0 0 0 0 1 1 1 0 0 0 0 1 1 0 0 1 0 1 0 1 0 0 0 0 1 0 0 0 0 0 0 0 1 3 0 1 1 2 1 0 1 0 1 0 0 0 0 0 0 1 0 2 1 0 0 0 0 1 0 1 0 0 0 0 3 1 0 1 0 0 0 0 0 1 1 3 48 178 210 210 209 206 205 203 202 188 199 200 199 199 197 196 196 195 181 170 192 194 193 194 195 196 196 196 200 201 202 203 197 206 203 199 191 177 149 99 42 11 4 5 1 1 1 0 0 0 0 0 0 0 1 1 1 1 1 0 0 2 0 0 1 1 3 0 1 1 1 1 0 0 1 0 2 0 0 1 1 1 2 0 0 0 0 0 0 0 0 0 0 0 6 0 2 0 0 0 0 0 0 1 1 2 1 0 2 1 2 0 0 1 1 1 2 0 1 1 0 0 2 1 0 2 1 1 0 0 1 1 1 13 7 42 135 179 189 192 193 194 193 196 196 196 187 198 198 196 198 199 198 198 183 199 198 201 199 198 198 197 197 196 189 179 157 70 4 0 1 6 0 2 34 155 190 177 192 193 192 192 192 191 191 191 192 189 185 188 187 184 173 180 179 178 177 169 175 176 174 176 173 173 174 161 172 172 171 170 173 171 169 163 169 170 168 160 167 159 155 165 161 167 166 165 166 163 163 163 144 140 162 161 150 162 159 151 158 158 153 158 157 156 155 155 155 144 144 153 141 160 168 177 178 180 180 179 177 175 171 170 169 168 165 167 163 163 163 162 160 156 150 149 141 142 152 166 172 174 170 177 176 164 174 167 175 176 176 176 174 176 173 175 176 175 173 174 172 172 171 169 171 170 170 168 165 148 163 161 152 142 123 62 12 24 20 14 5 46 122 153 150 166 188 190 184 163 114 34 3 0 2 1 1 1 0 2 1 1 1 1 0 1 0 1 0 1 0 0 0 0 0 8 2 0 1 0 1 1 0 0 1 1 1 0 0 0 0 0 1 1 0 0 2 2 1 1 0 0 4 0 0 0 3 1 1 1 0 1 1 1 1 0 0 2 0 0 0 1 0 0 1 2 1 1 1 5 1 0 0 3 0 0 0 1 1 3 0 0 0 0 1 1 0 0 0 0 1 0 0 0 0 0 0 1 5 2 0 1 1 0 5 2 1 0 0 0 0 1 0 0 0 0 2 2 2 1 1 0 0 0 1 2 0 0 1 0 2 0 5 1 1 0 0 0 1 1 2 1 0 0 0 2 1 0 0 0 0 0 0 1 0 0 1 0 1 3 0 0 0 1 0 0 0 0 0 0 0 1 1 0 1 1 0 0 1 0 1 0 2 0 1 3 2 0 0 0 0 1 0 0 0 0 0 1 0 0 0 1 
1 1 1 0 0 0 0 0 1 1 1 2 0 0 0 1 0 2 4 0 0 0 0 0 0 1 1 1 0 0 0 0 0 0 0 1 0 1 0 0 8 1 0 0 0 2 2 0 0 1 1 0 7 0 1 0 1 0 0 0 0 0 0 2 0 0 0 1 0 1 1 0 0 1 2 0 0 5 1 0 0 1 0 1 4 1 0 0 0 0 2 2 3 1 0 0 0 1 0 13 142 168 210 208 193 205 186 201 202 200 188 197 198 195 196 195 183 192 190 189 188 188 186 185 185 185 184 186 187 172 176 196 200 202 205 206 204 205 198 186 129 129 70 23 7 1 1 0 2 0 1 0 1 2 3 0 0 0 2 0 5 0 1 0 1 0 1 0 1 2 1 0 1 1 1 0 1 0 0 0 2 2 0 1 2 0 0 1 1 1 1 1 1 0 0 0 0 1 0 0 0 1 0 0 0 1 4 0 2 0 0 1 1 0 1 1 1 1 1 0 1 0 0 1 2 1 0 5 0 0 3 1 5 8 74 112 182 190 191 194 194 194 195 195 195 196 197 196 198 189 187 200 200 199 199 184 187 200 199 200 187 198 196 192 171 167 118 16 2 4 0 1 1 8 97 181 193 193 193 194 194 192 193 192 192 192 191 177 191 184 187 185 183 180 164 178 176 157 161 175 175 174 160 174 174 173 172 156 164 172 170 170 169 170 168 169 169 168 168 167 167 167 166 165 166 165 164 163 151 164 152 162 148 161 159 161 156 144 160 158 157 156 141 157 152 156 155 156 154 153 153 156 161 163 176 178 171 179 176 174 173 171 172 173 172 170 171 161 163 170 168 156 165 165 161 154 148 137 135 153 167 173 175 176 176 175 175 175 174 175 174 174 175 175 174 173 174 173 174 174 171 172 171 171 170 170 159 157 166 163 162 154 145 125 65 16 3 0 1 3 40 118 153 170 180 188 190 181 158 95 40 3 1 0 3 1 0 1 2 8 0 0 1 0 1 2 2 0 1 0 0 0 0 0 0 0 2 0 1 1 1 10 1 0 1 0 1 1 1 0 4 4 0 1 1 0 4 1 3 1 0 0 0 0 1 1 0 0 0 0 0 1 0 1 1 0 1 0 1 1 1 0 1 0 1 0 2 1 2 0 0 1 0 0 1 1 0 0 1 1 0 1 1 0 1 1 0 0 0 0 0 1 0 0 0 0 0 0 0 1 0 0 1 1 0 0 0 0 1 1 0 2 0 0 0 1 2 0 0 0 0 0 1 0 4 6 1 0 0 0 0 1 1 1 0 0 1 1 0 1 0 1 1 0 0 1 0 1 2 0 1 1 0 0 1 0 7 0 3 0 0 1 4 0 0 1 1 0 1 0 0 0 1 0 0 2 0 1 1 0 0 3 4 1 0 0 0 0 0 0 1 0 0 0 1 0 1 0 0 1 
0 0 1 0 1 0 0 0 0 0 0 2 0 0 0 0 0 0 1 0 0 1 1 0 1 0 0 0 0 1 0 0 0 0 1 0 0 0 2 1 0 0 1 1 0 1 3 2 1 0 0 1 1 1 0 1 0 0 0 0 1 1 0 0 0 0 0 1 0 0 1 1 0 0 1 1 1 0 0 0 0 0 0 0 0 1 0 3 3 2 1 0 2 5 1 1 0 0 4 71 192 187 208 208 205 202 199 199 183 181 196 184 197 195 194 191 190 189 188 186 173 182 179 180 177 176 174 165 173 172 174 177 166 187 192 198 203 205 205 204 197 161 179 149 99 41 9 2 0 1 0 0 0 1 2 1 2 4 0 0 0 0 0 1 0 0 0 0 1 1 1 3 1 0 0 0 0 0 0 0 0 0 2 0 1 0 1 1 0 1 1 1 0 1 0 0 0 1 0 0 0 0 0 0 1 2 0 1 1 0 0 1 1 5 1 0 0 0 0 0 1 0 0 2 0 0 0 0 2 1 1 10 8 67 155 184 191 191 193 195 192 195 197 197 184 178 197 198 198 198 198 199 199 199 200 198 199 200 201 200 197 197 197 189 175 129 68 31 0 1 0 0 3 52 163 193 195 193 194 193 191 185 178 190 192 180 193 191 190 190 189 177 183 165 168 176 177 160 176 175 174 174 155 171 173 174 172 173 173 170 171 155 152 171 169 156 158 167 160 168 169 166 166 166 166 167 165 163 164 165 158 162 162 162 162 162 161 159 160 160 150 139 156 158 157 156 156 149 154 152 154 154 157 165 162 168 167 178 176 176 176 165 177 176 176 176 175 174 173 174 173 171 170 159 158 156 165 161 154 141 130 147 165 174 176 177 176 174 168 175 175 175 176 176 174 176 173 160 175 174 173 172 171 172 171 170 171 167 167 166 164 162 156 148 129 79 19 20 1 1 4 42 123 154 171 180 187 187 179 155 97 19 1 0 2 0 1 1 0 1 1 0 0 2 2 0 0 0 0 0 1 0 1 0 1 0 5 0 0 1 1 1 4 0 0 0 2 1 0 2 0 0 4 4 0 0 1 1 1 0 0 0 0 3 1 8 2 4 1 0 0 0 1 0 2 1 1 0 1 1 0 0 1 0 1 2 2 7 2 0 0 1 6 2 0 1 0 0 1 0 0 0 0 0 0 2 0 2 2 1 2 1 3 0 0 1 2 0 1 1 0 1 2 0 1 1 1 0 0 0 0 1 1 0 0 0 1 2 1 0 0 1 0 1 3 0 0 1 0 0 1 0 0 1 0 0 0 1 1 7 1 0 0 0 1 0 0 1 0 1 0 0 0 2 1 0 0 0 1 1 2 2 10 1 1 6 1 0 0 0 0 1 1 6 2 0 1 1 2 0 0 4 1 0 0 0 0 1 0 1 0 1 0 0 0 0 1 1 1 0 
0 1 1 0 0 0 1 2 0 0 1 0 1 0 0 0 0 0 0 2 0 0 3 0 0 0 1 1 0 0 0 0 1 0 1 1 1 1 1 1 1 0 0 2 1 0 0 0 1 0 1 1 0 2 3 0 1 0 0 0 1 2 0 0 1 4 0 0 1 3 0 1 1 1 0 0 0 7 0 0 5 0 0 1 0 0 0 1 1 3 5 2 0 0 1 0 1 1 11 153 210 211 208 206 193 188 174 183 198 199 197 196 196 194 181 192 188 163 163 174 185 184 183 179 176 166 168 167 162 156 155 154 156 153 151 157 188 196 200 206 205 202 199 193 182 160 115 44 8 3 0 0 1 1 0 1 0 7 1 6 0 0 0 0 0 2 0 1 0 1 0 2 0 1 2 3 0 1 0 0 0 0 0 0 0 6 1 0 0 0 1 0 1 0 0 1 0 0 0 1 1 0 0 1 0 1 0 1 0 0 1 0 2 1 2 1 1 2 0 0 0 1 0 0 1 3 1 1 3 2 6 8 73 161 187 192 191 195 194 196 196 194 196 197 186 197 197 198 197 198 200 190 199 201 201 199 201 201 198 193 197 198 195 187 168 95 10 19 3 0 0 2 12 93 146 192 179 194 194 194 193 193 191 192 192 191 180 193 192 190 189 186 182 172 178 166 166 176 176 163 176 174 166 174 174 173 173 172 173 170 170 160 169 167 169 160 169 169 168 167 168 155 156 167 167 166 165 166 164 164 164 163 163 162 163 162 160 148 161 158 151 157 158 158 157 156 156 141 153 144 153 154 162 176 183 183 177 179 180 180 178 178 172 167 177 168 173 176 176 175 175 173 173 158 158 170 168 168 165 161 156 145 132 153 168 174 175 176 175 176 175 160 175 175 174 174 176 172 174 175 173 172 172 173 172 173 169 170 168 169 168 166 163 156 149 134 94 26 4 2 1 6 50 128 150 171 180 171 165 176 152 89 12 2 0 1 0 0 1 1 1 0 0 1 1 0 0 0 1 0 0 3 1 0 1 1 1 0 1 1 0 0 0 0 0 3 1 0 0 1 1 1 1 1 2 0 0 1 0 0 0 0 0 1 4 0 6 9 0 2 0 0 0 1 0 1 0 0 1 1 0 0 1 0 3 0 0 4 1 1 0 8 5 0 1 2 0 0 4 0 0 1 1 1 0 0 0 1 1 2 0 0 1 1 1 0 0 1 0 1 1 1 0 0 1 0 0 0 0 1 0 0 0 0 4 0 1 1 1 7 1 0 0 1 0 0 0 0 0 0 0 0 1 0 1 0 0 0 1 2 0 0 0 1 0 1 1 0 1 0 0 1 0 0 0 0 1 1 0 0 0 3 5 1 0 1 1 1 0 1 1 1 0 1 2 0 0 0 0 0 0 1 0 0 0 1 0 0 0 0 0 1 5 0 1 0 0 2 3 0 
0 0 0 0 0 1 0 0 0 2 0 0 0 0 0 0 0 0 0 1 0 0 2 0 0 0 3 0 0 0 0 4 0 0 1 1 3 0 1 0 0 0 0 0 5 0 1 2 0 1 1 0 0 0 0 1 4 1 0 0 1 5 1 1 1 0 0 0 0 0 0 0 0 0 0 1 0 2 1 1 0 1 0 3 1 1 2 0 0 1 2 0 1 0 0 0 0 4 59 157 212 211 199 205 204 202 200 198 182 198 198 197 194 189 193 192 169 163 185 188 176 184 182 181 178 174 170 166 160 141 150 142 135 130 115 134 146 165 180 193 201 205 205 201 198 190 180 154 94 35 4 1 1 0 1 0 0 1 6 0 2 0 0 0 1 0 1 0 1 0 0 0 0 1 0 6 2 0 1 1 1 1 0 1 2 0 0 0 0 1 10 0 0 0 0 0 0 0 1 1 1 0 2 1 0 1 0 0 2 0 2 0 5 1 1 1 4 1 1 0 1 1 0 1 2 1 1 6 1 1 5 74 164 186 190 177 193 189 196 196 195 197 197 192 198 181 182 198 191 200 200 199 199 200 191 201 201 201 200 176 198 196 192 180 152 42 3 2 3 0 0 27 77 172 190 173 173 193 193 193 182 192 193 194 192 187 191 190 192 191 190 171 175 182 183 163 178 176 163 173 176 174 175 172 174 173 174 172 173 170 171 171 171 153 155 169 169 168 168 169 167 168 166 167 166 166 167 165 165 165 161 163 154 162 163 161 151 160 161 160 160 159 158 156 156 155 155 145 153 152 151 164 178 183 183 182 180 181 181 180 181 178 179 164 181 178 180 178 177 178 177 167 176 174 174 173 172 170 168 150 164 162 155 143 134 162 173 165 175 175 167 175 165 174 176 175 176 176 175 174 174 173 164 173 163 173 172 170 165 169 168 167 165 163 159 151 135 79 19 6 17 4 32 61 133 139 171 154 186 166 176 148 77 10 8 2 1 0 0 0 1 0 2 0 1 1 1 0 0 0 0 0 1 2 0 2 0 4 0 0 1 1 0 0 1 1 0 1 1 0 2 1 1 4 1 0 1 0 1 0 1 1 0 3 0 1 3 1 1 2 1 1 1 0 0 1 0 0 1 1 0 1 1 1 2 1 0 1 0 0 0 1 1 1 0 2 2 2 0 0 0 0 0 2 0 0 1 1 6 6 12 0 2 1 1 0 1 1 0 0 0 1 0 0 2 0 2 0 0 1 2 0 0 0 2 4 1 0 2 0 2 1 1 0 0 0 0 2 0 1 1 0 0 0 1 0 4 0 1 0 1 1 5 1 1 0 1 0 0 0 1 2 1 1 0 0 0 1 1 0 1 1 1 0 0 0 1 0 5 1 2 0 0 1 1 1 1 1 2 0 0 0 1 1 1 3 1 1 0 1 0 0 0 1 0 0 0 1 1 0 
1 2 1 0 0 1 0 0 1 1 0 0 0 1 0 1 0 0 0 0 0 0 6 1 0 0 1 1 1 0 1 1 1 3 1 0 0 0 0 0 0 1 1 1 0 0 0 0 1 2 1 0 1 1 4 2 0 0 0 0 5 1 1 0 0 1 0 0 0 2 0 1 1 0 4 2 0 0 0 0 4 0 2 1 0 1 0 0 0 0 1 0 2 0 1 0 1 3 48 127 207 211 206 205 193 189 201 198 197 197 197 183 196 194 186 193 192 191 190 190 186 168 179 174 168 164 162 155 158 155 141 92 76 69 78 87 98 105 111 146 175 167 204 207 205 198 194 188 174 142 71 13 3 2 1 0 0 0 0 1 0 0 2 1 1 1 0 1 3 3 1 0 0 2 0 0 2 0 0 7 3 0 1 1 0 0 0 1 0 0 0 2 1 0 0 0 0 0 5 2 0 0 0 0 0 0 2 1 0 0 0 0 1 0 1 1 1 1 0 2 0 1 1 0 1 5 1 2 1 7 64 127 186 180 178 193 195 195 195 198 198 198 197 197 198 198 197 198 194 199 188 199 187 201 199 200 199 200 199 184 196 177 189 173 122 15 1 0 1 1 4 28 110 158 168 173 193 193 194 195 191 182 192 192 193 191 182 190 192 191 178 189 185 185 181 180 179 176 172 175 175 176 173 174 174 174 174 164 172 171 171 170 171 170 168 161 168 159 170 168 168 168 167 166 168 166 165 166 165 162 162 164 153 162 164 163 161 161 163 161 154 148 158 158 157 158 157 155 143 147 161 182 187 177 182 182 169 181 175 182 180 181 181 175 180 182 180 173 179 178 178 177 179 178 177 176 175 168 172 168 158 168 166 162 141 139 151 171 176 176 176 175 160 162 174 176 175 176 175 169 175 164 173 174 173 172 173 172 157 160 170 168 166 165 163 157 132 134 86 45 24 1 1 8 66 100 158 172 173 187 186 174 142 71 7 1 0 0 0 1 1 0 2 0 0 1 0 4 0 0 0 1 1 0 1 1 0 0 0 0 0 0 0 2 1 1 0 0 0 1 0 1 1 0 1 0 2 0 2 0 0 0 1 1 4 0 1 0 0 2 0 5 1 1 0 0 0 0 1 2 3 0 0 0 1 0 0 0 1 0 0 0 0 1 0 1 1 0 1 0 0 0 0 1 0 1 0 0 1 0 1 2 0 1 1 0 2 0 6 3 0 0 0 0 1 0 0 3 0 0 5 2 3 0 2 5 1 0 4 0 1 1 2 1 0 0 0 0 0 0 1 1 1 0 4 9 0 2 1 0 1 1 1 5 2 3 0 1 0 1 0 0 0 0 0 1 1 1 0 6 2 4 0 1 2 2 0 3 2 0 3 0 0 1 0 0 1 3 1 1 1 0 1 0 1 1 0 0 1 1 0 0 0 0 0 1 0 0 3 1 
2 1 2 0 1 0 0 1 0 1 0 0 1 0 0 0 1 0 0 0 1 3 1 3 2 0 1 0 0 0 0 0 0 0 0 2 4 0 0 0 0 0 2 1 2 0 1 0 1 2 5 1 3 0 1 5 0 0 0 0 0 0 1 0 1 1 2 2 4 1 5 1 0 0 0 0 5 0 0 1 0 0 0 1 0 0 0 0 6 1 1 9 1 6 2 0 1 0 6 84 201 213 198 205 204 201 201 198 180 180 197 197 195 194 193 194 193 182 191 190 182 160 162 161 162 151 159 160 160 149 104 37 6 5 31 9 18 33 46 60 85 141 182 199 208 203 184 194 188 179 162 111 62 27 3 0 0 1 0 1 1 1 1 0 1 0 0 0 0 1 0 2 1 1 0 1 2 0 2 2 1 1 0 0 1 2 1 0 0 0 0 1 0 0 1 0 2 2 1 0 1 0 0 0 2 1 1 1 0 1 1 1 2 3 0 2 1 0 0 2 1 1 0 0 1 2 1 7 4 57 157 186 191 192 194 194 194 183 197 196 193 197 199 194 198 200 184 200 199 199 193 200 200 201 201 200 180 187 200 197 190 194 174 163 79 9 1 2 3 2 33 85 179 193 175 193 188 194 193 194 193 184 190 192 190 178 191 192 192 191 191 189 188 186 183 182 179 175 167 174 168 175 174 175 173 172 172 173 171 173 173 171 162 169 169 169 158 153 168 168 169 163 167 161 167 167 166 166 164 165 166 163 150 163 164 163 162 162 162 161 159 151 146 158 159 157 158 156 156 153 160 186 185 184 182 179 183 183 180 183 183 182 183 181 181 181 181 182 180 180 180 178 180 179 178 178 176 178 174 173 165 171 168 166 155 158 149 157 166 175 176 167 175 175 176 176 176 177 175 175 175 174 174 174 173 173 173 172 172 172 171 171 165 166 150 148 157 148 136 83 11 1 0 2 10 83 116 161 176 184 188 186 153 138 60 5 2 13 0 1 1 0 0 3 1 1 1 0 0 1 0 0 0 0 1 3 0 0 1 0 0 3 1 0 0 0 1 0 3 1 1 0 1 1 1 1 2 0 0 0 1 0 0 0 1 0 0 0 0 1 0 0 0 0 0 0 0 1 1 1 0 0 0 2 1 0 0 0 0 1 0 1 1 0 0 1 0 0 0 0 0 0 0 0 1 0 0 0 0 1 0 1 0 0 0 1 0 7 1 3 0 0 0 0 2 0 1 0 0 0 4 2 1 1 1 0 2 1 0 2 0 0 1 0 1 6 0 0 0 1 0 1 3 0 1 0 0 1 0 0 0 0 1 1 2 1 1 0 0 0 0 1 1 2 0 0 0 0 0 4 6 8 1 0 1 0 0 0 2 0 0 0 0 1 0 1 0 4 0 0 1 1 0 0 0 2 0 0 1 4 1 1 0 2 7 1 0 1 1 0 
1 4 0 1 0 0 0 0 0 0 0 0 1 0 4 0 1 1 0 0 0 0 8 0 1 1 0 0 1 1 0 1 0 1 0 1 0 1 0 0 1 1 0 0 0 4 1 1 1 1 0 0 0 1 4 1 0 1 0 0 0 1 4 1 2 0 1 0 1 1 2 2 1 0 0 1 0 0 1 1 0 1 1 0 0 1 0 0 1 0 0 1 0 1 4 0 0 1 2 45 186 213 208 198 204 203 201 189 198 197 182 196 175 194 177 177 193 191 191 179 167 160 162 162 160 160 160 160 150 120 61 18 11 12 1 1 0 1 2 4 6 27 86 130 200 192 204 198 194 179 183 169 136 71 14 3 0 0 1 2 5 3 1 1 11 2 2 0 1 5 4 2 1 1 0 2 0 0 1 1 0 0 0 0 0 8 1 1 0 1 1 0 0 0 0 0 1 1 1 1 1 1 2 1 1 0 1 1 7 0 0 1 0 2 0 0 1 0 2 0 0 1 3 0 7 2 1 6 51 116 183 192 194 185 185 197 196 179 196 184 198 198 198 198 198 198 182 198 201 199 199 200 192 200 196 199 201 200 199 199 197 192 177 147 67 6 8 1 4 3 38 158 194 197 194 195 196 194 194 185 193 193 192 184 193 191 192 191 184 187 190 191 183 186 182 181 180 178 171 175 174 175 159 172 164 173 172 173 173 173 171 163 169 171 171 172 169 168 150 158 159 168 168 167 167 166 165 167 165 165 165 165 164 165 164 163 163 162 157 151 149 159 158 158 158 151 157 156 156 172 158 184 184 184 183 183 184 185 184 185 183 184 183 184 183 183 182 181 182 182 177 179 181 181 178 179 178 178 162 176 174 167 171 170 166 157 161 153 154 165 175 177 177 176 177 175 175 175 176 174 174 169 163 174 154 173 175 173 172 172 173 171 169 167 152 149 162 158 136 131 70 8 2 2 1 16 93 149 164 167 184 188 187 168 101 51 28 3 1 0 1 0 1 0 1 0 0 2 0 1 0 0 0 0 1 10 0 0 0 0 0 0 1 1 1 1 1 1 0 0 1 0 0 0 1 1 0 0 0 0 1 0 0 1 0 1 0 1 1 1 0 1 0 6 1 1 1 0 0 1 1 0 0 2 1 1 0 0 1 1 0 0 0 1 0 0 1 1 1 0 2 0 1 0 1 0 0 1 1 1 0 0 2 0 0 1 0 1 2 0 0 0 0 0 0 0 0 0 0 0 0 0 0 0 0 0 0 0 1 1 0 0 0 0 2 2 0 0 0 2 1 1 0 1 0 0 0 1 1 1 2 1 0 0 0 0 0 0 1 1 0 2 1 1 1 1 1 0 0 0 1 1 4 0 0 0 0 0 1 1 0 0 0 0 0 1 0 3 4 0 1 0 3 1 2 0 0 0 2 0 0 1 0 1 3 2 0 0 3 0 
0 2 1 0 1 0 0 1 0 1 1 0 1 0 3 1 2 1 0 0 1 1 1 0 1 0 0 1 0 0 0 1 1 0 1 1 1 0 0 0 0 0 0 0 0 0 0 0 0 0 1 1 0 0 0 0 0 0 0 0 2 1 0 1 1 4 2 2 1 9 0 0 0 1 0 0 1 1 0 1 0 0 1 0 2 0 1 0 0 0 0 0 0 0 0 0 1 0 0 8 121 197 210 208 206 204 202 201 199 199 196 184 192 181 194 192 194 195 184 163 160 161 159 161 159 136 159 151 100 62 35 3 0 0 0 1 0 0 0 1 0 2 6 52 159 203 207 203 198 191 188 182 166 115 92 31 4 6 0 1 0 1 0 0 6 1 1 0 1 0 1 1 1 1 0 0 1 1 1 0 1 0 1 1 1 0 1 0 0 0 2 0 0 0 0 0 1 1 5 1 1 0 0 0 1 0 1 0 1 0 0 1 1 4 0 2 1 0 1 0 1 1 1 1 0 0 4 69 149 185 192 195 193 186 195 196 196 196 180 197 199 200 200 199 201 199 180 199 200 191 200 195 200 193 201 201 189 200 199 198 197 190 170 100 44 4 3 2 3 9 93 184 195 196 194 196 195 195 195 193 194 193 191 182 193 192 182 191 191 192 191 190 191 176 184 182 181 178 176 176 168 172 160 173 174 172 159 172 172 173 171 171 171 169 170 170 171 169 156 166 168 168 169 166 166 167 159 165 164 167 166 149 163 165 164 163 164 163 161 161 161 160 149 148 143 158 156 158 165 158 163 162 166 184 160 184 186 184 184 184 183 183 183 184 183 183 184 181 182 181 182 181 180 180 180 181 179 166 159 178 176 162 174 172 172 170 165 154 155 150 163 176 177 169 176 161 176 169 174 176 176 176 175 163 174 166 174 174 173 173 173 172 172 170 168 167 151 145 154 137 129 63 35 2 0 4 52 109 151 164 158 185 188 183 164 124 60 3 0 0 0 0 1 6 1 1 0 1 0 1 0 0 1 0 1 0 0 2 0 1 0 1 1 0 1 0 7 0 1 1 1 0 0 1 0 0 1 1 0 0 1 0 0 1 4 0 0 0 0 0 0 1 1 1 1 0 0 0 0 0 1 1 1 0 3 0 1 0 0 1 0 0 0 0 0 1 1 1 0 0 0 0 5 0 1 0 0 0 1 1 0 0 0 1 0 2 4 0 2 1 0 0 0 4 0 4 0 0 0 1 0 1 0 0 0 2 1 0 0 0 0 1 0 0 4 1 0 0 2 1 1 1 0 1 0 0 0 0 1 0 1 0 1 0 0 0 1 1 2 0 11 0 1 0 0 0 1 0 0 0 2 1 0 0 0 0 0 0 0 0 0 1 0 0 1 1 0 0 0 1 0 1 0 1 1 1 0 0 0 2 0 1 1 0 0 1 0 1 0 0 
1 1 0 1 1 1 0 0 0 1 1 0 0 2 0 0 1 0 0 0 0 0 1 0 0 0 0 0 0 1 1 0 0 2 0 0 1 0 0 0 0 0 0 1 1 0 0 0 0 1 0 0 0 0 0 0 1 0 0 1 1 8 2 1 0 1 0 3 8 4 1 0 0 0 1 0 0 0 0 1 0 0 0 0 1 0 4 1 0 0 0 1 9 1 4 1 2 0 1 3 17 98 154 209 192 197 204 201 201 199 198 197 181 181 194 186 193 193 165 163 159 161 160 153 145 135 150 111 56 16 3 1 0 0 3 0 0 0 0 4 0 2 0 4 81 168 204 206 190 194 191 185 159 148 148 111 56 10 2 1 0 1 1 0 1 1 0 0 0 0 0 0 4 0 0 0 0 0 3 1 1 0 1 0 8 1 1 1 0 5 2 3 0 0 1 0 1 9 2 2 0 2 1 2 0 0 1 0 2 0 1 1 0 2 0 1 2 0 0 1 0 0 1 5 1 6 58 113 184 180 193 194 195 196 197 198 197 198 197 198 186 200 200 189 191 189 199 190 199 201 201 201 201 202 184 199 199 199 192 197 194 184 161 68 9 3 2 1 12 17 136 190 187 196 195 196 196 192 194 193 194 194 192 192 192 192 192 192 191 178 190 190 189 175 172 184 182 179 163 168 176 174 163 173 173 172 173 158 172 171 171 161 171 170 172 171 171 171 168 153 169 167 167 156 150 167 153 157 165 165 166 165 166 163 165 156 162 162 165 155 162 161 161 159 158 157 157 159 180 190 187 184 168 184 171 183 186 186 186 186 184 184 180 183 183 183 182 182 182 181 167 181 182 182 180 182 180 167 177 179 177 154 157 174 171 171 169 167 163 158 152 166 176 176 174 161 174 175 169 176 176 176 174 176 173 174 175 174 173 173 174 173 174 171 170 170 166 166 148 158 150 123 52 6 1 11 5 56 119 130 164 176 171 188 179 159 98 15 1 1 3 1 0 0 3 0 7 1 1 3 1 0 0 1 1 0 0 1 6 1 0 1 0 2 0 1 1 0 0 0 1 0 2 0 1 0 3 0 1 1 0 1 0 2 1 1 0 1 1 0 0 0 0 0 0 1 0 1 0 0 1 1 0 0 4 1 0 0 0 0 0 0 0 0 0 1 0 1 1 0 6 0 1 0 1 0 0 0 0 0 1 0 0 5 1 0 1 2 1 1 1 0 1 1 1 6 0 1 1 0 1 1 0 0 1 0 1 0 0 0 1 1 2 0 1 1 0 1 0 0 1 0 0 0 1 0 1 1 1 1 0 2 7 1 3 0 1 1 10 8 3 1 2 1 0 0 1 1 0 0 0 0 0 1 1 1 0 0 0 3 0 5 0 0 0 1 1 1 0 0 0 1 0 0 0 0 0 0 6 1 0 0 0 0 1 0 1 1 1 1 
1 1 1 0 3 0 0 0 5 0 1 0 1 0 1 0 0 0 0 0 3 1 0 1 0 0 1 0 1 3 1 0 1 1 0 1 9 1 0 0 1 1 0 0 0 0 1 0 1 1 1 0 1 2 0 0 4 7 0 0 0 0 2 0 0 1 0 2 1 0 4 0 0 0 0 1 0 0 0 0 0 1 1 0 0 0 0 1 8 2 0 2 5 1 0 0 1 1 2 6 11 22 140 200 208 207 205 204 200 200 198 198 196 195 195 192 194 176 170 159 159 159 159 158 154 141 110 63 22 1 1 0 0 0 0 0 1 0 0 1 2 0 1 0 7 93 157 206 202 197 192 189 183 176 165 148 122 78 24 3 1 0 0 2 0 1 1 0 1 0 0 3 0 1 1 2 0 1 0 2 1 4 6 1 0 0 0 1 0 1 4 1 0 1 0 2 1 0 5 4 1 1 1 0 1 0 2 1 0 0 0 0 1 0 0 1 2 0 1 2 1 1 1 0 2 32 137 146 191 194 193 196 197 197 196 197 197 199 184 198 191 199 200 199 199 182 199 200 200 201 201 188 200 202 199 192 200 199 192 195 192 165 142 29 5 2 2 2 3 55 170 195 190 196 196 194 194 194 183 193 195 189 193 194 192 192 188 191 174 191 190 190 171 190 189 188 183 180 167 176 176 169 173 161 161 171 173 173 170 172 171 162 171 171 172 171 170 170 170 163 167 146 168 148 150 167 166 144 167 161 167 166 166 165 165 158 165 163 162 163 161 161 158 161 150 158 158 150 174 179 188 186 187 187 173 170 185 184 178 176 183 185 186 184 184 171 183 175 181 168 180 181 182 182 180 182 181 180 180 169 164 161 169 176 176 173 171 170 167 164 155 154 155 176 161 160 176 177 175 177 176 176 168 176 175 166 166 174 174 174 168 174 173 173 171 170 169 168 166 162 157 129 120 44 26 3 0 5 59 124 126 151 179 170 186 154 146 66 5 1 0 1 0 0 2 1 0 1 1 0 1 0 1 1 0 1 0 0 0 3 0 1 1 0 0 1 0 1 1 1 0 1 2 0 2 0 0 2 1 0 7 1 0 0 1 0 0 0 0 0 0 1 0 0 0 2 3 1 0 1 0 0 0 0 1 1 0 1 0 0 0 0 0 2 0 2 0 1 0 0 1 0 2 1 0 0 2 0 0 0 0 1 1 2 2 0 0 1 2 0 0 2 0 2 0 0 1 0 0 0 0 0 2 3 1 0 2 1 0 0 6 0 1 1 0 3 0 0 0 2 0 0 2 0 1 1 6 1 1 0 4 0 6 0 2 1 6 2 1 0 0 7 1 1 0 0 1 0 1 0 0 1 1 0 0 1 0 0 0 1 0 0 0 1 1 1 2 1 1 1 1 0 0 4 0 0 1 1 1 2 1 1 0 0 0 1 4 1 0 0 
4 0 5 0 0 2 0 1 2 1 0 1 0 0 0 0 0 0 0 1 0 0 2 1 0 0 0 0 1 1 3 1 2 1 1 0 0 0 0 0 1 1 0 0 1 0 1 0 0 2 1 0 0 0 0 1 0 1 2 1 1 4 0 0 0 2 0 1 0 1 3 1 1 4 2 2 0 0 1 1 1 9 0 0 0 0 0 0 2 0 0 0 0 0 0 0 1 0 1 1 0 2 32 149 158 208 205 198 204 202 200 187 196 196 192 179 193 192 172 159 158 158 156 150 125 81 49 21 3 0 1 7 0 1 0 1 1 1 0 1 0 3 1 3 2 40 180 208 201 183 190 188 184 179 171 142 133 129 95 44 7 1 0 1 2 0 1 0 0 0 1 1 3 1 0 2 0 0 1 0 0 0 0 10 1 0 0 0 1 1 1 1 1 1 0 0 3 6 2 4 7 1 0 0 0 4 2 2 2 2 1 1 0 0 1 1 0 0 0 1 1 0 1 3 27 133 184 192 194 195 194 197 196 198 197 197 199 198 198 199 199 199 190 200 199 191 200 201 200 200 200 200 203 202 202 200 201 199 197 183 189 171 108 9 2 1 2 1 6 98 185 197 196 196 194 196 194 193 194 194 187 193 193 193 192 184 191 193 175 191 176 192 191 190 191 191 185 174 166 177 166 175 174 173 156 172 173 171 172 173 172 162 170 171 163 169 171 170 169 169 157 168 167 166 167 157 158 146 167 167 167 166 166 164 165 164 163 163 162 163 159 162 160 161 160 150 162 163 188 190 188 185 175 188 186 187 186 186 185 186 185 177 183 186 182 183 172 183 180 182 164 162 169 180 172 173 173 181 182 179 178 179 174 179 163 175 174 171 169 166 164 149 152 172 175 177 177 177 176 176 176 174 153 174 176 175 174 160 175 174 175 173 174 174 173 172 169 158 167 165 162 157 146 98 55 4 0 0 6 47 128 157 156 182 188 183 165 83 38 3 1 0 0 2 2 1 0 0 0 0 0 0 1 1 0 1 2 0 0 1 0 1 0 0 2 0 0 1 2 2 0 0 1 6 1 0 0 0 1 2 5 0 0 0 0 0 0 2 0 0 0 0 0 1 0 0 0 1 0 2 0 0 0 0 1 0 1 2 0 0 0 0 0 1 0 1 1 0 0 0 2 0 1 9 3 1 0 1 0 0 0 0 0 0 1 0 0 0 0 0 0 0 0 0 0 1 1 0 0 3 1 1 1 0 0 0 0 0 2 1 0 1 0 0 4 0 1 1 0 0 0 0 0 0 5 3 1 8 0 1 1 1 2 6 4 1 1 1 0 0 0 1 4 0 0 0 0 0 2 10 1 0 0 1 0 1 1 1 1 1 1 0 1 1 0 1 0 0 2 0 1 1 0 1 1 1 0 1 0 1 0 0 0 0 0 1 2 0 1 0 
3 1 0 1 0 2 1 1 0 0 1 0 0 0 1 0 0 0 0 1 1 1 0 0 0 0 0 0 0 0 0 2 5 2 0 3 1 0 0 0 1 1 3 2 1 1 2 1 0 0 1 0 1 0 0 0 0 5 1 0 0 1 1 0 2 1 0 0 1 0 1 2 1 2 0 0 1 0 0 0 2 0 0 1 0 0 1 0 0 0 1 0 1 2 0 0 1 1 0 0 0 0 2 38 135 134 164 208 210 205 197 200 198 194 174 166 190 175 179 157 153 146 128 105 66 25 14 3 1 0 2 0 0 2 0 2 0 1 2 0 1 0 1 0 2 24 135 204 204 196 171 160 183 181 173 163 153 146 135 112 62 11 1 2 0 4 0 1 1 2 2 0 1 1 1 2 0 0 0 2 0 1 0 0 0 0 1 0 2 0 0 0 6 0 0 1 3 3 2 1 1 1 0 6 0 1 8 4 1 1 0 0 2 1 0 0 3 0 2 1 0 1 2 23 124 183 191 189 195 196 183 196 198 196 197 198 195 199 198 199 200 189 193 200 201 201 201 200 201 201 200 181 187 202 201 200 200 200 199 194 183 159 77 6 0 0 1 3 15 139 192 198 195 197 176 183 195 193 182 195 194 192 193 194 193 193 191 192 192 193 186 192 193 191 178 190 189 177 180 167 177 176 174 174 174 172 172 172 172 176 171 171 171 171 160 169 158 171 162 168 170 169 170 160 168 169 168 167 168 161 167 166 166 167 164 157 164 164 160 164 163 162 164 161 163 161 168 188 191 190 186 188 188 186 186 187 186 174 186 186 186 186 184 171 184 184 184 175 183 183 183 168 166 183 181 182 181 183 180 181 172 181 180 179 179 178 175 160 159 168 168 157 160 162 174 177 177 177 177 178 169 175 155 163 176 168 176 175 175 176 174 175 173 174 174 171 172 170 160 168 167 156 157 145 103 23 18 0 1 7 60 110 161 176 185 169 150 123 105 48 3 0 2 1 1 1 0 0 1 0 2 0 1 0 4 0 1 1 0 0 1 2 6 1 0 1 0 0 0 0 0 0 1 0 1 0 0 0 0 3 0 0 0 2 1 1 0 1 0 0 0 1 1 0 1 1 0 6 0 0 0 3 1 1 1 1 0 0 0 0 0 1 0 0 1 0 1 0 0 0 1 0 0 1 0 0 0 0 0 0 0 1 0 0 1 2 0 0 0 0 1 0 0 1 0 0 0 0 0 1 0 2 0 1 0 0 0 1 1 4 9 0 0 1 0 2 0 0 0 1 0 1 0 1 0 0 0 1 0 0 0 0 0 0 1 0 0 0 1 1 1 0 0 1 0 0 0 1 8 10 2 1 2 6 1 0 0 0 0 0 0 1 4 0 0 0 0 1 0 1 0 1 1 0 0 5 1 0 0 1 2 0 0 1 0 0 2 3 1 1 
1 1 0 1 2 1 1 0 1 1 0 0 2 5 1 0 1 0 0 2 1 1 0 0 0 3 0 2 1 0 0 0 3 1 1 1 0 0 1 0 0 2 1 2 0 0 1 1 0 0 0 0 0 2 0 0 2 0 1 0 1 0 0 0 1 6 2 1 1 1 0 1 0 0 0 0 0 0 1 0 1 2 0 7 0 0 1 0 1 1 4 1 0 1 0 2 0 1 0 0 0 0 0 19 20 84 121 195 205 208 206 188 203 199 177 171 179 184 188 164 130 92 56 35 25 7 20 14 1 5 1 0 0 3 0 1 0 0 8 5 1 1 0 0 5 87 192 178 202 197 179 188 186 180 175 167 158 152 148 139 98 75 14 11 1 1 0 1 0 0 1 1 2 1 1 1 0 0 0 2 0 1 0 1 0 1 1 1 0 1 1 5 1 0 0 2 0 0 2 1 1 2 2 6 1 0 1 0 0 0 2 1 0 0 1 1 2 1 1 0 1 3 19 119 180 192 193 194 196 195 189 197 185 198 192 198 199 194 199 201 201 199 200 200 201 201 200 200 200 201 201 200 183 183 200 200 200 199 197 191 158 137 26 3 2 0 1 12 44 128 194 196 196 196 186 173 193 194 192 194 192 179 173 192 193 193 194 191 191 192 191 184 190 191 180 190 190 179 185 181 180 177 175 173 172 172 159 172 172 172 174 172 171 172 170 169 171 171 174 171 168 169 169 169 161 168 165 166 161 167 154 167 167 165 166 165 154 164 165 163 164 162 164 164 160 162 160 190 191 190 188 188 190 187 176 188 187 185 187 186 186 172 184 184 184 186 184 183 182 184 180 182 183 183 183 175 181 181 182 181 181 180 182 181 180 179 177 175 174 170 170 157 157 162 168 177 172 178 169 176 176 177 156 175 176 173 176 177 175 176 175 174 175 174 174 173 173 172 170 169 166 167 163 155 144 83 17 2 0 0 9 90 152 166 179 186 186 176 149 77 7 1 0 2 1 0 0 1 7 0 2 7 3 3 2 0 1 0 0 0 0 0 0 0 0 1 0 0 0 0 0 1 0 0 0 0 0 4 2 0 0 0 2 2 0 0 1 2 1 0 0 0 4 1 0 0 0 0 1 1 0 0 0 0 1 0 0 0 1 0 0 1 0 0 0 1 0 0 2 1 0 0 0 1 0 0 0 0 0 1 0 3 0 0 1 5 1 1 0 0 4 0 0 0 0 1 0 0 0 1 0 1 1 0 0 1 3 0 2 1 1 0 0 1 4 1 0 0 0 1 0 0 0 0 0 0 0 1 0 1 0 1 1 1 4 2 1 0 1 0 0 2 0 1 3 0 0 0 0 1 1 0 1 1 1 1 0 1 0 0 1 3 2 1 0 1 1 1 0 0 1 1 0 0 1 1 0 0 5 1 1 1 1 0 0 1 4 0 0 1 
0 1 1 0 1 1 0 0 1 0 0 1 7 6 2 4 1 0 2 2 1 1 0 1 0 0 0 0 0 0 0 0 1 2 0 0 1 0 0 0 0 0 2 0 0 0 0 2 0 0 0 0 0 1 0 0 0 0 0 0 0 0 0 1 0 0 11 1 1 0 1 0 0 0 0 0 0 3 1 1 1 2 8 1 1 1 0 2 0 0 0 0 0 0 1 1 1 8 7 1 1 1 0 1 2 5 40 121 179 200 188 207 208 206 203 199 196 193 190 181 114 44 6 3 3 2 10 2 9 1 1 2 0 2 2 0 1 1 1 2 1 0 0 3 38 167 204 204 191 194 192 188 185 170 176 169 161 155 153 150 143 128 76 14 14 7 1 1 0 1 1 1 1 1 4 0 0 1 0 0 0 0 0 0 0 1 0 0 0 1 0 1 0 0 0 1 2 0 1 0 1 1 2 0 0 1 0 0 2 9 1 0 0 0 0 0 0 1 0 1 1 15 111 176 173 193 195 195 179 181 196 178 197 179 198 199 200 200 200 195 199 201 202 201 201 201 201 196 187 200 201 201 190 201 201 201 201 198 196 188 169 100 8 0 0 0 1 9 103 184 178 198 196 196 196 193 195 177 193 192 194 193 193 191 194 190 193 192 191 191 192 185 192 192 176 176 192 189 182 179 182 178 176 174 162 173 172 156 171 173 172 160 172 170 171 171 171 170 167 169 170 170 169 170 169 162 168 168 168 168 167 166 167 169 167 166 165 165 164 165 164 164 163 164 162 164 182 191 193 189 176 190 189 189 188 187 189 187 186 186 186 186 186 179 185 185 185 184 184 172 183 182 182 184 183 183 182 166 182 181 181 180 181 180 180 181 179 169 176 174 171 170 162 166 162 172 177 176 176 166 178 176 156 164 176 177 175 170 175 176 175 161 174 175 176 174 172 172 171 171 170 165 165 163 155 141 78 31 3 0 2 29 121 142 171 182 188 184 149 132 43 2 0 0 0 2 1 1 0 0 1 0 1 2 1 2 0 0 1 0 1 1 0 1 2 0 0 0 0 0 0 1 2 0 0 0 0 1 1 0 0 0 0 3 3 1 1 1 0 0 0 1 1 0 1 0 1 1 1 0 3 0 0 0 0 2 0 0 1 0 1 6 0 1 1 2 0 1 1 0 0 0 0 0 1 0 0 0 0 1 0 0 1 0 0 1 0 0 0 1 0 1 1 0 1 0 1 0 0 0 0 0 0 1 1 0 0 0 0 1 0 0 0 0 1 0 0 0 2 2 0 1 3 1 1 0 0 1 0 0 0 1 0 1 0 0 0 0 0 1 0 9 1 2 0 0 0 1 0 0 0 0 2 0 0 0 2 0 1 0 2 4 2 1 0 0 0 2 0 1 1 0 3 0 0 0 1 0 0 0 0 3 1 0 1 1 1 0 0 1 
0 0 0 0 6 2 0 0 2 0 1 0 0 0 1 4 3 0 0 0 0 0 0 1 0 0 0 0 0 0 0 0 0 1 3 0 1 0 0 0 0 1 1 0 0 0 2 0 1 1 0 0 0 0 1 1 1 0 2 0 1 0 0 1 1 2 1 1 1 1 1 0 5 0 0 0 0 1 1 0 0 1 1 0 0 0 2 0 1 0 1 1 1 0 0 1 2 1 2 1 0 1 0 1 0 2 2 11 65 146 182 197 203 207 207 186 202 202 198 191 147 134 77 13 8 7 5 5 17 1 1 0 0 0 2 0 0 0 5 1 2 5 20 81 163 202 206 200 189 182 180 186 170 180 176 174 162 160 156 142 151 145 96 73 12 1 2 1 0 0 0 0 1 0 0 0 2 0 0 1 1 0 0 0 0 0 0 0 0 0 1 0 2 0 1 1 9 2 1 1 0 0 1 0 0 0 0 0 1 1 1 0 1 2 6 4 5 0 1 2 11 99 174 167 191 194 195 196 195 179 186 195 174 197 198 199 199 200 201 192 201 201 200 200 201 202 190 201 201 202 203 201 203 196 201 201 199 199 192 186 155 54 4 0 9 0 2 22 144 193 197 196 195 184 183 195 195 193 195 195 194 193 194 194 193 193 193 192 191 181 191 182 192 191 190 190 191 182 190 189 185 173 178 175 175 175 173 172 172 173 173 171 171 171 172 170 170 171 169 170 171 170 169 171 168 154 168 169 167 167 168 167 166 166 168 167 166 166 158 165 165 164 163 164 165 167 174 190 189 188 190 191 189 189 189 188 188 187 175 177 187 187 177 186 185 184 184 185 185 183 184 179 184 183 183 183 181 163 182 182 182 180 182 173 181 180 179 179 171 176 173 172 170 169 159 166 154 154 175 151 157 176 176 178 166 178 177 177 167 176 176 166 175 175 167 174 164 173 160 159 170 170 168 153 160 154 132 46 12 1 0 4 53 138 163 175 185 175 182 133 88 18 3 1 13 2 0 1 6 0 0 0 0 0 0 1 0 0 0 0 0 0 0 0 1 1 0 0 0 0 0 0 1 1 0 4 1 0 0 0 0 0 1 0 0 0 0 1 0 0 0 1 0 0 0 1 0 0 1 1 0 0 0 1 0 0 0 0 1 0 0 0 0 0 0 1 0 1 1 0 0 3 0 0 2 0 1 2 3 0 0 3 2 0 1 1 1 0 0 0 0 0 0 0 3 0 0 0 1 0 0 0 0 0 1 1 3 1 0 0 2 0 1 0 0 0 0 1 0 1 6 0 2 0 0 0 0 0 1 1 2 0 0 1 0 0 0 0 0 1 0 0 2 2 0 1 0 1 1 0 1 1 1 0 1 0 4 0 1 0 0 0 0 0 0 0 0 0 1 0 0 2 0 1 0 3 0 2 0 0 4 0 0 1 1 0 0 0 9 2 
0 1 0 0 3 0 1 0 1 0 1 0 2 0 0 1 1 0 1 5 0 1 0 1 0 1 0 0 0 0 2 0 1 3 0 0 1 0 0 1 0 0 4 0 0 4 2 1 3 1 0 0 1 0 1 1 0 1 0 0 0 1 0 0 1 0 0 0 2 8 0 0 0 1 0 0 0 0 0 0 0 0 0 0 0 0 0 0 0 0 0 0 1 1 1 2 1 1 4 1 1 0 3 1 0 0 1 8 5 65 84 144 177 194 202 184 183 206 207 205 167 193 179 147 112 70 60 32 67 58 10 7 6 7 7 6 7 8 13 27 49 90 156 152 202 203 201 199 196 193 188 186 166 179 176 168 163 161 158 158 154 154 144 98 72 10 12 0 0 2 0 0 1 9 9 1 0 5 0 0 0 0 1 0 0 0 0 0 4 0 0 0 0 0 0 0 0 1 1 0 0 3 1 1 0 1 2 1 7 5 1 1 0 0 0 2 0 0 4 38 82 170 165 191 194 195 196 184 198 197 199 199 198 199 198 200 199 187 200 200 200 199 199 202 199 202 200 197 182 200 201 200 202 202 192 200 188 197 194 182 118 29 2 0 0 1 5 52 170 197 197 198 196 196 195 177 177 193 184 193 194 183 193 194 194 193 192 192 191 192 191 190 190 183 192 192 189 193 189 190 187 184 176 176 175 176 174 172 166 173 172 171 171 173 171 169 168 171 169 170 171 163 169 170 169 170 168 169 167 169 168 168 168 167 169 167 167 166 167 167 165 154 146 163 164 168 186 190 191 183 180 188 171 188 189 188 178 180 186 187 188 186 185 173 170 168 185 185 183 177 184 184 178 183 183 183 182 183 176 181 182 182 181 180 176 179 168 179 166 177 175 173 172 170 168 168 170 156 174 146 175 161 177 177 178 178 171 170 176 177 175 175 176 177 174 175 174 173 173 164 172 169 169 157 156 159 152 108 20 2 0 0 8 74 116 165 178 186 186 176 153 82 7 0 0 0 0 0 1 0 2 0 0 0 0 0 1 3 1 0 0 0 2 3 0 2 0 1 0 2 0 0 0 1 0 0 1 0 0 0 0 1 1 0 0 0 2 0 1 0 0 2 1 0 1 0 2 1 0 0 0 0 0 0 0 1 5 0 0 1 0 2 1 1 0 0 1 1 1 2 1 1 0 0 2 1 1 2 1 1 0 1 0 1 0 0 1 6 1 1 0 1 1 0 1 0 0 0 0 0 2 4 0 0 0 0 2 1 1 1 5 0 0 0 1 0 1 1 0 1 2 0 0 0 0 0 0 1 2 1 0 1 0 2 1 0 0 1 5 1 1 2 1 0 0 2 1 0 0 2 1 0 1 1 1 1 0 2 0 0 0 0 0 1 0 0 0 1 0 0 1 11 3 1 0 0 1 2 0 2 1 0 1 0 0 0 1 1 3 0 
1 2 0 0 0 1 9 4 0 0 0 0 0 0 0 1 0 2 1 1 2 2 1 0 1 1 0 1 3 2 3 0 2 0 1 1 0 0 1 0 0 0 0 0 0 0 2 1 1 3 0 0 0 0 0 2 1 0 0 0 0 2 1 2 1 0 1 1 0 1 2 0 0 0 0 1 0 0 1 1 0 0 0 0 0 0 1 0 0 2 0 0 1 5 0 0 0 0 1 0 2 3 0 1 4 1 1 0 3 2 5 27 76 133 170 186 163 199 203 204 167 159 168 200 147 131 124 174 167 152 131 121 121 121 118 118 121 140 111 125 184 194 174 201 201 200 197 189 192 189 187 184 172 177 172 166 163 161 147 157 146 154 151 125 128 70 10 1 2 0 0 0 2 1 2 1 10 6 1 1 0 0 0 0 0 0 1 0 0 11 0 1 0 0 1 0 1 1 0 0 3 2 2 0 0 1 1 0 0 0 1 0 1 0 2 1 2 1 6 77 123 188 178 182 195 195 197 196 199 198 198 192 198 198 178 180 197 199 199 195 200 191 200 190 200 200 202 201 201 202 190 202 201 202 200 200 187 181 193 179 135 63 3 0 1 1 41 102 185 196 195 197 196 197 195 193 194 182 181 195 193 195 194 193 193 192 192 191 182 191 193 192 191 191 191 191 190 189 191 188 175 186 184 183 164 175 166 175 174 173 162 172 167 171 171 171 171 170 169 170 170 165 170 169 170 169 170 169 168 168 169 165 161 167 150 167 168 167 166 156 165 164 155 165 165 172 189 191 179 190 191 189 189 188 166 188 189 189 184 188 189 186 187 186 185 185 178 186 185 185 186 185 185 183 183 173 169 176 182 184 183 182 182 182 181 181 180 181 180 178 176 175 174 172 174 166 159 175 162 177 177 177 165 169 177 176 178 178 178 177 176 176 177 177 177 175 174 164 173 174 168 173 162 169 167 152 158 144 73 7 0 1 2 24 89 157 169 158 169 185 156 138 46 4 1 0 2 2 1 1 0 0 0 0 0 1 1 0 0 0 0 1 0 1 0 1 1 1 0 2 0 0 1 0 0 0 1 2 0 0 1 0 0 0 1 1 0 0 1 1 0 0 0 4 0 0 2 2 0 0 0 0 0 0 0 0 3 0 1 0 1 0 1 1 1 1 0 2 5 1 0 2 1 1 0 8 1 7 2 2 0 0 0 1 0 0 1 0 1 1 2 0 0 3 0 0 0 0 0 1 0 0 2 0 0 1 0 0 1 1 1 1 1 1 0 0 1 1 2 1 1 0 0 0 1 0 1 1 0 0 1 0 2 0 0 0 0 0 0 5 1 0 1 2 4 1 0 2 1 1 1 0 1 1 9 2 0 7 0 2 0 1 2 4 1 0 0 1 1 1 3 1 9 0 0 1 1 0 0 0 0 0 0 0 1 1 7 1 1 0 
1 0 2 2 2 0 0 1 1 0 0 0 0 1 1 0 0 0 0 0 0 6 1 0 1 2 0 0 0 1 1 1 0 1 2 0 1 0 2 0 1 1 0 0 1 1 1 0 0 1 0 0 1 0 0 0 0 5 4 0 0 0 1 0 1 1 0 7 0 0 0 0 1 1 0 1 0 0 0 1 0 0 0 1 0 2 1 1 0 0 0 0 2 1 1 0 4 2 1 2 12 2 1 0 0 1 1 1 0 1 1 3 3 22 66 122 160 143 168 193 165 162 200 204 202 201 174 203 206 203 201 170 200 201 198 173 199 201 168 200 188 202 200 199 196 198 193 192 188 175 185 180 171 174 164 164 163 163 157 161 160 159 156 129 125 126 63 5 0 0 1 3 1 0 1 1 0 0 0 2 1 1 1 0 1 2 1 0 1 0 2 1 0 0 5 1 0 1 0 1 1 0 1 2 7 0 0 1 1 0 0 1 1 3 1 1 7 32 59 115 185 192 194 195 195 196 197 180 195 187 199 199 199 200 199 186 180 180 200 201 202 199 199 179 199 192 203 202 202 201 191 200 202 202 201 198 176 176 192 175 112 53 3 0 1 4 30 147 168 197 177 191 196 196 196 180 178 195 194 176 194 193 193 191 194 193 182 193 181 191 191 192 192 191 193 192 190 191 190 174 189 191 176 183 180 166 175 173 174 173 173 169 172 171 171 172 171 172 170 163 160 170 171 171 170 161 169 154 158 168 168 169 169 168 168 168 161 169 167 168 167 166 165 157 164 174 190 192 189 190 182 190 189 175 173 188 189 188 188 187 188 186 180 186 185 163 183 186 186 184 185 186 184 184 185 183 182 182 170 183 182 182 171 181 182 181 182 173 181 179 170 176 175 173 174 175 169 168 177 178 178 178 178 168 177 178 178 178 178 176 172 167 176 165 176 175 175 165 174 174 174 174 169 150 168 165 157 157 135 50 4 1 0 3 56 137 136 148 182 172 182 165 116 49 2 0 0 1 7 1 0 0 0 1 3 1 2 0 1 0 0 5 4 1 0 2 0 1 0 0 0 0 0 0 1 0 0 1 1 0 2 1 0 0 2 7 0 0 0 1 0 2 1 1 0 0 1 1 0 0 1 0 0 0 1 1 0 1 1 0 0 2 0 1 3 1 1 1 1 0 1 2 0 1 1 0 1 3 9 0 1 1 1 1 0 1 1 0 2 1 0 1 0 1 0 1 0 0 0 0 0 1 2 1 1 2 0 0 0 0 4 0 0 0 0 1 0 1 2 0 0 0 0 2 5 1 1 1 0 0 1 1 1 0 2 0 0 2 1 2 0 1 0 0 2 1 2 0 0 0 0 0 0 1 5 6 0 1 0 1 1 2 2 2 1 0 6 2 1 2 1 1 3 0 0 1 11 2 0 0 0 0 0 0 0 1 0 1 0 0 
3 0 0 0 1 0 0 1 0 1 1 0 1 1 0 1 1 0 0 0 0 0 1 0 3 0 0 0 0 0 1 0 0 0 0 0 0 1 0 1 1 0 0 1 1 4 5 0 0 0 1 2 7 0 0 1 0 2 1 2 1 0 1 1 0 0 1 1 0 0 0 0 0 1 1 2 1 1 0 0 1 2 1 1 0 0 0 1 1 0 1 0 5 0 0 1 1 2 0 0 1 2 1 1 0 2 0 4 0 0 0 0 1 12 23 18 74 108 145 165 175 184 192 195 198 199 184 201 201 192 202 180 185 202 202 201 202 192 200 200 199 198 196 196 180 190 190 188 186 181 167 169 173 172 166 164 164 163 163 162 161 161 159 155 152 144 89 41 3 0 1 0 0 1 0 0 1 1 0 1 0 0 3 0 0 0 0 0 0 1 0 0 1 0 0 0 0 2 0 0 0 1 0 1 6 0 1 0 1 1 0 0 3 1 9 7 4 44 99 183 191 195 196 195 192 199 197 198 199 199 198 199 197 200 199 182 174 198 201 201 200 202 201 200 188 200 201 202 201 202 201 202 202 201 199 199 198 197 192 169 97 7 0 2 7 25 64 172 196 197 197 196 197 196 195 195 193 175 193 194 195 185 193 193 193 194 185 192 190 180 192 192 191 186 190 193 191 192 189 177 171 190 190 189 185 182 177 156 173 173 164 172 173 172 171 172 171 172 151 168 150 169 169 171 171 169 170 169 167 166 170 159 168 170 169 169 168 168 159 168 168 169 167 159 167 177 191 192 191 190 176 180 190 188 170 187 175 188 188 188 187 187 186 186 172 166 157 185 186 185 186 186 177 176 185 185 183 185 185 183 183 169 182 182 181 182 180 182 182 179 171 177 175 159 173 175 173 171 174 177 178 177 161 176 178 178 177 178 176 178 176 178 177 177 167 178 176 165 175 175 173 161 170 148 169 167 165 162 155 113 23 14 1 0 9 78 119 165 177 185 187 178 158 88 9 0 0 1 2 2 1 0 0 1 0 0 0 1 0 5 1 1 5 1 1 4 2 0 1 2 1 0 1 1 0 2 0 1 0 2 1 1 0 1 2 0 0 2 1 2 1 2 0 0 0 0 0 0 1 1 1 0 1 2 1 3 0 0 1 0 0 0 0 0 1 0 0 0 0 1 0 2 1 0 0 0 4 0 0 4 1 0 7 0 0 0 0 0 1 0 0 0 1 0 1 1 0 2 0 1 14 8 1 0 0 0 1 0 0 1 1 1 0 0 0 0 0 2 0 0 0 0 0 0 2 0 1 2 1 0 0 0 2 1 0 0 0 1 1 2 0 0 0 0 1 2 0 0 0 0 0 0 0 1 9 4 1 4 1 0 2 1 1 0 1 1 1 0 0 1 3 3 0 0 1 2 8 0 0 0 0 0 0 0 0 1 0 0 1 11 
0 1 0 1 0 1 1 1 1 1 2 1 1 1 0 0 2 1 0 0 0 0 1 0 2 1 0 0 0 0 0 1 1 1 0 1 0 1 0 1 0 2 1 0 0 1 2 1 0 0 0 1 1 0 0 0 1 1 6 1 1 0 1 0 1 0 0 0 0 0 1 0 0 1 2 0 1 1 0 0 0 1 1 1 0 0 0 0 0 2 4 4 7 0 0 2 0 1 1 0 4 0 1 0 0 0 0 1 0 0 2 0 1 1 1 1 3 14 64 90 123 146 161 174 180 185 177 190 193 195 194 195 194 195 196 196 196 195 195 194 192 193 191 189 187 177 185 173 179 168 176 174 170 167 165 164 165 165 163 154 150 161 159 148 157 154 141 73 12 1 2 1 1 1 0 0 0 1 1 1 1 4 0 0 2 2 0 0 1 0 0 1 1 1 0 1 5 1 0 0 1 0 2 0 0 0 1 2 1 0 0 1 7 9 3 2 29 85 128 190 194 196 195 198 198 198 198 196 190 199 189 199 199 201 199 187 200 187 202 201 202 200 202 195 201 185 201 202 187 201 203 201 202 200 193 197 199 198 191 165 74 5 1 2 0 6 94 180 197 197 185 198 197 196 186 195 180 176 180 194 195 193 192 192 179 193 193 192 192 192 192 192 191 192 192 191 190 190 192 190 189 191 174 190 190 188 181 160 175 173 158 159 172 167 171 170 173 170 154 151 169 156 169 171 171 157 169 164 171 163 170 158 170 168 159 171 169 168 168 169 159 168 168 168 160 175 190 192 190 181 190 191 190 191 190 189 189 190 177 188 188 187 188 187 185 172 186 184 181 178 186 186 186 185 185 169 184 185 184 184 175 183 173 183 183 183 182 182 183 179 178 178 176 175 174 176 160 172 178 177 178 178 177 164 161 178 178 178 178 178 169 177 177 176 169 176 176 176 176 176 174 173 160 160 170 168 158 166 161 148 82 8 1 0 1 24 117 158 171 181 188 187 172 141 53 4 0 1 0 0 1 2 1 1 0 0 1 1 1 1 1 0 0 1 2 1 6 1 1 0 4 0 0 1 0 2 0 1 4 0 0 1 1 1 0 0 1 3 0 0 1 0 0 0 0 0 0 0 1 1 1 1 0 2 1 0 0 0 1 0 0 0 0 0 0 0 0 1 0 1 0 1 0 0 0 0 0 0 0 1 1 1 0 0 1 1 0 0 0 1 0 1 7 1 1 0 0 0 1 0 1 1 1 0 0 1 0 1 0 1 0 0 0 0 0 0 0 2 0 1 1 2 0 2 0 3 2 0 0 1 1 1 0 1 0 0 1 1 2 2 0 0 1 0 3 0 7 2 0 0 0 0 2 0 2 1 2 0 0 0 0 1 1 1 0 0 0 0 1 2 0 0 3 0 1 0 1 0 1 4 1 1 0 0 1 1 1 1 2 0 
1 0 2 0 0 0 1 0 0 0 1 1 1 0 0 1 2 8 4 3 1 1 0 1 1 0 0 0 0 0 1 0 1 0 1 1 0 1 0 1 0 0 1 0 5 8 1 1 0 0 0 0 0 0 0 1 0 1 1 1 0 0 1 1 0 1 0 2 1 0 0 1 0 0 0 0 0 0 1 0 0 2 1 2 1 0 0 0 1 0 0 2 2 0 1 0 0 1 1 1 0 0 1 8 2 1 0 0 1 0 0 0 0 1 0 1 0 0 3 11 51 72 98 126 145 158 167 174 176 180 183 183 186 187 188 187 188 187 188 185 169 186 184 184 182 166 179 177 176 174 170 168 166 165 164 164 152 164 165 164 164 164 162 161 150 156 151 133 59 4 1 1 5 1 0 0 0 0 0 0 1 0 0 0 0 1 0 0 1 1 1 1 0 0 0 0 1 0 2 0 0 2 0 0 0 1 0 0 2 0 2 0 1 0 8 12 112 128 188 194 194 195 196 197 197 187 197 198 199 199 199 199 200 201 200 201 199 201 200 202 201 202 202 202 200 187 201 201 201 201 203 189 202 195 201 200 199 198 187 160 59 4 0 1 0 10 113 188 197 180 184 195 196 197 195 179 195 195 194 194 185 194 192 193 193 193 192 189 193 185 182 191 193 190 183 192 192 190 191 192 190 182 189 191 190 189 173 183 173 164 173 173 172 172 171 157 171 170 171 172 157 170 171 171 158 156 154 169 171 171 170 170 170 171 169 170 167 173 171 153 167 170 168 168 168 164 174 191 190 191 190 191 190 183 190 179 189 189 188 174 178 176 188 188 180 188 187 186 187 186 186 186 185 185 185 176 185 183 185 185 180 184 169 182 182 184 182 183 182 181 181 179 178 177 176 175 177 176 175 167 178 178 172 179 178 169 176 178 169 178 177 179 178 177 178 177 177 176 177 177 175 174 174 173 172 171 167 168 164 160 139 55 5 0 1 4 50 137 162 173 184 187 181 133 112 16 0 1 0 0 1 1 0 1 0 0 3 5 1 3 0 0 7 3 1 2 0 0 2 1 2 1 0 0 2 1 9 2 1 2 0 0 0 0 1 2 0 1 0 0 0 1 1 0 0 0 0 1 1 1 1 0 0 0 1 0 0 0 1 0 0 0 1 0 1 0 0 0 0 1 1 1 1 0 0 0 1 0 2 5 1 1 1 1 1 1 0 0 0 2 0 0 0 1 0 0 1 0 0 0 0 0 1 0 0 1 0 0 1 0 0 1 1 0 0 0 0 0 1 0 1 0 0 2 0 1 0 1 0 2 1 0 0 0 0 0 0 1 2 1 0 0 1 0 3 4 1 1 1 1 2 1 0 0 4 1 0 6 0 1 0 0 1 0 2 2 0 1 0 1 2 0 1 1 0 0 0 0 1 2 2 1 0 0 1 0 0 2 0 0 
11 0 0 3 0 0 0 0 5 1 2 0 0 0 0 1 0 2 1 1 4 0 0 1 0 0 0 0 1 1 1 2 0 1 1 1 2 0 2 2 2 0 0 0 0 1 0 0 0 1 0 0 0 1 3 0 0 0 0 0 1 0 1 0 1 0 0 0 2 1 1 1 1 1 0 0 10 2 0 0 1 0 0 0 1 0 1 0 1 1 0 0 0 1 0 1 1 0 1 1 2 1 2 1 0 1 0 1 0 6 2 0 1 1 0 0 1 1 0 4 2 7 28 59 85 111 129 128 150 158 163 153 155 174 176 177 167 176 178 178 178 179 168 178 176 174 174 166 161 167 157 164 165 166 166 165 151 164 160 164 156 164 163 163 160 147 155 147 89 29 2 0 0 0 0 1 0 0 0 0 2 1 0 0 0 1 0 0 1 3 0 5 1 4 3 0 0 0 0 0 3 0 0 0 2 1 2 0 2 1 1 2 0 0 4 72 168 190 192 177 194 196 197 196 198 198 189 200 193 200 201 196 201 200 200 202 202 198 200 187 194 201 202 203 201 201 202 193 201 186 202 200 201 194 200 200 198 185 186 153 68 4 10 2 0 13 109 191 198 196 185 197 197 196 195 195 194 195 195 194 194 194 194 191 176 193 192 194 193 193 191 191 192 192 192 191 190 181 191 184 191 189 192 175 191 174 189 189 184 180 176 175 174 174 172 171 171 173 170 171 164 160 167 170 169 170 170 170 172 170 171 170 170 163 171 168 171 171 169 162 149 146 153 151 171 175 186 167 189 183 191 191 179 191 189 173 168 188 178 188 188 187 188 189 186 187 187 187 187 188 186 186 186 183 171 184 173 165 172 185 184 184 183 184 184 183 181 184 183 180 181 180 178 177 178 170 177 175 177 178 179 179 179 179 178 179 178 166 176 180 177 172 178 178 178 178 173 177 178 176 176 177 175 161 174 172 170 170 168 166 158 118 27 16 1 1 7 83 152 167 178 187 184 151 149 62 4 0 1 0 1 0 2 7 1 1 2 1 1 0 1 0 1 1 4 1 1 0 0 0 9 0 2 0 0 5 5 0 1 9 0 1 0 1 1 0 1 0 0 0 0 0 0 0 1 1 2 0 0 0 0 0 0 1 1 0 1 1 0 0 0 0 1 1 0 1 0 0 1 0 0 1 0 1 2 1 1 0 1 4 1 1 0 0 0 1 2 2 0 0 0 1 1 0 0 1 0 0 0 0 0 0 2 2 0 0 1 2 0 0 1 1 0 0 0 1 0 0 0 0 1 0 0 0 2 1 1 0 0 0 0 0 1 0 0 0 0 0 2 0 0 1 0 1 0 1 0 1 0 2 2 1 1 0 0 4 0 0 1 1 0 0 0 1 4 2 2 0 0 0 0 1 1 0 0 1 2 1 0 0 1 0 0 0 1 0 1 1 0 2 
1 0 1 0 0 0 0 0 1 1 1 1 0 1 0 0 1 1 0 0 0 0 0 0 0 0 1 0 0 0 0 1 1 1 0 0 0 1 0 1 0 0 0 1 0 0 0 0 0 1 1 1 0 0 4 0 0 2 1 1 1 0 0 0 0 0 1 0 0 1 1 0 1 0 2 1 6 3 0 0 1 1 0 0 1 1 1 2 1 0 0 0 2 0 1 0 0 1 3 0 0 0 9 2 0 1 0 0 1 1 1 1 0 0 1 0 0 1 1 3 3 1 0 5 24 52 70 101 119 129 134 142 148 152 148 161 163 159 164 158 167 167 159 155 167 167 166 164 163 163 148 151 163 165 165 166 166 166 153 165 167 165 164 158 162 161 160 155 142 79 6 1 1 6 0 0 0 0 0 2 6 2 2 1 0 1 0 0 0 1 0 2 0 0 0 1 0 1 1 1 0 0 1 1 1 1 1 3 4 1 1 6 0 3 50 111 186 191 194 195 195 198 198 196 198 196 198 198 199 199 199 201 200 199 193 191 200 201 200 201 202 203 202 202 191 203 202 203 200 183 201 201 182 200 199 198 198 183 182 141 26 0 1 1 10 20 137 192 197 198 198 196 179 183 196 196 195 195 194 195 194 185 194 179 174 192 193 193 192 194 193 192 190 181 192 191 192 191 190 191 191 180 192 190 189 172 190 191 189 173 179 177 173 173 173 173 172 171 152 173 170 171 166 170 171 171 170 171 171 170 172 172 170 172 169 170 171 160 172 171 170 171 170 170 172 172 166 171 190 172 182 191 179 190 174 167 171 189 187 191 189 188 189 188 181 188 188 174 187 185 187 185 186 186 171 184 186 182 166 185 184 176 183 184 183 182 184 184 180 165 172 181 179 176 178 166 170 178 162 178 178 178 174 178 161 178 178 176 168 178 178 179 178 172 176 178 177 177 176 176 177 174 174 157 175 174 171 155 169 166 164 152 90 9 0 2 0 23 118 160 152 167 186 180 165 120 40 2 1 1 0 1 0 1 1 0 1 0 1 0 2 0 1 1 2 1 1 0 0 0 0 0 1 0 0 0 2 0 0 2 0 0 1 1 0 1 0 1 2 0 0 0 0 1 0 1 0 2 9 1 0 0 0 1 1 0 1 0 2 0 0 1 0 0 1 0 0 0 0 1 1 1 0 1 0 0 0 0 1 0 0 1 0 0 0 0 0 0 0 0 0 1 0 0 1 2 2 1 0 0 0 0 1 0 1 0 0 1 0 0 0 0 1 0 0 1 0 1 1 0 0 1 0 0 0 1 2 1 0 0 2 0 0 1 0 3 0 0 0 0 1 0 0 1 0 1 0 5 0 0 1 1 0 0 5 1 1 2 5 1 0 0 1 7 1 2 4 0 0 2 0 1 0 0 0 0 1 1 1 2 0 0 0 3 0 0 1 1 1 2 
2 0 1 0 1 3 1 1 0 1 2 2 0 1 1 0 6 1 2 0 1 0 0 1 1 1 0 0 0 1 1 0 2 0 0 0 0 7 4 0 4 1 0 3 2 0 0 1 0 0 1 0 2 0 1 0 2 2 5 0 0 0 1 0 2 1 0 0 0 0 0 0 0 0 2 1 13 1 6 1 0 0 0 0 0 0 0 0 3 0 1 0 1 0 0 1 2 0 2 2 0 2 1 7 0 0 0 0 1 1 0 1 0 4 1 1 1 0 0 0 0 4 1 1 1 7 30 62 78 101 115 123 131 135 139 144 146 150 152 153 154 157 159 158 160 160 161 152 161 164 162 155 163 163 166 166 165 166 166 159 165 164 157 164 164 163 161 158 149 93 34 11 1 0 2 0 0 1 1 2 0 0 1 1 0 1 1 2 1 3 1 1 2 3 1 0 0 2 0 1 0 1 0 1 5 2 1 0 2 5 1 1 4 11 114 178 176 195 195 195 178 197 199 196 188 182 199 200 199 201 199 201 200 180 201 202 200 190 201 201 201 202 202 178 187 201 201 201 199 186 188 200 183 199 199 185 197 181 178 127 16 0 0 2 19 37 159 195 194 197 191 191 196 194 195 195 195 193 195 195 194 174 193 192 191 180 191 194 192 193 192 191 180 191 192 192 192 192 190 192 191 190 191 191 191 176 191 190 189 189 187 182 178 164 164 172 172 170 172 171 170 172 172 171 171 167 170 170 172 171 172 173 171 171 173 171 171 168 171 172 171 173 161 172 173 173 182 190 191 191 192 192 190 179 191 191 189 185 190 190 189 183 188 188 186 187 187 186 189 188 186 186 186 185 183 185 185 185 174 184 185 184 184 184 184 182 185 184 183 182 183 181 179 179 171 179 178 166 177 160 178 179 178 179 177 178 180 180 178 178 178 179 179 177 165 177 178 177 165 169 176 160 163 174 175 168 173 171 169 169 166 162 141 56 4 0 0 3 51 141 140 175 185 172 173 151 64 4 0 1 1 0 0 1 0 1 4 0 1 0 3 0 0 0 1 1 0 1 0 2 1 1 0 0 0 0 0 0 0 3 0 0 0 2 0 1 0 1 2 0 0 1 0 1 0 0 0 0 0 0 0 0 0 0 1 0 0 0 0 0 1 1 1 0 0 0 0 0 0 0 1 0 1 0 1 0 0 0 0 0 0 0 1 1 1 0 0 1 0 0 0 1 0 0 1 1 0 2 0 0 2 0 1 0 1 0 0 2 4 1 0 0 2 2 1 0 1 0 0 2 2 1 3 0 0 1 0 1 1 0 0 1 0 0 3 0 0 0 0 0 0 3 0 1 1 0 1 2 0 0 0 1 0 5 2 1 0 1 0 2 1 0 0 1 1 0 0 0 0 0 1 1 0 0 2 0 6 1 1 0 1 1 1 0 1 2 1 1 6 2 
0 1 1 4 1 0 1 1 0 1 0 1 0 0 0 1 1 2 0 1 1 0 0 1 1 1 1 0 0 0 0 0 1 0 0 1 1 4 1 2 0 1 1 1 7 0 0 1 1 0 2 8 1 0 1 2 0 1 1 1 1 3 1 0 0 0 0 0 0 0 0 1 1 0 1 0 1 0 0 1 0 1 0 0 1 4 0 0 1 0 0 0 0 1 0 0 0 0 1 6 2 2 1 1 0 0 0 0 0 1 1 0 1 1 0 4 0 0 1 0 1 0 2 0 7 2 2 12 42 72 91 97 114 123 122 133 125 119 125 147 148 151 148 154 156 157 158 148 159 162 164 163 163 155 157 165 158 167 167 166 167 166 154 166 165 163 162 160 152 108 80 39 13 2 1 1 1 1 2 1 1 0 0 1 0 0 1 0 0 0 2 0 0 1 2 5 0 1 0 1 1 1 2 0 1 0 0 8 2 1 0 0 4 61 167 166 192 194 195 197 197 197 198 198 199 197 197 180 198 199 199 199 182 184 200 202 199 186 201 200 201 201 201 202 200 189 201 192 201 201 200 187 201 186 188 198 198 181 173 87 7 0 0 2 25 58 168 195 198 197 198 197 196 196 198 196 195 196 195 194 179 192 193 193 193 193 183 194 193 193 181 191 192 193 192 191 191 191 189 190 177 167 177 190 189 189 192 183 191 190 188 189 185 180 177 175 172 168 165 172 170 170 172 172 170 172 171 171 171 172 172 173 171 171 172 172 172 173 173 173 173 167 174 173 174 167 180 175 176 190 191 193 179 192 191 192 191 192 190 191 191 189 189 186 177 173 169 172 186 187 186 181 188 185 173 186 188 185 170 185 185 185 186 186 185 188 186 185 185 183 171 171 180 178 180 179 181 171 180 179 179 180 179 180 178 177 178 179 178 176 179 179 179 177 177 177 178 176 165 178 177 165 176 177 176 175 173 166 164 170 167 166 158 114 15 1 0 1 11 102 117 149 162 186 181 142 118 18 2 0 0 1 0 0 2 2 1 0 0 0 0 1 0 1 3 0 1 1 0 1 9 0 1 0 1 0 0 0 0 0 1 0 0 0 0 0 0 2 2 2 0 0 0 0 2 1 2 1 1 2 1 1 0 2 0 1 1 0 0 0 0 0 0 2 0 0 0 2 0 1 0 0 1 0 0 1 0 1 0 0 1 6 0 1 0 0 1 0 0 0 2 1 1 1 0 1 0 0 2 0 0 0 2 0 1 0 0 0 0 0 1 3 0 0 1 0 1 0 0 1 9 1 1 1 1 1 0 0 0 0 1 1 1 0 0 0 0 2 2 0 1 1 4 1 1 0 0 0 0 0 1 2 0 0 0 0 0 1 1 0 0 0 0 0 0 0 0 0 0 1 0 0 0 0 0 3 1 2 1 1 8 0 0 1 0 0 0 5 2 1 
0 0 1 2 1 0 0 1 0 0 0 1 0 0 0 1 0 5 2 2 0 0 1 1 0 0 2 1 1 0 1 0 0 1 1 0 0 0 1 0 0 0 0 1 0 2 0 0 2 3 1 0 2 1 1 0 1 1 1 0 0 1 0 2 1 0 0 0 2 0 0 0 1 0 0 1 1 0 0 1 0 0 1 4 2 0 2 1 1 1 0 1 1 0 2 1 5 0 8 1 2 1 1 0 0 1 0 0 0 2 0 1 1 0 1 1 4 0 0 0 0 0 0 0 1 2 0 2 13 21 54 79 87 111 112 127 131 127 122 142 136 134 133 141 155 151 158 160 161 162 161 161 160 163 164 165 166 168 165 157 165 166 166 167 165 157 162 162 141 148 94 36 18 11 1 1 2 1 1 9 5 1 1 1 1 0 1 2 0 0 0 1 1 1 0 1 0 2 2 1 1 5 0 8 2 0 0 0 0 1 0 3 25 141 158 192 194 197 196 196 198 198 197 199 199 191 179 199 193 200 189 185 198 199 202 201 190 202 202 195 193 201 189 201 203 191 201 191 201 202 202 203 201 189 200 198 198 190 168 90 5 0 3 10 33 61 172 196 198 196 196 198 196 194 196 196 195 193 195 191 183 193 193 194 175 175 193 193 193 193 181 192 191 191 182 192 191 191 185 193 191 179 189 181 179 191 191 192 192 192 190 191 189 187 183 178 167 174 172 172 172 173 172 171 172 168 170 163 172 172 172 172 170 172 172 171 155 165 172 173 165 172 159 173 175 175 177 185 190 190 191 189 192 192 191 190 191 190 190 190 180 189 188 189 187 187 186 173 183 186 187 179 187 187 180 185 186 185 174 186 185 185 184 185 185 184 183 184 184 181 171 182 180 178 180 181 181 182 180 180 177 178 178 170 171 179 170 178 178 180 178 179 169 179 178 178 179 169 177 178 179 176 176 177 175 176 175 173 173 172 169 166 164 146 57 3 3 0 2 46 107 163 177 186 185 175 151 63 4 0 0 0 1 1 1 6 1 0 0 0 1 1 0 4 0 1 0 1 0 0 0 0 0 0 0 2 0 0 0 2 0 0 2 1 3 0 0 0 1 0 0 1 3 0 1 0 1 1 1 0 0 1 0 0 0 0 1 0 0 2 0 0 1 0 1 0 0 1 0 0 1 0 1 1 0 1 1 0 1 0 5 2 0 0 1 0 1 1 2 0 0 1 0 0 1 0 0 0 0 0 0 0 0 1 0 1 0 1 2 1 1 8 0 3 0 0 0 1 1 2 0 0 0 0 1 0 1 0 1 2 7 3 5 2 0 4 1 0 0 0 0 1 1 0 1 0 1 0 1 0 0 0 1 1 0 1 0 0 4 1 0 0 0 0 0 2 0 1 0 0 0 0 1 0 7 1 1 1 0 1 2 0 0 1 1 0 1 0 0 0 
0 3 5 6 0 1 0 0 1 0 0 0 2 2 1 0 0 1 2 0 0 0 1 0 0 0 0 0 0 1 1 1 2 2 0 0 0 1 1 0 0 1 1 0 0 0 1 2 1 1 0 1 1 3 5 0 0 0 0 0 0 0 0 0 0 0 2 1 0 0 1 0 1 0 2 1 5 0 0 0 1 1 0 0 0 0 1 0 0 1 0 0 1 1 1 2 1 0 0 0 0 2 1 2 0 2 1 0 0 1 0 0 6 0 0 1 0 0 1 0 0 0 0 1 2 1 0 1 2 11 7 37 65 89 104 115 124 131 132 138 141 146 149 151 152 155 156 157 160 157 150 161 163 165 160 164 166 165 166 165 167 167 165 166 163 164 164 162 159 154 144 81 8 0 2 0 1 0 1 1 12 1 1 1 0 0 1 0 0 2 1 1 0 0 0 0 0 1 0 1 5 0 5 2 3 2 0 0 3 0 0 7 88 179 168 194 196 197 196 188 197 182 198 197 199 199 193 199 201 200 198 184 189 201 201 201 201 201 200 201 200 202 200 200 201 201 202 200 199 182 201 202 202 199 201 187 195 170 162 72 5 1 1 2 7 78 143 195 186 197 199 197 181 196 196 194 187 195 195 194 175 193 193 193 193 192 178 193 191 192 192 191 179 190 177 191 192 192 192 190 191 180 191 190 191 188 191 190 190 188 176 189 190 188 188 184 183 178 177 175 174 176 173 172 173 172 172 167 171 172 171 172 172 172 172 171 173 160 169 173 165 164 157 174 176 176 176 168 189 190 190 192 192 191 181 191 192 170 171 176 190 189 189 188 188 189 188 186 187 172 186 187 187 185 169 186 186 176 185 183 174 185 180 180 184 185 184 180 184 182 170 182 180 176 181 182 182 179 183 180 179 180 180 178 178 179 178 178 172 180 179 174 177 178 180 180 177 178 180 179 177 178 177 177 178 176 174 174 175 172 161 152 166 160 113 15 0 0 1 10 103 132 171 167 187 183 168 119 18 13 6 1 0 1 1 2 1 1 0 1 0 0 1 3 6 2 0 0 1 0 0 1 1 1 1 0 2 1 0 0 0 0 0 2 2 1 0 1 0 2 0 7 8 1 0 1 5 2 0 1 0 0 1 0 0 0 3 4 0 0 0 0 0 0 0 1 1 1 0 0 0 0 1 0 0 0 1 1 1 1 0 1 0 0 0 1 0 0 0 0 0 0 1 1 7 9 0 0 0 0 4 2 1 0 6 0 1 1 0 2 1 2 0 0 1 0 0 0 1 0 1 0 2 0 1 1 1 1 1 5 1 1 6 1 1 0 0 0 0 1 0 1 1 1 0 0 1 0 1 0 0 0 1 0 1 2 1 0 1 0 0 0 0 0 1 1 0 0 1 0 0 3 0 0 1 1 0 0 0 1 1 1 0 0 0 0 1 0 2 1 
1 0 2 0 0 0 0 2 1 0 1 0 3 0 0 0 1 0 0 0 0 0 0 0 1 0 2 4 1 1 0 1 0 1 0 0 6 5 9 0 0 0 3 4 5 0 1 0 0 0 0 0 0 0 1 2 1 2 0 1 1 0 1 1 0 0 2 2 3 1 0 1 0 2 0 0 1 0 0 0 0 1 4 1 1 1 0 0 2 0 0 0 1 0 1 1 0 1 2 0 0 0 0 2 1 0 2 1 5 0 0 0 0 0 1 2 0 1 1 0 2 0 2 0 0 0 0 0 0 0 0 2 14 46 74 94 110 120 111 131 137 141 145 149 149 153 154 156 156 148 153 162 162 163 164 164 165 152 153 158 165 168 166 167 167 164 164 161 145 154 151 125 38 14 1 0 0 1 1 0 0 1 2 2 0 0 1 0 1 1 1 0 0 0 0 0 1 1 0 1 2 0 0 1 3 1 2 1 3 1 5 52 163 190 193 195 186 197 183 197 198 198 198 186 200 198 188 199 199 200 201 200 200 198 186 199 203 201 200 202 198 201 201 201 203 201 200 175 168 179 201 204 200 200 201 198 197 186 119 53 19 1 1 0 7 107 186 197 183 196 197 189 196 196 194 196 195 190 186 182 192 168 164 174 192 194 192 193 193 192 192 191 184 191 192 191 191 192 191 191 190 192 190 191 192 190 190 189 189 165 174 189 177 188 190 190 187 172 181 179 175 172 173 174 173 168 172 171 171 172 171 172 173 172 166 172 168 173 175 174 173 173 177 176 176 178 179 181 185 188 188 191 193 192 178 191 189 168 188 189 190 190 190 190 189 187 189 189 188 187 176 175 186 188 187 188 186 186 176 167 185 185 185 185 184 183 185 185 184 182 173 181 180 180 173 180 184 184 183 180 179 171 165 164 181 179 180 179 173 178 180 174 177 168 179 180 179 179 179 171 179 177 178 177 172 178 177 175 174 174 169 158 157 165 149 59 3 0 0 4 65 142 167 164 185 171 175 152 65 4 0 0 0 0 0 0 2 0 0 0 0 2 1 0 1 0 0 1 2 0 0 1 5 0 0 4 1 2 1 1 0 0 1 1 0 1 0 1 0 0 1 2 2 0 0 0 1 0 1 0 1 0 1 0 0 0 1 1 1 1 1 1 0 1 1 1 0 0 3 1 0 0 0 0 1 0 0 1 0 1 0 2 0 0 0 1 0 1 0 0 0 1 0 2 0 1 0 0 1 1 1 0 0 1 2 0 0 1 0 1 5 3 1 1 0 3 0 1 1 1 0 0 0 1 2 3 9 1 0 1 5 0 0 1 0 3 1 1 1 0 0 1 0 0 0 0 1 0 0 0 0 0 1 0 0 1 0 3 0 0 0 0 2 0 0 1 1 0 1 0 0 0 0 1 0 0 3 0 1 2 1 1 0 0 1 0 1 0 2 2 
4 0 0 1 0 1 1 1 0 0 0 0 1 1 0 1 0 1 0 1 0 1 1 0 0 0 0 0 0 0 0 0 0 1 1 0 0 7 5 0 1 1 2 0 5 5 1 0 0 0 0 0 0 0 0 1 1 0 0 1 5 2 0 0 0 1 1 0 0 0 1 1 1 1 1 1 0 1 0 0 0 0 2 1 0 0 1 4 1 0 1 0 0 0 0 0 0 0 0 0 0 0 1 5 1 0 0 2 0 0 0 2 1 0 0 2 0 0 2 1 0 3 1 1 0 2 0 1 0 2 1 0 1 5 24 58 85 100 100 114 112 119 139 138 147 150 153 153 156 156 157 151 160 161 162 160 161 165 164 154 166 158 168 166 167 167 154 164 161 158 155 143 92 10 0 1 2 1 2 1 0 2 0 1 2 0 1 0 0 3 0 1 0 2 0 1 1 0 3 7 0 0 1 1 0 4 1 1 0 2 19 133 156 192 196 196 197 195 198 199 198 195 199 198 200 200 198 179 200 199 200 201 201 200 190 200 201 201 201 200 201 203 201 201 202 202 199 180 178 200 198 201 201 200 194 194 195 161 151 41 4 0 0 0 13 114 188 197 197 193 182 197 195 196 197 194 196 194 195 193 177 192 191 171 193 194 193 194 193 193 192 193 193 191 191 192 181 193 193 193 192 192 191 192 181 181 191 179 167 174 189 174 189 190 190 190 191 189 189 183 182 178 175 174 173 173 173 173 161 147 157 172 173 173 172 173 174 173 175 173 150 174 177 177 176 180 181 182 183 181 189 189 191 192 195 192 176 173 190 173 191 191 190 190 190 188 189 189 182 188 187 174 178 187 189 187 186 187 175 184 186 186 186 180 186 180 186 184 185 182 183 182 170 180 159 183 184 185 185 177 179 180 162 178 180 181 180 180 178 181 180 180 178 179 180 180 172 180 177 170 178 178 177 171 177 177 175 166 174 175 165 171 169 167 160 110 11 2 0 1 13 109 161 172 172 185 182 167 103 47 1 1 1 0 2 1 2 1 0 0 0 0 1 1 0 0 0 0 0 0 1 0 0 1 2 2 0 3 2 1 0 0 1 0 3 2 0 1 0 2 1 2 1 1 2 0 1 0 0 0 0 0 0 0 0 0 1 0 0 0 1 0 0 0 0 5 0 1 0 1 0 1 0 0 1 1 0 1 1 0 3 0 6 6 1 0 0 0 1 1 0 0 1 1 2 1 1 0 1 2 0 0 1 1 1 4 0 0 4 1 6 1 0 0 0 0 0 0 1 1 0 1 1 0 4 0 1 1 0 0 1 2 0 0 1 0 1 1 1 0 0 0 3 0 0 0 0 1 0 0 2 2 0 1 0 0 3 1 0 0 2 0 0 1 0 0 2 1 0 1 1 0 0 1 0 0 0 0 0 0 0 0 0 0 0 0 1 2 4 0 
7 0 0 0 0 2 0 0 0 2 0 0 0 0 0 0 0 2 0 1 2 5 0 0 0 1 1 0 0 0 0 0 0 1 1 0 0 1 1 0 0 0 0 0 0 0 3 0 0 0 0 1 0 0 0 0 0 0 0 0 4 0 2 0 0 0 2 2 0 0 0 2 5 1 0 0 1 0 0 1 0 0 0 1 2 0 3 1 0 0 2 5 2 0 0 1 0 0 0 0 0 0 1 3 0 0 1 1 0 0 2 1 0 0 1 0 0 0 1 0 0 0 1 1 7 0 0 0 6 2 0 1 1 0 2 26 40 73 95 108 120 127 134 137 144 146 147 152 153 155 157 158 160 150 161 163 165 165 156 165 150 166 167 147 165 167 164 165 163 160 157 151 130 55 4 2 1 0 0 0 1 0 1 1 2 5 1 1 1 7 1 0 0 0 0 0 0 2 0 6 1 0 2 0 0 0 2 1 0 6 81 176 191 195 196 196 198 197 198 197 197 199 199 199 200 199 182 199 181 182 200 201 200 188 200 202 201 193 189 201 202 200 201 191 201 203 202 202 202 200 186 202 201 200 200 199 196 187 156 45 4 2 1 2 50 103 146 196 199 198 196 183 196 197 197 194 182 195 195 194 179 175 193 186 194 193 193 193 194 191 193 192 192 191 193 183 190 192 190 192 192 191 192 190 191 190 191 190 168 190 190 191 191 190 191 189 189 190 189 187 188 183 180 173 177 175 175 165 174 171 172 173 172 174 174 173 174 162 163 174 175 176 178 178 179 180 181 183 171 184 185 189 190 190 192 193 193 191 172 191 190 176 191 190 190 190 190 189 189 187 180 187 187 188 186 176 173 186 188 186 173 185 185 186 177 185 186 185 184 183 183 183 174 182 181 183 173 186 181 181 179 180 178 180 179 179 180 175 179 179 179 179 180 180 181 180 167 179 180 179 179 179 179 177 176 163 169 176 176 169 173 173 171 168 141 108 54 2 0 0 3 62 144 168 164 167 176 177 155 68 6 1 0 1 4 1 3 1 0 1 0 0 0 1 2 0 2 0 0 1 1 1 1 1 0 0 1 1 1 0 0 0 0 1 1 1 0 0 1 1 0 0 0 1 0 2 6 2 0 0 1 1 1 0 0 1 0 0 1 1 2 0 1 0 1 1 0 1 0 1 0 1 1 1 0 0 0 0 0 0 1 2 2 0 2 1 1 1 1 1 3 1 2 4 0 0 0 1 2 2 0 0 0 0 2 1 1 2 1 2 7 0 0 0 0 0 1 0 1 0 0 1 3 1 1 0 0 0 1 0 0 1 0 0 0 0 2 1 0 0 1 0 0 2 0 0 1 0 0 0 0 2 1 0 1 1 1 1 0 0 0 0 0 0 0 0 2 1 0 0 0 0 0 1 1 1 0 1 2 1 0 0 0 0 0 0 0 2 0 2 
0 2 1 1 0 9 1 0 2 2 0 1 2 0 2 1 1 1 1 0 0 0 2 0 0 0 1 1 1 0 0 0 1 1 0 0 0 0 1 0 0 2 0 2 0 0 1 8 0 0 0 0 0 0 1 0 0 0 0 0 1 0 0 1 0 0 0 0 3 0 0 1 0 1 1 0 1 0 0 1 0 0 0 1 0 0 1 2 1 0 1 1 2 0 2 2 0 1 1 0 0 1 0 0 0 0 0 1 2 0 0 0 1 1 1 0 2 1 0 0 0 1 1 0 6 1 0 0 1 1 0 1 0 0 0 3 21 35 67 91 105 118 126 132 137 139 145 148 150 153 155 156 158 154 161 163 153 164 165 157 165 166 168 152 154 165 167 165 162 161 158 154 145 113 50 5 9 2 3 3 1 1 1 0 0 2 1 1 2 1 0 2 0 0 0 1 2 4 0 1 0 2 1 1 0 0 0 0 2 39 156 189 186 195 196 194 198 196 197 199 191 199 188 199 199 200 200 200 199 201 201 201 199 185 201 202 202 201 200 202 205 200 202 201 202 201 203 201 202 183 200 201 195 200 200 199 197 189 158 81 28 9 0 1 31 157 164 196 200 198 197 196 196 196 196 179 195 196 194 193 194 184 193 195 193 189 193 191 193 193 193 191 192 193 194 192 192 192 192 192 191 191 190 192 193 192 190 192 191 192 193 190 179 190 192 191 190 191 177 189 182 187 172 186 182 167 176 175 174 164 174 165 174 174 174 174 174 175 176 175 176 164 177 178 180 182 173 184 178 181 183 187 189 192 192 194 192 191 174 191 191 191 192 191 185 176 189 184 189 190 189 176 188 188 187 170 185 188 188 188 177 186 187 175 186 186 186 185 186 184 183 183 183 183 185 184 186 186 183 182 180 179 180 179 180 180 180 180 174 179 180 180 180 179 180 179 171 180 180 178 180 168 178 179 167 176 178 177 176 176 175 174 172 169 166 160 112 12 0 1 1 10 104 158 168 181 186 182 170 121 18 1 0 0 3 5 1 3 0 1 0 0 0 2 1 1 0 0 1 0 0 1 1 0 2 1 2 0 2 0 1 1 0 0 0 0 0 1 0 0 0 0 0 1 0 9 9 3 0 0 0 1 1 1 0 1 0 0 0 0 0 0 0 0 0 1 0 0 0 2 0 0 0 1 0 0 0 0 0 0 3 2 0 0 0 0 0 0 0 1 0 1 2 0 0 0 2 0 0 1 0 0 0 0 2 3 7 1 6 1 3 0 0 0 0 1 1 2 0 2 2 1 1 1 1 0 0 0 1 2 0 0 1 5 0 0 3 1 0 0 0 0 0 6 4 0 0 1 0 0 1 0 0 3 1 0 1 0 0 0 0 2 5 1 1 0 1 0 0 0 0 0 0 1 0 1 4 8 4 0 2 0 2 0 0 0 0 0 0 0 
0 1 5 2 0 0 1 1 0 2 1 0 1 2 4 2 1 0 0 0 0 1 1 0 0 0 0 2 1 3 2 0 1 0 1 1 1 1 1 1 0 0 0 0 2 1 1 1 0 0 1 1 4 1 1 0 0 0 0 0 0 0 0 0 1 0 0 1 0 1 0 1 2 1 1 0 2 1 0 2 0 0 1 0 0 0 0 0 1 0 0 2 0 0 1 0 9 1 0 1 0 1 1 1 1 0 0 0 4 0 0 0 0 0 0 1 0 0 0 1 5 1 0 1 2 0 0 2 9 1 0 2 1 2 0 2 0 6 35 60 89 105 113 124 120 116 140 145 146 150 153 145 155 158 158 161 163 164 164 158 167 167 167 167 166 167 166 166 156 146 158 156 151 138 100 29 2 1 1 0 5 2 0 0 2 9 1 6 0 0 0 0 1 1 0 2 1 0 0 0 1 0 0 0 3 1 0 1 11 119 183 185 194 197 197 196 197 191 199 198 197 197 189 199 199 199 199 202 199 196 201 201 203 201 201 200 201 202 202 203 200 201 202 201 202 202 201 201 201 201 195 201 200 200 194 199 177 169 158 55 4 1 2 2 34 165 196 198 197 197 193 197 199 196 196 195 190 194 196 195 194 183 193 171 184 194 195 191 184 192 183 179 188 193 193 192 193 191 176 191 192 191 191 192 190 191 191 191 191 192 192 188 190 190 182 189 183 189 190 176 176 189 189 189 173 172 184 183 180 177 176 175 175 175 173 174 174 166 174 159 163 176 177 178 180 182 183 184 186 183 171 185 188 191 193 192 193 192 183 177 192 192 190 191 190 189 176 187 190 188 189 174 188 188 188 180 186 176 177 186 187 186 186 187 187 173 185 185 186 185 182 179 184 184 177 181 187 187 184 180 181 178 165 168 179 169 178 180 171 180 164 181 179 181 182 181 180 180 178 173 178 179 172 178 178 180 178 178 175 176 174 174 174 173 161 167 148 54 2 0 0 2 46 104 146 173 166 186 175 124 65 4 0 5 1 1 2 0 4 1 0 2 1 0 0 0 0 0 0 0 0 4 2 0 0 8 1 1 5 0 1 0 0 2 0 0 0 2 0 1 0 1 1 1 1 1 1 0 0 0 0 0 1 1 0 0 0 1 7 0 0 0 0 0 2 1 1 0 0 0 0 0 0 0 1 0 1 1 0 0 0 0 0 1 0 1 0 0 0 2 0 1 0 0 1 0 0 0 1 0 0 0 0 0 0 0 2 0 1 0 3 1 1 1 0 0 0 0 0 0 2 0 2 2 0 1 0 0 1 0 0 0 0 3 0 8 1 2 0 0 1 0 2 0 9 1 0 2 0 1 0 0 0 1 0 0 0 1 0 0 1 0 1 0 0 0 1 0 0 1 1 0 0 0 5 11 5 2 1 0 0 1 0 0 0 0 0 1 5 1 
0 1 0 1 1 0 0 0 0 7 1 1 0 2 0 1 0 0 1 0 0 1 4 1 0 0 0 1 0 1 0 1 0 1 1 1 0 1 1 0 0 1 2 0 1 1 0 1 1 1 0 1 1 1 1 0 1 0 1 1 0 1 1 0 0 0 1 0 0 0 0 0 1 5 2 0 2 0 1 0 1 0 1 2 1 1 0 0 0 0 0 0 0 0 0 2 5 1 0 1 1 0 0 0 1 1 0 0 2 0 0 0 0 0 2 0 0 1 0 0 0 0 1 1 1 0 0 2 2 1 4 1 0 1 0 1 1 1 7 34 71 93 105 104 122 119 134 140 145 147 151 143 154 157 159 154 161 163 163 160 167 166 166 168 168 167 166 155 163 161 160 156 146 145 133 75 27 5 1 1 1 5 1 0 4 0 1 1 2 1 2 1 0 1 1 0 0 0 0 0 1 1 0 3 6 1 3 40 67 168 192 192 183 196 196 197 197 197 198 188 198 185 199 200 200 199 188 200 201 201 201 201 201 202 203 200 202 201 202 201 202 201 201 202 203 201 191 202 202 201 201 192 200 200 198 201 197 190 161 55 3 0 0 2 42 164 197 197 199 197 197 197 196 195 191 196 194 195 195 194 194 194 178 173 191 194 194 192 192 192 192 193 193 192 192 193 193 176 192 191 192 190 190 190 191 191 191 192 192 190 187 190 189 177 171 189 190 179 181 188 192 190 191 189 171 189 189 189 186 186 181 167 176 150 162 175 174 176 175 177 176 178 177 178 182 183 185 185 187 186 179 174 185 187 190 191 184 192 190 178 192 191 181 190 191 191 190 190 189 188 189 189 189 187 188 189 188 188 186 186 169 155 160 186 187 186 181 186 175 184 181 185 184 184 186 188 187 187 182 178 179 183 180 180 179 180 182 180 179 182 180 180 181 180 181 182 179 166 180 180 180 181 178 179 173 178 174 178 177 164 177 175 176 172 171 169 129 78 11 1 2 1 8 105 161 173 163 184 183 167 122 18 0 0 0 3 1 2 8 1 0 0 0 2 0 1 0 0 1 0 1 2 0 0 1 1 0 1 0 0 1 0 0 1 1 1 1 1 1 1 1 0 1 1 1 0 0 1 0 0 0 0 1 0 1 1 1 8 2 0 0 1 0 1 1 5 0 2 0 1 0 2 0 2 2 0 1 0 0 0 0 0 0 0 0 0 1 0 0 5 1 1 5 0 1 1 1 0 0 4 1 0 0 0 0 4 0 1 0 1 0 4 1 0 1 0 0 1 1 0 1 0 0 1 0 0 0 0 1 0 2 0 3 0 1 0 1 0 0 1 0 0 1 2 2 0 1 0 1 1 1 2 1 1 1 0 1 1 1 2 0 0 1 0 0 0 1 1 5 5 1 0 0 1 1 2 0 0 0 1 0 0 0 1 0 0 0 0 2 0 
1 2 0 0 0 0 3 1 1 1 1 3 1 0 1 1 1 1 2 1 0 1 2 2 0 0 0 0 1 5 0 0 1 1 2 1 1 1 0 1 0 1 0 0 1 0 1 3 0 0 0 0 5 1 2 0 0 0 0 0 0 0 0 0 0 0 5 0 0 0 1 0 1 2 1 1 0 1 0 0 5 0 1 1 1 1 1 0 1 0 2 0 1 1 0 0 0 0 1 0 1 0 0 0 1 1 2 13 1 0 0 0 1 0 0 0 0 0 1 2 0 0 1 0 0 1 1 11 5 1 0 0 0 0 1 1 1 2 14 8 41 74 93 101 117 125 134 136 142 145 149 153 154 150 158 159 161 163 163 163 165 165 167 157 165 154 166 165 156 158 161 157 154 150 137 130 86 42 24 25 2 2 2 0 2 0 1 0 1 1 0 0 1 1 0 0 0 0 0 0 3 0 8 1 1 0 3 62 147 166 194 194 196 197 197 198 198 196 197 198 199 198 199 200 200 202 201 202 201 201 202 195 202 201 201 201 202 202 201 202 189 200 187 201 201 202 201 196 188 202 202 202 200 188 199 199 198 189 163 62 23 2 1 2 36 158 193 198 197 185 197 198 190 196 195 195 188 195 196 196 186 193 194 192 180 189 194 193 192 193 192 192 191 193 194 191 188 192 192 190 191 187 191 191 192 192 191 192 190 186 191 190 192 190 190 191 191 190 190 190 189 191 191 189 179 190 178 189 189 187 187 185 183 163 179 163 164 178 177 178 170 177 168 178 180 182 184 185 187 186 172 179 166 172 187 189 191 191 191 193 192 192 176 192 191 191 180 190 180 189 190 189 189 188 171 176 189 187 189 182 186 157 159 185 187 183 187 187 185 185 184 186 184 175 188 183 189 186 181 177 181 181 181 181 171 179 180 180 173 181 182 180 171 180 181 181 181 180 180 181 180 179 166 179 180 173 179 173 164 176 176 166 173 173 173 166 167 148 53 6 14 2 3 46 144 167 175 171 185 165 154 64 2 1 0 1 1 0 1 0 0 0 0 3 0 0 1 0 0 1 0 1 0 0 0 2 1 0 1 0 0 0 0 10 0 0 0 1 0 0 1 0 0 8 5 9 0 1 1 1 0 1 0 1 0 2 0 1 0 2 0 4 1 0 2 6 1 1 0 0 0 8 0 2 0 0 0 0 1 1 1 0 0 1 0 0 0 2 0 0 0 3 1 3 0 0 0 0 0 1 0 1 0 1 0 3 0 0 0 1 1 0 2 0 1 0 1 0 2 4 1 0 1 0 1 2 0 0 0 0 0 0 0 0 7 0 0 1 1 0 0 0 0 1 0 0 0 0 0 1 0 1 0 2 0 4 2 1 0 3 0 0 2 0 2 1 1 4 0 0 2 1 7 0 0 0 3 1 1 1 1 0 1 1 0 0 0 0 0 1 
0 2 7 0 0 0 1 1 1 0 0 0 0 0 0 2 1 0 5 2 1 2 0 0 1 4 0 0 1 1 0 2 0 0 1 0 1 0 0 1 0 0 1 0 0 0 1 0 1 0 0 0 0 1 0 0 0 1 0 0 0 1 0 0 0 1 1 0 0 0 1 0 0 0 0 1 0 1 0 1 1 0 2 1 0 1 1 1 1 2 0 1 0 0 0 0 1 0 0 1 1 0 1 1 1 0 2 4 2 1 1 1 1 2 0 3 0 1 2 1 1 0 0 0 2 0 1 2 2 2 1 2 0 0 0 0 0 4 0 2 10 48 78 96 107 120 126 134 138 141 145 149 152 155 157 158 161 161 146 146 150 165 167 165 167 166 167 165 165 163 160 158 155 152 148 142 126 80 53 49 39 4 8 3 3 1 1 2 1 7 1 1 9 0 2 0 0 0 0 0 2 0 1 0 2 6 8 95 180 172 193 195 197 196 197 197 198 198 188 199 201 201 191 200 202 201 201 200 200 201 202 200 201 193 200 201 201 193 203 200 191 201 200 202 202 203 201 201 203 201 201 202 201 199 199 199 197 174 165 82 7 8 2 20 38 157 195 186 180 178 197 196 196 183 196 197 194 194 195 196 195 195 193 194 193 194 194 193 194 180 177 177 179 181 191 193 193 192 192 192 191 192 190 181 191 191 190 190 190 182 192 193 191 181 192 191 190 191 191 190 181 190 173 175 190 189 191 190 183 191 186 190 189 189 187 183 183 182 181 173 174 178 177 166 179 154 158 168 186 173 186 181 174 175 176 189 183 191 192 192 193 192 193 192 192 189 191 175 190 190 181 177 190 190 188 187 189 189 189 189 187 158 160 186 186 187 188 187 186 186 185 184 175 185 189 188 182 184 181 181 180 181 181 180 180 167 181 181 181 181 181 180 180 180 180 179 180 181 181 180 181 180 178 158 179 180 178 179 178 177 179 174 176 174 173 163 157 162 92 47 27 13 1 11 106 162 159 182 186 179 168 111 10 0 0 0 0 0 1 0 0 0 0 0 1 0 0 0 0 0 0 2 1 0 0 0 0 0 0 0 0 0 5 2 1 1 0 1 1 2 0 1 0 0 3 1 2 0 1 0 2 0 0 2 3 0 1 0 0 1 1 1 2 0 0 2 1 2 0 0 2 1 2 0 0 0 0 1 1 0 0 0 0 0 0 0 0 0 0 0 0 1 0 0 0 0 0 0 0 1 1 0 0 0 1 1 1 1 1 0 0 5 2 0 1 0 2 1 2 1 0 1 5 1 9 1 2 0 0 0 2 1 0 1 1 1 0 0 3 1 0 2 2 0 2 1 0 0 1 0 0 0 1 1 1 3 1 0 0 1 0 1 2 0 0 0 1 1 0 0 0 0 1 0 0 0 0 1 0 0 0 1 1 0 4 1 1 1 1 2 
0 2 1 0 1 0 1 0 1 1 0 1 5 1 2 4 0 2 1 0 0 0 1 0 2 1 0 0 0 0 1 4 0 1 0 0 0 1 1 0 1 0 1 4 0 1 0 1 1 0 0 0 1 2 0 1 1 0 0 0 0 0 0 1 1 0 0 0 1 0 0 0 1 2 1 0 0 0 0 0 0 0 0 1 1 1 0 0 0 1 1 0 0 0 0 1 4 0 1 2 0 1 0 0 0 0 0 0 0 0 8 1 10 2 1 0 2 1 0 0 2 2 0 0 0 0 0 1 13 0 1 1 1 0 0 1 1 1 2 2 4 17 45 81 97 111 120 128 134 126 143 147 150 153 156 153 160 161 161 143 162 166 166 165 167 165 155 153 165 162 160 145 156 154 150 146 138 103 49 64 77 54 26 30 2 0 5 1 5 3 0 0 0 0 1 3 1 1 0 6 1 0 0 0 0 4 53 164 191 194 192 178 196 197 197 197 198 198 198 200 198 200 200 199 199 202 201 200 195 200 202 201 201 196 200 201 201 200 201 202 201 201 184 200 202 201 202 200 185 201 200 192 201 199 198 200 198 192 167 74 31 2 2 34 32 153 194 196 197 197 183 197 196 180 194 189 195 196 196 190 195 194 187 194 194 194 194 193 192 192 185 193 194 193 191 185 182 191 183 193 190 191 178 191 193 193 189 191 192 191 191 190 192 191 190 190 191 191 190 188 186 191 191 189 190 191 191 190 190 191 191 192 188 188 190 173 178 188 186 185 182 183 182 182 180 155 160 184 177 187 189 189 179 171 178 184 189 184 192 191 192 192 190 192 192 191 190 190 191 192 190 188 170 189 179 189 189 190 189 189 188 187 186 188 187 187 177 186 186 186 186 185 189 188 191 189 188 183 180 179 180 170 180 182 182 181 182 182 180 171 180 181 182 181 180 180 179 181 181 181 180 181 167 180 180 181 180 179 171 179 178 178 169 176 157 174 171 168 112 46 4 8 1 5 50 146 170 181 187 181 172 143 51 4 0 1 0 0 0 2 0 1 0 0 0 2 0 2 0 0 0 0 1 1 1 0 1 0 2 1 0 0 1 1 0 0 0 0 0 0 0 0 0 0 1 4 2 6 2 2 0 0 0 1 0 0 1 0 1 0 1 0 1 0 2 0 0 1 0 0 0 1 1 0 0 0 2 0 0 1 0 0 1 0 0 1 0 1 0 0 0 5 8 1 0 0 0 0 0 1 1 1 0 2 2 1 1 0 0 1 0 1 3 0 0 0 1 1 1 0 0 1 2 1 0 2 0 4 0 0 0 0 0 0 0 2 0 0 0 1 1 0 1 1 1 0 0 0 0 0 1 2 0 0 0 4 0 1 0 0 0 0 0 2 0 0 0 0 0 1 1 1 3 5 0 1 0 0 2 0 0 1 0 0 0 2 1 1 7 2 
4 2 1 1 0 0 2 1 0 1 1 2 0 2 1 1 1 1 2 0 2 0 2 0 1 0 1 0 1 1 0 5 0 0 0 1 0 0 5 1 1 0 0 0 2 3 1 0 0 0 1 4 2 3 2 1 1 2 1 0 0 2 0 1 0 0 0 0 2 0 0 1 4 2 0 0 0 0 0 0 0 0 0 4 0 0 0 0 0 2 0 1 4 0 0 2 0 0 1 0 2 0 1 0 1 0 0 1 0 1 1 2 1 1 6 1 0 0 1 2 0 0 1 0 1 0 0 0 2 0 2 0 4 1 1 0 2 0 0 7 1 7 25 58 85 99 112 120 129 133 140 144 137 153 154 156 158 159 149 162 163 164 166 168 167 168 167 166 164 165 162 159 156 147 152 149 144 120 61 36 65 97 73 79 47 15 6 2 0 1 1 0 0 0 0 1 2 0 4 0 0 1 1 0 1 18 135 186 180 194 195 198 197 189 198 186 198 190 199 191 198 199 184 199 194 200 199 200 200 201 201 201 202 193 201 202 203 196 201 201 184 201 201 202 200 184 188 201 186 200 184 199 200 200 199 198 197 189 166 81 47 3 4 38 66 145 171 182 199 198 185 196 197 195 196 196 196 196 195 195 194 195 193 194 194 193 195 193 193 194 194 192 194 192 192 193 191 192 191 191 191 192 191 185 193 191 191 192 192 191 191 190 191 190 191 192 182 183 187 192 190 190 190 191 191 190 191 191 191 192 191 190 176 176 177 190 190 190 191 191 181 189 186 186 167 184 185 186 185 188 189 189 185 174 168 177 171 188 191 189 190 182 190 176 191 192 190 191 192 192 190 191 190 190 190 190 190 189 189 189 182 175 187 187 187 187 179 187 186 174 186 188 189 190 192 188 182 180 180 180 180 181 169 180 181 181 181 180 175 180 174 181 181 182 180 181 182 183 180 180 180 166 179 182 180 180 180 176 173 179 178 177 164 173 168 174 174 161 162 89 6 0 0 0 13 116 166 177 185 185 151 157 61 3 2 6 2 2 4 1 0 5 2 1 0 1 1 0 0 0 2 0 0 0 2 0 0 1 0 0 0 2 0 1 2 0 0 0 1 1 0 1 2 1 2 9 0 2 0 0 1 1 1 0 0 2 0 1 1 0 0 1 0 0 1 0 0 0 2 0 0 0 0 0 0 1 1 1 3 0 1 0 0 0 0 1 1 2 0 0 0 0 0 0 0 1 0 0 0 0 2 0 0 1 0 3 0 1 1 4 1 1 1 0 0 0 2 9 1 1 0 2 0 0 0 0 0 0 0 1 4 0 0 2 1 0 0 0 0 0 1 0 0 1 0 1 0 0 0 0 4 1 0 0 1 0 1 1 0 1 0 0 0 0 1 0 0 0 0 0 0 1 1 0 0 0 0 0 0 1 4 1 0 2 1 1 1 1 1 1 
0 6 1 8 10 0 0 0 1 1 1 1 1 0 0 0 1 0 4 1 2 1 0 0 1 6 7 0 2 0 0 0 1 0 1 0 0 3 2 0 0 0 1 2 5 5 1 1 0 1 2 1 1 2 0 0 2 0 0 0 2 1 0 0 1 0 0 0 1 2 1 1 1 1 3 1 0 0 0 0 1 0 1 0 0 0 0 0 0 1 0 1 1 0 0 3 1 0 0 1 1 0 0 0 5 0 3 0 0 0 1 0 1 1 0 0 0 1 0 1 0 0 2 2 1 1 1 1 2 0 0 0 1 1 0 0 1 1 0 0 2 9 15 33 60 87 102 104 121 129 135 141 145 135 151 156 157 158 159 162 163 164 165 167 165 158 168 167 157 164 164 159 150 156 153 151 148 112 82 32 17 59 100 119 119 100 60 30 6 3 2 1 0 0 1 1 1 1 0 1 1 0 0 0 5 79 176 192 192 182 196 196 196 196 197 188 188 197 198 200 199 199 199 183 198 184 199 200 202 200 197 202 201 193 200 201 202 195 201 198 200 201 201 201 200 200 201 195 202 200 200 199 202 200 201 183 196 158 132 84 45 23 20 5 20 108 190 198 198 199 196 183 196 193 193 182 186 194 195 194 194 193 195 195 194 194 194 194 187 192 193 193 179 192 193 192 193 192 192 191 192 192 191 191 190 192 191 192 191 181 190 193 191 191 191 190 173 185 190 191 192 191 193 191 190 190 192 192 191 191 190 187 190 189 191 191 179 180 190 192 191 191 189 189 190 190 189 187 187 185 187 189 187 184 171 165 174 182 187 188 189 190 179 190 180 192 192 191 192 191 190 191 190 189 190 190 190 189 188 189 188 188 188 190 184 186 187 186 182 187 189 189 189 190 189 184 176 163 165 176 178 158 165 179 161 160 181 181 180 181 182 182 181 180 176 182 180 181 167 159 171 180 181 182 174 180 179 180 180 179 179 178 167 176 175 175 174 173 166 92 16 0 0 0 5 80 158 173 169 160 141 112 66 7 1 1 1 1 0 1 1 3 10 0 2 2 0 1 1 0 1 1 0 0 0 0 1 0 0 0 1 2 1 0 1 0 0 1 0 8 0 0 1 1 0 0 1 5 0 0 0 0 1 4 1 1 2 0 2 3 0 0 0 0 3 0 1 0 1 1 0 0 0 0 2 0 0 0 1 1 0 0 0 1 9 9 0 2 0 0 1 2 1 0 3 0 0 0 0 1 1 0 0 0 0 0 0 2 0 2 0 0 0 1 0 1 1 0 0 0 0 2 0 2 0 2 0 2 1 0 0 0 3 1 0 3 2 1 0 1 1 0 0 1 1 0 0 0 1 2 4 1 1 1 2 0 2 0 0 1 0 0 0 0 0 1 0 0 0 1 1 0 0 0 1 0 2 0 0 0 5 1 0 0 0 0 1 0 2 0 
0 1 0 0 1 1 0 0 1 1 8 2 0 2 1 0 2 0 0 0 1 0 0 0 0 0 2 0 0 1 0 1 0 0 2 1 1 0 1 1 0 1 4 5 2 1 0 0 0 0 0 0 1 0 1 1 0 0 0 3 1 1 1 0 0 2 0 0 0 0 0 0 0 2 1 0 0 1 1 1 0 2 2 0 0 0 1 0 0 0 0 1 1 0 0 0 0 1 0 0 2 0 2 9 1 0 2 0 0 1 3 0 1 0 1 0 0 1 1 0 1 0 0 1 2 0 0 0 0 0 2 1 2 0 1 1 0 1 0 0 1 16 23 16 31 68 83 103 115 123 125 136 142 143 150 153 156 156 150 160 163 163 150 164 166 166 166 168 166 153 162 146 158 157 154 151 151 145 111 51 34 15 52 89 117 132 105 119 86 44 18 7 4 2 0 0 1 1 1 0 4 0 6 4 59 128 187 193 193 195 197 197 197 198 199 199 200 200 198 198 200 200 198 186 200 201 201 202 201 189 200 202 200 200 201 200 201 200 201 202 199 201 201 189 201 201 201 201 201 201 201 189 200 200 199 198 199 191 170 89 7 11 2 2 16 130 189 192 197 197 199 198 195 179 174 195 195 195 195 193 194 194 193 194 194 195 192 193 193 181 191 177 193 192 192 188 192 182 191 192 190 178 192 181 182 193 192 192 189 191 185 190 192 190 191 191 191 192 179 190 191 191 191 191 191 191 192 190 190 191 186 191 176 190 191 190 181 179 191 182 180 191 174 191 191 180 191 191 192 189 181 188 178 184 178 164 161 171 181 185 187 187 190 190 175 191 192 191 191 191 190 191 190 192 191 189 191 190 189 192 189 188 188 187 187 187 189 187 188 178 190 188 188 190 186 175 171 174 158 173 162 176 176 177 178 178 167 179 180 180 180 180 181 182 181 180 180 181 181 179 181 182 175 181 181 181 181 181 178 179 168 178 179 178 177 175 173 158 171 150 46 15 1 1 2 42 100 168 179 184 160 167 92 28 1 0 0 0 0 3 0 2 2 2 0 0 1 0 0 1 3 1 0 1 0 0 1 0 0 0 0 2 0 1 0 2 0 0 0 0 1 1 1 1 1 3 1 7 0 0 1 2 1 0 0 0 1 2 0 0 1 0 2 3 0 0 1 0 1 0 0 0 0 0 0 5 0 0 2 1 1 10 1 0 3 1 0 3 1 0 1 0 0 0 1 0 2 2 3 0 0 0 1 0 1 1 1 7 2 0 0 0 0 0 1 0 0 0 0 0 0 1 0 0 2 1 0 0 0 0 0 0 2 1 1 1 1 0 1 0 0 0 4 0 0 7 1 0 1 0 2 2 1 0 0 1 1 0 2 7 1 0 0 0 0 0 0 3 1 1 0 1 1 1 2 2 3 0 0 1 0 1 0 0 0 0 0 0 0 0 
1 0 1 0 0 0 1 0 1 0 0 4 2 4 1 0 0 1 1 2 0 0 1 2 1 0 0 2 1 3 0 0 0 0 0 0 1 3 2 0 2 0 3 1 2 0 1 0 0 1 0 0 2 0 6 1 2 0 0 1 0 1 0 0 0 1 5 0 0 0 0 6 1 1 0 1 0 0 2 0 0 1 1 0 1 0 1 0 0 0 0 0 1 1 0 0 5 0 0 0 1 0 0 0 0 0 0 0 5 1 0 1 0 5 1 0 0 1 0 0 0 0 1 2 0 0 0 1 0 0 0 0 5 2 4 1 0 0 1 1 4 9 21 33 40 48 74 82 105 116 126 131 137 143 148 147 155 156 159 160 161 163 163 165 166 156 167 167 166 165 161 153 159 157 145 154 153 150 136 83 24 23 31 38 72 111 133 141 101 89 83 95 64 35 11 6 18 0 0 1 9 1 6 9 101 179 191 182 195 196 195 197 198 192 198 185 200 200 198 199 199 189 200 196 200 187 199 200 187 180 185 201 201 201 201 203 201 201 201 200 188 201 200 188 200 201 200 199 200 200 201 200 200 201 200 200 198 194 173 92 7 11 14 1 12 99 149 196 197 197 196 196 196 195 195 197 196 195 194 172 193 179 193 194 193 193 195 195 193 194 179 176 192 169 177 191 192 193 193 191 191 192 190 190 192 191 192 192 193 192 191 192 191 191 190 190 191 190 191 191 191 191 191 192 190 184 192 192 191 191 192 189 178 190 191 191 191 191 192 176 191 191 191 178 191 179 191 194 192 193 191 177 188 188 183 176 158 152 166 176 182 186 178 189 189 174 191 190 192 192 181 191 190 189 190 192 190 191 190 189 187 182 188 188 187 188 176 188 190 189 183 185 183 186 176 170 172 174 172 163 173 174 163 175 175 171 164 165 177 176 177 178 179 178 180 164 163 180 180 182 177 180 181 166 180 180 179 178 157 159 178 165 178 177 171 167 174 160 172 164 91 6 0 0 1 12 117 166 161 185 185 176 158 72 3 0 0 0 1 2 0 3 1 0 0 0 0 0 1 0 1 3 0 0 1 0 2 0 0 0 0 7 1 1 0 0 0 1 1 9 1 1 1 0 1 9 11 1 0 1 0 0 5 1 0 2 1 1 0 0 1 0 1 7 2 0 1 2 2 0 1 1 0 0 1 1 1 0 1 0 0 1 1 0 1 0 0 6 1 0 0 0 0 2 1 0 0 1 0 0 0 0 0 4 1 1 2 1 1 1 0 1 1 0 0 0 1 0 0 2 3 1 0 1 0 1 0 0 0 0 0 0 0 9 1 0 1 1 0 0 3 1 0 0 0 0 1 1 0 0 1 0 0 1 1 1 0 0 0 1 0 0 0 0 0 0 0 0 0 1 2 0 0 2 0 0 0 1 0 0 0 0 0 0 0 1 0 0 1 0 
1 0 0 0 0 1 1 0 1 1 0 1 0 2 0 1 1 0 2 1 0 1 2 5 1 0 0 0 0 0 2 0 0 0 1 1 0 5 1 1 1 1 6 1 1 0 1 0 1 1 0 0 0 1 1 1 0 0 2 0 1 1 0 0 0 0 3 1 0 2 2 3 1 2 0 1 0 7 8 5 0 0 0 1 1 1 1 0 0 0 0 0 0 1 1 0 0 0 1 0 0 1 0 1 0 0 0 1 0 0 10 1 0 0 0 1 1 0 0 0 0 0 0 5 0 1 0 0 0 2 1 1 0 0 1 1 0 0 0 0 0 12 26 53 47 46 62 77 99 110 119 119 135 141 144 149 153 155 156 160 161 163 164 165 166 165 166 167 165 166 164 162 157 159 157 154 145 151 145 110 42 5 1 6 31 62 99 125 107 145 146 125 145 134 112 75 49 22 9 19 2 0 6 67 154 189 177 184 195 196 197 196 198 199 198 181 199 199 199 198 197 198 200 200 200 200 199 201 200 199 201 201 193 200 200 200 201 201 202 201 201 201 190 201 201 201 202 187 201 200 200 201 201 198 199 200 195 193 173 97 6 1 18 3 12 98 189 197 188 198 181 178 183 195 195 196 195 195 195 195 195 192 180 184 194 193 194 194 193 194 192 192 192 175 172 190 192 192 191 193 191 192 192 192 193 191 192 191 178 186 191 192 191 192 190 190 191 191 191 191 191 192 191 190 190 192 190 189 181 189 191 192 182 190 189 191 190 183 190 191 192 192 192 191 191 192 193 192 193 192 192 192 191 189 185 182 162 151 147 158 166 178 185 187 187 189 189 190 190 189 191 191 189 191 190 192 190 191 188 189 180 187 189 187 188 185 189 190 190 190 186 187 186 178 168 173 173 173 173 173 173 175 173 173 174 175 175 174 175 174 176 175 177 178 178 176 179 176 178 179 178 179 180 180 180 179 180 179 158 163 179 159 155 178 176 160 175 164 173 146 128 15 2 1 1 6 81 157 157 182 175 178 143 113 11 0 0 0 4 1 0 0 2 0 1 0 0 1 1 3 1 0 0 0 1 0 0 0 1 1 3 2 6 0 1 1 0 0 0 2 0 0 1 0 2 3 0 0 0 0 0 0 0 2 1 0 2 0 1 0 1 5 2 1 3 0 1 1 2 0 1 5 0 1 0 9 0 3 1 1 0 0 0 0 0 1 0 1 0 0 0 0 1 0 0 0 2 0 1 1 1 2 5 2 1 0 0 0 1 0 1 0 0 1 8 0 3 3 0 0 4 2 0 0 0 0 1 0 0 1 1 0 0 1 0 0 5 1 0 0 1 1 1 0 1 0 1 1 1 0 1 0 0 1 1 1 1 2 0 0 0 0 0 0 0 0 0 0 0 0 2 2 0 0 0 0 1 1 0 1 0 3 1 1 0 0 0 2 0 1 
1 0 1 1 0 0 0 0 1 0 0 0 0 0 0 1 0 1 0 3 1 5 0 1 0 1 0 1 0 2 2 1 2 0 0 1 0 1 0 3 0 0 0 0 0 1 0 1 1 1 0 0 0 0 1 0 0 0 1 0 0 0 0 0 1 0 1 1 0 0 0 1 1 1 0 0 0 1 1 1 0 0 1 0 0 1 1 0 1 0 0 0 2 0 0 0 0 0 1 0 0 5 1 0 3 1 0 0 5 1 1 0 1 3 0 1 1 0 0 0 2 0 1 2 2 0 0 3 1 1 3 0 0 1 1 0 1 1 0 1 2 1 26 72 53 40 57 76 95 106 115 121 130 128 141 136 151 155 155 155 161 162 164 164 164 167 166 166 166 164 163 162 160 159 158 156 144 139 150 128 68 28 2 1 7 25 60 72 90 139 132 152 153 155 154 127 144 128 104 70 38 14 57 84 175 172 193 194 197 192 191 196 185 198 198 192 199 199 199 188 200 198 201 201 201 200 194 200 200 199 201 202 201 186 201 201 201 202 201 201 201 187 200 191 202 202 201 200 192 200 189 199 202 195 199 199 198 193 176 102 8 2 14 38 74 151 193 197 185 198 195 178 195 184 197 195 197 183 195 195 194 178 192 194 192 170 193 194 192 193 192 187 193 192 165 175 181 176 193 192 191 192 193 193 192 192 192 190 190 191 173 176 190 190 192 191 191 180 191 191 191 189 191 190 190 191 190 180 190 184 180 189 191 175 189 190 190 178 193 191 192 192 192 192 181 185 193 193 194 192 192 193 192 191 188 183 180 174 163 143 149 162 172 179 183 187 186 189 189 188 191 188 189 190 189 188 177 190 189 189 187 189 188 188 189 190 190 190 185 189 190 185 177 174 173 173 174 172 174 174 174 173 173 173 173 173 174 173 175 175 174 173 174 176 175 175 154 163 159 176 176 178 177 178 170 179 179 178 177 178 161 177 177 163 177 177 178 175 173 171 121 44 14 1 8 5 67 146 162 178 183 162 173 144 32 1 1 0 0 0 0 1 1 2 0 0 1 2 0 2 7 1 0 0 2 0 0 1 1 1 1 1 4 0 0 0 0 0 1 1 0 1 2 0 0 3 1 0 1 4 1 0 0 2 6 1 1 1 1 0 1 0 1 1 5 0 7 2 0 0 1 1 0 0 0 2 0 2 0 1 2 2 0 1 6 0 0 2 0 0 0 0 0 0 0 0 2 0 0 1 0 1 1 6 0 0 0 0 2 0 2 0 1 0 1 3 0 0 1 0 1 1 1 0 0 2 0 0 0 0 9 0 0 0 0 0 1 1 0 1 2 0 1 1 0 2 0 1 0 1 0 0 0 3 0 0 0 0 0 1 0 0 0 1 0 0 0 0 1 0 1 2 0 0 0 1 0 0 1 0 0 0 0 2 0 0 0 0 0 0 
0 1 1 1 4 0 0 1 0 1 2 0 1 0 1 0 1 0 2 1 0 0 1 0 0 0 1 0 0 0 1 0 1 2 0 0 1 1 0 1 4 1 1 0 0 0 0 3 0 1 0 0 0 1 0 0 0 0 2 0 1 0 1 0 1 0 0 5 0 0 2 0 1 2 0 0 1 7 0 0 1 0 0 1 1 2 2 0 5 0 0 0 1 0 1 1 0 1 0 0 1 1 0 2 0 0 0 1 3 1 3 0 0 0 0 0 4 0 0 2 2 0 0 3 0 0 0 4 1 1 1 1 1 0 0 0 0 0 1 2 5 1 4 39 78 53 51 79 90 102 110 119 123 134 141 145 150 153 154 146 161 149 162 165 165 166 166 167 165 149 152 163 160 147 158 139 156 155 152 137 87 29 2 4 1 9 19 44 78 116 138 150 153 155 144 158 160 159 134 123 139 121 114 146 184 190 194 195 197 197 195 189 196 198 199 198 199 200 198 181 177 201 201 200 201 199 186 182 200 201 201 201 202 200 200 201 201 200 202 201 200 201 200 201 200 199 202 201 202 199 200 199 201 198 183 198 200 195 179 110 8 2 2 3 26 145 192 197 198 198 197 197 178 195 188 196 194 186 195 183 194 182 183 194 193 173 176 182 193 192 194 193 191 193 191 191 192 192 193 194 192 192 192 192 192 191 193 192 191 190 190 190 178 191 192 191 186 191 192 191 190 190 190 191 190 192 192 192 191 191 190 182 192 191 191 181 191 190 192 193 192 190 180 191 191 193 192 194 193 194 192 193 193 193 190 188 185 181 175 159 148 138 148 161 172 176 180 183 179 187 187 187 188 189 190 188 188 189 188 187 186 177 187 187 181 190 191 189 192 189 183 177 175 175 172 173 173 174 173 173 173 171 173 173 160 174 173 173 173 174 174 175 174 174 174 175 174 157 174 171 172 177 176 176 165 177 178 178 178 160 160 177 178 178 177 177 178 177 175 176 161 83 6 0 2 1 18 122 165 171 175 177 176 162 74 4 0 1 1 2 0 0 0 2 1 1 0 0 0 1 1 2 1 1 2 0 1 0 0 2 3 0 0 0 1 0 1 0 0 2 0 0 0 0 1 0 0 1 0 1 0 0 0 1 3 0 0 0 1 0 1 0 1 1 0 0 1 1 1 0 0 2 0 0 0 0 0 0 0 0 1 1 2 1 1 0 0 0 5 8 1 2 1 3 0 0 2 0 0 1 0 0 0 3 0 1 0 0 0 0 6 1 1 2 1 1 0 0 1 0 1 0 0 0 1 0 0 0 0 0 1 0 1 1 0 0 0 1 0 0 0 1 0 1 0 0 0 10 2 0 0 0 0 1 1 0 0 0 0 2 0 0 2 1 0 0 0 0 1 5 4 1 0 0 1 0 0 1 0 1 2 1 2 0 1 0 1 2 0 0 
0 0 1 0 1 1 0 0 1 0 1 2 0 2 1 0 0 0 0 0 0 1 0 0 0 0 0 1 3 0 1 0 0 1 0 0 0 0 1 0 1 1 1 0 0 0 1 3 10 0 1 0 1 0 0 1 0 0 0 1 0 1 1 0 0 1 2 0 6 0 1 2 1 1 2 2 2 1 1 0 1 0 1 0 1 0 1 0 2 2 1 2 1 1 1 0 2 0 2 0 0 0 6 0 0 1 3 4 0 0 0 1 0 1 5 0 1 0 1 0 0 1 0 1 0 0 0 0 1 2 0 1 0 0 0 9 0 1 0 2 3 1 3 25 89 78 62 77 85 97 107 117 125 131 137 134 148 151 154 157 159 160 163 166 165 165 165 165 166 165 164 162 160 159 143 158 158 158 154 144 98 43 6 1 1 3 3 13 28 57 98 116 148 154 158 160 160 162 162 162 163 160 141 162 169 179 192 197 196 197 198 198 196 199 198 199 190 198 200 199 199 200 199 200 202 199 199 200 199 201 201 187 201 192 201 201 181 200 202 201 201 201 199 200 188 201 192 195 201 201 200 199 190 199 198 181 198 195 181 121 11 0 0 0 16 132 160 196 198 189 192 198 198 197 195 195 196 195 196 194 193 194 195 193 180 192 193 193 193 182 192 185 182 192 191 175 191 193 193 194 192 191 191 193 191 186 192 187 185 191 179 190 177 189 190 191 191 190 186 191 192 192 191 191 190 183 192 192 191 190 191 182 191 192 191 191 180 186 193 192 184 190 194 193 194 195 193 197 193 193 192 187 194 187 194 189 188 186 183 167 171 162 143 134 147 146 143 160 177 181 184 183 172 185 185 187 176 184 188 187 186 186 189 174 188 177 188 189 185 172 176 173 175 176 176 174 175 170 174 161 174 173 168 175 174 175 174 160 162 174 175 167 174 174 173 165 164 163 176 175 175 174 175 176 173 176 175 176 178 177 176 178 177 172 176 176 178 178 175 174 146 91 14 3 8 0 6 76 157 164 163 172 158 171 115 11 0 5 0 2 0 0 1 0 1 0 2 0 0 0 0 1 1 2 0 4 2 1 0 1 2 1 1 0 1 0 0 2 0 0 0 0 2 0 2 0 2 1 0 1 0 0 0 0 0 1 0 0 1 5 0 0 1 1 2 2 0 2 1 1 1 0 1 1 0 0 0 0 0 1 0 0 1 0 1 1 1 0 1 1 0 0 2 7 2 0 1 0 2 0 1 0 0 0 4 0 1 0 1 2 0 1 1 0 0 1 1 0 0 1 0 0 1 6 0 0 0 1 1 0 2 1 0 0 0 1 1 1 1 0 0 0 0 0 0 1 3 3 1 0 0 1 0 0 1 0 0 1 0 4 0 0 0 0 0 0 0 0 0 1 1 1 0 1 1 0 0 0 0 0 0 0 0 1 0 1 1 1 0 1 
1 1 0 0 1 1 0 0 1 0 0 0 0 0 8 0 1 0 1 0 0 1 0 0 1 1 0 1 2 1 0 2 0 0 1 0 0 0 0 0 0 0 1 0 1 0 0 0 2 2 1 1 0 1 1 0 2 0 0 0 1 1 0 1 1 0 0 2 0 2 0 0 2 0 2 8 0 0 0 1 6 2 1 8 1 11 2 1 1 1 0 0 1 0 1 2 9 1 1 2 0 0 1 1 1 1 3 2 1 1 0 1 0 0 0 1 1 0 0 1 1 1 0 0 2 0 0 0 0 0 0 0 1 2 0 2 2 2 0 1 0 1 1 5 78 87 85 85 86 96 104 113 122 130 122 141 144 151 154 156 158 161 154 163 153 165 166 167 166 164 164 164 161 155 160 159 159 157 155 145 109 48 6 0 0 0 0 3 26 21 57 86 117 126 131 159 160 162 163 165 156 165 165 166 166 165 189 194 196 197 197 188 197 197 192 198 187 191 198 200 200 200 200 200 201 201 201 202 201 202 200 183 189 201 199 179 172 199 201 201 200 188 200 183 199 200 201 200 201 199 200 199 200 200 199 173 184 196 184 99 24 0 0 4 53 131 189 197 197 198 197 197 187 195 194 176 194 196 195 196 194 194 193 184 177 181 192 194 194 194 192 192 193 193 193 192 190 192 192 193 180 192 182 191 185 192 192 191 191 191 192 193 192 191 191 191 186 191 178 191 192 191 190 191 191 190 191 191 191 193 192 179 191 189 192 175 175 191 192 192 193 193 191 194 193 194 195 193 193 193 192 193 192 192 192 191 190 189 186 182 182 177 171 161 155 142 142 152 163 167 172 174 177 180 181 182 181 171 179 186 177 187 187 186 184 167 182 176 176 176 161 176 174 175 174 175 174 176 173 172 165 174 175 174 169 175 175 166 164 174 175 169 174 175 174 174 174 175 175 174 176 176 171 176 176 176 173 168 176 177 176 175 176 176 177 178 177 176 167 174 173 152 44 19 2 2 20 43 144 156 144 163 150 173 147 33 2 1 7 0 1 0 0 0 1 1 0 1 0 0 2 1 1 1 0 2 2 1 0 1 1 1 1 2 1 1 1 0 0 1 2 0 1 1 1 3 1 1 1 1 1 0 2 0 0 1 3 0 1 0 0 0 1 2 9 0 0 0 0 0 0 0 1 0 0 1 0 0 0 1 0 1 0 0 0 2 1 1 0 0 1 2 1 0 1 0 0 0 0 1 0 1 1 2 1 0 0 0 0 0 1 1 0 1 0 0 0 1 0 0 3 1 0 2 1 2 0 1 0 1 0 0 1 2 2 0 0 0 0 0 0 0 0 2 2 0 1 0 1 0 0 0 0 0 1 2 0 0 0 0 0 1 1 1 0 0 0 0 2 1 0 1 1 0 3 0 1 1 0 1 0 0 1 2 0 0 2 0 2 1 
1 0 2 0 0 0 0 1 1 0 0 0 1 0 5 2 0 4 1 1 1 1 0 0 3 2 2 0 2 0 0 0 0 1 0 0 0 0 0 0 0 0 0 1 0 0 2 1 3 2 1 1 0 0 0 1 1 2 0 0 0 0 0 1 0 4 0 1 1 0 0 0 0 0 0 1 0 0 0 0 0 1 0 2 1 1 1 0 0 0 1 0 2 0 0 0 1 0 0 0 1 1 0 1 1 0 0 1 0 1 0 1 0 1 0 0 1 0 0 1 1 1 0 0 0 1 0 1 0 1 0 1 2 4 0 1 5 0 0 0 2 8 6 3 64 134 106 90 87 95 105 110 118 117 131 138 145 150 152 157 158 160 161 144 163 166 165 168 166 165 164 164 163 162 161 161 159 144 155 136 118 64 23 1 7 0 0 0 1 16 29 46 72 101 130 145 157 150 164 166 166 167 168 167 168 170 187 194 196 196 182 197 184 199 199 199 199 199 188 199 193 200 199 188 199 200 200 201 193 200 201 200 202 200 201 200 180 182 200 201 201 188 199 193 200 188 193 201 200 200 201 200 199 199 199 198 198 198 188 116 47 5 2 0 11 122 190 197 199 197 196 198 197 180 178 171 194 196 195 195 194 193 187 194 193 193 193 179 194 192 194 193 195 192 193 193 192 192 186 183 191 180 192 190 192 191 176 177 191 191 191 192 192 184 192 190 191 193 191 191 192 191 190 191 191 185 191 192 192 191 183 191 193 191 193 191 190 174 191 193 192 192 193 191 192 194 193 192 194 193 194 193 193 193 193 193 193 191 189 174 185 176 181 176 173 171 168 164 161 159 158 163 162 161 166 174 172 179 179 180 182 181 182 178 178 168 177 176 176 176 176 175 175 175 165 175 173 176 176 173 175 170 174 174 174 174 174 174 174 171 169 174 173 164 175 176 174 175 165 175 175 175 175 176 176 176 166 170 176 176 159 159 176 176 166 177 177 161 171 176 176 166 87 7 0 8 2 18 121 123 122 147 169 152 161 73 3 1 8 0 0 0 1 0 5 1 0 2 0 1 1 2 1 1 2 1 1 0 0 0 0 0 1 0 0 0 0 1 0 0 1 0 1 0 1 0 1 1 0 1 3 1 0 1 1 0 7 1 6 0 0 0 0 0 2 0 2 1 0 0 5 1 0 0 2 0 1 0 0 1 1 1 0 0 0 5 1 1 0 0 0 0 2 0 0 0 0 0 1 0 0 2 0 0 1 3 2 1 0 0 2 1 0 2 1 1 0 0 0 1 0 0 0 0 0 1 0 1 0 1 0 1 0 0 0 0 0 0 1 1 1 1 2 0 2 0 0 0 0 1 0 0 2 1 2 1 1 1 2 0 0 0 0 0 0 0 1 0 0 0 0 1 1 4 0 0 0 0 1 0 2 0 0 0 1 1 2 0 3 2 
0 0 1 0 1 0 1 1 0 0 0 0 1 2 0 3 0 0 2 1 1 0 0 0 2 0 0 2 4 0 0 1 0 1 0 0 0 1 0 0 0 0 0 0 0 0 2 0 1 0 2 2 0 1 4 0 1 0 0 0 0 0 0 0 0 1 1 1 0 0 0 0 0 1 0 0 0 1 2 1 0 1 1 0 0 1 0 0 1 0 0 0 1 0 1 1 0 0 0 0 0 1 1 1 1 1 0 1 2 1 0 7 1 0 0 1 0 1 0 0 0 0 6 1 0 3 1 1 1 0 0 0 0 1 0 0 1 0 0 1 1 1 0 2 28 137 140 111 88 94 104 108 116 122 129 137 142 146 146 154 157 150 160 162 163 165 159 156 166 165 165 164 161 161 161 161 160 159 157 155 129 78 39 6 1 1 1 1 0 2 3 20 38 59 86 107 133 153 161 165 167 162 161 170 169 170 183 171 195 191 198 198 198 199 199 199 197 185 180 199 195 200 202 200 190 202 201 189 200 202 201 201 189 200 187 186 200 200 200 199 200 201 200 200 199 199 200 190 200 200 200 198 199 200 199 182 180 198 193 169 78 33 0 2 9 102 186 195 184 197 198 196 198 196 193 186 194 184 194 195 194 190 194 194 188 193 194 180 178 193 194 195 181 192 192 193 193 193 194 192 192 191 193 192 192 177 172 173 192 182 191 181 191 192 191 193 191 182 191 192 193 190 191 192 185 191 190 191 191 192 192 190 185 191 178 190 192 182 182 191 191 193 181 192 191 193 192 188 192 193 192 180 192 191 191 194 192 192 187 189 186 185 184 182 180 178 172 180 166 182 179 178 176 166 172 170 176 176 177 176 176 178 179 179 179 180 179 176 176 178 177 176 177 175 174 177 175 175 175 162 160 174 175 175 175 175 175 174 174 175 175 175 163 175 175 174 175 175 174 175 174 175 174 154 158 175 176 176 177 177 175 164 177 175 177 175 177 162 177 177 178 173 124 14 12 1 0 3 86 137 103 122 138 176 172 116 9 1 1 0 0 0 7 0 1 9 1 4 1 0 4 0 2 0 1 0 10 2 0 1 0 0 2 0 0 0 2 0 1 4 1 0 0 1 0 0 0 1 0 1 0 0 1 0 5 0 2 1 2 0 0 0 0 0 2 1 1 0 1 0 3 2 0 0 0 1 1 0 1 0 0 1 0 0 1 1 1 0 1 1 0 0 0 0 0 0 0 1 0 1 1 0 2 2 5 2 2 0 1 2 1 4 0 2 0 0 0 2 0 1 1 0 1 3 5 1 0 1 1 7 1 0 5 0 0 0 1 0 1 0 0 0 2 2 0 0 1 0 0 2 2 1 1 1 0 0 1 0 2 1 1 0 0 0 0 0 0 1 0 0 0 1 0 1 2 0 1 1 0 3 1 0 0 0 0 0 1 0 0 1 
0 1 0 1 0 0 1 1 1 1 0 0 0 1 0 1 5 0 1 2 1 0 1 2 0 1 1 1 1 1 2 10 1 1 1 1 3 0 0 2 2 2 1 2 1 0 1 0 1 0 0 0 1 0 1 0 1 0 2 0 0 0 0 1 0 0 2 0 2 0 0 0 1 5 2 1 0 0 0 0 0 1 0 0 1 4 0 1 2 1 1 0 0 1 0 0 1 0 0 0 1 1 1 2 0 0 1 1 1 1 1 1 3 2 0 6 1 1 1 1 0 0 0 1 1 0 2 1 0 2 1 0 3 0 0 0 0 2 1 0 1 1 2 0 8 111 157 132 105 97 102 110 114 121 122 133 139 146 149 142 156 159 162 162 149 163 166 160 165 161 165 164 164 162 161 161 160 154 160 157 136 88 37 1 2 0 0 1 0 2 0 1 8 25 40 61 89 117 139 156 162 166 169 154 170 171 181 195 197 196 197 198 198 199 199 200 199 199 199 199 200 200 201 200 200 201 201 200 200 201 201 192 199 199 200 184 200 201 199 201 203 200 200 200 188 200 199 188 198 202 199 201 198 199 200 199 197 191 195 178 108 9 1 2 28 69 176 196 180 195 198 198 198 196 186 195 196 185 195 194 195 193 195 195 195 176 194 193 183 184 192 192 193 192 195 193 192 194 192 185 192 193 191 192 193 192 191 192 192 192 192 182 192 193 192 192 191 192 192 193 190 191 179 189 176 190 191 191 192 192 180 192 192 190 191 184 192 191 191 192 186 191 191 192 179 191 194 192 192 180 191 191 169 170 180 190 191 175 180 180 189 189 187 179 185 181 173 183 184 186 172 185 172 184 186 186 184 170 183 183 178 180 180 181 179 178 178 177 177 177 175 165 176 177 176 177 175 164 174 175 174 174 176 162 166 174 175 175 176 175 175 171 175 175 172 175 175 162 159 174 175 177 163 173 160 161 176 174 176 177 175 177 178 173 176 178 178 168 177 176 177 176 152 40 3 0 0 4 46 125 99 114 161 175 175 145 31 1 0 1 0 0 1 0 1 0 0 0 0 1 2 0 0 3 0 1 1 0 0 1 0 0 0 7 0 2 0 1 1 0 1 1 0 2 0 1 1 5 2 0 1 1 0 0 0 1 0 2 1 1 0 0 0 0 0 2 1 1 0 0 0 0 0 0 1 2 8 3 2 0 1 1 0 1 0 0 0 2 0 0 0 0 0 0 0 0 1 0 0 0 5 1 0 1 0 1 0 2 1 0 0 0 1 1 1 2 1 1 0 0 1 0 0 1 1 1 0 0 3 0 0 1 0 0 0 2 0 0 1 0 1 1 1 3 0 0 1 0 1 13 0 0 0 1 6 2 0 0 1 0 0 0 2 0 0 0 0 1 1 0 0 1 0 1 2 6 7 0 0 0 7 0 1 1 0 1 1 0 0 1 
1 0 2 0 0 1 1 0 0 0 0 1 0 1 1 0 6 0 0 1 1 0 0 2 1 0 0 0 0 1 0 2 2 1 1 2 4 0 9 2 3 0 3 0 0 0 0 0 1 0 1 0 1 0 1 2 1 0 8 0 1 0 0 1 0 0 1 1 5 0 0 1 2 0 0 1 0 0 0 0 0 1 0 1 0 1 1 1 0 1 0 0 0 0 1 0 0 1 1 0 0 0 2 5 0 2 0 0 10 5 0 1 0 0 0 0 0 2 1 0 1 3 0 1 0 0 0 1 0 0 0 0 0 0 1 0 0 2 0 0 0 0 0 0 5 69 158 154 128 111 109 113 115 121 126 123 133 142 147 150 155 157 159 162 161 151 166 166 167 166 166 165 164 163 156 161 148 160 160 158 129 93 38 3 1 0 0 1 0 9 0 4 0 3 16 24 46 72 96 122 144 161 150 169 171 171 179 195 197 197 197 198 199 181 198 200 193 200 200 200 194 200 200 191 200 201 199 198 201 199 201 201 182 186 199 201 200 200 200 200 201 200 200 200 200 200 202 199 199 200 190 198 199 200 200 198 198 198 197 186 132 16 1 0 4 33 153 193 196 174 198 198 196 197 197 196 196 195 194 185 195 194 183 185 194 195 194 192 193 192 193 192 193 191 188 193 192 192 193 190 193 186 191 192 192 192 193 192 192 192 192 191 192 190 180 191 181 192 192 190 178 190 190 189 173 192 192 192 192 192 192 191 192 191 192 192 191 190 192 183 192 190 193 192 178 177 192 191 194 193 177 191 178 190 192 187 192 191 192 191 176 189 189 187 187 188 185 185 185 187 173 186 173 186 187 187 186 185 184 183 183 181 181 181 180 180 179 178 170 177 170 176 176 178 176 176 173 159 176 176 175 173 176 175 175 176 175 161 166 174 174 176 176 173 176 174 176 170 174 176 172 175 176 176 174 175 166 171 176 177 178 176 168 177 178 178 177 178 166 178 176 178 165 82 4 0 1 8 15 94 81 94 155 174 176 162 64 3 0 0 0 1 0 8 1 1 1 1 1 2 0 6 0 0 0 0 0 0 0 0 0 0 2 0 0 5 0 0 0 0 3 0 0 0 3 2 2 10 0 3 1 0 0 2 1 1 1 3 0 0 0 1 3 2 0 0 1 1 1 2 1 0 2 1 5 0 2 0 1 0 1 8 0 2 0 0 1 0 1 0 0 0 0 0 0 1 2 2 0 1 1 0 0 0 2 1 1 0 1 0 1 0 1 0 3 1 1 0 0 1 0 0 0 0 0 0 1 1 1 0 0 0 1 0 0 5 0 1 2 0 2 0 0 0 0 0 0 0 0 1 2 0 0 1 0 0 0 0 1 1 0 0 0 0 0 0 1 0 0 0 2 2 7 1 1 1 2 1 0 1 0 0 0 0 1 0 1 3 1 0 
0 2 1 2 0 0 0 2 1 0 0 0 0 1 1 0 1 0 0 1 0 0 0 0 0 0 0 0 1 1 1 0 0 1 2 0 0 1 1 0 0 1 0 0 1 0 0 0 0 6 0 0 0 1 8 2 0 1 1 0 1 1 0 0 0 0 2 1 1 0 0 0 1 0 0 0 0 0 1 3 1 1 1 0 2 0 0 0 0 1 1 0 0 0 0 1 1 0 0 0 0 1 1 0 1 0 1 1 4 1 0 0 0 0 0 1 3 1 1 1 0 0 2 1 0 1 1 2 1 0 5 0 0 0 0 0 0 1 2 0 0 0 1 1 3 62 147 143 147 127 115 117 119 120 127 131 134 141 146 151 154 157 160 161 150 149 166 166 165 165 165 164 148 162 161 161 154 159 161 158 149 99 38 14 1 1 2 0 1 1 0 3 0 3 13 17 23 40 56 87 103 128 135 162 168 172 178 195 195 196 197 186 192 180 192 199 198 199 200 200 199 201 200 200 200 201 200 201 186 191 200 201 200 198 201 201 201 200 199 201 200 201 200 200 193 200 200 200 200 200 191 199 200 199 198 199 199 197 198 189 152 35 2 1 1 20 97 151 194 198 198 196 187 197 192 196 194 195 196 195 193 184 192 178 195 194 193 193 195 188 193 193 187 194 192 191 192 179 193 192 194 191 192 192 192 193 192 191 192 189 191 191 190 192 191 180 180 190 192 192 191 182 192 191 182 191 192 186 191 191 191 189 192 192 192 191 182 191 176 191 191 192 193 192 191 192 193 191 192 193 193 192 180 192 193 191 193 193 193 193 181 174 189 188 188 188 187 171 186 186 186 186 186 186 186 176 186 184 185 184 182 181 181 180 166 178 180 178 179 178 178 177 178 177 175 159 175 174 175 168 176 177 176 175 176 176 175 174 174 159 165 175 167 176 175 169 176 175 167 160 176 170 175 174 165 159 176 177 177 177 177 172 177 177 177 176 178 178 177 176 164 176 174 118 8 8 1 0 4 51 60 77 146 156 177 168 90 4 0 2 1 1 0 1 1 1 2 7 1 6 0 0 0 1 1 1 0 0 1 0 4 0 0 0 0 3 4 1 0 0 0 1 0 2 1 0 1 0 1 0 0 2 1 7 0 1 0 0 1 1 0 0 1 2 1 0 0 0 0 1 3 1 0 1 2 1 0 0 2 1 0 1 0 1 0 1 1 2 0 0 1 1 0 0 0 0 0 0 1 0 0 0 0 0 0 1 0 0 0 0 0 0 0 1 0 0 0 0 1 2 1 0 0 0 1 2 0 0 0 1 0 1 0 2 0 0 1 0 1 0 1 0 0 0 1 1 2 1 0 0 0 0 0 0 0 0 0 0 1 1 1 1 0 1 0 3 0 1 0 1 1 2 1 1 0 0 0 3 0 1 0 1 0 0 0 0 0 1 4 0 
0 0 1 0 0 1 2 1 0 2 0 0 0 3 0 1 1 1 1 0 1 1 2 0 0 1 1 0 0 2 0 0 1 0 0 0 0 1 0 2 1 0 1 0 0 0 7 0 0 0 0 2 0 1 4 2 0 7 1 0 2 4 2 2 0 0 1 0 0 0 1 0 0 1 1 0 1 0 0 0 2 1 1 0 0 1 0 0 0 1 0 1 1 1 1 0 1 0 1 1 0 1 0 1 0 8 1 0 0 0 0 0 0 0 6 1 8 1 0 0 2 1 0 2 0 0 0 2 0 0 3 3 0 0 1 0 1 0 0 1 2 0 0 1 0 14 125 168 159 141 130 123 121 124 126 131 134 132 145 151 153 157 145 160 163 164 164 155 163 164 164 163 163 152 162 147 148 162 161 160 152 112 54 18 3 5 0 0 1 0 0 1 0 0 6 5 0 8 20 50 68 88 117 126 138 166 174 171 189 191 188 190 192 193 194 196 199 197 193 200 199 200 199 191 200 200 201 201 200 201 199 200 189 200 200 202 200 199 192 200 192 200 199 200 200 199 201 201 200 199 201 190 199 198 182 198 190 198 197 192 164 59 2 1 0 21 121 144 193 198 198 197 177 195 195 196 196 196 192 194 195 193 179 192 194 193 185 194 194 192 193 194 194 194 194 192 191 183 193 192 182 192 193 193 192 193 192 193 192 193 192 192 180 175 191 191 191 178 192 192 190 191 191 191 192 191 181 190 192 193 190 192 192 192 177 191 191 192 190 191 191 189 193 192 193 192 193 193 189 192 193 193 192 193 193 187 192 192 185 192 191 170 167 166 187 188 176 177 186 186 185 186 186 174 184 184 185 173 183 183 183 182 182 179 179 179 179 179 178 171 177 178 177 176 168 178 157 176 166 175 176 176 177 177 175 175 176 176 175 175 175 158 175 176 167 168 176 176 175 165 177 176 171 176 175 174 171 176 176 178 177 177 177 176 177 176 178 178 179 178 168 163 175 137 19 0 0 0 7 25 45 78 140 171 176 173 113 8 0 0 0 0 1 0 1 0 1 3 3 1 0 2 0 1 0 1 0 0 1 1 1 1 0 0 0 1 0 1 1 0 0 1 1 1 1 5 0 0 1 1 1 1 0 0 0 0 1 2 1 1 1 0 0 1 1 0 0 1 2 0 0 1 2 0 0 1 1 0 0 2 0 0 1 0 7 2 1 0 0 0 1 0 0 2 2 0 0 1 0 3 1 2 0 0 0 1 0 0 0 1 1 1 0 1 0 1 1 0 0 1 0 0 1 0 2 0 0 0 0 0 1 1 0 1 1 1 1 0 0 1 1 0 1 0 1 0 0 1 0 1 0 0 0 0 0 0 0 1 0 0 0 0 0 2 0 0 1 1 0 2 1 0 0 0 0 2 0 1 0 1 1 3 0 0 0 0 0 1 0 1 
0 0 0 1 0 0 1 9 0 4 0 1 0 3 0 2 1 0 1 0 1 1 1 1 0 1 0 0 0 1 2 3 0 1 6 0 1 0 1 0 2 0 1 1 1 0 1 1 0 0 1 1 0 0 0 0 0 0 1 1 6 1 0 2 0 0 0 0 2 0 0 0 1 1 3 4 0 0 0 0 0 0 1 0 0 2 0 0 1 0 2 1 0 0 0 1 0 2 0 0 1 0 0 1 0 1 1 1 2 1 0 5 0 3 3 0 1 1 1 0 2 0 0 1 6 0 1 1 1 0 1 0 0 0 6 1 1 1 1 2 0 0 0 1 1 6 89 168 167 144 143 134 131 127 129 125 135 137 143 147 152 141 157 134 145 163 165 165 166 165 157 165 166 164 165 161 144 162 161 147 155 126 69 17 13 1 2 0 1 0 1 0 2 2 5 0 2 0 5 30 38 56 83 95 120 139 156 170 177 172 169 162 177 180 187 195 198 199 188 198 192 200 200 198 199 199 192 199 201 193 200 200 199 199 200 200 201 199 199 200 200 201 201 188 198 200 199 199 198 197 199 199 185 197 191 197 198 200 199 193 175 90 6 2 1 7 93 137 194 185 193 197 197 197 196 183 195 194 195 195 194 194 193 193 193 193 194 193 194 185 194 194 191 194 192 193 193 193 189 191 179 191 192 193 192 192 192 191 192 192 191 191 191 180 176 190 193 191 172 190 191 192 192 192 191 191 190 176 191 191 190 193 191 190 193 192 192 190 192 181 191 191 192 193 193 191 192 191 192 192 192 194 194 191 181 193 192 190 177 190 190 190 189 177 166 175 189 189 187 181 184 186 185 185 186 177 184 185 179 182 182 181 182 181 179 172 166 166 179 178 178 178 178 177 176 157 174 157 177 177 176 177 176 178 176 175 177 165 166 175 175 175 167 174 175 175 175 176 175 169 176 176 176 176 178 177 167 176 177 178 178 171 167 177 177 178 177 177 167 180 178 179 178 152 32 11 0 0 1 2 14 34 125 169 178 173 131 16 8 1 0 0 0 0 0 1 4 1 1 1 0 0 0 0 2 0 0 1 1 0 0 1 0 1 2 1 0 4 2 0 1 0 0 0 3 0 1 0 1 0 0 0 0 0 0 8 1 0 0 0 0 1 1 8 1 0 3 1 0 0 1 0 0 2 0 1 0 0 0 3 0 1 1 1 4 2 0 0 0 0 0 0 0 1 0 1 0 0 1 1 1 1 0 0 0 1 2 0 0 1 1 0 0 0 1 2 2 0 0 2 0 0 0 1 1 0 4 0 0 6 1 0 0 1 1 0 1 1 0 1 1 2 0 0 2 0 0 1 1 0 1 0 0 1 1 0 1 2 1 1 0 0 2 0 2 2 0 1 0 0 0 1 0 0 1 2 1 0 0 0 1 2 0 0 0 1 0 0 0 0 
0 0 1 0 0 0 0 1 3 0 1 0 0 1 0 0 1 0 0 1 1 2 1 0 1 0 1 1 0 0 2 1 1 0 2 1 5 5 0 1 0 1 0 1 1 1 0 2 0 0 0 0 1 2 0 0 0 0 0 0 0 0 0 1 0 0 2 0 1 1 0 0 0 0 1 0 0 0 1 1 0 2 1 0 1 0 0 0 1 0 0 0 0 1 1 0 0 0 0 0 0 0 3 0 0 1 1 0 1 1 2 3 0 2 0 0 2 0 0 0 0 1 0 0 0 0 0 1 0 3 1 2 0 1 0 0 0 4 1 1 0 0 0 1 0 4 76 157 170 163 154 147 142 135 132 131 132 137 133 146 151 135 156 137 136 142 150 155 165 166 164 165 166 163 163 159 162 154 162 159 139 128 76 30 16 1 2 1 1 1 1 0 0 1 0 0 1 0 2 21 19 19 38 66 82 105 120 145 151 145 153 154 156 162 178 191 197 178 198 200 198 194 199 200 200 201 200 200 202 200 201 200 200 200 200 200 190 187 200 200 190 200 200 192 198 181 182 191 199 189 181 200 199 199 197 198 198 198 198 174 180 121 39 2 1 4 60 127 193 198 198 188 197 197 196 195 194 179 188 194 183 188 193 194 173 193 188 193 193 194 193 193 194 193 194 192 195 193 192 192 193 192 192 191 191 192 182 191 190 187 191 180 192 192 191 184 192 189 171 190 192 192 191 191 192 192 191 190 190 192 191 191 191 190 193 190 192 190 192 192 182 191 191 191 184 193 192 181 177 192 193 192 192 193 191 193 191 188 191 192 192 191 189 191 181 189 188 189 189 188 188 186 187 187 185 162 182 183 185 169 171 184 181 181 182 179 180 179 178 169 165 177 175 178 178 176 165 177 176 178 177 176 175 175 176 176 178 176 176 176 164 177 176 175 170 177 177 176 177 175 177 177 173 178 176 176 176 177 178 176 176 178 178 176 179 178 162 176 178 180 179 181 179 162 52 2 0 0 0 1 14 25 112 165 177 178 149 59 4 0 1 0 0 0 0 0 3 0 2 0 0 0 0 0 0 3 1 0 1 1 0 0 0 0 0 0 0 0 0 0 2 0 0 1 2 1 0 0 1 0 1 0 0 0 1 1 0 0 0 1 0 0 0 2 0 0 1 0 0 0 0 2 1 8 1 0 0 0 1 1 1 0 0 2 0 0 0 1 0 0 1 0 0 1 1 1 0 0 1 0 1 1 1 0 1 1 0 0 0 0 4 7 0 1 0 1 1 1 0 1 2 0 0 1 3 3 0 0 0 0 0 0 2 1 1 0 0 2 0 5 2 0 0 0 0 0 1 0 0 0 1 2 1 1 2 0 0 1 1 5 1 2 0 1 0 0 9 0 0 0 0 1 1 0 0 0 1 0 3 0 1 0 1 1 0 0 0 0 0 0 
0 0 0 0 1 0 0 1 0 1 2 1 0 0 3 0 0 1 1 1 1 0 0 1 0 0 5 1 2 0 1 0 0 0 0 0 0 1 1 0 2 1 0 0 1 6 0 1 1 0 0 1 2 0 0 0 1 0 0 5 0 0 2 0 0 0 0 0 1 1 0 0 0 0 2 0 5 0 0 0 1 1 1 0 0 1 0 0 1 1 0 0 0 0 0 0 0 1 1 1 0 2 1 1 0 2 0 0 1 1 1 1 1 0 2 2 2 0 0 1 0 0 4 0 1 0 1 1 1 1 0 0 6 0 0 3 0 0 1 12 0 2 1 0 0 1 21 140 171 167 160 153 146 142 138 127 133 128 131 145 133 139 157 159 139 161 164 154 166 161 166 165 165 156 165 163 165 163 162 151 158 131 75 34 7 0 0 0 3 0 3 1 0 1 0 0 0 1 0 1 3 7 20 30 53 72 87 107 130 112 123 129 132 140 152 161 174 180 198 198 200 200 199 199 200 200 199 201 198 200 201 200 201 200 189 201 180 197 184 197 199 200 199 198 199 198 198 198 197 199 183 197 185 198 200 198 189 197 197 180 186 141 25 2 0 1 40 149 193 193 197 197 198 197 196 195 190 196 190 195 195 195 193 179 175 194 194 195 192 193 192 194 193 193 194 193 192 191 194 193 193 191 191 181 191 194 192 187 192 192 192 191 191 191 191 190 185 181 191 178 191 191 191 192 193 192 181 191 177 192 192 187 192 192 192 192 192 192 186 191 191 192 191 179 192 191 193 191 192 192 193 192 192 192 191 191 191 191 191 190 192 191 192 190 191 190 190 189 189 189 187 188 186 187 186 163 165 162 173 183 183 183 181 181 178 180 179 180 180 179 176 179 177 177 177 176 177 177 178 177 177 176 176 168 176 177 176 178 176 177 175 176 166 158 175 168 176 176 176 177 177 177 178 177 176 177 178 178 178 170 177 168 177 163 177 178 177 161 178 180 180 179 179 168 85 8 0 0 1 0 13 47 97 160 177 178 157 47 4 0 0 0 1 2 1 6 1 0 0 0 0 4 0 0 0 2 0 0 0 0 0 0 1 1 2 1 4 2 0 0 2 0 7 0 0 0 0 1 0 0 0 1 0 1 0 0 0 3 2 0 0 0 0 0 1 0 2 0 0 1 2 0 0 1 0 0 0 0 1 0 0 0 2 2 1 4 0 0 0 1 0 0 0 0 1 0 2 1 0 1 0 1 0 1 0 1 0 0 1 0 1 1 1 0 1 1 3 1 0 0 1 0 0 0 0 2 1 2 1 3 1 1 1 2 0 0 1 0 0 1 0 0 0 1 1 0 0 0 1 0 5 1 0 7 1 0 0 0 0 0 1 1 1 1 1 1 1 2 0 0 0 0 0 1 0 2 1 1 2 0 0 0 0 0 0 1 1 0 0 0 
1 0 0 0 0 0 2 0 0 0 0 1 2 0 1 0 1 0 0 1 3 1 1 1 0 1 0 0 0 1 0 0 0 0 0 1 1 1 0 1 1 0 0 0 0 0 0 0 1 0 0 1 1 0 0 0 1 0 1 1 0 0 0 0 0 0 0 0 0 0 2 0 0 2 0 0 0 0 0 0 0 1 0 0 3 1 0 0 0 2 1 1 2 0 0 1 1 1 0 0 2 0 0 0 0 7 0 1 0 1 1 1 2 0 0 0 0 0 0 0 0 3 1 0 0 0 0 1 1 1 0 4 0 1 1 12 0 1 0 1 2 7 0 1 1 12 8 108 170 167 162 157 141 132 127 140 138 137 140 126 125 153 157 145 147 161 165 165 166 165 166 165 165 165 163 156 162 163 162 163 158 128 72 31 4 0 0 1 2 2 0 0 4 0 1 0 2 0 0 5 1 1 7 13 34 39 62 63 88 82 90 96 118 129 159 175 175 196 200 199 199 191 199 193 200 198 200 199 201 200 201 199 200 199 199 199 183 200 198 182 188 200 200 199 200 199 198 184 197 199 197 173 178 198 200 198 197 199 199 197 187 114 44 2 1 20 36 133 191 197 197 198 198 197 197 196 196 196 195 196 195 192 195 193 193 194 186 194 193 194 193 193 193 194 192 193 190 192 193 193 193 192 190 172 189 189 192 192 191 192 192 191 193 191 179 191 191 191 192 190 191 192 191 192 190 184 191 190 183 191 191 186 192 191 192 191 192 190 192 192 192 181 191 191 183 190 192 192 181 193 192 191 191 192 190 191 192 191 191 192 191 190 190 191 190 190 189 190 190 191 183 179 182 187 187 188 184 168 184 177 186 185 185 180 169 179 180 180 179 179 180 173 179 165 177 177 163 176 166 177 176 170 177 164 160 163 176 177 177 177 175 163 174 151 175 176 160 154 166 175 177 178 178 177 178 177 173 176 177 178 178 179 178 178 169 175 179 178 179 177 182 180 180 170 95 38 3 0 0 1 1 7 76 135 176 179 131 69 30 9 2 0 0 0 8 0 2 0 4 0 1 2 7 1 0 0 2 1 1 2 0 1 1 3 1 0 0 0 0 1 1 0 1 0 0 0 0 0 0 1 0 0 2 0 5 1 0 0 1 1 0 0 2 0 1 0 2 1 0 1 2 0 0 5 0 1 1 1 1 5 0 2 0 3 1 0 1 0 0 1 0 2 0 1 3 0 2 0 1 3 1 0 0 1 0 0 0 0 1 0 1 1 1 2 0 1 0 1 2 2 0 0 0 1 2 0 0 1 0 1 1 0 0 0 0 0 1 2 0 1 1 1 2 0 0 0 0 0 0 0 5 0 1 0 0 0 0 0 1 0 0 3 0 1 1 2 1 1 0 0 2 1 0 5 0 0 0 0 0 1 0 0 0 0 0 1 0 1 1 0 
1 0 0 0 0 0 1 0 1 0 0 1 0 0 0 0 1 2 0 0 0 0 0 1 1 1 0 1 0 1 1 2 1 0 0 0 1 1 2 0 0 0 1 1 0 0 0 0 1 0 0 0 1 1 0 0 1 0 0 0 0 0 1 1 1 0 1 0 0 0 0 1 0 0 0 2 0 2 0 2 1 0 1 0 1 1 2 0 0 1 0 0 0 2 1 1 1 2 0 0 0 1 0 0 3 1 0 0 0 1 0 0 0 0 0 1 0 0 0 0 1 1 0 0 1 0 0 0 0 1 5 4 2 0 0 4 5 0 2 0 1 1 1 1 2 4 3 69 163 150 165 158 153 151 128 144 140 138 139 143 148 152 156 158 140 161 153 165 166 165 166 164 165 166 154 164 165 164 164 163 157 113 86 35 13 5 7 3 11 3 1 1 10 1 1 0 1 11 0 0 1 1 3 18 17 16 22 51 55 62 57 77 97 121 143 162 185 195 199 198 200 199 199 200 200 199 201 199 201 200 200 188 184 197 200 200 199 198 193 198 199 198 199 198 198 198 200 199 198 199 198 181 196 198 199 198 198 200 198 196 189 127 72 4 0 1 11 104 184 198 190 197 197 199 195 188 196 196 195 196 195 195 195 194 182 193 196 194 181 194 194 187 193 189 191 192 193 186 193 193 193 192 174 171 171 191 192 191 191 193 192 184 190 191 191 183 191 192 191 192 191 183 192 191 190 190 191 191 191 191 182 192 190 191 179 174 191 191 191 192 190 191 192 193 180 192 187 192 191 192 191 192 191 179 192 192 192 192 191 192 190 174 189 185 191 190 189 190 189 188 189 190 186 187 188 188 188 187 186 186 175 185 184 169 173 182 180 179 178 180 179 179 178 178 177 178 178 177 158 163 176 177 177 176 175 161 176 169 177 177 176 177 176 159 175 178 177 161 161 177 177 177 177 176 165 178 178 167 178 178 177 170 168 179 177 177 179 179 179 180 180 180 178 175 98 9 0 1 5 0 0 3 60 145 177 180 170 91 7 1 0 3 0 1 4 1 3 1 1 3 1 0 0 0 1 5 1 1 1 1 1 0 0 0 1 0 0 0 2 1 5 0 1 0 1 3 0 1 0 2 0 1 2 1 0 2 1 1 1 0 1 0 0 0 0 1 3 0 0 1 1 2 1 0 0 1 1 1 0 1 0 0 0 2 0 2 1 0 1 0 0 1 0 1 0 1 0 0 1 2 0 0 0 0 1 0 0 1 1 1 1 0 7 8 0 0 0 3 6 1 1 1 2 3 1 1 1 0 2 0 0 3 0 4 1 1 0 4 0 0 1 2 0 0 1 0 2 0 0 0 0 0 0 1 1 0 0 0 0 0 3 0 0 0 1 0 0 1 0 0 1 3 2 1 1 0 0 0 1 1 0 1 0 0 1 3 1 0 0 0 
0 0 0 1 0 0 0 3 0 0 0 0 0 1 0 0 0 2 0 5 0 1 2 0 0 0 0 0 0 0 0 1 1 1 0 0 0 0 0 1 1 1 5 1 3 2 1 1 0 0 1 2 0 0 0 0 0 0 2 0 0 1 0 0 0 0 0 1 0 1 0 0 0 0 1 1 0 0 1 1 0 0 6 1 0 2 0 0 0 0 0 1 0 2 1 1 1 0 1 0 0 1 0 1 7 1 1 6 0 1 1 0 0 0 1 3 0 0 0 1 0 1 1 0 2 0 1 1 1 1 0 0 6 0 0 0 0 2 1 0 0 1 1 1 1 0 3 41 152 172 169 161 144 143 150 148 144 140 131 141 136 151 156 158 141 142 163 164 155 165 165 164 165 166 165 165 165 160 165 161 132 120 91 44 20 2 2 2 4 3 1 2 2 10 6 7 0 2 0 0 1 2 0 7 6 10 22 39 41 49 60 52 88 93 109 153 185 196 200 198 198 199 200 200 200 200 200 199 200 191 199 199 181 185 198 199 199 200 199 199 199 198 199 198 199 199 199 183 187 198 189 197 198 181 197 198 196 198 184 190 194 176 102 7 2 0 7 72 173 195 198 196 196 197 195 189 195 185 184 193 196 196 183 193 194 195 193 193 194 195 194 194 193 193 192 191 193 192 193 193 193 193 192 192 190 183 193 192 191 192 191 191 186 192 191 193 191 191 192 190 191 192 191 190 180 177 184 193 193 191 192 192 191 191 192 191 192 193 179 183 191 192 192 186 190 176 191 192 192 183 192 191 192 192 192 191 191 192 191 191 190 189 178 189 190 189 190 188 184 190 189 189 188 187 188 185 171 186 186 186 187 187 186 185 184 184 175 169 180 180 173 179 177 160 177 179 177 177 178 179 178 176 178 164 178 176 177 167 175 161 177 178 170 176 177 177 169 175 176 177 177 177 172 177 179 178 178 177 170 178 178 179 179 179 179 180 175 178 179 179 180 179 169 177 135 15 2 0 0 1 0 4 59 138 171 179 175 116 9 1 1 0 0 5 0 1 3 2 0 0 1 0 1 1 0 0 1 1 1 1 0 0 3 1 0 0 0 0 0 1 1 1 1 0 8 0 1 1 0 1 0 1 0 1 1 4 1 0 0 0 0 0 1 1 1 0 1 0 2 0 1 1 0 0 0 0 1 4 0 0 1 1 0 1 1 0 1 1 0 0 1 1 1 1 1 0 1 1 0 1 1 0 0 1 0 0 1 1 0 1 0 0 3 2 1 0 1 1 4 1 2 1 0 0 0 0 0 0 0 0 0 0 0 0 2 0 0 1 1 1 0 1 0 0 0 2 0 0 0 0 0 0 0 2 1 0 0 1 1 4 1 0 0 0 0 1 0 1 0 0 1 0 0 0 1 2 0 0 0 1 0 0 1 0 0 0 1 0 0 0 
1 0 0 0 1 1 0 0 2 0 0 0 2 1 0 0 0 0 0 1 0 0 4 2 1 1 0 0 0 0 0 0 0 2 0 0 0 4 0 0 0 1 1 1 0 1 2 0 0 5 1 0 1 1 0 0 1 0 0 1 0 0 0 0 0 4 0 1 0 0 2 0 0 1 2 0 0 0 0 1 0 0 0 1 0 0 0 1 0 0 1 0 2 1 1 1 0 0 4 0 0 0 1 0 0 1 0 10 0 1 3 0 0 0 1 0 0 0 1 1 1 4 0 0 1 0 0 1 1 0 1 0 0 0 0 0 1 1 0 0 1 2 1 0 0 0 1 16 135 172 168 164 148 154 141 150 146 142 138 141 146 150 155 159 161 162 164 164 166 164 166 164 166 165 165 165 164 165 166 162 159 137 87 50 20 2 2 2 4 4 1 4 10 7 9 6 1 3 6 0 0 1 0 1 7 1 3 16 11 18 41 25 50 63 97 145 177 193 198 199 186 198 200 199 199 199 199 188 199 200 200 194 199 199 197 182 182 197 183 198 183 182 199 200 200 198 199 198 199 198 198 198 183 197 198 198 198 198 199 197 184 185 116 51 8 0 1 34 156 194 196 196 197 199 197 196 196 196 195 195 196 195 194 194 195 195 196 194 191 194 186 194 194 193 193 191 193 193 191 193 193 193 193 191 175 171 191 191 192 193 192 183 192 191 191 186 192 191 191 193 192 190 192 192 191 191 191 191 184 191 191 185 191 184 192 192 191 191 180 190 192 192 190 181 175 190 191 191 193 191 186 190 191 191 191 192 190 190 192 192 191 189 191 189 190 192 188 193 189 189 189 190 190 187 178 189 188 187 177 187 187 188 187 185 187 185 169 182 183 178 179 179 179 178 178 179 165 178 178 178 177 168 177 176 166 178 177 176 163 177 178 177 178 177 176 176 173 178 179 177 178 179 177 169 178 178 178 179 179 178 177 173 179 180 180 180 178 169 163 166 180 180 165 180 148 26 18 2 2 0 1 0 29 122 141 180 178 136 14 2 1 0 0 0 1 0 0 2 1 0 0 0 0 0 1 1 1 0 1 0 0 0 1 1 0 1 0 1 1 0 0 3 1 0 1 2 1 1 7 0 1 1 7 0 0 5 1 1 0 0 0 0 0 1 0 1 1 2 0 2 0 0 0 0 0 0 1 0 1 0 0 1 1 1 1 3 0 0 1 0 1 0 1 0 2 0 1 0 1 1 3 0 0 0 2 0 0 0 0 0 0 1 1 0 1 2 1 0 1 2 1 0 1 0 3 1 7 1 0 2 1 0 0 2 0 1 0 1 1 0 1 1 0 0 0 0 0 1 0 1 0 0 0 0 0 6 2 1 2 1 0 0 0 0 1 1 2 1 0 0 1 1 3 2 1 0 1 0 0 0 0 1 0 0 0 1 0 0 0 0 
0 1 0 1 1 0 0 1 1 0 2 5 3 4 0 1 0 2 1 1 1 0 0 0 2 2 1 1 1 0 0 0 1 1 0 1 0 0 0 1 0 0 1 1 0 1 0 0 0 1 4 1 1 0 2 0 1 1 1 0 0 0 1 0 0 0 0 0 6 2 1 1 0 1 1 2 0 0 1 0 0 0 0 5 1 1 0 0 1 0 0 0 0 7 1 0 0 0 0 2 1 1 0 0 0 0 0 7 1 1 2 0 0 1 2 0 1 0 2 1 1 0 0 1 0 5 6 0 0 1 0 1 2 0 1 1 1 1 0 1 0 1 1 0 0 1 0 8 104 168 155 165 160 155 134 133 147 144 141 139 136 144 154 155 156 161 152 144 163 154 156 160 166 164 166 160 165 156 164 166 163 143 96 63 26 6 2 3 6 6 2 1 5 2 8 15 10 3 4 9 2 1 1 1 1 6 2 16 24 4 2 3 10 50 106 133 172 192 187 199 201 198 199 200 199 192 199 198 199 198 192 200 198 182 181 197 180 185 198 198 180 197 185 189 198 199 200 199 198 198 200 188 198 197 197 197 196 197 200 198 176 189 158 52 3 4 2 18 139 191 198 198 196 196 198 198 196 196 188 196 191 197 195 182 194 194 193 195 193 193 193 193 193 193 193 193 187 193 193 193 192 191 191 180 191 190 179 190 193 192 191 192 191 193 191 190 190 193 192 191 191 191 191 192 191 192 179 192 191 192 192 191 191 191 192 191 192 191 192 192 192 180 191 190 192 191 190 191 192 190 191 175 191 190 192 192 192 190 192 192 192 170 190 188 185 192 191 189 190 189 188 187 189 188 187 189 186 188 188 187 183 186 188 186 186 187 186 185 186 185 183 177 182 179 177 174 179 178 178 178 178 179 167 177 160 177 165 177 176 178 177 178 178 177 176 177 178 175 177 178 178 176 178 179 180 179 179 179 180 180 178 179 179 180 168 180 175 181 179 180 181 177 163 163 158 42 19 1 0 1 0 1 13 109 139 177 180 149 26 1 0 0 0 0 2 0 0 0 0 0 0 1 0 0 0 1 0 1 0 1 3 0 0 1 1 1 0 0 2 2 1 5 1 8 2 1 0 1 2 1 4 2 1 0 0 0 0 0 0 0 0 2 1 0 1 0 0 1 0 1 1 1 0 0 0 1 1 0 0 0 0 3 0 1 1 2 0 0 0 1 2 1 0 1 1 1 0 0 1 0 1 0 0 0 0 1 1 1 0 2 1 0 0 0 0 0 0 1 1 1 0 0 1 2 0 1 0 1 0 0 0 1 0 2 0 0 4 1 1 4 0 0 0 0 1 1 0 0 0 0 0 0 0 0 2 0 1 0 0 0 0 1 0 0 0 1 0 1 2 0 1 0 1 1 1 0 0 0 0 0 0 0 1 0 0 1 0 2 1 0 
0 0 0 1 1 1 0 1 1 0 0 0 0 1 2 4 0 0 0 1 1 0 0 0 0 2 0 1 3 1 0 0 1 0 0 1 0 1 0 0 0 1 6 1 0 0 2 0 1 0 0 0 1 0 4 0 0 1 1 1 1 1 2 7 1 0 1 1 1 4 1 1 0 0 6 0 0 2 0 1 0 0 1 0 0 1 0 0 0 0 0 0 0 0 1 0 0 0 1 0 0 0 0 0 1 0 0 0 1 0 1 1 0 0 2 1 0 1 1 1 0 0 0 1 1 1 1 6 1 1 10 1 1 5 0 1 9 0 3 2 0 1 1 0 0 1 2 5 68 163 173 166 161 152 154 148 148 144 137 140 143 148 153 157 160 163 163 163 164 166 165 166 164 155 164 164 165 165 154 163 163 150 106 75 33 6 4 6 8 3 9 3 9 11 5 14 2 1 2 7 3 0 1 0 1 1 0 2 2 1 0 0 3 47 96 130 170 191 198 199 199 199 198 199 189 199 200 198 198 180 199 199 181 198 198 193 197 199 198 199 200 198 199 198 198 199 197 197 198 198 198 197 198 198 198 197 196 198 197 175 197 195 177 96 10 2 0 11 106 186 196 198 196 184 180 196 195 195 196 195 194 189 195 194 195 195 194 194 195 194 194 193 194 192 193 193 193 193 193 193 193 192 193 191 191 193 192 192 192 193 191 193 191 183 192 173 191 192 191 191 191 177 190 191 192 177 191 190 191 191 192 192 191 190 192 192 191 185 191 192 191 191 191 171 179 191 192 192 191 184 177 191 193 191 191 192 193 192 191 190 192 189 191 184 191 190 189 179 189 190 188 187 173 189 188 189 189 188 189 188 180 188 187 182 173 186 187 186 179 186 186 185 183 183 179 179 179 178 179 167 178 178 179 168 172 177 177 177 177 178 167 166 165 178 172 177 171 179 177 180 178 170 178 177 178 177 178 179 179 180 178 179 171 170 179 179 181 165 168 181 180 181 182 181 166 59 4 1 0 2 0 0 6 90 161 178 180 157 45 2 1 0 1 0 3 1 0 0 2 0 0 1 0 0 0 0 6 0 1 1 0 0 0 1 1 1 7 3 0 1 1 0 1 0 0 0 0 1 1 1 1 1 0 1 0 4 0 1 0 1 1 1 0 2 1 1 1 0 0 1 1 1 0 1 0 0 0 1 0 0 0 0 1 1 1 2 0 0 1 1 0 0 0 0 0 0 0 0 1 0 1 0 0 0 0 1 3 0 0 0 1 0 0 0 0 1 1 1 0 0 0 1 0 0 0 1 0 1 1 2 1 0 0 1 0 0 1 0 1 1 0 0 0 0 0 1 1 0 0 0 1 1 0 0 0 8 0 0 0 1 0 0 0 0 1 1 0 1 2 0 6 1 1 0 1 0 0 0 1 0 0 0 0 0 0 0 1 4 1 1 
0 0 1 1 1 3 5 0 0 0 0 0 0 0 0 1 1 6 1 0 0 6 2 0 1 0 0 0 0 0 0 1 2 0 0 0 0 1 0 0 0 0 1 1 1 0 0 1 5 0 1 0 0 0 1 0 1 0 0 1 1 3 1 5 1 0 0 0 1 0 2 1 1 0 1 0 0 0 0 2 5 0 1 0 0 0 1 1 0 0 0 2 0 1 1 1 1 1 0 1 0 0 1 0 0 0 1 0 0 2 2 1 0 3 1 0 2 0 1 1 1 2 1 1 1 1 0 0 1 0 1 0 1 1 1 0 1 1 0 0 0 0 0 1 4 2 10 3 64 153 171 165 164 158 154 154 150 148 142 141 142 137 135 155 159 162 162 163 165 166 167 164 166 166 166 164 167 166 164 147 163 154 112 76 35 15 2 7 5 10 10 3 11 7 1 3 4 1 2 15 5 0 4 0 1 0 1 1 0 1 2 1 5 50 98 138 172 192 187 191 199 187 184 198 184 200 199 200 199 199 200 199 200 199 199 199 200 197 199 197 199 198 186 198 200 196 197 185 198 199 196 197 198 197 197 197 196 197 198 199 198 195 185 146 66 3 2 7 84 173 194 195 197 197 187 184 195 185 194 196 194 195 184 195 189 193 194 193 193 193 194 178 192 193 193 193 189 194 192 192 184 192 193 193 191 193 181 192 190 193 188 182 191 192 191 176 190 190 191 192 191 182 178 191 192 191 181 189 184 192 189 191 193 191 189 178 192 191 191 191 192 191 191 190 180 190 192 176 178 190 179 191 192 178 192 183 189 181 191 191 192 191 191 189 191 190 191 190 189 190 190 188 189 189 188 187 190 187 188 187 187 188 189 188 187 186 186 187 187 186 188 187 186 186 173 180 180 163 179 170 162 179 179 170 178 177 178 179 178 178 178 177 179 178 179 177 177 177 180 178 179 175 178 180 178 179 178 179 179 178 177 168 180 180 180 179 180 180 180 180 176 181 183 182 170 88 5 1 11 0 2 1 6 78 157 179 179 131 81 9 2 13 2 1 5 2 1 2 0 1 0 0 1 2 0 2 1 1 0 1 1 0 1 1 1 0 2 1 1 0 6 0 1 8 1 2 0 3 0 1 1 2 0 1 0 0 1 0 2 5 2 1 0 0 2 0 8 8 0 2 1 0 1 6 0 0 0 0 1 0 0 0 0 0 0 7 0 1 2 2 0 1 0 0 0 0 1 0 1 1 1 1 2 0 0 2 0 1 0 1 2 0 0 1 0 0 3 0 0 0 1 0 0 0 0 0 1 1 0 0 0 0 0 1 1 1 1 0 2 1 0 0 0 0 1 1 0 2 0 0 1 1 1 0 1 2 2 2 0 1 1 0 2 1 2 0 0 0 1 0 0 0 0 0 1 0 1 0 8 1 1 0 1 0 0 0 7 1 0 0 
0 2 5 0 1 0 0 0 1 1 0 0 1 0 0 1 1 0 0 0 0 1 1 0 0 1 1 1 1 0 0 0 0 0 2 1 1 0 0 1 1 1 0 0 3 0 0 0 0 0 1 0 2 1 1 1 0 2 0 0 0 0 0 1 0 0 0 1 0 0 1 1 0 0 1 1 1 1 0 1 1 0 0 0 0 0 0 0 0 1 0 0 0 1 0 2 1 0 0 1 0 2 0 0 0 2 1 0 1 0 2 1 0 0 0 0 0 0 0 0 1 1 0 1 1 1 0 0 1 4 0 0 1 0 0 0 0 1 0 0 1 0 0 0 0 0 0 2 16 131 171 168 164 159 155 154 150 149 145 141 141 136 149 155 157 159 161 164 156 164 166 166 166 165 165 164 165 165 141 145 163 156 119 80 47 15 1 0 2 3 4 2 8 10 5 7 8 7 12 2 4 0 0 1 2 3 0 0 1 0 2 11 20 41 89 137 174 194 200 196 186 198 200 198 199 199 199 198 200 199 198 196 199 195 198 198 199 197 199 198 200 199 199 199 199 193 197 188 197 197 196 198 196 181 197 197 197 198 197 199 198 197 159 129 76 6 0 3 36 146 191 198 199 197 197 182 196 195 195 194 197 194 194 196 194 194 194 193 188 194 193 195 193 193 194 193 192 193 193 192 183 193 193 193 191 180 190 191 191 188 192 192 182 182 180 191 192 177 175 191 180 190 193 190 192 191 190 191 192 193 179 193 191 190 173 190 177 191 183 190 191 190 191 191 191 192 183 190 192 189 171 170 190 191 190 189 190 191 192 193 191 190 190 189 183 190 190 190 188 180 188 176 188 189 190 189 189 189 188 189 181 176 187 189 186 179 187 179 187 185 186 186 187 187 186 186 184 171 181 180 176 179 179 179 177 169 179 179 177 178 179 178 178 178 178 178 178 166 177 179 177 179 179 180 176 171 177 179 179 179 173 179 171 179 180 181 181 181 184 180 181 182 181 180 143 110 9 1 1 0 1 12 5 77 158 178 181 173 122 81 62 47 42 23 12 7 2 2 2 2 1 1 1 4 12 13 2 0 0 0 7 1 0 1 8 0 0 1 2 1 1 1 0 6 0 1 1 0 0 0 0 1 0 0 0 0 0 0 1 1 0 1 0 1 3 1 1 1 2 1 2 6 3 0 0 0 1 0 1 0 0 1 6 0 1 1 0 4 1 0 0 0 0 1 0 1 0 0 0 1 0 1 0 0 0 0 0 1 0 2 1 0 0 0 0 2 0 0 0 1 1 0 0 0 2 0 0 0 1 3 0 0 1 0 1 6 1 1 1 1 1 0 1 0 0 1 0 1 1 0 0 1 0 1 6 1 1 1 1 0 0 0 0 1 1 0 4 1 1 1 5 0 0 1 2 1 0 3 0 0 0 0 0 0 1 1 0 1 2 0 
0 2 1 2 4 0 0 1 1 1 2 1 0 2 0 3 1 0 0 0 1 0 2 0 1 1 0 0 0 0 2 0 2 2 1 2 4 1 0 3 1 2 0 0 1 2 0 0 0 0 0 4 2 1 1 1 0 0 0 0 0 0 1 0 0 1 0 0 1 0 1 0 1 4 0 0 0 1 3 0 0 2 0 2 0 1 0 1 2 0 6 6 2 1 0 0 0 0 0 0 0 1 4 2 1 8 0 0 1 0 0 2 0 0 0 1 0 0 0 1 0 0 0 1 0 0 2 0 0 1 0 0 1 0 0 0 1 0 0 0 1 0 0 0 1 1 1 1 6 103 168 168 154 160 156 152 151 148 138 138 141 143 149 142 156 143 161 152 163 166 167 166 166 164 153 165 167 165 164 150 161 136 121 91 58 14 0 0 1 0 1 1 4 1 0 2 7 3 3 0 1 2 0 2 4 11 1 2 0 0 1 0 6 49 85 138 175 194 199 198 200 198 199 199 200 192 185 198 199 200 199 199 198 199 198 195 199 198 188 198 199 198 197 198 198 198 197 197 191 198 197 198 197 197 195 195 195 197 196 191 199 198 191 145 124 15 7 2 10 88 183 197 196 198 198 198 197 195 186 194 196 194 187 195 195 191 194 193 192 182 194 194 194 194 193 193 192 192 192 179 192 192 192 192 190 181 191 192 190 191 192 191 191 192 191 192 191 191 191 192 191 192 191 191 190 192 192 191 191 190 192 192 192 190 178 191 191 191 191 175 191 174 191 192 193 185 189 181 191 190 171 190 191 192 191 191 178 191 191 191 191 190 191 185 190 189 190 190 190 190 189 189 189 188 189 190 189 188 189 188 189 178 188 186 189 189 188 186 185 175 188 187 185 186 188 186 185 186 182 182 181 180 180 181 171 177 179 178 178 180 179 175 179 160 177 178 160 177 170 178 172 179 177 180 179 179 179 167 180 180 179 181 177 159 181 182 180 182 182 170 181 182 183 162 145 127 53 13 1 0 2 1 7 77 157 178 182 178 157 133 106 101 112 104 91 79 64 52 35 30 13 26 4 3 1 2 1 0 0 0 1 2 1 1 0 1 1 0 0 1 1 2 0 0 1 2 1 1 2 2 7 0 1 0 0 0 0 0 1 0 0 1 1 0 1 1 0 1 1 5 3 4 1 2 1 0 2 1 2 1 0 0 1 0 1 0 2 1 3 0 1 0 0 0 1 1 0 1 1 0 2 2 5 2 1 1 1 0 1 1 1 0 0 0 0 0 1 0 0 0 0 0 0 0 1 0 0 0 1 0 0 0 0 0 1 2 0 0 2 1 0 0 0 0 0 2 8 1 0 0 1 1 0 0 0 0 0 0 5 0 1 1 1 1 0 0 0 0 0 6 3 3 0 0 0 0 1 0 1 4 9 1 1 1 1 0 1 0 0 0 
2 0 0 1 0 0 1 0 0 0 0 0 0 0 0 0 0 1 0 1 1 4 1 1 0 1 0 0 1 1 1 1 1 0 0 0 0 0 0 0 1 3 0 2 0 1 4 0 1 1 0 0 0 1 1 0 1 1 0 0 1 1 0 2 0 0 1 4 0 0 1 1 0 0 0 0 0 0 0 0 0 0 0 1 8 9 2 0 0 0 2 2 4 1 1 2 1 0 0 0 0 1 0 0 2 1 0 0 0 0 4 1 0 0 0 1 0 0 0 0 1 0 1 1 0 0 1 0 0 1 0 0 1 0 0 0 0 3 1 0 1 0 6 0 0 1 2 1 4 70 163 169 153 159 155 152 152 139 147 143 141 142 147 150 154 144 162 162 151 165 167 165 165 148 157 165 167 166 165 152 164 135 107 104 64 17 4 1 1 0 0 0 0 0 2 0 0 0 6 1 2 0 0 2 1 0 1 8 3 0 0 2 15 51 97 146 175 193 198 198 197 184 198 200 199 198 198 200 199 200 199 198 198 201 200 199 198 198 198 199 187 197 197 198 198 182 197 198 198 196 188 197 196 177 180 195 195 195 196 197 198 198 195 156 121 48 4 1 4 64 170 194 196 197 197 196 195 174 193 188 196 196 195 194 195 195 194 194 194 194 193 194 194 192 193 193 193 193 194 192 186 193 193 192 180 191 179 184 192 191 193 191 180 191 192 191 193 191 191 187 169 174 192 192 192 192 191 182 191 180 193 192 191 181 189 191 183 192 192 190 191 182 190 190 191 191 192 193 190 175 192 190 192 190 174 176 189 191 180 177 177 190 191 191 190 189 183 189 189 190 189 180 188 189 190 190 185 188 188 187 168 187 189 184 188 177 187 188 187 187 188 188 181 188 172 175 187 187 186 185 183 181 181 180 179 165 179 179 178 178 178 180 179 180 174 178 178 174 178 180 179 179 180 180 181 180 179 181 180 179 180 180 180 170 163 182 180 182 175 182 183 182 183 182 177 129 14 2 0 2 0 0 28 78 157 179 183 165 166 153 133 146 127 130 139 134 128 124 113 82 74 79 65 49 35 23 10 4 3 2 8 1 5 0 0 1 0 1 1 0 1 1 1 0 4 0 3 1 1 0 1 1 2 1 0 2 0 0 0 2 1 0 1 1 0 0 10 0 0 1 0 0 1 1 0 0 1 0 4 0 1 0 2 0 0 2 0 0 2 0 1 0 0 1 0 0 0 1 0 1 0 4 0 0 0 0 0 0 0 0 0 0 0 0 1 0 0 0 0 0 0 1 1 0 0 0 1 1 2 2 0 0 0 1 0 1 0 0 0 0 1 0 0 1 1 0 6 2 4 0 0 2 4 0 0 0 1 2 0 0 1 0 2 2 0 0 2 1 2 2 1 0 0 1 2 0 0 0 1 0 1 10 0 1 0 0 0 0 0 0 
1 0 0 0 0 0 2 1 1 1 1 0 0 1 4 0 2 4 11 0 1 1 1 0 0 0 0 1 2 0 1 2 0 0 0 1 0 1 0 1 1 1 0 0 0 0 1 0 1 0 0 0 0 1 1 0 0 0 1 0 1 7 1 5 0 0 0 0 1 0 4 1 0 0 0 0 0 0 0 1 0 2 0 2 8 2 5 1 1 1 1 2 0 1 9 2 0 1 1 0 0 1 4 0 0 0 1 0 1 0 0 0 0 0 0 3 2 0 1 1 0 1 1 0 0 0 0 0 0 0 0 2 1 0 0 0 1 1 0 1 0 1 0 1 0 0 7 1 8 43 149 170 155 161 156 153 151 149 146 143 140 127 122 129 133 157 160 162 162 164 166 165 164 149 164 166 165 150 165 167 165 159 137 102 71 36 9 3 5 0 1 1 0 1 0 1 3 1 8 4 1 0 0 0 1 0 1 1 9 2 0 1 26 47 99 150 179 196 198 197 184 179 196 198 185 198 198 199 198 199 183 198 195 198 197 199 197 192 198 198 198 198 196 189 186 199 199 195 197 192 197 191 196 194 180 195 185 183 195 196 197 197 196 191 177 87 7 2 2 34 143 164 182 194 197 197 197 170 173 182 196 194 195 195 194 195 193 194 194 193 194 195 193 184 193 193 193 195 193 193 193 194 191 194 184 192 193 191 185 193 192 192 184 192 192 192 180 191 193 191 191 191 190 191 191 192 190 190 193 191 191 192 191 188 190 191 190 182 192 189 177 190 192 190 186 190 192 180 191 190 191 191 190 192 191 189 192 190 191 190 173 190 191 191 190 193 190 190 190 175 170 189 191 189 189 190 190 189 188 169 187 176 177 188 187 188 188 188 188 187 187 187 187 188 185 177 187 188 188 187 186 185 183 182 164 178 176 180 178 179 180 179 180 179 179 179 178 179 180 181 180 180 179 180 178 180 180 179 178 164 181 179 180 177 180 181 182 182 181 183 183 184 182 183 180 129 47 3 2 0 2 2 7 76 158 178 184 183 165 161 159 157 157 154 154 153 137 149 148 143 139 111 111 122 115 104 93 78 56 52 41 21 34 6 4 1 1 1 0 0 2 8 0 2 7 0 5 0 1 3 0 5 2 1 1 0 1 0 0 1 1 0 7 1 1 0 1 7 2 6 0 0 1 0 0 0 0 1 1 0 0 1 1 0 0 0 1 1 2 0 0 0 0 0 0 1 0 0 1 0 0 2 0 1 0 1 0 0 0 0 0 0 1 0 0 1 6 0 0 0 0 2 1 0 0 0 1 1 1 1 0 1 0 0 1 0 2 0 1 0 0 2 0 1 1 0 1 1 1 0 0 1 0 0 3 0 0 2 0 0 0 0 1 0 1 6 0 0 1 0 1 1 1 0 0 0 1 0 0 0 0 0 0 1 1 0 1 0 0 1 
0 0 0 0 0 0 0 0 5 0 0 1 0 1 2 0 0 0 1 0 0 2 2 0 1 0 0 0 0 1 2 2 0 0 0 1 0 0 0 1 0 0 0 0 0 0 2 1 1 1 0 1 0 1 0 1 0 0 0 0 1 0 0 0 0 0 0 0 1 1 0 3 0 0 2 3 0 0 1 0 0 0 0 1 1 2 6 0 0 1 1 3 3 0 0 0 3 0 1 0 1 0 2 0 0 2 0 0 0 0 1 1 2 0 0 0 0 0 3 5 0 1 1 0 0 0 0 0 1 0 2 1 6 0 1 0 1 0 0 1 0 1 0 6 1 0 0 2 2 17 98 168 166 163 158 153 151 150 147 144 133 140 144 132 134 156 160 162 149 148 165 165 149 163 164 162 162 164 164 164 166 161 140 107 81 38 8 1 4 2 1 4 5 0 1 0 0 3 17 9 4 0 0 0 0 2 0 1 0 1 0 2 10 48 102 144 180 198 197 199 199 196 197 192 198 197 200 197 188 197 199 198 198 184 184 198 198 198 198 198 198 198 198 198 197 196 196 196 197 197 196 196 195 195 193 172 193 194 174 184 185 195 197 196 188 143 27 1 3 56 107 179 195 190 198 197 197 180 192 179 180 196 196 194 194 192 187 193 186 194 194 193 188 195 191 190 193 194 192 182 193 193 190 192 191 193 192 191 192 193 192 192 192 187 191 192 192 190 185 192 192 189 188 185 192 192 192 191 191 192 191 178 192 192 193 191 191 192 191 178 190 191 191 191 192 183 191 191 192 191 191 176 191 191 192 189 190 177 191 191 177 190 191 177 189 191 190 190 191 189 190 189 189 189 188 185 190 187 168 173 187 188 189 184 189 190 189 187 187 188 187 188 189 178 179 187 176 188 188 187 188 187 186 185 182 183 181 165 177 164 178 180 179 179 180 180 173 181 181 180 176 180 179 179 180 179 180 181 181 163 180 180 181 181 180 182 182 181 183 182 181 182 184 184 179 125 13 1 1 0 1 12 31 81 157 180 184 181 174 165 164 163 162 153 155 160 147 159 157 156 156 153 153 150 148 146 141 135 113 121 115 103 91 78 60 44 30 16 8 5 22 13 2 2 3 1 0 1 1 8 1 1 3 0 1 1 1 1 3 0 0 1 2 0 0 1 3 1 0 1 1 4 0 1 0 8 0 1 4 0 1 0 0 0 0 0 0 4 1 1 0 1 1 0 1 0 1 1 1 1 0 1 0 0 1 0 1 1 1 1 0 0 2 9 1 0 0 0 1 0 0 2 0 0 1 0 0 0 1 1 0 0 2 0 1 0 0 2 0 0 0 1 0 0 0 0 0 1 0 0 0 1 1 0 0 1 0 2 0 0 0 0 2 1 0 3 1 1 2 0 0 0 0 0 1 0 0 4 0 0 0 0 1 1 0 0 0 4 1 0 
0 1 1 1 0 0 0 0 1 0 1 0 0 0 0 0 0 0 0 2 1 6 0 0 2 0 1 2 6 2 0 1 0 0 0 1 0 0 0 2 1 1 0 1 1 0 1 0 1 9 1 0 1 0 0 3 2 1 0 1 1 0 0 0 1 0 0 0 0 1 0 2 2 4 1 0 0 0 0 0 0 2 0 1 0 1 0 0 0 1 1 2 3 1 0 0 0 0 0 0 0 0 2 1 0 0 0 0 1 5 3 0 0 0 2 0 0 0 1 1 3 0 4 1 1 0 0 0 0 1 3 1 3 9 1 1 0 0 1 0 1 0 1 0 1 2 0 0 3 30 98 163 146 163 159 154 151 150 147 137 142 142 143 147 153 155 149 160 162 163 164 165 163 149 163 161 157 164 145 166 165 160 124 106 76 47 24 3 1 0 0 6 0 1 0 1 1 4 25 16 16 1 1 1 0 0 0 2 1 1 4 2 25 48 109 158 187 195 198 180 185 198 198 198 198 200 197 199 197 199 199 198 197 199 198 199 199 198 199 197 198 198 198 199 196 197 179 196 190 197 196 197 196 196 174 193 173 195 195 195 197 197 197 198 192 170 77 7 22 39 54 162 192 196 191 197 197 195 195 195 195 194 195 195 177 195 193 194 194 194 194 193 194 193 193 193 192 193 193 194 193 192 169 175 175 192 191 178 173 191 188 193 191 192 186 192 191 185 191 192 191 176 192 191 192 191 192 191 184 191 191 190 191 191 192 191 190 190 191 179 189 182 190 191 190 192 192 182 189 176 189 179 191 191 190 176 182 189 191 189 190 173 175 189 180 190 177 189 190 191 189 189 191 190 189 189 188 189 188 187 189 188 188 188 180 189 189 188 189 188 187 188 187 188 188 164 186 189 188 181 187 188 187 188 186 185 183 163 165 181 181 180 179 179 181 179 180 179 180 180 180 181 180 180 179 181 179 170 181 180 181 181 182 182 181 180 181 183 177 183 176 183 183 185 178 126 10 0 1 1 1 7 6 78 157 179 173 183 175 163 168 167 157 166 165 166 165 163 155 164 154 161 160 160 159 157 157 155 152 135 147 135 141 136 117 123 112 77 69 70 59 37 23 43 6 19 1 1 1 1 8 8 2 10 0 0 0 1 0 0 0 0 1 1 0 1 6 0 7 1 1 2 2 2 0 0 3 1 0 1 1 0 0 5 1 0 0 0 0 0 0 1 0 1 2 0 0 0 2 0 1 0 0 0 0 1 2 1 1 0 1 3 0 0 0 0 0 0 8 1 1 5 1 0 0 0 0 1 2 2 1 5 0 0 0 0 0 0 0 0 1 5 1 0 0 0 0 1 1 1 0 1 2 0 0 1 1 0 0 1 0 2 0 0 1 1 0 0 0 0 0 3 0 0 0 0 0 0 1 0 1 2 1 1 0 0 0 0 1 0 
0 0 0 1 0 1 0 1 0 0 0 1 0 0 0 0 0 0 1 2 1 5 2 0 0 0 2 1 7 5 0 0 0 1 1 1 2 1 1 7 1 1 5 1 1 0 2 1 0 2 4 1 1 0 0 2 0 0 0 1 0 0 2 2 1 0 1 0 1 1 2 0 1 1 0 0 0 1 0 1 1 2 1 1 0 0 1 0 0 1 2 1 1 0 0 0 0 2 0 0 0 1 0 0 1 0 0 0 2 1 0 1 1 0 1 0 0 0 0 1 8 1 4 1 0 0 0 0 0 0 0 1 3 14 11 2 0 1 0 0 0 2 6 1 10 1 0 0 1 4 53 153 150 163 159 153 152 150 148 145 145 142 138 147 152 146 157 159 162 164 165 166 165 165 162 164 166 165 152 147 164 161 141 108 75 55 21 10 0 0 2 7 0 0 0 1 0 2 13 15 16 0 0 1 3 0 1 2 4 2 0 2 24 59 117 163 188 197 199 198 188 198 198 198 197 199 199 199 198 198 199 197 197 197 198 198 197 189 198 198 195 196 197 196 197 195 196 197 197 196 197 195 197 196 174 173 194 196 197 197 196 189 187 197 193 156 127 53 3 4 46 125 186 181 197 196 196 194 176 195 195 196 195 194 194 194 195 194 195 194 182 193 193 180 194 193 194 186 193 193 193 191 175 173 191 191 191 191 174 191 193 192 191 191 192 192 191 181 191 192 193 191 192 192 191 181 190 191 190 192 191 180 191 192 191 191 192 193 193 190 190 191 191 175 190 173 189 185 189 182 190 191 190 192 191 189 180 191 191 191 189 192 189 190 189 183 191 189 186 189 191 190 190 190 191 189 190 190 180 188 166 186 189 190 188 190 188 178 188 175 171 187 188 188 189 172 187 188 188 177 187 187 188 185 172 187 186 178 183 184 181 181 181 181 181 178 180 179 181 181 181 180 173 180 180 180 166 170 183 181 182 176 182 179 167 180 172 183 182 182 183 172 171 186 179 124 10 0 2 0 1 1 5 75 124 178 185 183 178 170 172 170 170 169 169 169 168 158 168 166 166 166 151 164 164 162 162 152 143 159 160 156 156 156 153 151 148 143 114 134 127 117 107 96 77 61 52 30 14 5 3 2 4 1 0 1 1 0 1 1 0 2 1 0 1 2 4 3 1 0 1 1 2 2 1 0 1 0 2 0 0 0 0 0 0 1 1 1 0 0 0 0 1 0 1 0 0 0 0 1 1 1 0 0 2 0 3 7 3 2 0 1 1 1 0 0 0 2 0 2 3 0 0 0 0 0 5 4 2 0 1 6 1 0 0 1 0 0 1 0 1 1 0 0 0 2 0 1 1 1 0 2 0 1 1 0 1 2 1 0 2 0 0 1 0 1 1 0 2 1 0 0 0 0 0 1 0 1 1 0 0 4 1 1 2 1 0 0 0 0 
0 0 0 2 6 1 1 0 1 3 4 1 0 0 0 0 0 3 0 1 0 0 5 1 0 0 0 2 2 0 0 2 1 1 1 1 0 0 1 0 2 8 2 1 0 1 0 1 1 1 0 1 1 0 2 1 1 1 0 4 1 0 1 0 0 1 0 1 2 1 3 0 1 0 1 0 2 0 0 0 1 1 0 1 1 0 1 0 1 2 1 0 2 1 0 0 2 1 1 0 2 1 1 0 0 0 0 0 0 0 0 1 0 1 0 0 0 2 2 1 1 2 3 1 0 1 1 0 6 0 2 0 0 1 1 0 0 0 0 0 0 0 1 0 2 0 1 2 0 1 19 130 164 164 159 155 151 145 148 145 145 142 141 144 150 153 157 157 163 163 165 157 165 167 166 166 164 155 165 165 150 162 143 109 82 55 21 2 1 1 2 2 0 0 0 0 0 1 1 13 23 9 0 0 0 1 0 1 14 1 2 1 29 75 122 166 192 196 189 198 199 195 199 198 193 197 198 197 198 199 197 198 197 198 197 198 198 198 197 197 197 197 196 188 178 177 195 195 195 196 197 189 184 195 194 193 194 194 194 194 196 198 197 189 197 190 160 51 5 2 9 76 133 191 184 197 195 186 180 195 195 195 193 179 193 194 185 194 195 194 193 195 193 193 192 185 188 193 193 192 194 192 192 192 192 183 192 192 191 192 194 186 192 192 192 189 192 171 191 192 191 193 190 192 191 191 191 191 191 193 188 192 191 191 191 192 193 189 169 164 170 190 190 190 175 165 169 191 190 190 189 180 191 191 189 190 179 192 192 191 179 190 190 190 192 191 191 191 186 190 181 190 190 190 190 178 189 188 190 181 188 179 182 186 188 187 187 188 187 188 189 187 188 189 189 188 189 187 187 181 188 187 165 175 188 187 189 186 187 185 183 170 181 182 180 181 180 181 180 181 180 180 180 181 181 180 180 180 180 179 181 181 182 180 161 182 172 184 182 173 183 184 183 183 155 123 9 1 0 0 1 2 5 74 125 180 184 182 177 174 172 173 171 167 173 173 170 162 159 171 170 170 169 169 169 169 161 165 166 165 154 162 153 161 162 158 160 159 157 154 152 149 146 142 116 130 125 112 99 83 64 46 41 11 5 3 1 1 2 0 0 9 2 1 1 0 1 1 8 1 2 2 0 2 0 0 0 0 1 0 0 1 0 0 0 1 1 2 0 1 0 0 6 0 0 0 0 1 0 0 0 0 0 0 1 3 1 0 0 0 0 0 1 1 1 0 1 0 0 0 0 0 0 0 1 1 2 2 0 1 0 2 0 0 0 1 1 0 0 2 1 0 0 1 1 10 2 5 0 0 1 0 0 0 2 0 1 0 1 0 1 1 0 1 0 0 0 0 1 1 1 0 0 1 1 0 0 0 1 0 1 0 0 1 0 1 6 0 0 1 
1 0 1 6 5 0 1 0 0 3 0 0 0 0 0 1 0 1 3 0 0 0 0 6 1 0 1 0 0 0 1 0 0 4 0 0 0 1 1 1 1 0 2 1 0 0 0 1 0 2 1 0 0 0 1 1 1 0 0 1 0 4 0 1 0 0 0 9 10 1 1 1 0 1 1 0 1 0 0 5 0 0 1 0 0 0 2 1 1 0 1 0 0 0 0 0 0 0 0 0 1 0 1 0 0 1 0 0 0 0 2 1 0 0 1 0 1 0 1 1 0 1 0 0 1 1 0 1 0 2 1 0 4 0 0 0 1 0 1 0 1 0 1 3 0 0 0 0 1 0 5 87 131 164 162 144 146 150 147 133 144 143 142 142 148 153 155 158 162 163 165 158 164 161 165 165 156 165 167 164 165 162 148 119 85 48 30 5 2 1 0 0 1 2 1 0 2 1 1 9 14 19 2 3 1 0 2 1 0 0 2 4 31 84 142 164 192 197 181 198 186 198 198 198 199 198 190 198 198 199 198 198 197 186 196 199 196 197 198 196 196 188 197 196 195 179 177 181 197 195 196 196 194 196 184 193 175 173 195 195 196 196 196 199 195 192 179 104 48 4 5 67 146 188 195 195 197 195 197 197 195 181 180 176 194 193 193 195 194 195 194 181 189 186 194 193 193 194 193 193 192 178 185 192 191 192 193 192 193 192 191 193 191 192 192 176 191 178 191 191 191 191 185 191 191 191 192 192 184 190 192 192 193 192 191 191 190 190 167 163 170 190 192 192 191 191 177 192 191 179 175 190 191 191 191 182 180 190 191 192 190 175 171 171 190 190 191 192 189 190 190 189 181 190 190 189 189 189 190 189 190 189 188 188 175 172 188 181 189 188 188 183 188 188 188 189 187 176 176 188 187 171 166 186 186 187 190 188 188 187 187 183 184 183 166 180 182 182 182 180 181 182 181 181 180 182 180 169 181 182 181 182 183 170 168 182 183 183 182 183 184 174 175 184 180 121 8 1 0 1 0 0 4 77 156 181 185 183 170 175 170 174 174 174 173 172 173 172 172 174 173 173 173 173 171 171 172 171 171 170 170 169 162 167 169 167 164 164 164 162 162 161 161 158 147 153 151 148 125 126 133 125 111 95 75 56 49 19 30 6 3 1 1 0 0 0 1 1 1 0 3 1 0 1 0 0 0 1 1 1 0 0 0 0 0 0 1 1 1 0 0 1 0 1 0 1 1 5 4 1 0 1 0 1 1 1 6 1 0 2 0 0 0 0 1 1 0 0 2 2 0 0 4 1 0 0 0 1 0 0 0 0 1 0 0 1 0 0 0 1 0 0 0 1 1 1 1 1 0 0 0 0 0 3 1 1 0 0 2 4 1 0 0 0 0 0 0 1 0 0 0 1 1 0 1 0 0 0 0 0 5 1 1 1 0 0 1 0 0 0 
1 0 1 6 2 0 0 0 0 2 1 0 0 0 1 1 1 0 0 0 0 0 1 2 0 1 2 0 1 1 0 1 0 1 2 0 0 0 1 2 2 1 0 0 0 0 11 2 0 0 0 1 0 0 2 5 1 0 0 0 0 0 1 0 4 0 1 1 2 1 1 1 2 1 1 0 2 0 0 1 3 1 0 0 1 0 1 1 0 1 1 0 0 1 0 0 0 0 0 0 0 1 0 1 2 0 0 1 0 0 0 1 0 0 0 0 0 1 0 0 0 2 0 0 0 6 1 0 0 3 0 0 1 0 0 1 0 0 1 3 0 1 1 0 0 0 0 0 2 4 2 43 145 162 161 156 152 149 125 124 144 143 141 142 146 152 155 153 160 162 161 164 157 165 166 166 165 165 167 165 165 162 147 117 83 48 21 3 2 1 0 1 0 1 0 2 2 2 6 3 25 26 9 11 0 1 1 0 0 0 2 3 37 113 155 182 196 197 197 197 196 193 198 197 198 188 197 198 197 198 197 197 183 197 198 196 197 198 198 197 197 197 185 196 197 193 171 194 196 192 184 195 195 195 193 172 163 194 195 194 195 197 196 199 197 195 187 148 61 3 3 22 101 175 180 196 195 186 197 197 183 195 192 193 195 185 194 196 194 193 194 194 194 193 194 190 192 194 192 192 193 193 193 190 191 190 192 192 193 193 192 192 190 192 192 192 191 191 183 191 192 191 192 191 191 188 193 191 191 180 191 190 191 191 191 182 175 179 190 190 190 176 190 190 183 191 191 192 191 191 189 190 192 190 191 191 189 192 192 191 190 188 173 188 190 191 191 190 191 190 183 190 191 189 190 189 188 190 190 190 189 188 184 174 187 187 175 187 188 189 189 189 190 188 183 188 180 187 188 188 179 187 189 188 184 189 189 187 188 187 187 188 174 184 182 182 183 182 182 180 181 178 181 182 181 182 181 181 181 180 165 181 182 181 182 181 182 184 184 183 176 185 185 186 178 96 8 2 0 2 1 1 6 75 135 180 185 185 180 176 176 173 175 164 175 157 174 175 176 175 174 175 165 175 174 173 161 173 173 172 172 171 172 172 172 171 170 169 169 169 169 168 163 164 165 163 142 148 157 158 155 155 148 129 138 108 118 107 90 73 59 23 7 4 1 12 8 5 1 4 2 1 7 7 1 0 0 0 0 8 0 0 2 0 1 0 0 0 1 0 0 0 1 6 0 2 0 0 1 1 4 0 5 0 0 0 0 0 3 1 0 0 0 0 0 1 0 0 0 0 0 0 6 1 0 7 2 1 1 2 0 0 0 1 0 1 0 4 1 1 0 1 0 0 1 0 0 0 0 2 0 0 1 0 1 0 1 0 2 1 1 0 0 0 0 0 0 0 3 0 0 0 0 1 1 0 0 0 1 1 1 1 0 0 0 1 0 0 0 1 
0 1 1 7 1 1 4 0 0 0 0 1 1 0 2 0 1 0 1 1 3 1 0 2 1 0 1 0 0 1 0 0 1 1 1 1 0 0 0 0 0 0 0 0 0 0 1 0 0 1 1 0 0 0 0 0 0 1 0 0 0 0 0 0 0 0 1 1 0 1 0 0 1 0 0 0 1 0 1 0 1 1 0 4 2 0 1 0 0 0 0 1 0 5 0 0 1 0 1 1 7 2 1 0 1 0 1 0 0 1 1 1 0 0 0 1 0 2 0 1 1 7 1 0 1 2 0 1 0 0 0 0 0 0 0 0 0 5 5 2 0 1 0 1 1 1 1 0 0 0 1 14 120 161 160 160 151 148 145 146 145 143 140 141 143 150 153 156 160 160 164 164 151 165 161 164 167 159 166 157 164 161 147 119 90 51 17 7 4 0 0 0 0 1 0 0 11 2 11 3 15 12 8 11 8 0 0 1 2 0 0 4 48 115 159 186 197 197 198 198 198 198 197 198 196 197 183 197 196 197 186 197 197 198 199 197 197 195 196 197 198 181 196 195 194 176 172 193 195 195 194 196 194 195 185 179 192 195 195 188 196 195 196 197 197 196 194 171 78 6 0 10 67 157 191 195 182 196 196 195 195 194 195 195 196 194 195 195 194 194 194 192 193 193 194 194 193 185 192 193 193 192 188 193 193 192 192 191 192 190 192 193 192 178 179 191 193 191 181 190 192 192 191 177 190 191 191 192 187 191 191 191 190 193 192 191 190 191 188 191 191 191 190 191 191 190 192 191 190 191 191 182 190 191 192 191 192 190 175 189 191 189 191 191 190 181 189 190 190 174 189 191 191 192 192 191 189 190 190 190 190 183 189 189 189 189 189 190 189 189 188 188 189 189 188 189 189 188 188 189 188 189 189 188 189 186 188 188 188 188 187 188 189 177 186 185 176 181 183 182 182 182 171 182 182 181 181 183 178 182 182 181 169 173 182 182 174 171 184 185 184 184 187 186 179 119 34 2 1 0 0 5 29 74 158 180 184 185 174 177 178 170 178 176 178 176 166 173 177 177 169 177 174 175 177 175 176 175 174 158 158 174 172 174 174 167 173 168 173 171 171 172 171 169 168 149 147 165 147 164 164 164 160 161 158 154 130 148 144 137 127 109 78 63 37 17 32 5 13 13 2 1 0 1 2 1 0 0 0 2 1 0 1 1 2 0 0 1 0 0 1 0 0 0 1 0 0 1 0 0 0 7 1 1 0 0 0 0 1 4 0 2 0 1 1 5 0 1 0 0 1 0 0 1 2 3 2 0 1 2 1 0 0 0 1 1 1 1 0 1 0 0 1 1 0 2 0 0 0 0 1 0 1 0 0 0 0 0 0 0 1 0 6 0 1 1 0 1 3 1 0 0 1 0 0 0 0 0 0 2 0 0 0 1 0 1 1 1 0 0 
1 1 1 1 1 1 0 0 0 3 0 0 0 0 0 0 0 0 0 0 2 0 1 0 1 2 0 0 0 0 0 4 4 1 1 0 0 0 0 0 0 0 2 0 0 0 2 0 0 1 0 0 1 1 1 0 2 0 0 0 0 1 0 3 0 0 0 0 1 2 1 0 0 5 0 0 0 0 0 3 1 0 0 0 1 0 2 1 0 8 6 1 0 2 2 0 0 0 0 6 7 6 8 1 1 1 1 0 1 1 0 4 0 0 1 2 0 5 0 0 0 0 1 0 0 1 0 0 1 1 0 0 0 0 1 1 0 0 1 0 0 0 1 1 8 4 1 1 0 2 2 5 76 155 161 156 151 147 147 144 132 136 141 140 143 136 151 155 159 160 161 164 164 165 164 165 164 165 162 165 152 161 140 111 87 51 28 9 11 12 5 2 0 1 3 2 0 2 1 1 8 21 4 4 1 0 2 1 1 0 1 7 69 111 170 192 198 198 197 198 197 187 197 198 196 197 197 197 185 197 197 184 196 197 190 197 197 195 197 198 195 182 196 169 182 176 195 195 194 195 195 195 196 194 195 193 184 193 193 192 182 193 190 196 182 196 194 185 137 24 1 3 40 132 183 168 195 196 196 196 195 178 195 195 194 181 194 193 195 194 193 193 193 180 192 194 193 195 195 192 192 192 193 187 194 193 192 178 174 185 193 184 191 191 192 192 192 191 191 192 191 192 191 190 185 191 190 192 191 193 190 191 186 191 192 191 174 191 189 180 191 191 180 190 181 190 191 192 192 190 190 193 190 181 191 182 192 190 180 191 191 184 191 190 185 188 173 170 189 190 190 191 190 189 190 189 190 190 189 190 184 190 189 188 171 177 188 189 188 181 189 189 190 188 189 190 178 190 188 185 188 188 188 189 188 187 189 190 190 187 174 189 186 188 187 186 171 183 181 181 182 181 182 181 181 183 182 182 173 182 182 181 182 183 182 183 183 184 184 184 185 184 185 186 182 97 8 1 0 1 0 8 7 77 128 179 185 176 179 179 180 179 180 177 178 179 178 177 179 174 176 170 178 172 176 178 177 178 176 166 174 175 177 163 175 174 168 174 173 168 159 158 173 175 173 170 155 170 155 152 168 151 167 167 165 155 161 149 160 157 154 151 144 135 123 105 79 55 46 9 3 1 1 0 1 1 0 0 0 1 1 4 3 1 1 1 2 1 1 1 0 1 0 0 0 0 0 0 0 1 0 2 0 1 1 1 1 3 0 0 1 1 2 2 0 0 3 2 0 0 1 0 2 0 0 1 0 1 1 1 0 0 1 2 4 6 0 3 1 0 1 1 2 2 1 0 2 1 1 1 0 1 3 3 0 2 0 0 0 0 0 1 0 0 0 1 5 1 0 0 0 1 1 1 0 0 1 0 1 1 1 1 1 0 1 0 0 1 0 1 
0 2 4 0 0 0 0 0 2 1 2 0 0 0 0 0 1 1 0 1 1 1 1 0 0 1 0 0 1 1 0 0 1 1 1 0 0 0 0 0 1 1 0 0 0 2 0 0 0 1 1 0 0 1 2 0 0 1 1 0 0 0 0 0 0 0 1 2 1 1 0 0 0 0 0 1 0 0 2 1 3 1 0 1 0 0 0 0 8 2 0 0 1 1 0 1 1 1 0 1 2 1 7 2 1 6 1 1 0 0 0 0 0 0 0 0 1 0 1 0 1 2 1 0 1 1 3 1 0 0 0 0 1 0 1 0 1 0 0 0 0 0 1 1 2 0 0 0 0 4 1 2 38 140 160 157 151 135 126 132 142 142 140 139 142 145 149 154 154 158 161 161 157 162 164 165 165 165 165 164 164 164 149 126 99 65 36 21 10 4 1 9 0 2 3 0 1 1 1 2 11 17 24 25 11 8 4 0 3 1 2 37 98 148 177 194 198 184 196 196 197 197 197 196 199 196 196 189 197 196 198 195 196 182 196 197 187 190 195 196 196 196 195 185 194 194 184 196 196 194 194 194 195 194 193 193 193 193 193 193 184 194 196 187 195 191 196 191 138 91 6 11 22 82 142 189 196 194 196 197 196 194 194 195 183 195 193 194 196 194 177 193 194 189 192 193 193 194 194 194 193 193 192 192 192 192 192 191 191 192 192 192 193 191 192 191 191 191 185 192 193 191 191 173 190 172 177 182 190 191 191 190 192 191 181 190 190 178 190 191 193 190 190 179 191 191 191 191 191 192 190 190 190 191 189 180 185 190 191 191 190 189 190 191 189 192 172 168 188 190 191 191 189 190 190 190 191 189 190 189 191 191 190 190 190 188 177 169 168 188 189 189 188 188 189 189 188 190 190 189 189 188 189 190 189 188 190 187 188 190 179 189 188 188 189 187 177 174 185 185 183 165 168 166 182 183 171 182 182 182 183 183 173 183 183 183 184 184 184 184 186 187 186 174 180 117 8 1 6 0 0 1 5 78 159 180 168 184 168 180 180 179 181 180 178 171 179 180 180 180 178 180 178 179 177 168 179 177 174 177 177 178 177 168 176 177 158 176 176 176 177 164 175 175 164 165 174 174 174 157 172 157 172 172 169 170 168 168 166 167 164 147 160 145 155 149 119 131 117 79 57 23 6 1 1 1 0 1 0 0 0 0 2 1 1 1 1 0 1 1 1 0 0 0 0 0 1 0 1 1 0 0 1 0 0 0 2 0 0 0 0 0 1 5 0 1 1 0 3 1 1 0 1 0 0 0 0 3 1 0 0 0 1 1 0 1 0 2 1 0 0 1 2 1 0 1 0 0 0 3 1 0 1 1 0 1 1 2 0 0 0 1 0 1 0 0 1 2 0 1 1 1 0 7 1 0 2 0 1 0 2 2 0 0 1 0 1 6 0 0 
0 0 1 0 0 1 1 0 2 0 1 0 0 0 0 0 0 1 0 3 1 7 1 0 2 0 0 0 1 1 0 0 6 0 0 0 0 0 1 1 1 6 2 0 1 4 0 0 0 0 2 0 1 0 0 0 0 1 1 0 7 0 0 0 0 0 0 1 0 4 0 3 0 0 0 0 1 1 1 1 1 1 0 0 0 0 0 1 0 1 0 1 1 1 0 2 1 1 0 1 9 5 3 3 1 2 0 3 0 1 1 0 10 0 1 1 1 0 4 1 0 0 0 1 0 1 0 1 1 0 0 0 0 1 0 0 0 1 0 1 0 1 0 1 0 2 0 1 1 1 0 0 11 108 156 154 149 145 120 123 136 141 140 141 141 145 148 153 157 158 159 162 162 147 163 164 163 162 164 166 164 164 141 117 102 69 42 28 18 11 5 5 0 0 2 0 0 2 1 3 1 9 31 32 19 5 0 2 1 0 5 56 116 158 183 195 196 171 196 198 197 197 189 196 197 196 197 196 185 187 176 185 197 195 196 197 196 195 196 197 182 197 195 196 195 196 195 195 196 195 196 195 195 195 193 195 194 194 190 193 192 194 194 195 197 196 191 196 188 154 44 6 4 41 123 180 194 190 194 196 195 195 195 195 186 195 195 195 182 193 194 195 194 191 182 194 193 192 192 194 193 192 193 186 192 191 192 187 186 192 191 187 191 193 192 192 192 192 183 191 192 192 177 189 181 191 190 190 193 178 191 184 192 177 191 192 192 189 190 178 191 191 190 181 190 184 190 189 190 190 190 189 192 191 174 190 191 192 191 190 190 192 191 191 182 190 177 189 174 190 189 190 185 173 189 190 190 190 180 190 191 189 189 190 188 176 188 174 190 189 190 189 190 190 182 188 181 189 189 187 167 189 188 187 170 189 189 179 189 189 188 189 188 188 189 188 188 188 187 186 170 183 183 182 182 184 184 183 183 182 183 181 182 184 184 183 185 184 175 175 184 185 186 187 180 116 8 0 0 1 0 0 7 90 162 176 186 185 182 179 181 180 180 181 179 165 181 181 180 181 180 181 181 177 181 181 180 180 181 180 179 179 169 177 168 178 179 179 177 178 177 177 168 168 176 176 176 175 176 175 175 174 174 175 174 173 172 162 171 171 167 151 146 166 164 163 161 156 151 120 135 110 64 44 17 20 1 0 3 0 0 2 0 0 0 1 1 0 0 0 0 1 2 1 1 1 0 0 2 0 0 1 0 1 0 0 1 3 0 0 0 0 1 7 0 1 5 9 1 0 0 2 0 1 1 1 0 0 1 2 1 1 1 0 0 1 1 1 0 0 0 2 1 5 0 0 0 1 1 1 2 0 0 0 1 2 0 0 0 1 0 0 0 1 0 0 0 0 0 0 1 0 1 0 1 1 1 1 1 0 1 8 0 0 0 0 2 0 0 0 
0 1 5 0 0 2 1 2 0 0 0 1 0 0 3 0 1 0 0 0 1 0 8 0 0 0 0 1 0 0 0 0 0 0 1 0 1 0 2 0 1 1 0 1 0 0 1 0 0 0 3 0 0 0 1 2 1 1 1 0 4 1 1 0 1 0 1 0 1 1 0 1 2 0 0 0 0 0 0 0 0 1 0 0 5 2 1 1 5 1 0 0 1 2 1 0 0 0 0 0 1 1 0 4 1 1 1 0 0 0 1 0 10 5 2 5 0 1 1 1 0 1 0 1 0 0 1 0 1 0 0 0 0 0 0 1 9 2 1 0 1 0 2 0 0 1 1 0 1 1 0 0 4 65 147 155 150 145 142 137 142 141 139 138 139 143 146 150 153 156 158 159 145 160 153 162 164 162 164 163 156 163 156 129 98 72 53 30 25 16 1 1 1 1 0 1 0 1 0 1 2 8 28 33 27 4 6 5 2 1 21 87 136 166 187 195 198 184 197 197 197 195 196 197 196 197 193 197 198 196 197 196 197 197 197 197 195 196 197 196 196 195 196 195 195 195 196 195 194 194 194 194 196 194 193 184 193 192 195 192 194 179 194 194 185 195 195 198 193 178 117 52 4 21 80 113 186 192 196 195 195 196 196 188 194 179 194 193 194 187 185 195 194 194 193 193 193 192 175 193 193 192 192 194 191 192 192 193 191 192 179 191 191 192 193 192 193 191 190 191 191 183 191 182 191 192 192 191 191 190 191 192 192 191 185 191 192 190 192 191 190 191 192 191 190 192 175 172 190 179 190 190 190 175 190 191 192 190 190 191 191 189 192 191 189 178 174 190 191 189 184 190 187 159 162 179 184 189 185 190 191 190 190 178 188 176 190 189 186 188 190 188 189 189 189 189 189 188 190 188 170 180 189 189 174 169 189 188 189 189 190 188 189 188 189 189 189 189 185 186 186 186 185 184 183 185 184 174 182 161 182 185 183 184 184 184 185 186 185 185 185 187 188 189 181 110 7 1 1 0 0 1 10 105 167 182 186 179 181 181 165 182 182 182 182 181 181 183 181 182 181 181 182 177 181 181 181 181 180 180 182 181 180 168 179 168 174 178 165 179 179 171 179 179 175 178 179 178 178 177 166 164 177 175 177 177 176 173 175 174 173 173 173 172 171 162 168 165 154 161 160 155 124 127 102 66 25 3 3 0 0 1 2 0 1 1 0 0 0 0 1 1 1 1 0 1 1 1 0 1 0 0 0 0 3 0 1 0 0 0 0 0 1 2 2 3 0 0 5 0 3 0 0 1 1 4 1 1 0 0 1 1 0 0 0 0 1 0 0 0 1 1 0 0 1 0 1 1 0 0 1 2 0 0 2 1 0 0 0 0 0 1 0 0 2 0 0 0 2 0 2 1 1 0 2 0 0 0 0 1 6 1 0 0 1 2 0 2 1 0 
1 1 0 0 0 0 2 4 0 0 1 0 1 0 0 0 0 0 0 1 0 0 0 1 0 0 1 2 1 1 1 1 0 0 2 1 0 1 2 0 1 0 2 0 1 2 1 4 1 0 0 1 0 0 0 0 1 0 0 0 0 0 0 1 1 0 2 1 0 0 0 0 1 2 1 8 0 0 0 0 2 0 0 1 0 0 1 3 1 1 0 0 2 7 0 0 0 1 5 0 0 0 0 1 0 0 0 0 0 0 0 1 0 1 0 2 0 1 0 1 0 0 1 1 2 0 0 1 0 0 0 1 0 1 0 6 11 3 0 1 0 3 0 0 1 0 0 0 1 0 0 2 20 55 120 150 150 134 138 138 140 140 140 139 140 141 145 145 152 142 155 149 159 151 162 162 155 162 162 154 165 162 137 126 110 86 63 41 27 17 3 1 4 0 0 1 0 3 1 1 2 3 19 43 36 4 1 0 2 13 47 103 143 160 189 196 196 196 197 197 197 192 180 189 197 196 179 196 195 196 197 196 196 196 187 195 186 184 197 196 195 196 187 179 194 195 195 195 194 193 195 193 193 184 193 192 177 192 193 193 191 193 194 194 194 195 181 195 182 190 164 85 6 7 43 92 124 160 191 182 195 195 196 195 185 194 194 184 186 193 194 193 193 194 183 193 194 193 176 183 194 192 181 191 192 192 192 192 184 192 195 184 191 189 192 192 190 193 193 177 190 191 192 191 192 191 178 180 191 191 191 191 192 192 191 190 192 192 193 190 190 190 191 193 191 190 191 189 192 193 191 191 191 190 178 192 191 191 191 189 190 191 192 190 191 190 189 190 179 192 190 190 174 188 174 189 191 191 191 180 188 179 189 189 178 189 190 191 190 180 189 190 190 188 189 189 188 190 190 189 172 189 189 190 189 188 179 189 188 189 175 181 188 189 189 190 179 188 189 189 190 177 169 184 169 175 183 184 168 159 168 183 184 185 184 174 168 186 184 186 188 189 186 187 175 84 5 10 3 2 0 2 21 124 151 184 186 167 181 183 183 170 182 183 183 183 178 183 182 182 182 181 181 165 182 181 182 182 181 170 181 183 180 181 181 181 171 181 181 181 180 170 181 180 179 179 180 181 179 179 180 179 177 169 177 178 177 179 177 178 176 165 175 175 173 174 161 170 163 169 166 166 163 156 124 136 111 62 13 3 1 7 1 0 0 0 0 0 0 0 2 1 3 3 0 1 0 2 0 0 0 0 0 0 0 0 0 0 0 0 0 2 0 0 0 0 0 1 2 0 0 0 0 0 4 4 0 1 0 1 1 1 2 0 0 1 2 1 1 1 0 2 1 2 2 0 0 1 2 1 0 0 1 1 0 0 0 0 0 1 0 0 1 0 0 1 0 0 0 0 1 0 1 4 1 1 2 0 1 2 1 1 1 0 0 0 0 0 0 0 
0 0 0 0 1 1 0 4 1 0 0 0 0 1 0 1 1 2 0 0 0 0 0 0 0 0 1 1 2 1 1 3 1 1 0 0 0 0 0 1 0 0 1 2 2 0 2 1 1 1 1 0 0 0 1 1 2 2 0 0 0 1 0 0 0 0 0 0 1 0 0 0 1 0 0 0 0 0 0 0 0 1 1 0 1 0 2 0 0 0 0 0 0 1 0 1 0 0 1 1 0 1 1 0 1 1 1 1 1 1 1 0 0 1 0 8 0 2 0 1 1 0 0 1 1 0 0 1 0 2 1 0 0 0 0 4 0 0 0 3 2 0 0 0 0 0 1 0 0 0 2 2 12 4 53 105 147 138 139 136 138 140 140 133 132 131 144 146 148 151 155 157 159 159 152 160 162 157 161 163 162 161 147 125 107 82 58 44 27 16 5 6 5 4 2 1 0 3 2 1 0 2 24 46 42 4 1 1 21 56 78 121 152 176 193 190 197 197 197 196 197 195 197 197 198 196 197 183 197 196 195 180 194 195 187 196 197 182 192 196 196 195 194 188 195 194 194 196 193 194 193 180 193 193 193 178 171 192 192 180 194 192 191 194 181 194 194 188 195 166 150 131 25 30 20 80 160 157 190 179 195 196 196 185 195 194 196 194 194 195 195 193 194 194 193 179 194 193 195 193 192 172 180 192 192 191 192 192 191 192 192 194 191 192 192 192 193 192 192 190 180 191 191 193 191 191 191 191 185 191 191 192 190 188 192 191 182 191 191 190 191 181 191 191 191 183 191 190 192 191 191 190 192 192 190 190 185 190 182 192 190 191 191 190 189 190 189 191 190 191 189 190 189 190 189 189 189 190 190 190 189 176 175 189 191 189 190 188 190 189 190 190 191 190 191 190 190 190 191 186 189 189 180 188 189 190 188 189 190 190 189 189 189 190 189 188 187 188 187 189 188 188 187 187 189 186 184 184 182 164 182 183 179 183 185 184 184 184 186 187 187 187 187 168 169 58 24 4 1 0 0 2 36 139 177 186 187 186 170 182 170 173 179 183 184 184 184 184 184 179 183 184 184 170 167 174 183 183 184 171 183 178 183 184 182 176 182 182 183 182 182 182 182 182 181 180 180 183 180 181 180 181 180 180 179 181 179 179 178 177 178 178 178 177 178 177 176 174 174 174 167 171 161 151 162 136 153 139 96 40 7 15 10 0 0 0 0 1 0 1 7 4 1 2 1 0 1 3 1 0 1 0 0 1 1 0 0 2 0 0 0 4 0 0 1 0 0 0 0 0 2 0 1 1 1 0 0 0 0 0 0 0 2 1 1 0 3 0 1 3 1 0 3 4 0 6 1 1 1 0 0 0 0 1 0 1 1 0 0 0 1 0 0 1 0 0 0 0 0 0 0 3 0 1 1 8 0 1 0 0 0 0 1 1 0 0 0 1 0 0 
0 0 1 1 0 0 0 3 0 1 0 0 0 0 0 0 0 1 1 0 1 1 0 0 0 1 2 0 0 0 0 0 1 0 2 0 0 0 0 2 1 1 1 0 0 1 0 0 1 2 1 0 3 0 0 1 0 0 0 1 1 0 0 0 0 1 0 0 0 0 1 0 0 1 0 0 0 0 1 1 1 0 1 1 1 0 1 0 0 0 1 1 0 0 3 2 0 1 1 0 1 1 0 0 1 1 4 0 0 0 1 0 0 0 0 2 1 0 0 0 1 0 0 2 0 1 1 1 1 3 0 2 0 1 0 0 7 0 2 0 0 0 2 1 1 0 1 2 1 0 5 1 1 3 9 88 140 144 130 134 134 139 137 140 139 140 141 144 137 143 142 155 157 158 159 160 161 163 163 153 162 149 149 122 106 86 59 44 30 14 12 11 11 2 4 1 1 2 0 0 2 3 13 39 36 2 0 2 22 50 108 133 164 186 194 196 180 197 197 198 195 186 196 197 196 196 196 195 196 196 185 194 181 193 186 195 195 177 178 179 181 194 195 194 194 193 178 185 193 194 179 191 185 193 192 176 191 194 193 191 192 192 193 193 193 193 194 196 196 192 156 124 83 8 23 53 128 180 193 194 196 195 196 194 195 195 194 193 194 195 196 195 193 193 193 192 194 192 193 192 191 175 192 193 193 192 191 194 192 194 192 191 191 192 186 193 192 191 192 185 191 192 193 192 191 192 191 180 190 191 192 192 190 177 190 176 191 191 190 178 190 192 192 190 177 191 189 190 191 191 183 178 190 191 191 191 189 170 188 191 190 184 191 192 191 192 189 189 190 190 189 190 190 190 190 191 190 189 184 192 183 189 191 190 189 189 190 189 191 190 189 190 189 190 189 189 190 189 190 190 190 188 188 181 190 188 180 189 184 188 180 187 188 190 189 190 189 183 187 176 190 188 190 189 188 186 186 186 185 185 185 185 184 185 169 177 185 185 182 186 188 186 188 185 158 33 2 2 0 0 1 3 56 151 182 188 187 175 182 184 185 185 185 186 184 177 184 186 185 185 184 184 184 173 182 183 184 183 184 169 173 184 184 185 184 184 184 183 181 169 170 184 183 182 174 182 175 182 184 182 181 181 169 181 169 180 181 172 179 171 170 180 181 180 179 179 173 179 178 176 174 171 174 173 169 149 154 162 151 127 70 15 3 1 0 1 2 0 1 0 7 1 0 0 0 0 1 1 0 0 0 0 0 0 2 0 1 0 0 0 0 8 2 2 0 0 1 0 1 0 1 0 0 7 0 1 1 0 0 1 0 0 1 2 0 0 0 0 0 1 2 2 2 1 0 0 1 10 2 1 1 0 0 0 4 0 0 0 2 2 1 0 0 1 0 0 7 0 0 0 6 2 0 2 1 1 1 0 0 0 0 0 0 0 1 2 9 1 0 1 
0 0 0 0 2 0 0 0 1 0 1 1 1 0 4 0 0 0 1 5 0 1 0 0 0 0 0 1 0 0 1 1 0 1 0 1 5 5 1 2 0 0 0 0 1 0 0 5 0 0 1 0 0 0 0 0 1 1 0 1 1 0 1 0 0 0 0 0 2 0 1 0 0 0 0 0 8 0 0 1 0 0 1 0 1 4 0 0 0 0 0 0 0 1 0 2 0 0 0 0 2 0 0 0 1 0 0 0 0 1 7 1 2 6 0 2 1 1 8 4 0 3 0 6 1 0 2 0 1 1 0 1 2 1 1 0 0 1 1 1 2 0 0 2 2 1 1 0 0 1 1 2 1 10 1 27 82 140 131 132 135 136 137 136 138 138 139 141 144 146 152 152 141 149 158 159 160 162 162 163 163 159 145 125 102 76 59 44 31 23 27 23 24 18 7 1 2 10 1 0 3 3 22 50 32 3 1 5 48 63 112 149 169 187 197 197 195 196 197 195 192 196 196 197 185 196 196 196 195 196 188 194 172 194 181 180 194 194 194 194 183 195 194 193 184 179 191 179 193 194 192 193 193 192 192 178 192 184 191 194 191 191 187 190 190 189 194 180 196 196 192 151 148 37 4 17 75 154 187 192 186 196 187 195 195 184 195 193 175 193 194 194 193 177 194 195 194 194 193 192 188 194 192 168 192 193 193 188 192 192 184 179 179 191 189 187 192 191 183 191 192 191 191 192 190 192 192 191 180 191 187 191 191 190 192 192 179 176 190 191 191 191 192 191 190 190 192 191 190 190 189 190 184 190 191 184 190 192 190 191 192 192 191 180 190 191 191 191 189 170 161 167 167 188 181 189 190 190 190 190 189 188 189 179 190 189 190 191 184 176 189 190 191 190 188 189 191 189 189 176 189 190 191 191 191 188 190 188 189 191 188 188 190 189 189 189 189 188 189 189 173 178 188 177 186 171 174 181 187 175 187 186 184 170 169 183 185 186 187 187 188 175 180 183 112 15 1 0 0 1 2 5 77 159 182 187 188 176 169 183 185 184 189 186 185 186 186 185 186 185 186 186 180 187 184 173 184 167 183 168 184 186 185 184 184 185 185 183 183 185 184 183 183 184 184 183 184 184 183 183 183 183 182 183 173 177 182 173 182 182 181 180 180 182 181 173 180 180 179 178 179 177 167 176 160 174 171 158 167 160 142 92 24 2 6 2 1 2 0 1 0 3 2 0 0 0 4 0 1 0 0 0 0 0 1 0 0 2 0 1 0 1 1 1 0 0 1 3 1 1 0 1 0 6 2 0 0 0 0 1 1 0 1 0 0 0 0 0 0 2 1 1 0 1 5 1 2 0 1 0 0 0 0 1 4 0 0 0 0 0 0 3 0 0 1 0 0 1 1 0 0 9 2 1 0 0 9 2 0 2 0 0 2 0 1 0 2 2 0 0 
0 1 1 0 0 0 0 0 0 0 1 1 0 0 0 0 0 0 1 2 0 0 3 0 0 0 2 2 0 1 1 0 0 5 0 0 1 2 0 4 0 2 0 1 0 1 0 0 1 1 1 2 1 1 0 1 2 2 0 1 1 2 3 2 0 5 2 1 7 2 1 0 1 0 1 1 8 0 0 0 0 0 0 0 2 0 1 0 1 1 0 0 0 1 1 0 1 0 1 1 3 5 1 1 6 1 0 0 0 0 1 2 1 0 0 1 0 0 7 2 0 2 1 0 3 2 0 2 1 1 0 0 1 1 0 0 1 9 6 0 2 0 0 1 0 1 0 0 0 0 4 0 2 0 1 4 54 127 136 132 129 132 134 136 136 137 138 136 131 146 150 152 143 155 158 147 143 160 162 161 161 160 135 123 92 73 56 46 45 42 44 37 35 27 16 11 7 7 1 1 2 5 14 36 18 8 10 36 56 78 121 151 179 193 194 194 196 196 197 196 198 196 197 195 195 194 197 197 194 183 196 195 175 194 194 195 187 195 194 194 194 195 195 196 194 193 178 193 186 192 192 184 191 184 183 192 190 191 193 192 192 192 191 190 194 193 195 188 196 196 195 174 178 111 10 3 38 95 174 173 193 193 196 193 195 194 194 183 192 182 196 194 195 193 194 187 194 194 183 193 193 192 192 174 186 193 192 183 192 192 193 191 190 192 191 192 193 194 192 191 191 184 191 192 192 192 190 191 190 190 192 192 191 193 192 191 190 180 190 192 191 191 191 189 191 190 188 190 168 175 190 181 190 191 190 189 191 191 190 181 190 191 190 190 190 190 190 190 190 177 189 171 168 189 190 190 191 191 176 172 189 190 191 190 189 190 190 189 190 190 186 191 190 192 189 190 189 190 190 189 184 190 189 190 189 189 190 190 190 190 190 190 186 190 190 189 189 189 190 180 190 189 189 188 189 175 188 189 188 179 187 185 172 187 185 170 187 185 185 188 185 187 186 181 121 8 0 2 2 1 8 8 97 142 183 187 189 185 183 185 186 173 188 187 186 187 186 163 172 188 187 186 186 186 187 169 183 158 170 185 186 186 187 186 187 185 176 173 184 187 181 186 178 186 184 185 185 186 184 177 184 183 184 183 183 182 183 184 183 182 182 185 178 183 181 182 182 182 181 169 179 180 179 166 177 177 176 173 172 171 163 123 106 31 1 1 1 0 2 1 1 1 6 1 1 0 0 0 0 1 0 1 0 0 0 0 0 0 1 0 0 0 1 1 0 0 1 1 0 2 0 0 0 0 0 1 1 0 0 1 2 0 0 0 0 0 1 1 0 0 1 1 3 4 1 0 8 2 0 1 0 0 1 2 4 0 0 0 0 1 3 1 0 0 0 0 1 0 1 0 1 1 2 1 0 0 1 0 0 0 0 0 0 0 2 0 3 0 1 1 
1 0 0 4 1 0 0 1 1 0 0 1 1 1 0 1 0 0 4 0 0 1 1 0 0 2 0 0 2 1 1 1 1 1 0 1 1 4 1 1 1 0 0 3 0 0 0 1 0 1 4 0 1 0 0 0 2 5 0 1 0 1 1 1 1 10 1 0 1 0 0 0 0 0 1 1 0 0 0 1 2 0 0 1 1 1 5 2 0 2 1 0 0 1 8 1 3 1 0 1 0 1 1 0 1 1 1 0 1 1 1 0 0 0 0 0 0 0 0 0 2 5 0 1 0 2 0 0 0 0 1 2 0 1 0 0 0 1 2 1 1 1 2 1 2 2 0 2 2 0 1 4 0 0 2 2 39 85 97 106 123 127 128 131 133 131 135 138 140 144 148 151 151 153 157 158 156 150 162 162 162 160 145 113 96 71 52 48 45 51 47 39 33 18 20 14 7 12 3 3 7 3 3 30 10 15 23 41 73 109 134 165 187 195 181 195 195 196 196 196 196 197 196 196 186 194 196 195 196 194 196 196 195 196 179 193 193 182 195 194 194 194 193 196 195 194 192 193 193 193 192 193 193 190 192 191 191 191 190 186 191 191 190 189 191 192 193 189 195 196 181 194 188 160 56 4 13 65 128 186 194 194 193 195 196 194 184 195 193 195 193 194 195 194 194 194 193 193 194 193 194 193 194 192 192 194 191 190 192 191 193 192 192 193 192 191 191 191 191 193 180 184 191 191 192 178 193 193 192 191 183 191 190 191 191 193 191 190 191 191 192 190 178 190 190 180 179 192 175 183 189 192 190 175 189 178 190 191 189 191 192 191 191 191 183 171 158 168 190 191 191 183 189 179 189 190 189 180 189 173 189 180 190 191 189 191 191 190 190 189 190 191 190 190 191 191 190 190 191 189 173 188 190 188 188 189 190 178 189 190 190 190 190 190 189 188 182 189 171 168 188 191 189 188 189 188 188 189 190 188 187 188 187 187 187 187 186 174 186 188 189 188 188 178 92 5 0 0 1 0 1 18 95 172 186 189 188 185 182 187 187 187 187 187 188 187 188 167 164 186 182 188 180 187 179 186 161 163 186 186 186 173 187 187 187 186 186 186 185 186 186 187 185 176 187 186 186 186 185 185 175 185 176 185 172 184 175 184 183 173 183 184 185 183 183 183 172 182 183 182 183 181 181 180 169 179 165 179 177 175 171 148 154 104 16 0 1 1 1 0 0 2 1 0 0 2 0 1 1 0 0 1 1 1 2 0 0 0 1 0 1 0 0 0 1 1 0 0 0 1 0 0 1 1 0 1 1 0 0 1 0 0 2 0 0 0 0 1 0 0 4 2 0 0 0 0 1 0 3 0 0 1 0 1 1 8 3 0 0 0 1 1 1 0 0 1 1 0 1 0 0 2 0 0 0 0 2 0 0 0 0 0 0 5 0 0 0 0 0 0 
2 1 0 0 0 2 4 8 0 1 1 0 0 0 1 1 1 3 1 7 1 0 3 10 4 1 0 3 1 0 2 0 0 1 0 0 1 1 0 1 1 0 1 3 1 0 1 0 0 1 2 1 1 0 3 0 2 1 0 0 0 0 3 0 0 0 1 3 2 0 1 0 9 0 1 2 1 1 0 0 0 1 0 1 3 9 1 0 0 0 1 0 0 1 1 0 3 1 1 0 2 0 0 0 0 0 0 0 0 0 1 1 0 0 0 1 1 0 0 0 0 0 0 0 0 1 1 0 0 0 0 0 1 0 0 1 1 0 1 7 0 2 0 2 2 3 5 0 0 1 1 1 0 1 0 1 4 31 70 97 113 118 123 126 130 133 135 136 137 142 145 148 151 152 156 155 149 159 160 161 156 158 142 117 90 70 61 40 42 45 45 44 40 40 19 24 10 17 19 15 10 2 11 39 9 19 47 64 102 118 154 173 190 194 195 197 189 195 197 196 195 191 196 196 195 196 196 196 187 194 187 195 195 195 194 177 176 193 181 181 193 185 192 193 194 194 193 193 193 193 192 192 191 181 190 178 190 192 191 187 191 180 189 168 171 174 192 194 194 196 194 192 151 148 128 23 37 36 102 166 190 193 194 194 194 193 193 185 192 194 196 195 194 194 192 191 193 193 193 194 179 192 194 192 194 192 177 171 191 193 190 192 193 191 179 182 177 191 192 190 191 191 183 193 192 191 192 190 188 192 191 180 172 182 190 191 191 190 191 191 191 192 189 191 190 190 192 190 191 191 192 186 189 177 171 190 191 190 174 190 192 191 192 190 190 188 161 162 171 180 190 192 191 190 193 191 180 185 190 189 190 189 189 193 190 190 181 192 189 190 190 191 190 186 189 190 181 191 190 175 188 177 178 191 191 192 189 181 190 189 190 186 189 188 191 191 187 177 188 175 189 189 189 189 189 189 189 179 188 189 189 187 177 187 187 186 176 169 186 189 175 186 188 173 59 23 3 2 1 0 2 50 134 177 186 189 188 186 181 186 188 188 177 188 190 175 189 188 188 187 189 187 190 188 188 173 188 188 188 189 175 164 178 188 187 174 186 188 188 187 188 178 175 186 186 187 187 183 187 187 187 187 178 185 186 186 185 185 186 185 184 185 184 185 184 184 184 184 184 181 183 184 182 182 180 180 167 178 178 172 176 174 169 152 79 6 1 2 0 0 2 0 2 0 0 1 0 1 0 0 0 0 1 3 1 0 2 0 0 0 0 0 0 0 0 0 3 0 0 0 0 1 0 1 2 1 2 0 1 0 2 0 1 1 0 1 0 0 0 1 0 3 0 4 1 1 1 0 1 3 0 0 10 1 0 0 0 0 5 0 1 0 1 0 0 0 0 0 0 0 1 1 0 0 4 5 0 1 0 0 0 0 0 1 0 0 1 1 0 0 
0 1 1 0 0 0 1 0 0 1 0 2 1 0 0 6 4 1 1 0 0 0 1 0 2 0 1 0 0 0 1 0 0 1 1 2 1 0 0 0 0 0 1 1 0 1 0 1 0 1 0 1 0 1 0 1 0 0 0 2 1 0 0 0 0 0 0 0 1 0 1 0 3 1 0 0 3 1 0 2 1 1 1 1 2 3 0 0 1 1 1 0 0 3 1 1 0 1 0 1 0 0 1 0 0 0 0 0 1 1 0 6 0 0 0 0 1 0 1 1 0 0 0 0 0 0 0 0 1 4 1 2 0 0 0 0 9 2 0 0 0 0 0 1 0 1 0 0 0 1 5 2 6 2 0 1 9 4 56 113 119 116 116 118 124 131 131 133 136 140 143 144 150 151 155 154 157 156 158 148 159 158 143 104 90 68 46 41 41 45 48 51 52 54 42 32 20 22 26 27 23 12 28 50 17 45 66 92 117 142 163 182 177 193 194 195 196 196 195 196 189 194 195 196 194 195 187 184 194 195 195 197 194 195 195 195 194 189 195 194 193 192 195 193 192 193 191 193 191 192 191 192 193 182 191 189 174 192 189 188 191 185 189 190 189 190 192 193 193 186 194 180 164 188 171 84 46 8 58 129 150 192 194 194 194 195 194 194 188 193 193 195 193 192 194 195 194 184 193 192 193 194 194 193 192 191 174 169 192 193 192 187 192 177 192 192 192 172 190 192 192 192 190 178 191 190 191 184 190 192 189 191 191 190 188 192 192 191 191 191 192 190 190 191 191 182 190 192 191 192 181 192 190 183 190 190 192 189 179 190 192 190 192 189 190 177 174 189 191 189 191 190 190 190 190 190 191 191 189 166 190 189 191 191 192 179 188 190 182 190 192 190 191 189 189 191 192 191 190 190 190 190 188 190 191 190 190 191 189 190 189 170 177 189 189 190 189 189 190 188 188 189 174 190 189 190 190 190 188 190 189 188 188 179 177 187 186 186 187 189 188 176 176 163 38 5 12 2 0 0 4 47 147 169 188 188 188 184 183 187 189 181 180 187 190 189 188 189 187 189 188 189 190 187 188 176 187 189 187 189 189 187 188 189 181 177 188 184 187 188 189 188 174 186 187 189 187 187 188 188 188 177 186 187 187 186 188 187 180 184 186 186 185 176 175 186 186 184 185 174 176 184 184 184 183 181 160 159 180 180 177 160 175 169 138 44 20 1 2 0 0 1 0 3 1 0 1 0 7 0 0 1 1 0 0 1 1 1 0 1 1 0 0 0 1 0 1 0 2 0 0 0 0 3 2 0 0 1 2 0 6 1 0 1 0 1 0 0 1 1 0 0 5 2 7 0 0 1 0 1 0 0 6 0 2 0 1 0 1 1 2 1 1 0 1 0 0 0 0 2 1 1 0 0 0 0 3 4 1 0 0 0 1 0 0 1 0 0 0 1 
1 0 0 0 1 0 1 2 0 2 0 1 0 0 1 0 2 0 0 0 0 1 1 0 0 3 0 0 0 1 1 1 0 0 1 5 2 1 0 0 0 1 1 0 2 1 0 1 0 1 1 1 0 0 1 0 0 1 0 0 0 0 1 0 0 0 0 1 0 0 0 1 0 0 2 0 0 1 0 0 0 1 0 1 1 0 2 2 1 1 1 0 0 0 2 0 2 5 1 1 1 0 1 1 1 2 0 1 1 0 0 1 0 2 1 0 1 6 0 1 0 1 0 0 0 0 2 1 0 2 0 1 0 1 2 1 2 0 1 1 0 2 0 0 0 0 0 0 0 0 0 3 0 1 1 2 7 2 12 81 114 113 108 111 111 124 127 129 133 137 140 145 148 149 152 154 154 158 157 160 152 157 139 107 91 69 48 40 43 43 47 47 46 56 44 38 31 32 31 31 32 33 50 66 41 59 90 100 130 153 171 175 194 188 194 196 194 195 194 185 193 195 195 196 182 194 194 194 195 195 192 196 194 194 194 194 194 194 193 193 186 194 182 181 191 193 192 191 192 192 193 192 192 191 178 181 190 190 193 191 190 190 188 188 189 190 191 192 194 194 194 185 194 194 163 147 35 4 26 93 153 186 193 194 194 196 194 183 194 194 193 194 194 192 180 194 193 192 193 195 189 193 194 193 191 176 191 190 183 192 191 192 191 192 191 192 192 191 178 175 190 193 187 192 191 192 191 192 192 176 179 190 191 179 174 190 179 181 191 191 191 180 189 185 185 190 192 190 191 192 191 191 191 176 190 190 190 192 173 190 191 192 191 186 192 190 190 191 192 191 190 190 192 189 191 187 192 191 190 172 173 190 190 191 192 189 170 189 190 191 190 191 189 190 190 189 190 190 190 189 191 179 189 191 190 190 189 189 180 172 168 170 189 190 186 189 191 175 190 182 173 179 187 188 191 187 189 188 189 191 190 190 189 188 178 184 188 187 188 183 188 189 186 145 18 1 0 2 6 2 14 70 125 181 189 188 188 184 181 186 189 189 189 188 190 190 188 185 176 189 189 177 189 189 173 190 189 189 175 176 189 189 189 190 190 189 189 191 188 189 185 189 189 189 190 188 188 189 188 176 188 187 189 188 179 188 186 179 187 180 188 189 186 186 187 186 187 187 187 187 186 187 184 185 185 183 152 154 182 180 181 180 177 173 140 110 15 1 0 2 0 0 0 1 0 0 0 1 0 0 1 1 1 0 0 0 0 0 1 0 0 0 2 0 6 1 1 0 1 0 0 0 1 0 1 1 1 1 0 1 0 1 0 0 0 1 2 1 0 1 0 1 1 0 1 0 0 0 2 1 1 1 1 3 9 0 0 0 0 0 2 2 2 1 2 0 0 0 0 0 1 1 0 1 0 0 1 0 1 0 1 1 1 1 1 0 0 1 1 1 
2 0 0 2 0 8 2 0 0 1 1 1 1 2 0 0 0 3 2 1 1 0 0 4 1 0 0 0 1 0 1 0 1 1 1 1 0 0 1 6 1 0 1 4 8 3 1 0 0 0 3 6 1 1 1 1 1 1 4 0 0 0 1 1 0 0 0 0 0 1 1 1 0 1 0 1 0 1 0 2 0 0 0 0 1 1 0 1 0 0 4 0 0 1 0 1 1 2 1 2 1 1 1 0 0 0 0 0 0 1 0 1 1 1 0 0 0 0 1 0 2 1 0 1 0 1 2 3 1 1 2 0 0 2 0 0 0 1 0 0 1 2 0 1 1 0 1 0 2 1 1 2 1 1 1 0 1 2 1 29 93 98 104 102 109 117 120 119 130 131 139 140 146 149 149 150 154 154 157 158 161 152 137 115 95 69 54 46 52 45 45 45 61 56 47 41 36 44 36 39 29 27 62 69 67 88 96 116 145 154 170 191 194 194 195 180 195 171 175 194 194 196 194 177 177 181 196 196 186 195 190 194 194 194 194 194 193 194 174 193 193 192 193 191 183 191 191 180 191 191 192 176 191 190 189 181 190 191 190 190 189 188 179 179 188 190 191 192 193 194 194 196 194 195 191 177 113 16 34 54 113 170 191 184 192 194 194 180 179 181 193 195 193 192 195 195 193 195 194 192 194 193 192 178 192 192 193 193 193 175 179 191 193 191 181 193 190 192 192 190 171 191 190 190 191 191 191 191 192 192 190 191 190 191 191 191 191 179 191 192 190 190 191 192 191 191 190 191 193 191 190 190 191 189 192 191 190 180 190 191 189 191 191 191 190 180 174 181 191 191 191 191 182 188 192 190 191 191 191 191 191 191 191 190 190 191 189 189 176 190 189 189 178 191 188 191 190 173 189 191 191 190 189 190 190 190 184 190 191 190 189 169 189 184 189 183 190 189 190 188 190 189 179 173 190 165 188 190 182 189 189 188 189 188 173 188 187 188 175 189 190 170 183 95 10 0 0 2 8 4 29 91 123 182 173 190 190 185 181 188 188 187 178 183 190 190 179 188 189 191 191 189 190 190 180 189 180 191 190 176 189 189 189 191 190 189 191 188 190 190 190 191 189 189 190 190 190 181 188 189 189 188 179 176 188 189 177 190 188 188 174 187 188 188 188 180 179 188 187 187 187 187 186 186 175 188 183 170 183 184 183 181 173 178 174 154 63 4 1 2 1 0 2 0 0 0 0 4 2 0 0 0 1 2 0 0 1 2 0 0 0 1 1 0 0 2 0 1 1 0 0 1 2 0 1 0 0 0 0 0 0 0 0 1 0 1 1 1 2 3 1 4 1 0 3 0 3 0 0 1 1 1 0 0 6 6 0 0 0 1 0 1 1 4 0 1 0 0 0 1 1 0 6 2 0 0 0 1 0 4 0 1 5 0 2 1 1 1 1 1 
1 0 1 0 0 0 0 1 0 1 1 0 1 0 1 0 1 1 1 0 4 1 1 7 6 1 0 0 0 1 0 2 1 0 0 2 0 0 1 2 1 0 0 0 0 2 0 0 1 2 2 0 0 0 1 2 1 0 0 1 1 0 0 0 0 0 1 0 0 1 7 0 10 1 1 1 1 0 0 0 0 1 0 1 0 0 1 1 1 1 2 1 0 0 0 1 6 0 0 1 0 7 0 0 0 1 0 0 0 0 2 0 0 2 0 3 8 1 2 0 0 0 0 0 2 1 0 0 1 1 5 0 1 4 3 1 0 0 0 2 1 1 2 0 0 1 0 0 5 0 3 0 0 0 0 8 1 2 1 4 53 95 99 95 100 107 118 123 119 129 121 138 141 145 148 150 151 154 156 157 158 150 131 115 99 81 71 56 55 53 53 54 50 49 53 44 49 52 45 48 43 47 68 71 76 98 124 137 154 172 189 192 194 194 194 174 172 192 193 195 188 194 194 187 193 193 195 178 193 194 193 195 193 195 194 186 191 193 178 193 193 194 194 181 191 179 192 185 191 192 191 172 189 190 189 190 187 180 189 178 185 188 188 190 189 190 189 190 192 192 194 195 194 194 194 165 134 88 50 17 70 136 180 190 177 192 194 193 195 194 194 193 193 193 194 194 195 192 195 193 195 192 174 192 194 192 192 193 192 192 192 191 193 183 191 192 193 192 192 191 176 170 173 191 192 192 192 185 190 190 187 191 192 191 191 191 184 191 190 191 192 192 191 170 189 192 191 192 192 191 181 190 191 185 191 192 192 189 191 191 189 176 190 193 189 191 189 171 191 191 191 191 190 192 191 183 190 191 190 190 191 179 191 192 176 190 190 189 176 190 177 172 190 190 190 191 188 190 189 191 190 192 191 190 190 190 183 190 191 189 191 190 191 189 191 190 183 190 183 189 189 191 190 189 190 177 188 190 190 186 189 190 189 182 189 178 189 181 189 189 188 172 178 90 31 2 0 2 4 16 59 112 123 153 188 190 186 183 174 180 188 186 188 187 189 189 189 189 191 191 190 181 189 189 190 189 190 190 172 190 190 190 189 190 191 190 190 179 190 192 189 189 177 184 192 189 191 190 191 190 189 188 189 190 184 190 189 189 189 187 167 187 188 189 189 190 188 189 178 188 179 188 188 188 188 179 186 186 184 183 176 183 169 180 176 136 88 21 13 1 0 0 0 0 1 1 0 1 2 1 1 1 1 0 0 0 0 0 0 0 0 0 0 2 1 6 0 2 0 1 0 5 0 1 0 0 2 1 0 0 1 0 0 2 0 1 0 2 4 0 4 0 0 3 0 0 0 0 0 1 1 1 2 0 1 0 0 1 1 1 1 0 2 0 0 1 0 0 3 1 0 0 1 2 0 0 0 2 0 0 1 3 2 0 7 0 1 0 0 9 
0 0 0 0 2 0 0 1 1 2 1 0 0 1 1 1 0 0 0 0 0 0 1 1 2 0 0 0 1 1 1 4 1 1 0 1 0 1 0 0 1 2 0 0 0 0 0 1 1 4 1 1 1 1 2 0 1 1 0 0 3 0 0 0 0 0 1 0 0 0 1 1 1 1 3 1 0 0 0 0 0 0 0 1 0 0 1 0 1 0 1 1 2 0 0 0 2 0 1 0 0 2 3 0 0 2 0 0 1 0 1 1 2 1 1 2 8 1 0 0 0 0 0 0 0 0 1 0 3 2 1 1 0 2 1 0 1 6 1 0 1 5 1 2 1 0 1 3 2 1 0 0 0 2 1 2 1 0 0 2 13 71 92 90 85 97 108 118 120 96 109 134 136 131 145 148 148 152 155 155 154 146 113 114 98 85 78 74 70 63 61 58 62 52 50 57 57 58 56 52 54 63 88 81 92 122 134 147 164 161 190 195 194 194 193 190 194 194 194 195 195 195 194 194 195 194 194 194 182 193 194 195 193 192 187 192 194 193 193 183 193 192 192 193 191 171 191 185 191 191 189 167 175 189 179 188 189 188 190 190 188 187 189 187 187 190 189 186 190 191 193 192 193 181 194 192 187 160 66 6 25 88 133 152 191 193 194 185 192 193 176 193 193 195 195 195 194 195 192 186 194 192 178 190 192 194 193 193 192 192 192 192 192 192 192 191 179 192 192 192 191 191 182 190 191 191 191 191 190 191 191 193 186 192 192 191 184 191 191 190 191 191 190 191 177 191 193 192 193 192 179 191 191 191 193 191 188 191 189 189 191 191 191 191 190 191 173 180 190 191 190 181 190 191 189 191 190 191 184 191 191 182 191 191 191 189 179 174 190 179 191 190 191 192 190 181 174 180 192 182 190 190 189 182 190 190 189 190 188 188 174 190 185 189 192 191 185 189 189 188 190 192 188 191 190 189 176 189 190 188 189 189 191 189 190 188 187 189 180 166 164 187 169 56 5 1 1 0 2 32 76 111 144 184 176 191 186 175 181 183 184 183 185 185 187 187 187 187 187 188 189 187 188 189 189 189 191 189 189 183 191 179 179 189 190 192 191 192 192 179 191 191 190 192 193 191 191 191 190 192 189 168 173 190 189 190 189 190 190 189 176 180 190 189 187 190 189 189 176 172 189 189 188 190 174 187 177 187 169 184 186 185 166 180 162 173 156 75 3 0 0 0 0 0 1 1 0 0 0 1 2 0 2 4 1 1 0 4 0 1 0 1 0 2 1 1 1 1 1 1 1 2 1 0 1 1 2 0 3 0 1 0 0 1 2 1 0 1 0 0 0 0 0 0 1 0 0 1 0 0 0 2 1 1 0 0 0 0 1 0 0 0 1 0 0 1 0 4 0 2 2 0 0 0 1 0 1 0 1 0 0 0 1 0 1 0 1 0 1 2 
1 6 1 0 1 1 1 0 0 0 1 0 2 0 1 1 0 0 1 1 1 0 2 1 2 2 3 0 0 0 1 0 1 0 1 0 2 0 0 0 0 0 0 0 1 1 0 0 0 4 1 1 0 0 0 1 0 1 0 0 0 0 1 0 0 0 0 0 0 1 2 1 2 2 0 0 0 0 0 0 2 1 0 0 0 0 1 0 0 1 0 0 1 0 0 0 0 2 0 3 0 0 0 0 0 0 0 0 3 0 0 0 0 1 0 0 2 1 0 3 0 0 4 0 1 1 1 0 0 1 1 0 0 0 2 0 1 1 1 1 0 1 1 1 0 0 0 0 0 2 0 0 0 0 0 0 3 1 2 2 1 29 73 74 79 85 99 109 101 96 105 129 133 124 140 136 148 150 140 152 137 135 121 103 97 93 86 82 70 73 66 58 68 67 66 63 62 67 56 65 55 65 99 106 116 129 144 162 175 165 179 193 193 194 175 194 194 196 193 188 194 193 195 193 195 189 193 192 194 193 193 194 194 193 193 193 192 193 191 193 193 192 192 191 190 181 191 191 191 192 189 190 189 192 189 170 190 175 189 189 189 187 188 187 186 187 188 189 190 191 192 192 195 194 184 193 194 185 110 43 6 42 117 143 187 193 184 193 189 194 193 194 193 194 193 185 194 193 194 186 180 182 191 184 193 191 193 194 193 192 191 194 194 193 191 191 192 192 181 192 192 193 191 180 177 190 176 191 191 190 192 193 192 191 191 189 191 191 192 191 191 191 192 191 181 190 191 191 191 189 191 191 192 191 193 191 187 192 190 185 190 191 192 189 192 190 176 189 191 191 191 179 189 191 190 190 192 184 180 188 179 191 190 191 175 180 189 173 190 190 191 190 192 190 190 189 188 189 192 191 191 190 190 189 190 191 191 191 188 189 183 190 190 187 189 192 189 178 179 175 190 191 191 191 178 189 181 190 189 190 189 189 190 179 188 183 189 190 188 172 169 185 100 24 12 0 2 0 3 48 116 163 182 189 192 190 186 183 179 172 175 175 176 150 161 181 184 186 173 186 185 188 177 187 179 188 189 190 189 190 189 189 190 191 192 191 192 191 192 193 180 191 193 192 191 177 191 192 191 180 191 183 191 190 182 191 186 191 192 189 190 173 190 190 191 190 191 191 190 181 190 184 190 188 182 190 190 187 173 186 185 177 185 167 162 177 142 112 8 0 2 0 1 2 1 1 0 2 1 2 0 0 0 2 0 0 1 0 0 1 0 1 2 4 1 1 0 3 0 0 0 0 0 5 1 0 0 0 1 1 1 1 0 0 0 1 0 1 0 0 1 1 0 1 0 0 0 1 1 0 2 1 0 1 0 0 0 0 2 0 0 1 0 0 0 0 0 1 0 0 0 0 0 0 0 0 1 2 1 1 1 0 0 0 0 0 2 1 0 0 
2 5 1 1 0 0 1 2 0 2 0 0 0 0 0 0 0 2 0 0 0 1 0 1 1 1 1 3 0 0 1 3 0 1 8 0 1 1 1 3 0 0 1 1 0 0 0 0 1 2 1 0 1 0 0 0 1 0 0 1 0 1 2 0 0 1 1 1 0 1 0 0 1 1 0 0 0 2 0 0 1 0 2 0 1 1 1 0 2 1 0 1 5 0 1 4 0 1 1 0 0 1 0 0 0 0 0 0 0 0 0 1 1 1 0 1 1 1 1 0 0 0 2 0 1 1 1 0 0 2 1 5 2 0 1 2 0 0 0 5 3 1 0 0 1 1 0 0 1 1 0 0 2 3 1 0 1 1 2 0 0 4 37 67 73 73 85 87 103 112 114 124 128 131 135 140 144 147 150 146 137 127 111 107 95 88 82 80 73 77 80 78 75 77 75 75 67 71 64 65 63 72 103 121 132 146 160 170 185 192 192 179 192 173 179 193 194 194 194 193 176 176 180 194 194 193 184 194 194 194 194 188 194 193 193 193 193 194 194 192 192 192 194 193 193 192 189 183 190 191 191 191 191 190 189 188 174 170 187 189 187 188 188 186 187 187 187 184 189 190 191 192 192 192 194 179 195 191 183 131 28 10 65 137 179 190 184 192 192 193 194 194 194 193 192 191 185 194 194 195 191 192 192 191 192 174 192 193 193 192 193 194 192 192 184 193 191 192 192 193 187 193 191 192 192 176 190 191 185 193 192 193 192 173 191 190 190 192 191 192 190 177 171 176 190 190 191 190 177 179 192 191 191 191 191 186 190 192 190 178 192 181 190 175 191 181 190 191 190 190 190 184 190 176 189 181 190 191 190 191 176 190 183 190 190 191 191 189 170 156 176 190 192 192 191 191 191 181 191 190 191 191 175 178 179 191 191 189 190 180 191 191 186 191 190 191 191 190 190 188 190 190 190 190 181 189 190 190 189 190 188 173 187 177 171 187 191 191 191 189 189 179 105 6 3 5 0 9 20 98 147 177 182 189 187 191 187 182 155 141 124 137 144 118 158 138 170 175 178 178 182 183 172 183 185 186 186 187 187 176 188 189 189 191 191 191 191 191 192 188 193 192 191 182 173 190 173 191 190 181 174 190 191 192 192 193 191 190 192 192 191 193 192 190 191 191 191 191 193 190 191 190 191 190 190 190 188 190 189 189 188 188 187 184 184 179 141 96 26 1 0 0 0 0 1 0 0 0 1 1 4 0 0 0 0 2 0 0 0 0 0 1 0 0 0 0 1 0 0 1 2 1 1 1 2 1 1 0 1 7 1 0 0 0 0 0 1 0 0 0 0 3 0 0 0 0 1 1 11 1 0 0 0 0 2 0 0 0 1 1 0 1 0 0 0 1 0 2 1 1 0 0 0 2 1 0 1 0 0 1 1 0 0 0 1 0 1 1 0 2 
1 1 9 1 0 0 0 0 2 4 2 0 1 0 0 2 0 0 0 0 1 0 1 0 1 1 0 1 0 0 1 2 1 1 1 0 0 0 0 0 1 0 1 0 0 0 0 1 0 6 1 1 0 0 0 1 1 1 7 2 0 1 0 0 4 0 1 6 0 0 0 2 0 0 0 0 1 0 1 0 1 1 0 1 0 2 0 0 0 0 0 0 0 0 1 1 0 1 0 0 0 1 0 1 0 0 0 1 1 1 0 2 2 0 2 0 0 1 2 1 0 1 1 2 2 1 0 2 0 0 1 1 1 1 0 1 0 0 0 2 0 1 2 2 1 0 0 1 1 0 1 1 1 2 2 5 1 0 0 0 1 2 3 38 52 61 66 77 89 101 110 117 121 109 131 135 139 132 135 129 134 115 105 97 89 88 79 80 78 83 86 86 82 89 85 83 78 76 72 70 69 82 97 132 146 156 165 178 190 194 193 192 178 194 193 193 178 194 194 193 176 192 172 193 195 195 178 193 181 193 193 194 192 193 192 193 192 193 192 192 185 181 190 191 192 192 191 190 191 189 181 188 189 189 188 188 189 177 188 182 187 188 188 180 186 187 188 181 188 188 190 191 193 192 194 193 195 193 193 177 117 61 19 83 130 184 191 192 192 194 193 177 181 191 176 194 187 193 194 188 193 191 193 191 166 176 192 192 193 192 191 193 193 191 191 191 193 193 191 192 192 193 191 191 178 191 191 190 187 187 194 192 190 191 191 190 190 178 190 181 189 172 190 192 192 191 192 185 191 192 192 192 192 192 190 192 192 193 191 192 191 190 190 191 189 191 178 191 192 190 191 191 193 192 190 192 191 190 190 189 179 190 190 191 192 190 176 179 163 167 189 180 191 191 182 191 191 183 190 190 192 193 189 191 189 190 191 191 190 190 190 192 191 188 190 192 192 191 191 191 191 190 191 191 191 190 190 189 183 189 189 172 167 188 188 190 180 189 191 191 189 116 49 4 0 1 1 4 65 139 147 183 188 191 191 190 185 182 175 107 20 50 37 55 71 82 115 132 129 152 162 168 170 156 177 179 184 183 184 185 176 186 188 188 189 188 188 192 190 190 192 187 191 190 190 192 184 179 192 192 191 173 192 192 194 192 193 192 192 192 188 191 179 192 176 176 192 193 190 191 191 183 191 191 186 183 192 191 189 190 189 190 187 186 184 183 155 156 56 3 5 0 1 0 0 1 0 0 4 0 1 0 0 0 2 0 0 0 1 2 0 2 0 0 1 0 0 0 1 0 1 0 4 8 2 1 2 0 0 2 0 0 2 0 0 1 0 0 0 0 0 2 0 0 0 2 0 1 1 0 0 2 0 0 0 0 0 0 0 0 1 0 0 1 0 1 0 0 0 0 0 0 1 1 1 1 1 0 0 0 0 0 2 0 0 0 0 0 1 0 
0 5 1 1 0 0 1 2 9 0 2 0 0 0 0 0 0 0 0 0 0 0 0 0 1 1 0 1 1 0 1 2 0 1 0 0 0 0 1 9 7 1 0 3 0 0 1 1 0 0 10 6 0 0 0 0 0 1 1 0 0 0 2 1 0 0 1 0 0 1 0 1 0 0 0 0 0 0 0 1 1 2 1 0 1 0 1 0 1 0 0 0 0 2 0 1 0 1 1 0 0 1 0 1 2 4 1 1 1 1 0 1 1 1 0 2 2 2 0 0 0 2 9 10 3 1 1 0 1 0 0 1 1 2 0 0 1 1 0 0 0 0 0 2 0 1 1 5 2 0 1 0 0 0 6 1 1 0 6 0 0 1 0 2 12 33 42 54 67 77 90 106 114 120 118 129 134 124 140 138 124 110 101 87 85 78 77 75 76 82 83 87 92 92 95 94 85 73 83 71 82 92 122 135 155 164 176 187 192 194 193 194 193 194 194 194 193 192 194 194 193 176 176 180 194 192 193 193 194 192 193 194 192 193 182 190 177 192 192 192 192 190 191 192 192 191 189 190 191 190 191 174 178 188 186 189 187 187 184 187 186 187 186 187 186 186 186 188 186 188 188 188 191 191 193 183 181 194 194 190 134 94 11 26 88 167 174 190 192 192 192 192 179 172 171 194 194 194 194 193 192 183 192 170 166 190 180 192 193 194 181 192 193 182 193 193 187 192 191 183 191 191 192 190 181 176 192 191 191 191 192 192 191 191 190 192 192 190 192 174 191 191 191 193 191 191 189 169 173 190 191 191 192 192 191 178 190 191 192 192 191 192 189 191 191 181 190 193 191 191 191 190 185 191 191 190 185 191 190 181 188 192 191 191 189 189 179 191 189 175 189 190 189 192 191 191 191 190 191 191 185 192 191 190 192 190 191 191 186 190 192 191 192 189 191 191 191 191 192 191 191 176 189 191 190 191 191 178 190 191 187 189 188 173 188 190 189 185 191 192 184 89 9 2 0 9 2 17 124 148 180 181 190 191 176 169 162 183 175 115 8 1 2 2 3 5 11 20 33 51 77 89 112 129 143 154 160 169 172 174 164 180 175 183 185 186 186 187 188 179 189 178 190 172 170 190 190 191 192 192 192 191 192 193 193 193 193 190 195 193 192 194 192 190 176 191 193 192 174 191 192 191 191 191 192 186 192 192 191 190 190 188 188 188 175 185 182 169 93 6 1 1 0 0 2 6 1 0 2 1 1 0 0 0 1 0 0 3 1 0 2 2 1 0 0 0 0 0 1 1 0 1 1 0 1 7 0 0 0 2 1 0 1 1 1 2 2 0 1 1 0 1 0 1 1 0 0 1 1 5 0 0 0 0 0 0 4 0 1 0 0 1 0 1 1 0 0 1 1 0 0 0 1 0 9 5 2 0 0 1 1 2 1 2 0 0 0 0 0 0 
0 0 0 0 0 3 0 1 1 0 0 1 0 0 0 0 1 1 0 2 0 0 0 0 0 0 0 5 0 0 0 0 2 1 0 0 0 0 0 2 1 0 0 0 1 0 2 5 0 1 0 1 0 2 0 1 2 1 1 0 0 1 1 0 0 1 0 0 0 4 1 1 0 0 1 1 0 0 1 0 0 1 2 3 1 0 1 0 1 0 0 0 4 0 0 0 2 6 1 0 1 0 0 0 1 3 0 2 0 0 0 7 9 13 1 0 1 0 5 0 1 1 13 2 1 0 0 2 1 4 0 3 0 0 0 0 0 2 0 1 0 1 2 5 1 4 0 2 0 3 0 0 0 1 0 1 0 2 0 0 0 1 1 0 1 4 15 27 40 60 77 92 104 114 108 118 128 128 117 124 110 100 93 79 75 73 71 69 73 77 83 83 93 95 100 99 89 84 97 85 97 114 139 155 163 174 182 190 192 192 193 180 193 175 181 191 193 194 194 194 194 192 193 193 194 185 192 179 193 193 192 192 193 193 192 191 178 192 190 192 190 172 190 191 191 190 187 180 190 190 190 188 188 181 188 188 189 188 188 184 186 188 186 187 187 186 187 186 169 168 187 189 190 190 180 191 193 194 192 193 189 162 71 54 72 107 175 189 193 181 191 193 193 192 192 192 184 193 186 193 193 192 192 193 178 174 191 179 190 192 192 184 193 192 192 194 193 193 191 183 177 191 192 193 190 172 192 192 193 192 192 191 192 191 191 192 193 193 189 189 192 192 191 192 191 191 166 156 191 191 183 190 190 191 192 192 190 193 191 191 191 192 191 192 190 189 192 192 191 191 184 191 192 191 191 182 188 191 183 182 190 191 191 180 176 191 191 191 192 191 190 192 190 186 191 191 190 173 176 190 192 192 191 189 190 192 191 191 181 190 192 184 191 190 191 191 191 190 191 190 191 171 164 166 189 189 190 190 191 191 174 188 190 188 189 190 190 191 191 191 175 80 3 0 1 1 3 58 157 181 188 189 189 191 190 187 165 180 175 114 8 1 1 0 0 0 1 0 2 2 3 5 26 17 31 48 67 88 110 129 142 153 163 167 173 176 177 180 182 183 186 186 187 189 188 189 176 191 190 191 177 191 184 190 193 192 194 193 184 192 189 193 193 193 192 193 193 194 193 193 192 186 193 192 191 191 193 191 179 190 190 178 173 173 187 186 184 175 120 44 4 0 1 1 0 1 0 0 1 1 2 1 0 6 2 0 4 4 1 1 0 0 0 0 0 7 0 0 1 0 0 2 1 1 0 0 1 0 1 1 1 1 8 1 2 0 0 0 0 0 0 1 1 2 0 0 1 0 1 0 1 0 1 1 0 1 0 1 1 0 1 0 0 1 0 2 1 1 0 2 0 0 0 0 1 0 5 1 0 0 5 0 0 0 0 0 0 0 1 1 
0 0 0 0 0 0 1 0 0 1 0 0 1 0 0 2 0 0 2 0 0 1 1 1 0 0 1 0 1 0 0 8 0 1 0 1 0 0 1 0 1 0 0 0 2 6 5 0 0 0 4 2 0 1 4 0 1 0 0 0 4 0 0 0 0 0 0 2 2 5 0 1 0 0 1 0 1 0 0 0 0 0 0 2 0 0 0 0 0 0 1 1 0 0 4 0 0 1 0 0 0 1 9 1 0 0 1 2 1 1 1 0 1 1 1 0 5 1 1 0 3 0 1 2 2 2 2 0 0 0 1 0 1 1 1 0 0 1 1 0 0 1 0 0 0 0 0 4 5 12 0 1 0 0 1 1 2 0 0 0 0 1 1 0 2 9 2 3 11 30 55 75 88 101 111 116 112 101 111 101 92 87 79 76 64 68 57 59 66 67 76 82 89 96 103 102 103 99 103 100 111 119 151 155 170 183 188 180 192 182 193 194 193 191 168 192 193 194 194 190 192 194 192 193 192 192 183 176 191 193 192 194 193 190 191 182 191 192 191 190 191 176 188 177 192 190 189 189 191 184 187 189 189 190 185 189 189 187 188 188 186 178 187 185 186 187 182 186 171 185 168 185 189 183 190 191 191 185 194 194 194 187 152 50 9 68 142 183 190 189 191 185 193 194 193 181 192 192 194 193 190 193 192 180 192 193 193 175 193 192 194 191 193 193 193 192 192 191 192 179 191 191 192 193 191 193 193 191 193 190 191 191 191 192 193 192 191 190 182 193 191 191 191 190 192 191 189 168 190 190 189 192 192 190 191 192 191 192 189 191 193 191 191 191 191 191 191 191 190 193 191 176 190 191 190 189 171 191 192 192 192 191 191 190 190 184 191 191 191 191 191 191 192 186 191 191 191 179 190 190 191 191 191 190 191 188 191 190 191 189 191 190 191 192 191 191 192 190 191 191 191 190 189 170 189 175 175 190 191 190 190 191 188 189 190 190 189 192 191 170 154 28 3 0 1 1 9 108 173 189 189 159 154 166 189 187 166 182 175 113 9 1 0 2 2 1 3 0 1 3 1 0 1 2 0 2 4 4 7 17 54 66 66 87 108 126 117 153 163 169 173 176 165 182 184 185 186 187 189 189 189 191 175 174 192 192 192 193 194 192 195 194 192 193 193 192 194 177 192 178 193 192 192 193 193 181 192 192 175 177 192 191 190 189 188 188 186 177 125 13 8 1 0 1 0 0 2 1 0 0 0 0 0 2 1 0 2 1 1 2 1 0 0 1 1 2 2 0 0 0 0 1 1 0 0 0 0 3 1 0 0 0 0 5 0 0 1 0 0 4 0 0 5 2 1 0 1 1 0 0 0 1 0 1 0 1 1 7 1 0 0 0 0 8 0 0 1 0 1 1 1 1 0 2 0 0 0 1 0 2 1 0 1 2 0 0 0 0 0 0 
0 1 1 3 0 0 7 0 1 0 0 0 0 2 0 1 2 0 2 0 0 0 0 0 1 0 2 0 0 0 0 1 0 1 1 2 0 2 6 1 0 0 0 0 1 1 1 0 3 0 0 0 1 1 0 1 1 0 0 0 6 2 6 0 0 0 1 0 1 0 2 2 0 1 0 0 1 0 0 0 0 0 2 1 0 0 0 2 1 4 0 3 0 1 2 0 0 0 0 0 2 2 2 12 0 0 0 0 0 1 1 1 0 0 0 2 2 2 0 2 10 7 1 0 0 0 3 1 0 0 1 0 3 0 1 3 1 0 1 0 1 1 1 1 1 0 0 0 0 1 1 2 0 0 0 0 0 2 1 0 1 1 1 5 1 1 1 1 0 5 24 46 61 88 99 106 104 99 91 80 71 63 60 62 53 54 53 57 60 66 69 76 77 91 97 103 106 109 107 106 113 143 165 175 181 189 191 190 192 191 192 192 190 168 172 192 192 194 193 193 187 192 193 193 194 194 191 191 186 194 192 187 191 193 178 192 192 191 174 176 188 190 179 188 176 189 190 190 189 181 189 188 188 186 178 187 187 188 185 187 187 186 179 175 163 184 185 185 186 164 183 167 176 189 190 182 191 194 186 193 184 192 180 94 28 10 79 157 186 189 190 192 191 193 194 192 193 192 193 181 192 192 181 193 194 192 192 193 192 194 193 192 193 190 193 193 191 192 192 193 192 182 193 191 192 193 191 192 192 192 191 170 173 191 193 190 175 191 192 191 191 191 190 181 190 192 192 191 191 176 175 190 192 191 192 193 190 191 191 192 181 188 191 192 191 183 191 192 191 191 190 190 192 190 192 190 191 191 191 192 191 191 174 192 192 191 192 192 192 191 181 192 192 179 176 190 183 192 191 192 192 190 191 190 191 190 191 192 194 190 184 190 190 191 191 193 191 192 192 190 179 190 189 190 190 189 190 189 185 191 191 189 189 190 190 191 182 192 190 182 109 34 2 0 0 1 34 114 177 190 190 164 159 188 161 160 162 181 174 113 32 1 1 1 1 4 1 1 1 0 1 2 1 0 0 0 2 0 0 0 4 4 5 31 9 14 28 48 69 89 98 131 145 131 162 171 175 159 181 182 173 186 186 189 189 189 190 192 191 173 190 193 184 193 192 194 194 193 193 193 194 185 194 194 193 194 193 181 193 193 192 192 177 191 190 178 186 178 128 46 3 0 2 0 0 0 0 1 0 1 0 0 13 1 0 2 6 1 0 0 0 1 1 0 0 0 1 0 1 0 0 1 0 0 0 1 4 1 2 1 2 0 2 1 1 1 2 0 1 4 1 0 1 3 0 0 1 2 0 0 0 1 0 1 1 1 1 0 3 1 1 0 0 0 2 0 4 0 0 0 5 1 1 1 0 0 2 0 0 4 0 1 2 0 0 1 3 0 0 0 
1 1 0 5 1 1 1 0 1 0 0 0 1 1 0 0 6 0 0 1 1 0 1 0 0 0 0 0 2 0 0 0 0 0 1 1 0 1 2 0 0 0 4 0 1 2 0 2 1 0 1 4 1 3 4 1 0 0 0 0 0 0 1 0 0 0 0 0 1 1 1 2 0 0 0 2 2 0 0 0 0 0 1 0 1 0 0 0 1 2 6 1 1 0 0 0 0 0 1 1 1 2 1 1 0 0 0 1 0 0 1 0 0 8 0 1 0 0 2 1 0 0 1 4 1 1 1 1 0 0 1 1 8 2 0 3 0 2 6 0 1 1 5 0 0 0 0 0 1 1 1 6 1 1 2 3 1 1 0 0 0 1 2 2 1 0 0 3 0 0 4 22 44 60 72 79 82 79 71 59 50 46 40 38 33 33 41 47 51 58 63 68 73 79 87 99 106 86 100 110 121 160 175 173 175 191 192 183 190 172 192 190 170 191 192 178 192 178 192 178 192 191 191 192 194 192 192 193 191 190 193 191 189 193 191 193 192 190 178 190 179 189 189 188 190 189 191 190 188 187 189 189 189 188 179 186 187 177 175 185 184 186 173 184 184 166 185 185 185 162 184 185 183 188 189 180 190 192 192 193 193 194 191 141 118 21 21 98 163 155 186 180 174 191 173 192 193 184 192 193 193 192 192 191 193 193 192 193 192 188 192 193 191 194 192 191 192 193 192 192 192 192 192 183 193 195 192 192 192 192 191 192 192 191 190 172 176 191 181 184 192 191 191 179 191 192 183 190 191 191 190 181 192 190 192 191 190 193 191 191 190 192 185 193 189 190 190 191 191 191 191 191 191 190 190 189 185 190 182 176 192 191 179 190 191 192 191 191 192 191 185 191 191 191 190 191 190 191 191 187 183 191 192 192 190 182 191 179 190 190 177 191 190 191 191 179 190 191 192 191 190 189 178 189 192 192 190 191 189 180 190 190 189 191 192 190 191 182 190 168 47 3 0 0 1 28 83 165 186 190 191 167 167 164 169 186 161 183 173 92 8 1 1 1 0 0 0 0 1 1 0 3 2 2 1 4 1 1 1 0 5 0 1 2 0 3 1 3 3 4 9 18 35 53 77 102 125 143 156 162 170 177 167 183 185 184 170 188 189 190 177 191 192 191 193 185 192 189 194 194 192 193 193 194 192 194 193 193 193 192 192 181 181 190 179 188 184 179 130 15 10 0 0 0 3 0 1 1 1 0 3 0 1 1 0 2 1 0 0 0 2 0 8 10 0 1 0 6 2 0 2 0 0 1 0 1 0 0 0 0 0 2 0 6 1 2 0 1 1 2 1 2 1 0 1 2 1 1 0 0 0 1 1 4 0 0 1 1 1 0 1 0 0 0 0 0 0 0 0 0 2 1 4 1 0 0 0 0 1 0 1 0 1 0 1 0 1 0 0 0 
1 1 0 0 0 1 0 0 1 0 3 1 0 2 0 0 2 2 0 0 1 0 6 2 1 2 0 1 0 1 0 2 0 1 0 0 0 0 0 0 0 0 0 0 1 1 0 0 8 1 6 1 2 1 1 1 0 0 1 2 0 0 0 0 1 0 0 0 0 3 0 2 0 2 1 0 1 0 0 0 0 1 3 0 1 0 0 3 1 0 0 1 0 0 1 1 0 0 0 1 2 8 1 2 1 0 1 0 1 1 0 0 0 1 2 9 1 0 2 0 1 1 1 2 1 0 1 9 1 1 0 0 4 1 0 1 1 2 0 2 6 1 1 0 0 1 0 0 0 0 1 1 0 0 2 1 2 1 1 0 4 0 1 2 1 0 0 0 1 1 0 3 29 28 37 45 53 58 53 44 35 26 25 16 20 16 24 31 41 49 53 60 64 59 69 90 82 83 100 116 146 180 182 188 190 191 192 194 191 173 192 192 174 193 191 190 193 190 180 191 192 191 176 191 190 191 192 192 192 191 192 193 193 191 192 190 190 191 190 191 180 191 190 190 182 189 189 175 189 189 187 187 180 187 186 188 187 187 185 171 169 186 185 184 184 164 183 185 185 171 184 175 185 187 189 189 181 191 193 193 192 184 192 191 172 100 68 75 112 125 159 188 191 180 190 193 195 193 194 184 186 173 191 181 191 186 193 193 192 192 192 193 192 193 172 170 190 184 191 193 191 193 193 192 192 192 187 192 190 191 192 192 193 192 193 180 190 191 192 192 188 191 185 192 190 173 180 185 190 191 192 190 191 190 191 191 179 178 191 192 187 190 191 191 192 191 191 191 192 193 192 192 191 191 185 191 192 191 191 190 190 192 191 191 183 192 192 176 192 191 191 192 191 190 184 191 170 176 189 190 191 193 190 190 191 192 191 190 178 190 192 190 190 191 191 180 190 191 191 193 192 191 190 180 193 191 190 190 191 191 190 191 190 191 191 192 186 190 188 132 13 0 2 1 1 19 131 174 178 191 190 192 191 190 189 187 185 183 173 84 5 0 0 4 0 2 1 3 2 1 7 1 1 0 1 1 2 0 0 1 2 1 1 1 0 0 1 0 1 2 1 1 2 4 32 51 59 65 69 72 98 122 141 155 162 145 173 178 182 184 186 187 190 191 191 191 192 193 191 191 170 162 192 194 192 178 193 194 194 184 194 191 192 190 179 188 186 154 107 51 2 0 1 0 1 1 1 4 1 2 3 0 0 0 1 0 1 0 2 0 0 5 12 1 0 5 1 0 2 0 2 0 0 2 0 1 4 0 0 1 0 1 0 1 0 2 0 0 0 0 0 0 0 1 0 0 5 1 1 0 2 1 0 1 2 1 2 1 1 0 1 0 1 1 0 0 2 1 0 0 0 0 0 1 1 1 1 0 0 1 1 0 0 1 1 0 0 0 9 0 
2 0 0 0 0 0 0 0 1 0 5 2 2 1 1 0 0 0 1 1 1 1 1 1 6 5 2 1 2 1 1 2 1 1 0 0 0 0 0 1 2 0 0 0 2 0 1 1 1 0 0 1 2 2 1 0 1 1 1 1 1 1 1 0 1 0 0 0 1 1 2 0 2 0 0 0 0 0 0 0 1 1 0 1 0 1 0 1 0 1 4 3 1 1 0 0 0 0 6 1 0 3 0 0 1 0 1 1 1 0 0 0 1 2 8 1 0 0 1 1 0 0 1 1 2 0 0 1 1 0 1 0 0 1 1 0 0 0 0 1 1 1 0 1 1 1 0 0 0 0 0 0 3 2 0 3 6 1 0 0 0 0 0 0 1 0 0 0 0 0 1 2 2 7 17 26 31 32 36 34 26 11 7 7 9 2 5 22 21 31 41 48 55 50 69 78 67 85 94 105 165 185 185 179 189 190 191 181 191 169 191 191 176 185 192 194 191 192 181 191 178 173 173 173 192 192 192 192 190 192 192 190 192 191 184 192 190 191 192 189 181 187 190 188 189 187 190 189 188 188 188 174 187 189 187 188 179 186 185 186 185 187 178 175 184 184 184 177 183 184 185 178 183 177 186 186 188 178 192 193 191 183 193 192 161 130 83 12 40 105 170 186 188 165 189 191 192 193 193 190 185 193 178 192 193 193 192 193 195 192 180 193 193 191 173 177 191 192 192 191 191 194 193 192 193 192 190 179 166 190 192 186 192 190 191 190 193 192 183 178 191 192 190 179 191 191 192 191 181 190 192 191 192 171 176 189 179 190 190 180 190 191 191 192 190 191 191 179 192 192 191 190 192 191 191 191 191 191 185 191 177 191 192 191 191 192 191 184 192 191 192 193 192 186 190 175 173 190 191 191 192 181 185 184 192 176 189 191 191 191 174 171 177 191 191 190 172 191 191 192 193 192 190 191 190 191 181 191 190 190 191 190 191 184 192 191 192 191 177 74 5 3 10 0 2 57 156 151 162 189 191 193 192 190 188 172 185 182 173 80 6 0 0 0 0 4 9 2 1 0 0 6 1 0 1 2 1 0 0 1 0 0 6 2 0 1 0 1 0 1 3 2 0 0 1 2 4 28 24 5 5 12 27 48 71 98 124 127 159 168 175 179 184 182 170 187 188 177 190 172 167 168 183 192 193 192 194 194 183 193 192 193 193 193 193 191 187 180 130 45 3 1 0 0 0 0 4 4 0 2 1 0 1 1 0 0 0 0 2 1 0 2 1 1 0 0 6 0 1 1 1 0 0 0 1 2 3 1 0 0 0 1 2 0 0 0 1 0 1 1 0 0 0 0 0 0 0 0 0 1 0 0 0 0 1 0 1 0 1 1 2 0 1 0 0 2 0 0 0 0 1 1 1 0 0 2 2 1 0 1 0 0 0 0 2 0 0 0 1 3 
1 0 0 0 0 0 2 2 0 1 0 0 0 7 0 0 0 0 1 0 1 0 0 0 0 0 3 2 2 4 0 1 0 0 2 0 0 6 4 1 0 0 1 0 0 1 0 0 0 1 2 0 0 2 0 4 0 0 0 0 0 5 0 0 0 0 0 0 1 0 1 0 6 0 0 0 0 0 0 0 1 0 1 0 1 1 2 0 2 0 0 1 0 2 0 0 0 0 0 2 1 0 0 4 0 1 4 0 2 1 0 2 1 2 0 0 0 0 0 1 1 0 0 0 1 3 2 2 2 1 0 1 1 0 1 2 0 0 0 1 0 1 3 1 2 1 1 0 0 0 0 0 0 2 0 1 0 0 0 0 0 0 0 0 0 0 1 2 0 0 1 0 0 0 4 5 8 9 11 18 10 7 3 2 3 2 10 10 5 12 23 32 41 47 55 61 73 73 84 111 178 168 170 188 181 191 190 191 192 176 191 191 190 191 192 191 191 192 193 191 192 192 189 171 190 191 193 192 192 193 192 191 190 192 189 190 190 189 190 187 175 189 179 190 189 189 188 188 188 188 175 179 186 186 186 185 186 187 186 186 185 185 184 184 172 185 186 184 175 186 184 184 184 184 185 186 189 189 190 189 192 192 192 194 192 184 114 75 13 49 130 176 159 162 169 186 183 189 179 179 193 192 192 193 193 194 193 194 193 193 192 193 193 192 192 179 192 191 192 192 193 191 184 192 192 179 191 191 177 192 194 191 192 192 192 193 191 193 191 190 192 190 192 191 190 192 191 191 191 192 190 185 173 189 190 192 179 191 182 191 190 192 191 192 192 191 176 191 191 191 191 182 190 182 191 190 193 191 191 192 192 190 192 190 192 191 183 190 193 191 192 191 191 191 191 190 174 174 192 192 187 191 191 189 191 176 191 185 191 192 191 190 192 192 192 192 191 190 191 190 183 190 191 191 193 192 191 191 191 174 168 178 189 191 192 190 192 189 152 61 5 1 1 2 11 108 170 167 188 174 175 174 191 189 188 186 183 160 135 107 6 0 12 1 1 1 2 13 11 2 0 2 2 3 3 0 1 0 1 0 0 0 7 1 1 0 0 0 1 3 0 0 0 0 1 0 1 1 1 0 0 0 2 4 5 7 16 62 80 94 119 141 158 165 149 179 182 186 186 187 188 190 182 191 192 192 186 192 194 193 192 192 193 192 192 189 177 180 114 9 1 0 0 0 0 1 0 4 1 0 4 1 4 0 1 2 1 1 2 0 0 0 1 0 1 2 1 3 9 2 2 0 1 1 0 1 1 0 0 1 0 1 0 0 0 2 0 0 0 0 1 1 0 0 1 1 0 1 0 2 0 1 1 3 1 2 0 1 4 0 0 0 0 0 1 0 0 1 0 1 0 1 0 0 2 5 1 2 0 0 0 3 0 1 0 1 1 1 1 1 
1 0 1 1 0 1 0 4 1 1 0 0 2 1 1 1 0 1 0 1 1 0 1 1 0 0 0 0 0 0 1 1 0 0 1 1 0 2 12 3 0 0 2 0 0 0 0 0 0 0 4 2 0 0 0 1 2 0 0 1 1 0 0 0 0 2 0 0 1 0 1 0 0 2 1 0 0 0 0 0 1 2 1 1 0 0 0 1 1 1 1 1 0 2 0 0 2 1 1 0 0 0 0 0 1 0 0 0 0 0 1 0 1 1 1 0 0 1 1 1 1 0 2 0 1 0 2 1 9 0 1 0 0 0 0 1 2 0 4 1 0 2 1 1 2 1 0 1 0 0 1 1 0 0 0 3 2 0 1 1 0 1 0 1 3 0 0 1 7 7 0 1 0 0 0 0 8 2 1 1 0 0 1 0 0 3 1 0 0 2 6 12 22 33 40 48 53 59 80 119 184 189 171 189 179 191 190 190 181 192 191 183 179 177 192 185 191 190 191 191 193 192 192 190 191 192 190 183 186 190 191 191 190 190 189 189 191 190 189 189 188 175 188 188 189 189 189 188 188 188 188 186 188 186 173 175 180 185 187 186 185 183 183 184 184 184 185 184 181 183 184 185 180 185 185 184 182 186 188 189 190 193 193 192 193 191 184 120 84 16 53 135 172 186 187 190 190 191 191 190 191 193 193 193 193 193 193 188 192 191 193 192 193 193 193 192 191 194 184 191 192 191 193 192 190 192 192 192 192 192 191 191 192 192 177 182 193 191 192 190 184 191 192 191 192 191 175 191 192 178 191 192 191 182 191 191 191 192 190 191 191 186 191 191 193 191 191 191 192 192 186 191 189 179 192 191 192 184 191 192 191 192 192 187 193 191 191 191 192 190 191 192 192 191 180 191 182 188 183 191 189 182 192 190 190 191 192 175 191 192 192 189 191 191 191 191 192 192 192 189 191 191 182 192 191 191 191 191 191 189 191 192 191 186 194 194 190 174 79 7 2 7 2 30 73 147 181 176 191 191 193 191 191 189 182 187 183 179 172 109 8 1 9 6 2 1 1 2 2 9 4 1 0 2 3 1 2 0 1 1 1 0 1 2 0 1 0 0 0 2 0 0 0 0 1 0 1 2 1 2 0 1 0 0 1 0 8 4 35 40 14 32 55 81 120 146 163 173 177 163 168 186 177 188 192 191 192 186 193 192 192 193 192 193 191 190 186 176 95 33 14 2 0 0 1 0 0 1 0 2 1 0 0 0 0 2 0 0 0 0 0 0 1 1 0 0 3 2 0 0 1 1 0 0 0 0 0 1 0 0 0 0 0 1 0 1 0 0 0 1 1 0 2 5 4 0 1 2 0 2 0 0 0 1 1 0 0 0 0 1 3 0 1 1 1 0 0 0 1 2 2 0 0 0 0 0 1 0 1 1 1 0 1 0 1 0 0 0 1 0 
8 0 0 0 1 0 2 1 0 1 2 0 1 0 0 2 0 4 1 0 2 0 0 1 0 1 0 0 2 1 0 0 0 1 0 2 1 0 8 2 3 1 0 0 1 0 0 0 1 0 1 6 0 0 1 0 0 0 1 0 0 1 0 0 0 1 0 2 0 0 0 2 0 2 0 0 0 2 0 2 1 0 1 1 1 0 0 0 1 1 0 4 1 2 0 1 0 0 2 0 2 0 4 2 4 0 0 0 0 0 1 1 0 0 1 1 0 0 0 1 0 0 1 0 1 0 0 1 0 0 1 0 0 0 0 0 0 1 0 1 5 1 0 1 0 0 0 1 1 1 1 1 0 0 1 0 0 2 0 1 2 0 1 1 8 0 1 0 2 0 1 0 4 2 0 0 0 1 1 0 0 0 0 0 8 2 1 0 0 4 0 2 5 13 23 32 37 44 65 160 165 178 187 189 189 191 184 191 189 191 192 190 191 192 192 191 192 177 179 177 175 191 191 190 192 191 176 191 191 189 191 190 191 190 190 176 189 189 188 189 189 189 189 185 187 189 188 189 188 187 187 184 188 186 185 184 184 172 186 185 184 178 184 183 180 185 184 185 184 184 183 185 182 182 186 185 177 185 188 186 190 184 192 191 193 194 178 188 167 92 17 46 103 177 186 188 190 191 190 191 191 192 192 178 192 192 192 192 182 193 193 191 192 192 189 191 192 192 178 192 192 192 193 191 191 192 192 192 193 192 192 187 192 192 191 191 191 190 192 190 191 185 192 191 191 192 185 190 191 191 190 193 191 192 193 184 192 191 191 191 191 191 191 192 190 191 190 192 189 172 191 190 176 175 192 191 192 192 192 191 191 192 191 192 191 192 191 192 191 191 191 192 192 191 192 190 191 192 188 192 193 190 192 192 193 192 191 180 191 193 191 192 192 192 192 192 193 192 184 191 191 181 189 191 191 193 191 191 191 190 188 192 193 191 193 192 184 128 14 8 1 0 0 13 113 171 187 191 191 192 194 194 189 180 187 184 171 180 148 108 8 1 1 1 0 1 1 1 0 1 2 1 1 0 0 0 0 0 1 3 0 0 0 1 1 1 1 0 1 0 1 0 1 0 2 0 2 2 2 4 1 6 9 9 19 15 8 8 20 7 4 3 2 5 17 58 80 114 143 132 171 178 182 184 187 189 190 192 194 184 193 191 191 192 190 176 170 171 68 6 1 10 1 0 0 0 1 1 0 0 0 0 1 0 2 1 0 1 0 1 1 3 0 0 2 0 1 0 1 4 2 2 0 2 0 0 3 1 0 2 2 0 0 1 0 1 1 0 1 0 2 0 0 0 1 0 0 0 0 1 1 0 0 0 0 1 2 1 0 0 2 1 0 0 1 1 0 0 0 0 0 0 1 0 0 1 1 0 0 1 3 5 8 6 4 2 1 1 0 0 
0 0 0 2 0 4 1 0 1 6 1 1 2 0 1 1 0 0 3 1 0 1 0 0 0 0 2 0 0 0 1 0 1 0 0 0 1 0 0 0 1 0 0 0 0 0 0 1 1 0 0 2 2 0 2 5 2 1 0 0 5 1 0 0 0 0 4 1 0 2 1 1 2 0 1 1 0 0 0 0 1 0 2 0 0 1 1 0 3 1 0 1 1 0 0 2 0 0 1 9 0 0 0 1 1 0 0 1 2 1 0 1 1 2 0 1 0 0 1 2 0 0 1 2 0 1 0 0 1 1 0 0 0 0 1 0 6 1 1 1 7 0 0 1 0 0 1 1 0 0 1 0 0 0 0 0 0 1 1 3 1 1 0 1 0 0 0 0 1 2 0 0 0 0 0 0 2 0 0 1 5 0 1 1 1 2 2 0 0 2 2 0 2 0 4 9 16 22 96 176 170 190 190 174 189 190 188 177 189 179 191 173 190 179 177 191 191 190 190 190 191 192 182 185 190 191 190 191 191 190 190 190 189 189 190 174 189 189 174 187 186 188 188 187 189 188 188 188 187 185 186 187 186 186 187 185 184 185 185 184 182 182 184 176 181 184 183 177 170 184 183 175 165 171 179 184 170 184 184 187 188 191 192 191 190 192 192 192 191 171 97 20 51 125 177 170 189 189 190 191 181 183 191 191 180 191 193 189 193 193 192 191 193 192 193 193 192 191 191 193 192 192 190 192 191 192 193 192 193 184 192 191 192 190 190 191 180 190 176 192 191 191 180 190 192 190 186 191 192 191 193 191 183 191 193 190 177 190 183 193 192 193 192 192 194 193 181 190 191 191 190 191 191 191 192 191 191 191 192 193 183 191 191 193 192 191 194 192 192 192 176 192 192 192 192 192 192 192 192 192 192 182 190 191 191 177 190 183 191 193 192 192 192 193 192 188 192 193 191 191 187 191 192 191 191 191 190 191 189 191 192 192 193 193 194 189 124 45 2 0 2 1 4 65 157 184 192 192 182 191 176 189 189 189 188 186 184 181 169 101 6 1 1 0 1 1 1 3 7 1 0 0 0 0 1 0 0 1 0 2 1 0 0 1 8 4 2 1 0 2 2 2 2 6 13 14 15 32 23 26 30 34 35 34 34 33 31 29 29 26 23 19 11 13 3 3 21 14 40 79 123 150 165 175 182 182 187 189 191 191 193 187 191 192 191 189 186 159 41 3 1 0 1 1 0 0 0 0 1 1 1 0 5 0 1 0 0 0 0 1 2 0 0 1 0 0 0 0 2 5 0 2 0 0 0 1 0 2 0 0 1 8 2 4 0 0 0 0 0 0 1 0 0 7 0 1 0 0 0 2 0 0 0 0 2 1 2 1 3 0 0 1 1 1 0 0 0 0 0 1 1 0 1 0 0 0 0 0 0 0 2 1 2 1 0 0 1 0 1 0 
2 0 0 0 0 1 0 1 1 1 1 1 0 2 0 7 2 0 7 0 2 0 2 1 0 0 2 0 0 1 0 1 1 0 2 1 3 0 1 9 1 1 1 2 0 0 0 0 0 0 1 0 1 0 2 0 0 0 0 2 1 2 2 0 3 1 2 0 1 0 1 0 0 0 2 0 1 2 2 0 0 0 1 7 1 0 0 0 0 0 0 0 2 1 0 0 0 1 0 0 1 1 1 1 0 1 0 0 0 1 0 1 2 0 0 0 0 0 1 3 1 0 0 1 1 0 0 0 0 0 1 1 1 2 0 0 1 4 2 0 0 7 1 1 0 0 1 0 0 1 0 3 0 0 1 0 0 0 0 0 0 2 1 1 6 2 1 1 1 1 0 1 1 0 1 2 3 0 0 1 1 0 0 0 0 2 3 0 1 2 1 0 0 0 2 0 2 23 141 185 188 189 190 185 189 190 189 174 169 188 190 191 190 189 172 191 192 193 190 189 192 191 191 189 192 189 191 190 190 192 189 189 176 176 189 188 189 184 175 187 188 188 187 172 177 187 187 183 187 186 187 186 187 185 175 185 185 184 183 184 177 182 183 181 183 170 182 183 182 185 183 183 182 182 182 181 182 181 168 187 185 189 188 189 191 191 190 180 181 188 143 109 85 56 145 179 187 188 188 190 189 191 192 192 191 182 194 193 193 193 191 184 193 179 183 193 193 192 192 194 191 191 192 192 177 191 191 192 191 192 191 176 191 177 165 175 191 182 190 191 193 193 192 191 190 191 192 190 190 190 192 191 184 193 191 192 191 190 191 192 191 191 185 191 191 191 193 193 192 190 180 191 191 193 192 191 192 192 192 192 191 176 191 193 191 191 193 192 183 192 177 192 191 192 191 183 190 191 191 192 190 191 174 191 191 192 193 184 191 191 192 193 192 192 192 192 185 192 191 192 191 182 191 190 192 192 192 189 179 190 194 193 194 193 193 178 90 38 3 1 2 23 32 136 157 190 193 192 193 173 191 191 191 189 187 185 173 179 136 97 7 1 7 4 0 0 1 1 1 0 0 3 0 0 0 0 0 2 0 1 1 0 0 2 0 3 15 6 12 20 25 32 34 36 41 44 46 44 53 54 55 55 53 53 53 53 53 51 49 48 45 40 35 30 22 9 2 1 3 4 28 72 105 153 168 159 179 184 187 189 190 182 190 190 190 178 180 137 17 0 1 0 1 0 0 0 1 3 0 1 0 1 0 1 1 1 1 2 1 0 0 0 0 0 1 0 0 1 1 1 0 1 0 1 1 1 2 0 1 1 0 0 1 2 0 2 1 1 1 0 0 0 1 0 1 2 0 1 0 0 0 0 0 0 1 1 5 0 0 2 2 0 1 2 0 0 0 3 0 1 0 0 8 0 0 1 0 0 1 0 0 3 5 6 3 0 0 0 4 0 
2 0 0 0 0 1 0 0 1 0 0 1 1 4 2 0 0 3 2 1 0 0 0 1 1 2 4 1 1 1 0 0 0 1 2 0 10 0 0 1 1 0 0 1 0 2 0 0 1 0 0 0 0 0 3 0 1 2 0 1 1 0 1 0 0 2 10 1 0 0 0 1 0 0 0 0 1 2 1 0 1 1 0 3 2 0 3 1 0 1 0 0 1 1 0 1 0 2 1 1 0 0 0 0 0 1 1 1 0 0 2 1 0 0 0 1 0 0 0 1 0 1 5 0 0 0 0 0 0 1 0 1 0 0 2 0 2 0 0 0 1 0 0 4 1 1 1 0 0 0 0 1 0 0 1 0 1 2 0 1 0 0 2 3 0 1 3 2 2 1 8 6 1 0 0 1 0 0 0 6 0 0 0 1 4 0 0 2 0 1 1 0 0 0 0 2 4 65 138 186 178 188 187 191 188 187 189 189 173 188 189 190 190 174 191 190 192 192 190 188 189 179 191 189 190 190 190 189 182 189 189 185 188 188 189 191 190 188 189 188 175 188 177 187 186 187 185 186 186 187 186 186 185 185 185 181 184 185 186 183 183 183 181 182 176 182 182 182 182 183 183 182 183 174 160 150 154 165 163 186 187 186 187 190 191 190 184 191 192 192 188 145 116 31 91 145 179 165 186 190 190 175 190 172 192 192 191 191 192 180 190 173 193 191 192 192 193 193 192 191 181 192 192 191 193 191 191 193 191 187 191 192 191 190 191 191 191 190 186 191 192 192 192 191 193 191 191 178 171 174 189 192 192 192 192 191 169 190 180 192 192 192 193 192 191 191 192 192 179 191 193 191 192 192 191 173 191 192 192 185 191 190 191 191 191 187 192 192 192 191 192 191 191 192 192 191 187 187 193 186 191 193 193 192 178 181 191 191 177 191 192 193 190 192 192 190 191 189 190 192 191 184 193 192 192 191 192 191 192 191 187 194 194 194 187 137 21 2 0 2 2 14 102 167 177 192 194 193 193 193 193 180 188 188 187 187 185 179 169 92 6 0 1 0 1 0 1 7 1 0 7 8 1 1 4 2 0 1 12 2 2 6 10 15 25 31 40 47 51 55 58 62 64 61 65 52 51 69 71 71 70 59 68 70 69 68 68 67 66 65 64 59 55 50 45 36 24 16 9 2 16 4 35 96 137 158 162 177 182 178 188 189 182 189 189 181 113 66 5 0 0 0 1 1 1 0 1 1 0 1 1 0 0 0 0 0 0 2 1 0 0 0 1 0 0 0 1 0 0 1 0 2 0 1 0 0 0 0 0 0 0 0 0 1 2 0 0 0 0 1 1 0 1 8 5 0 0 1 0 0 1 1 0 0 0 1 0 1 0 0 2 1 0 0 0 0 0 0 1 1 1 1 0 1 0 0 0 1 0 1 11 0 0 0 0 0 0 0 1 0 
0 1 0 0 0 1 1 1 0 4 0 0 1 1 1 6 1 0 0 5 0 1 0 1 0 0 0 1 0 1 0 0 1 1 0 3 7 0 0 1 0 0 1 0 2 7 1 1 8 1 0 0 0 1 1 2 0 2 1 3 0 1 0 1 5 2 0 1 1 2 1 1 1 1 0 0 0 0 0 1 1 1 1 2 0 0 0 1 0 0 0 0 0 1 0 0 1 1 0 0 2 1 0 1 1 1 1 0 0 0 1 0 0 1 1 1 2 0 0 1 0 0 0 0 0 1 0 1 0 0 0 0 1 0 0 0 0 1 0 0 0 1 1 0 0 0 0 2 2 0 0 1 0 0 0 0 1 0 0 5 2 1 0 1 0 1 1 0 2 0 1 1 1 2 0 0 1 1 0 1 1 1 0 1 0 2 0 0 1 1 0 10 1 0 0 2 16 122 179 184 167 171 189 190 168 173 189 191 189 170 188 190 178 190 181 190 191 191 191 189 180 189 190 190 189 189 189 191 180 190 189 189 188 190 187 189 187 188 188 187 171 187 187 186 178 186 188 187 185 185 184 187 186 185 184 184 183 183 184 183 169 160 167 181 183 183 181 181 183 183 183 169 169 182 181 163 180 181 183 184 185 187 184 187 187 186 190 190 193 192 192 190 177 119 32 55 144 142 184 188 188 174 189 191 190 191 192 181 190 171 192 192 192 192 192 191 178 191 192 191 189 180 192 184 192 191 187 192 184 191 193 193 192 191 173 191 191 191 190 168 190 191 190 191 192 184 191 191 173 183 191 192 192 192 192 184 191 190 190 181 192 192 192 190 191 193 193 193 189 191 191 193 190 193 190 181 192 192 192 192 192 191 180 174 190 193 193 183 185 192 191 191 178 190 192 180 192 191 191 192 186 193 191 193 191 175 191 192 191 191 193 193 193 193 194 192 192 190 179 191 192 192 192 192 192 176 191 191 192 191 194 194 194 189 165 57 30 16 9 13 5 61 157 183 192 193 193 193 178 192 192 192 188 189 187 186 184 180 128 88 5 1 0 0 0 1 1 2 2 1 6 2 2 15 5 6 11 18 34 33 43 50 57 55 67 71 72 74 77 79 80 81 81 84 82 75 63 68 68 81 83 84 83 83 78 82 74 79 80 82 71 74 70 68 56 61 57 43 39 28 13 10 18 52 97 139 159 170 177 182 185 188 187 188 187 137 78 32 5 1 2 1 1 2 2 0 0 1 1 0 0 0 1 0 0 1 0 1 1 0 0 1 0 0 0 0 2 1 0 0 1 0 1 0 0 0 0 0 0 0 0 1 4 1 0 0 0 0 1 6 1 0 0 0 2 1 0 1 1 1 3 0 2 0 2 1 0 1 0 0 0 0 0 1 0 0 0 1 0 1 4 0 0 0 1 0 0 2 2 5 0 1 1 1 0 1 0 1 1 2 
3 0 1 0 0 0 0 0 0 0 0 1 1 8 1 1 0 0 1 0 2 0 0 0 0 2 0 0 0 0 0 2 0 0 0 1 7 1 0 0 0 0 0 0 1 3 0 0 9 2 0 0 1 0 1 0 0 0 1 0 0 1 0 0 1 0 1 1 0 1 2 0 6 6 1 0 1 1 1 0 0 0 2 1 0 0 0 0 0 0 0 0 2 0 2 0 1 1 0 0 0 1 2 0 0 1 2 1 0 1 0 1 0 0 0 1 0 0 1 0 0 2 0 1 0 1 0 0 0 6 1 6 1 1 0 0 1 1 0 1 1 8 1 0 0 0 0 0 1 1 1 1 0 1 0 1 1 3 1 9 1 0 2 1 0 0 0 4 0 1 6 1 0 0 0 1 0 0 0 2 0 0 0 0 2 1 0 0 0 0 2 1 7 0 2 6 64 124 183 185 170 168 188 188 189 188 182 189 189 190 190 167 188 190 189 191 189 190 190 190 185 189 191 190 190 190 189 188 188 189 189 183 188 189 187 188 189 188 187 189 186 180 187 188 187 188 186 186 184 186 177 185 184 177 184 183 183 185 183 182 165 179 182 183 183 184 182 180 182 183 184 181 182 181 183 179 181 183 175 171 182 184 169 161 164 171 188 191 191 192 189 192 189 151 125 34 47 118 178 186 187 187 191 189 191 191 191 189 163 168 190 193 193 191 192 191 190 174 191 189 190 174 177 191 193 191 193 191 193 193 192 192 192 190 167 163 191 180 191 174 178 192 192 191 191 183 192 193 191 192 192 193 191 190 191 192 181 178 170 191 192 191 179 192 186 193 193 191 186 191 193 191 192 192 192 191 179 191 184 192 192 192 191 192 192 193 192 192 191 192 181 176 189 181 192 192 191 191 191 193 192 193 190 192 192 192 190 178 192 193 193 191 191 192 192 193 191 180 191 192 191 192 193 192 192 191 193 192 181 195 193 191 190 140 93 45 29 3 0 2 26 129 176 189 193 192 186 196 193 193 190 190 190 188 187 184 182 162 166 84 5 1 2 1 2 2 4 5 10 17 23 29 36 43 50 56 61 67 63 79 75 84 86 87 86 90 92 92 95 93 86 95 96 96 85 87 94 84 92 94 93 95 93 95 93 92 90 82 90 89 89 76 85 73 82 83 72 64 70 63 49 60 63 76 103 124 145 158 170 169 181 185 184 188 184 166 61 5 0 1 0 0 0 0 1 2 2 1 1 1 6 0 0 0 1 0 0 0 1 0 7 1 1 1 1 0 0 0 0 0 1 2 0 1 1 0 0 0 0 0 1 1 1 1 1 0 0 0 0 1 2 0 0 1 0 1 1 0 1 2 2 1 0 0 1 0 0 4 0 0 0 0 0 0 0 0 0 0 1 0 0 2 0 0 0 0 0 0 2 0 2 1 1 0 1 0 0 0 5 0 
2 0 1 0 0 0 1 0 0 1 0 0 0 7 2 1 0 0 1 1 10 1 1 0 0 1 1 1 0 0 0 1 1 2 0 0 0 0 1 0 1 0 0 1 0 1 0 1 1 1 2 0 0 0 0 0 0 1 1 0 1 0 1 0 2 0 1 1 3 0 2 2 1 1 0 1 6 1 0 0 0 0 0 1 0 0 2 0 1 0 0 0 0 1 0 1 1 1 0 0 0 4 0 2 1 1 1 1 1 1 0 1 0 1 0 1 0 1 0 0 0 0 0 2 0 0 2 0 4 3 0 0 0 0 1 0 0 1 8 1 0 2 0 0 0 0 1 0 1 10 8 0 0 0 0 0 0 0 1 1 1 0 0 1 0 0 0 4 0 1 1 0 0 0 1 0 2 0 1 2 0 1 0 1 1 1 3 1 2 3 0 1 0 0 1 49 113 142 183 171 186 188 189 187 188 188 188 190 190 189 181 188 188 189 173 190 181 188 189 189 190 191 189 190 189 189 189 188 189 183 189 189 190 189 188 188 187 187 189 186 186 187 186 187 186 187 186 185 185 178 177 185 172 170 182 171 183 184 184 183 180 184 183 170 181 181 183 182 182 182 178 174 182 182 182 183 182 181 182 182 181 181 183 183 185 187 187 189 189 192 193 192 192 190 178 129 39 102 140 178 185 179 189 188 190 190 187 189 170 190 190 190 192 192 191 190 176 192 192 192 192 193 191 192 192 194 192 192 193 191 193 190 182 167 163 168 190 177 192 176 190 180 192 184 193 193 194 192 181 191 180 191 190 174 192 192 186 192 191 178 192 191 191 191 193 192 193 193 192 191 184 192 191 181 191 192 191 192 182 192 192 192 192 183 192 192 192 178 193 187 192 191 193 194 193 192 192 185 180 183 191 191 173 192 192 193 191 175 192 192 185 192 184 193 192 194 193 193 194 193 192 190 191 191 192 192 193 197 192 184 193 193 156 134 21 4 1 0 7 9 93 166 186 193 194 194 195 196 194 192 190 190 188 188 186 172 162 179 135 81 19 20 28 36 44 46 49 56 61 67 74 79 85 88 81 94 94 98 100 101 100 101 102 103 104 106 106 104 105 105 106 93 106 103 103 90 96 103 104 105 102 97 101 103 103 103 101 93 89 98 100 88 98 98 99 98 97 94 92 91 94 96 98 104 117 129 147 159 167 176 180 185 178 185 176 93 17 0 1 2 1 1 0 0 1 0 0 1 1 8 2 1 1 1 4 1 0 1 0 0 0 0 0 0 1 0 1 1 1 0 0 1 0 1 1 0 1 0 0 1 3 1 1 1 1 0 0 0 0 1 0 0 0 0 0 0 1 0 1 0 0 0 0 2 1 1 0 1 0 0 0 2 0 3 1 0 0 1 1 2 0 0 0 0 0 0 0 0 1 1 1 0 0 1 0 1 1 1 3 0 
1 0 1 0 0 0 5 0 0 1 0 5 0 0 1 0 0 2 1 0 0 2 0 1 0 4 0 0 0 0 2 0 0 1 1 0 0 0 1 2 0 0 3 0 1 0 0 1 1 5 1 2 0 0 0 0 0 1 0 2 0 0 1 1 0 1 2 0 1 0 2 1 0 6 1 1 1 0 0 0 0 0 1 0 11 1 2 1 1 0 0 1 0 1 0 0 0 0 2 0 1 0 4 5 2 2 0 0 0 0 1 1 0 1 2 0 0 0 1 1 0 0 1 0 0 0 1 4 0 0 2 0 0 0 1 1 0 0 0 5 0 0 0 0 0 0 0 1 1 2 2 0 0 2 2 0 1 0 1 0 2 1 0 0 0 0 0 1 0 2 1 0 1 0 0 5 0 0 1 1 0 1 1 0 1 0 0 0 0 0 1 0 0 0 8 68 142 179 160 162 188 188 180 188 188 190 188 190 189 189 191 190 170 173 187 188 190 181 178 189 190 189 188 191 182 177 182 188 188 187 189 189 188 188 187 188 181 187 187 187 186 187 186 185 185 185 184 186 184 180 183 184 184 182 183 184 177 183 183 181 184 183 183 180 181 182 182 181 182 181 181 173 181 180 181 181 181 171 182 180 166 183 179 184 170 184 188 190 189 189 191 193 182 190 191 180 134 108 46 134 178 184 186 179 188 188 190 190 182 191 180 179 187 191 191 180 192 194 192 192 193 193 192 192 192 193 191 192 192 191 191 192 191 191 190 192 191 169 191 189 174 176 178 191 191 192 192 194 192 175 175 190 175 191 186 191 182 193 191 190 190 179 192 193 190 184 191 192 192 183 191 180 193 190 177 191 192 192 193 185 193 191 172 192 193 188 191 192 186 192 182 182 193 192 191 194 192 193 192 191 192 177 175 191 187 192 192 191 181 192 193 190 192 193 193 193 191 192 193 192 193 191 164 174 192 192 192 194 193 194 194 190 163 56 3 0 3 1 3 48 149 182 173 193 193 195 185 193 192 192 191 191 188 189 186 184 171 179 166 101 77 80 83 87 90 91 95 99 100 93 105 108 110 110 110 110 111 112 111 112 113 104 102 115 111 114 114 102 113 100 111 112 114 102 111 111 111 111 112 112 111 111 111 111 109 110 111 109 108 108 108 108 110 111 109 111 111 101 110 113 114 117 120 125 120 142 151 154 167 173 177 180 182 178 144 37 2 0 0 0 0 3 1 0 0 1 0 2 2 0 0 0 1 7 0 0 2 0 0 1 0 0 0 0 0 1 1 0 2 0 0 0 0 1 0 1 0 1 2 6 2 3 1 0 0 0 1 1 1 1 0 0 0 0 0 0 1 0 1 0 1 0 0 3 3 7 1 1 1 7 0 0 1 0 0 1 0 0 2 1 0 1 0 0 0 3 0 1 1 0 0 0 0 1 2 0 0 0 0 6 
1 1 0 0 0 1 1 0 3 1 0 1 0 0 0 0 0 0 0 0 0 2 0 0 0 6 0 1 1 0 2 0 0 0 1 0 0 0 1 4 0 0 0 1 0 0 0 1 2 2 3 2 0 0 0 0 1 1 10 1 0 0 0 0 0 0 0 0 0 0 1 1 0 0 0 1 1 1 1 0 1 1 1 13 10 1 0 1 0 0 0 0 0 1 0 1 1 1 2 2 1 0 0 1 2 0 1 0 0 0 1 2 0 0 0 0 5 1 1 0 1 0 0 2 2 1 2 2 0 0 1 1 1 1 0 1 0 2 0 1 0 0 0 0 0 1 1 0 1 1 4 0 5 2 0 1 0 0 0 1 1 0 0 0 0 0 0 0 0 0 1 1 1 0 0 0 1 0 0 6 0 0 0 1 0 0 0 0 1 3 1 0 1 1 16 90 161 183 185 185 186 172 179 188 190 188 175 188 190 189 187 189 188 190 189 188 177 189 189 190 188 189 189 189 187 188 188 187 189 187 183 188 189 189 186 187 186 187 187 187 186 186 186 181 185 187 174 184 185 185 184 185 185 184 183 182 182 182 182 181 182 181 182 170 164 182 183 180 181 182 181 182 180 180 181 180 180 176 175 181 180 180 181 182 170 183 185 187 186 189 188 191 190 178 191 182 182 141 49 82 123 170 183 187 187 189 188 188 188 190 190 192 192 193 183 192 193 192 193 192 193 192 191 182 192 192 193 184 191 179 192 191 191 191 175 191 181 192 192 192 172 192 192 192 192 194 192 191 192 173 171 190 192 192 192 192 191 192 193 190 191 192 192 192 193 192 192 193 192 191 193 190 191 178 191 192 191 192 193 184 191 191 192 193 193 192 183 191 193 181 191 193 191 192 189 190 193 194 192 191 191 191 192 193 192 192 194 192 191 193 192 193 191 193 193 192 192 194 192 193 193 191 169 178 192 193 184 195 193 194 192 138 87 7 0 1 0 3 48 124 174 188 191 177 193 194 192 179 191 191 190 189 178 187 185 185 182 180 148 121 112 113 115 115 108 117 116 119 118 119 121 120 121 121 112 122 122 122 123 123 123 110 122 121 123 121 122 119 121 121 109 119 108 118 119 119 120 119 119 118 119 118 119 119 117 117 117 116 116 118 119 119 120 113 120 121 122 123 127 128 114 131 135 126 145 151 152 163 169 161 163 178 179 156 63 6 2 2 0 0 0 4 0 0 1 0 1 6 1 1 1 0 4 4 0 1 1 0 9 1 0 0 0 1 0 2 2 0 0 0 0 1 0 0 0 10 1 0 0 1 5 2 1 0 0 0 3 0 0 2 2 1 0 2 2 0 0 1 0 0 1 0 2 0 1 1 1 0 0 1 0 1 0 1 2 2 1 2 0 2 1 1 4 1 0 0 2 2 8 1 0 1 1 4 2 0 1 1 1 0 
1 1 0 0 0 0 2 2 2 1 1 2 2 0 0 0 0 0 0 0 2 0 0 0 0 1 1 0 0 0 0 0 0 0 0 0 0 2 7 0 1 0 1 3 0 0 1 0 1 1 2 1 0 0 0 1 5 0 1 1 0 0 0 2 0 0 0 1 0 0 2 1 1 0 0 2 0 0 0 0 0 0 0 0 1 0 6 1 0 2 1 0 1 1 0 0 0 0 1 1 0 0 1 0 0 1 0 1 0 0 0 0 0 1 1 0 0 1 0 1 0 1 0 1 2 0 0 0 1 2 1 0 1 0 0 0 1 0 0 0 0 3 0 1 1 0 0 1 1 0 1 0 2 0 0 2 0 0 1 1 1 0 0 1 3 1 0 2 0 0 2 4 0 0 0 0 1 0 0 2 1 1 1 0 8 0 1 1 0 1 0 1 1 1 32 99 172 183 176 186 186 188 188 188 188 187 187 187 188 180 179 186 187 188 188 179 188 188 188 188 188 182 187 181 185 188 177 188 187 187 172 187 188 182 188 186 181 186 186 187 186 186 187 185 185 185 184 185 184 184 183 182 173 174 181 182 183 183 182 182 182 180 182 172 180 182 182 181 180 182 181 180 182 180 175 181 176 179 179 180 181 175 180 182 183 181 184 188 186 187 184 190 189 178 190 192 191 182 149 76 29 87 156 180 185 188 188 189 189 191 191 188 190 192 191 190 192 192 193 192 191 192 192 191 186 192 192 191 192 190 193 193 192 185 191 192 185 192 192 191 192 193 190 182 191 191 193 192 192 191 189 180 191 192 184 192 180 175 191 191 194 192 192 191 192 191 192 192 191 181 191 175 191 193 192 193 192 191 192 193 192 192 192 192 185 193 192 192 193 191 191 193 192 186 193 176 190 192 176 176 179 192 192 193 193 192 194 194 193 194 193 193 192 192 192 184 192 191 193 192 191 183 190 193 193 193 192 192 194 193 180 118 18 13 1 0 1 7 87 163 185 191 187 192 184 194 179 178 192 190 189 188 188 187 187 183 183 180 168 132 127 127 128 127 128 128 128 128 127 127 129 128 129 129 130 128 130 128 128 128 129 126 131 126 128 126 124 126 121 125 125 124 125 113 116 124 124 116 126 124 115 124 125 124 123 124 123 126 126 126 128 126 121 128 129 132 132 133 135 138 139 141 144 151 153 158 163 168 171 162 176 177 162 85 38 2 7 1 0 0 0 1 1 0 1 1 2 1 0 3 0 2 2 0 0 0 0 0 8 1 0 2 1 4 3 1 2 0 0 0 0 0 1 1 1 1 2 0 0 2 8 1 1 0 0 0 0 0 0 1 5 7 1 0 0 0 0 1 0 1 0 1 1 0 0 0 1 2 10 2 0 2 2 0 0 0 0 7 1 1 0 1 2 1 0 1 0 1 1 1 1 0 0 0 0 0 1 0 0 2 
1 0 0 1 1 1 5 1 0 0 0 0 0 1 0 2 0 1 3 7 1 0 0 0 0 0 0 1 1 2 0 0 1 0 0 0 0 0 1 0 0 0 0 0 0 0 0 0 0 1 0 4 0 1 3 0 1 0 2 1 0 0 0 1 0 1 4 0 0 7 0 0 0 0 0 0 0 0 1 0 0 0 1 0 1 1 1 0 1 0 0 6 1 0 1 0 0 4 1 2 1 0 1 0 4 1 0 3 1 0 0 0 0 3 0 1 0 1 0 0 0 2 1 1 0 0 1 1 1 0 1 0 0 0 0 1 0 2 0 0 2 1 1 2 1 1 1 1 0 2 0 0 0 1 0 1 0 1 0 0 0 1 0 1 0 2 0 2 6 10 1 0 0 4 0 1 1 2 0 1 0 0 0 3 1 0 0 0 1 0 1 1 0 3 46 140 180 183 185 186 185 187 187 188 185 187 168 187 177 187 190 189 189 190 190 188 189 189 176 183 188 187 189 183 188 189 188 186 177 187 175 185 188 187 187 188 186 173 185 187 187 184 169 185 184 173 171 185 185 185 183 184 182 183 183 169 183 183 183 170 182 182 181 179 180 181 180 181 182 174 181 180 180 179 180 180 179 181 181 173 173 180 180 179 180 182 184 185 186 184 187 189 190 188 190 191 178 168 187 167 112 34 56 132 172 183 185 186 188 189 188 171 169 189 176 167 190 190 193 191 185 192 192 193 192 193 189 192 193 191 193 193 192 192 192 193 191 184 192 190 193 192 179 178 192 191 192 183 192 191 191 174 191 191 192 192 191 181 191 191 192 194 191 179 192 193 194 193 193 192 190 190 190 193 178 184 193 191 192 192 184 192 193 192 188 192 192 192 192 192 190 192 193 192 193 179 191 182 191 192 191 191 179 193 182 193 192 193 193 194 192 193 193 183 193 193 192 189 192 192 192 192 194 195 193 186 194 189 192 181 125 22 1 1 0 1 5 57 149 183 180 191 194 196 195 194 192 181 191 174 189 175 174 176 185 183 170 179 166 139 135 136 135 135 134 134 136 134 116 135 135 135 135 132 134 136 134 134 134 119 124 132 134 138 131 123 131 118 131 129 130 131 130 129 129 130 131 130 129 119 130 130 130 126 131 131 131 131 132 126 134 135 133 135 138 134 142 144 144 146 148 137 130 156 159 163 167 170 173 173 174 161 104 16 3 7 1 0 1 0 0 3 1 1 2 0 1 2 0 0 1 1 2 0 1 0 1 1 0 5 0 0 1 2 0 0 0 1 0 0 0 1 2 0 0 1 0 1 1 0 0 0 0 1 0 0 2 0 0 1 5 7 1 0 0 1 0 1 0 6 1 1 0 1 2 0 1 1 2 0 2 11 0 0 0 0 2 1 0 0 0 0 0 0 2 1 1 0 1 3 0 0 0 0 0 4 0 0 1 1 
0 0 0 0 2 1 1 1 1 0 0 4 1 0 4 2 0 0 1 1 0 0 1 0 2 1 0 2 0 0 0 2 2 0 1 1 5 0 0 5 1 1 0 0 0 4 0 1 1 0 2 1 1 0 0 0 1 1 0 2 0 2 0 0 0 0 3 1 0 0 0 0 0 1 1 0 2 0 0 0 0 0 0 1 0 0 1 1 0 1 1 0 1 1 2 1 0 1 1 3 2 2 1 0 1 0 2 1 1 1 0 0 0 2 1 0 4 1 0 0 2 0 1 0 0 0 2 1 1 1 1 1 1 1 2 1 0 4 0 0 1 1 1 2 1 0 0 0 1 2 0 2 1 3 1 2 1 4 1 0 0 6 1 1 0 0 0 5 0 1 2 0 1 0 0 1 0 0 1 1 2 1 1 0 1 2 0 0 1 2 1 1 0 2 60 153 180 182 183 185 186 185 187 187 185 185 174 187 186 186 188 189 188 180 189 181 187 187 189 189 188 187 188 189 187 190 188 187 188 188 188 186 188 173 185 187 178 185 185 185 186 186 184 179 183 183 183 184 186 185 182 183 172 183 182 181 183 181 183 168 180 180 181 180 175 178 182 182 181 180 182 180 174 180 181 179 180 179 179 180 179 175 179 179 169 166 182 182 187 177 185 185 188 189 189 192 191 176 191 190 178 138 56 31 101 162 181 184 186 188 187 188 188 174 189 172 189 191 191 192 192 183 191 193 180 192 192 191 192 185 192 194 188 190 192 191 192 190 191 191 191 191 185 190 192 192 191 174 190 192 176 191 193 193 191 192 192 193 192 182 192 192 192 178 193 193 188 192 192 191 174 173 192 193 191 193 192 193 193 191 192 192 190 192 192 193 193 182 181 191 192 193 193 190 192 191 175 192 192 193 192 184 194 192 192 193 192 185 192 193 184 191 192 174 191 192 191 173 191 192 192 192 194 189 193 190 192 191 179 120 21 1 1 1 1 4 53 105 176 191 184 193 194 196 195 194 194 192 191 178 192 189 188 178 184 183 180 177 160 143 141 141 141 140 133 142 137 140 140 140 140 139 138 139 139 137 128 137 138 137 136 127 137 137 124 119 123 134 135 134 123 135 133 135 135 134 135 136 135 130 134 134 134 134 136 137 129 124 137 137 129 139 127 142 144 147 148 151 151 153 156 157 159 160 160 170 168 154 152 144 153 87 17 3 0 0 1 2 0 0 0 0 0 10 16 3 0 0 0 0 0 1 0 1 1 0 0 1 1 2 0 2 2 0 0 1 1 0 0 4 2 0 6 1 1 1 0 1 8 1 0 2 0 0 0 0 0 0 1 0 0 1 0 1 1 1 0 0 0 0 1 2 0 2 1 1 1 4 1 2 0 1 1 0 0 0 1 0 0 0 0 0 0 2 1 3 1 0 0 0 3 0 1 0 0 0 0 1 0 0 
0 1 1 0 0 1 1 3 0 1 0 2 0 0 1 1 0 0 2 0 0 1 0 0 1 1 9 8 0 0 1 2 1 0 2 1 1 0 2 4 0 0 0 0 0 0 0 2 0 0 0 0 1 0 0 2 1 0 1 0 1 0 0 0 0 1 0 8 0 0 0 2 2 0 0 1 2 0 0 0 0 0 6 0 0 0 1 0 0 0 0 0 0 1 2 0 0 0 0 0 0 7 0 0 6 2 1 1 1 2 0 1 1 5 0 0 1 1 1 2 0 0 0 2 2 0 9 1 2 0 1 2 1 1 5 1 3 0 0 1 1 1 4 2 1 0 2 0 0 0 0 0 0 0 5 0 0 1 1 0 2 2 5 4 1 0 0 0 0 1 1 1 1 0 0 2 1 0 0 1 0 2 0 0 0 0 0 1 3 2 1 0 1 6 75 160 149 179 184 187 187 184 186 175 186 185 186 187 186 172 188 187 188 187 187 190 189 190 187 188 187 189 189 188 187 179 186 187 187 187 187 179 186 185 178 177 185 185 185 185 187 185 172 183 183 169 182 181 183 184 182 183 182 183 179 182 181 181 181 180 181 175 181 179 164 180 181 181 180 165 179 179 178 161 171 180 179 180 180 181 179 179 177 159 166 179 180 180 181 183 183 177 176 186 189 190 190 191 193 192 190 156 156 80 29 97 147 176 182 184 173 187 193 190 190 189 191 190 184 190 191 191 190 192 184 192 192 185 193 193 191 191 191 173 166 190 170 177 189 179 177 190 192 192 191 192 192 191 192 192 191 191 192 192 191 186 193 193 176 191 192 193 191 193 192 193 192 191 184 190 177 190 193 187 192 193 192 192 192 192 192 192 192 192 193 193 177 190 173 176 192 192 192 181 191 181 174 172 192 193 194 193 192 191 192 194 192 193 193 187 192 193 192 192 191 177 175 193 191 184 192 193 193 193 190 164 161 180 126 27 2 0 2 2 5 56 143 148 170 192 191 194 196 195 194 193 185 190 190 190 189 188 188 184 185 182 167 176 164 148 145 147 146 144 134 144 145 146 141 143 143 144 142 141 143 130 140 128 141 141 140 131 139 139 138 138 139 128 139 139 131 138 137 131 138 139 139 139 137 138 139 135 141 136 141 140 141 141 144 143 145 146 147 150 150 148 152 153 157 158 160 161 162 165 168 168 155 169 167 142 66 38 2 0 0 0 3 0 1 0 3 1 0 1 2 0 1 1 1 0 2 4 2 0 0 4 1 0 0 0 0 0 0 1 0 0 2 0 0 0 0 0 1 1 0 0 0 0 1 0 1 1 1 1 2 0 1 1 1 2 3 0 4 0 0 1 0 0 0 0 0 1 0 0 0 1 0 1 3 1 1 1 0 0 0 0 0 0 0 1 0 1 6 1 5 1 7 1 0 1 2 1 1 0 5 0 1 0 1 0 
1 0 1 0 0 0 0 0 0 0 0 0 0 1 0 0 1 0 0 0 1 0 0 0 0 0 1 1 0 1 2 0 0 0 1 0 0 2 0 1 0 0 2 1 0 1 1 0 1 2 1 1 1 3 0 1 0 2 0 0 0 1 3 0 0 1 1 0 1 0 2 0 0 0 0 0 0 1 1 1 0 0 0 0 1 0 0 0 0 0 0 0 3 0 0 0 0 0 0 0 9 0 0 1 0 0 2 0 2 1 1 0 0 4 0 1 0 2 2 14 5 0 2 2 0 0 1 1 1 5 2 0 0 0 0 0 0 0 1 1 0 4 2 7 0 0 0 3 0 0 0 1 1 0 1 0 1 0 0 1 0 3 0 0 0 1 2 0 0 4 1 0 0 0 3 1 0 0 0 0 0 1 3 0 0 1 1 0 2 3 0 2 1 9 88 130 147 156 182 185 184 185 184 186 175 186 187 187 187 189 171 178 189 180 188 187 182 187 181 170 187 187 186 187 185 178 186 175 175 187 186 186 187 188 185 185 186 185 187 185 181 171 182 170 182 165 164 182 182 183 177 182 181 182 181 181 182 181 170 180 181 180 180 180 181 180 180 182 166 177 169 162 164 178 178 180 180 167 179 179 177 169 154 158 179 180 180 179 181 182 182 168 183 186 181 185 178 188 190 193 191 189 149 116 125 47 43 119 135 158 184 186 186 188 190 190 190 191 190 192 191 191 193 191 192 192 191 192 191 193 193 192 192 191 177 172 172 191 192 168 192 191 191 176 192 193 193 190 192 192 193 192 193 193 192 193 193 189 192 192 193 192 193 192 191 193 193 191 193 193 191 188 193 192 192 192 192 192 194 193 194 192 194 192 184 192 193 192 192 182 192 193 177 180 191 192 192 192 182 183 193 192 174 184 192 192 193 193 194 193 192 183 191 192 192 191 192 192 193 181 193 193 188 191 177 188 140 92 28 27 1 8 1 5 52 144 178 190 191 192 196 195 195 195 194 193 193 184 187 189 188 173 186 186 184 183 180 176 162 151 149 150 149 147 147 148 147 147 147 145 146 145 141 145 145 144 135 132 144 143 142 142 143 143 144 134 142 143 141 142 141 130 140 141 143 138 142 143 133 143 143 145 136 144 145 135 146 138 135 148 149 136 152 146 154 156 158 161 160 161 141 147 146 143 169 170 142 116 123 46 6 1 2 2 0 0 0 1 0 5 1 1 0 1 1 0 0 0 1 0 0 1 0 0 0 0 1 1 1 1 0 0 0 1 1 1 0 0 0 0 1 1 1 1 0 2 2 1 0 1 0 1 0 2 2 0 0 1 0 1 0 1 0 1 1 2 1 2 1 1 1 0 0 1 2 0 0 0 1 1 0 1 0 0 0 0 0 1 0 0 2 1 0 0 1 1 0 0 0 1 0 1 0 2 0 0 0 2 0 0 
0 1 2 0 2 5 6 1 0 1 4 1 1 4 1 1 0 1 0 0 1 0 0 0 5 0 0 0 0 0 1 0 1 2 1 0 3 2 2 1 2 2 0 1 1 6 1 1 0 1 0 0 1 0 0 0 1 0 1 0 0 0 2 1 0 7 2 0 0 0 2 0 0 0 1 0 2 0 0 1 0 0 0 0 0 0 0 1 0 0 1 1 1 1 0 1 0 0 0 7 2 1 0 1 1 0 6 2 2 6 0 0 0 0 0 0 2 0 4 2 0 1 0 1 0 0 1 1 1 1 2 1 0 4 1 4 0 0 1 0 1 1 0 2 4 1 0 2 5 1 0 0 1 0 0 1 2 0 2 0 1 1 0 0 0 0 1 0 2 0 0 0 0 0 1 1 0 0 3 0 0 0 8 0 0 0 0 0 1 1 1 1 0 7 92 167 178 181 182 182 184 185 185 185 185 186 176 186 187 187 180 177 187 188 173 188 187 182 187 188 185 179 186 173 185 186 186 186 186 187 185 185 185 184 185 187 185 176 184 183 184 185 183 177 181 167 163 166 174 182 182 182 182 182 181 181 181 181 169 161 179 182 179 170 180 179 180 179 181 179 169 170 178 177 178 179 178 180 179 180 178 177 170 178 179 178 180 180 181 180 180 182 183 184 184 183 182 187 178 190 191 192 189 161 181 150 75 31 109 154 178 183 184 188 189 187 180 190 189 190 190 192 190 190 192 191 181 189 180 192 190 182 192 193 191 191 192 192 186 176 189 175 179 192 191 189 193 192 193 190 192 192 188 191 188 191 192 192 192 191 193 190 192 192 174 193 192 182 193 193 188 192 191 190 188 192 184 192 194 197 194 194 194 194 192 192 176 183 192 193 192 193 194 192 178 194 193 193 193 193 192 184 180 191 193 193 192 194 193 193 194 193 194 192 191 193 192 193 193 180 192 176 190 189 192 184 129 27 21 9 1 0 3 50 142 178 190 193 184 195 188 196 183 193 192 192 191 191 191 189 188 173 188 185 185 182 173 174 160 151 151 149 153 151 136 148 132 147 150 151 150 150 149 149 149 147 148 146 147 147 148 146 140 146 146 145 145 146 146 146 130 126 127 145 147 146 147 146 137 147 150 148 148 149 149 149 150 150 137 153 154 148 156 156 144 161 160 156 164 164 165 166 139 140 168 165 145 64 25 3 0 0 1 0 0 0 1 2 1 1 0 0 0 0 0 0 0 2 2 0 0 1 2 0 1 0 1 1 0 1 2 0 0 2 0 0 1 2 0 0 0 0 1 1 1 0 1 1 0 0 0 1 0 0 0 0 1 0 0 1 0 1 2 1 0 0 1 5 1 1 1 0 1 0 3 1 1 0 1 0 0 0 0 0 0 0 1 0 1 1 1 1 0 0 0 0 1 0 0 1 0 0 0 0 0 1 0 1 0 0 
1 0 0 0 0 1 1 1 0 0 1 5 1 1 2 1 5 1 4 1 2 1 1 1 5 1 0 0 2 0 1 3 0 1 1 1 1 5 0 0 2 3 1 1 1 4 1 1 7 1 2 1 0 0 2 0 0 0 0 1 1 0 0 0 0 1 1 1 0 0 1 0 0 0 0 1 1 0 0 1 0 0 0 1 1 0 1 1 1 0 1 1 0 0 0 1 1 4 1 1 1 0 0 2 0 0 0 2 0 1 0 1 0 0 0 1 1 2 0 0 0 1 0 0 0 0 1 1 1 1 0 0 0 0 1 0 1 1 1 0 2 2 9 0 1 1 1 7 0 4 2 2 1 0 1 1 0 1 0 3 0 0 0 0 0 0 1 1 0 0 0 0 1 0 2 1 0 0 1 1 0 0 1 0 0 1 1 0 1 0 0 2 0 9 96 169 176 179 172 183 183 172 184 178 185 187 187 186 186 187 186 187 173 187 175 186 188 187 187 187 188 187 186 178 186 186 187 185 185 187 185 173 176 184 175 172 183 183 184 183 173 185 184 173 182 183 182 180 182 181 181 181 182 179 181 165 180 181 180 181 181 181 181 167 179 180 170 169 179 170 179 179 179 179 174 172 166 177 178 172 180 178 179 177 167 178 178 177 175 180 181 181 183 184 183 185 175 168 187 189 189 190 191 190 193 188 131 114 98 58 129 170 182 184 186 187 187 189 177 189 189 189 189 178 181 189 171 190 176 191 189 180 191 191 192 187 191 191 191 192 183 192 191 191 177 191 192 193 192 193 191 192 193 181 192 193 192 191 192 181 180 193 193 177 173 192 179 192 191 192 194 193 190 171 191 176 192 193 194 193 192 194 193 191 193 193 192 192 192 193 193 194 191 193 193 193 192 191 193 187 193 192 192 181 194 191 194 192 191 192 193 193 190 193 192 192 184 192 185 192 191 169 188 188 184 140 36 24 3 1 1 4 45 137 177 190 177 191 194 196 196 194 181 194 194 192 190 181 189 189 173 182 188 186 185 183 180 174 158 155 154 153 152 152 153 150 122 129 152 152 152 151 151 151 150 150 149 150 150 150 150 150 148 149 150 149 148 144 149 148 148 147 148 150 150 151 151 150 151 150 152 152 153 154 152 154 156 157 157 156 148 159 160 162 162 163 165 166 167 158 169 167 141 163 114 115 48 7 1 2 1 1 1 0 1 1 6 9 0 0 0 1 5 1 0 3 0 1 5 1 0 0 0 0 0 0 0 0 1 1 1 0 1 0 0 0 0 0 0 0 0 0 4 0 2 1 0 0 1 0 0 0 0 0 0 0 0 1 0 0 1 1 6 6 1 1 1 1 0 1 2 0 1 0 1 0 0 1 0 1 0 0 1 3 1 0 1 1 1 0 0 0 0 0 0 0 0 2 0 0 0 2 0 0 0 0 0 1 0 0 
0 0 0 0 1 0 0 0 0 0 0 0 0 1 0 9 1 0 0 0 0 2 0 0 0 8 0 0 0 1 1 1 0 0 0 0 0 1 0 1 9 1 7 1 1 0 1 0 0 1 0 0 0 0 1 0 1 0 1 1 1 0 0 3 0 1 1 0 1 0 0 0 0 0 2 0 1 1 3 0 1 1 0 11 0 0 0 0 2 0 0 0 0 5 0 0 2 2 1 0 1 0 1 0 0 0 0 0 2 0 1 0 0 0 1 0 2 7 4 5 1 1 0 0 3 0 0 1 0 1 1 1 0 1 0 2 0 0 1 0 0 0 1 0 0 0 2 1 1 0 1 1 1 0 0 3 0 2 1 0 1 0 0 0 1 1 0 1 0 0 5 0 0 1 0 1 1 1 5 0 1 0 2 0 1 0 1 0 6 0 0 4 0 6 95 168 178 181 182 183 183 184 184 184 176 184 185 187 185 187 185 186 176 185 186 188 187 186 186 186 186 174 185 176 185 186 187 185 178 186 185 186 185 186 183 185 182 183 171 167 183 183 179 183 182 172 182 178 181 181 180 182 169 181 181 181 181 180 174 181 181 179 179 180 172 179 181 179 178 177 177 171 180 178 180 177 173 177 178 177 179 178 176 166 178 165 162 178 178 171 179 179 182 180 182 183 165 184 185 188 189 183 191 189 192 192 189 179 141 57 30 98 160 178 183 186 177 185 186 187 189 189 177 179 190 190 177 190 162 191 189 176 178 191 191 192 193 192 191 180 191 184 192 175 171 190 194 193 192 188 193 191 191 182 193 192 192 190 191 192 193 192 191 191 190 191 190 182 181 180 184 181 193 172 172 192 191 193 193 193 192 193 192 192 183 192 180 192 193 193 194 192 189 193 192 192 195 193 194 193 193 193 193 192 193 182 194 193 193 193 191 194 193 191 191 191 193 194 192 191 189 188 177 186 140 32 5 1 8 1 2 44 136 176 190 181 181 176 190 194 196 196 185 192 193 193 191 190 189 188 189 188 187 176 183 168 180 173 160 155 157 156 155 154 142 152 123 127 151 154 154 155 152 153 153 154 154 151 138 140 151 152 152 152 150 142 150 150 152 150 141 152 144 153 152 153 153 146 155 155 155 154 156 157 157 159 157 159 160 160 162 162 157 165 166 166 167 166 161 167 168 166 157 99 68 17 2 5 10 0 0 5 7 1 0 3 2 2 1 0 0 0 0 0 0 1 0 0 0 3 0 0 3 0 0 0 0 0 0 1 0 0 0 0 0 0 0 1 0 1 1 0 1 0 0 0 0 0 1 0 0 0 0 0 0 2 1 1 0 0 1 2 0 1 1 0 2 0 0 0 1 2 1 0 0 0 0 2 0 1 2 0 0 0 0 1 2 0 0 0 0 0 0 0 0 1 1 2 2 0 0 0 0 1 1 0 0 0 1 0 
0 0 0 0 0 0 0 1 0 0 1 1 0 0 1 1 0 1 0 1 0 2 0 1 1 8 1 0 1 0 0 0 0 0 1 0 0 1 0 1 0 0 0 2 0 0 0 1 2 2 1 0 0 0 0 2 0 0 1 0 0 0 1 3 0 1 0 1 1 1 1 0 0 0 2 1 1 0 0 0 0 0 1 0 0 1 1 1 0 0 0 0 0 0 1 0 1 0 1 1 0 1 1 0 1 2 0 0 1 0 1 0 1 0 1 0 1 0 3 1 0 0 0 0 1 1 2 1 1 1 0 0 0 1 1 1 0 0 0 0 0 0 2 2 0 0 0 6 0 1 0 2 1 2 0 1 1 0 0 0 0 0 1 3 1 0 1 1 0 1 0 0 0 0 0 2 6 1 0 1 1 0 0 2 1 2 4 0 1 0 1 1 0 5 83 165 176 178 179 183 182 182 184 184 182 183 175 184 186 185 185 185 186 186 185 185 170 174 186 185 186 182 185 184 187 186 186 185 172 184 184 185 185 184 183 185 184 184 182 169 182 184 183 183 181 182 182 182 181 181 180 182 181 181 181 180 181 180 180 180 180 179 173 166 178 180 176 177 161 177 177 178 176 179 177 178 178 179 180 176 178 178 178 178 178 177 177 178 177 178 178 177 178 180 182 183 181 162 184 187 187 184 189 178 189 171 189 176 185 161 99 27 64 107 168 179 183 165 185 185 176 187 188 189 191 190 190 179 174 192 193 191 191 186 194 193 191 193 182 172 174 191 186 190 192 190 194 192 193 193 192 189 192 192 191 180 191 174 176 193 193 193 193 192 193 176 179 192 192 192 193 192 178 191 191 192 193 193 194 193 193 181 194 192 193 193 192 180 192 192 192 193 193 192 194 190 192 184 193 193 185 193 193 194 193 181 191 192 185 193 193 193 193 193 194 183 185 192 194 190 191 193 181 142 76 6 2 1 1 3 40 132 174 189 194 193 194 195 195 195 195 194 194 193 191 191 193 187 175 189 184 188 186 172 184 181 180 170 160 159 159 157 158 159 156 142 155 155 156 156 155 148 156 154 155 155 154 154 154 154 154 154 154 142 153 152 146 155 155 154 156 154 156 154 156 140 156 151 158 158 154 150 158 160 161 160 147 163 165 159 164 165 161 166 167 156 168 168 153 163 116 137 78 52 6 0 1 0 0 0 0 1 0 0 1 1 0 1 1 0 0 0 0 0 0 1 1 2 2 8 0 0 0 0 0 0 0 0 1 0 0 0 0 1 0 2 1 0 0 0 6 0 0 0 1 0 1 1 2 1 0 1 1 2 0 0 1 0 0 2 0 0 2 1 0 0 0 1 0 0 1 0 0 0 1 0 2 2 0 0 2 1 0 0 1 1 1 1 0 1 0 0 0 1 0 1 1 0 1 1 0 0 0 0 1 1 0 0 0 0 
1 0 2 3 0 0 1 2 1 0 1 1 0 0 0 0 0 0 1 3 1 2 1 1 2 7 1 0 0 0 1 1 0 3 0 0 0 2 0 1 0 0 0 0 0 1 1 0 1 2 1 0 0 1 1 0 0 1 0 1 3 1 1 0 0 0 0 1 0 1 1 1 0 1 1 3 2 1 0 0 0 1 2 0 5 0 1 0 0 1 0 0 0 1 1 0 1 1 1 7 2 0 0 1 0 0 0 1 0 2 0 1 2 0 0 1 0 0 0 1 0 0 2 0 0 0 0 1 2 0 1 1 0 1 1 0 0 2 0 0 1 1 0 2 1 0 1 0 0 1 7 2 0 0 0 1 0 2 0 1 1 0 1 0 1 0 1 1 0 0 3 1 2 0 0 0 2 0 0 1 0 11 1 1 0 1 1 1 0 1 1 0 1 4 58 157 165 179 180 181 170 183 178 184 184 184 184 174 185 185 185 186 182 187 185 182 186 185 186 186 184 185 175 185 185 186 185 183 185 173 185 185 183 183 167 168 185 183 183 183 182 182 183 183 182 181 181 181 181 180 172 165 180 183 181 181 180 179 181 179 164 179 178 179 179 161 162 178 176 168 169 178 179 178 177 178 178 178 177 177 177 173 174 176 177 178 178 177 177 161 167 168 177 179 180 181 180 163 182 183 185 185 178 187 188 172 173 184 192 190 174 128 50 30 99 145 171 179 185 185 187 187 188 190 188 181 190 190 189 191 190 189 168 190 191 191 192 193 191 190 191 192 193 194 193 190 191 193 188 192 194 194 194 191 177 191 192 177 190 192 192 192 181 191 184 192 192 192 174 193 178 192 192 193 192 193 191 191 192 193 192 194 194 193 193 193 192 193 193 193 192 193 192 186 192 193 194 180 193 188 192 193 178 193 193 193 193 194 193 193 192 192 192 193 195 193 192 194 192 190 189 165 95 28 25 2 2 15 3 37 129 175 189 194 195 195 196 189 195 193 186 194 192 179 176 192 192 190 175 190 188 189 188 186 172 162 177 168 162 160 160 159 156 159 159 153 159 157 157 157 158 158 157 157 157 157 158 157 158 157 157 156 153 157 150 155 144 155 147 146 147 159 157 157 159 159 159 161 161 161 161 162 161 163 163 163 164 165 166 167 166 168 167 168 168 168 169 167 156 90 52 32 37 25 3 1 0 2 0 0 0 0 0 0 1 1 1 1 2 0 0 0 0 1 1 1 0 1 8 0 1 0 0 0 0 1 0 0 2 0 0 0 1 0 0 1 0 0 1 0 0 0 0 1 0 0 0 0 1 1 6 1 2 1 0 1 0 0 1 1 1 2 1 1 0 0 1 0 1 0 2 1 0 0 0 2 1 0 2 1 0 1 1 0 0 1 1 1 0 0 1 0 1 1 0 0 0 0 0 0 1 0 1 1 0 0 0 0 0 0 
0 2 0 1 0 0 1 1 0 0 0 0 0 1 0 0 0 1 0 0 3 2 0 0 0 0 0 0 3 0 1 1 2 1 2 0 0 2 1 0 0 0 0 1 6 0 0 1 0 1 0 2 1 0 1 0 0 0 0 0 0 2 0 1 0 1 1 1 1 1 0 0 0 0 0 2 7 0 1 0 1 5 0 0 1 1 0 0 1 0 0 0 1 1 1 2 1 1 0 1 0 0 1 0 0 2 0 2 2 0 0 7 0 1 0 0 1 0 0 0 0 0 1 0 2 0 1 0 0 1 0 0 3 0 0 0 1 0 0 0 2 1 1 0 2 0 1 0 2 0 0 0 0 1 0 0 0 0 1 1 1 0 1 0 1 6 3 2 2 1 0 0 2 0 1 0 1 0 2 1 0 0 0 1 0 1 1 0 0 1 0 4 0 21 39 148 172 179 177 179 180 180 184 183 184 183 172 183 176 183 186 185 185 184 186 186 182 184 187 184 186 184 185 184 185 183 166 162 185 185 184 184 173 182 183 182 183 171 182 183 183 181 182 181 181 181 180 167 180 174 179 180 179 179 181 179 179 168 177 179 168 179 178 179 178 178 178 178 171 169 163 178 178 177 178 165 177 178 160 175 176 177 178 176 177 169 177 177 177 177 176 178 175 160 177 177 180 180 182 182 184 184 186 177 188 188 189 190 192 192 190 153 128 110 48 32 88 148 170 180 182 172 184 178 186 187 173 188 189 188 168 166 170 180 190 192 190 192 191 191 192 192 193 193 191 178 174 191 192 192 192 193 182 191 191 193 190 193 192 193 193 191 192 192 191 192 191 184 192 192 193 192 179 182 193 192 191 192 178 193 192 193 192 193 193 193 192 177 191 193 188 194 193 193 188 193 192 192 192 170 192 192 192 193 192 194 194 191 176 191 189 194 193 195 194 192 193 193 191 183 151 84 8 2 12 0 3 33 57 104 175 189 194 194 181 195 195 195 194 194 192 193 192 191 191 191 191 190 188 175 188 187 185 186 184 180 171 167 162 162 152 161 159 163 161 159 160 149 159 149 158 141 158 151 159 158 159 159 158 153 159 159 159 160 161 160 158 151 159 158 161 159 160 161 160 148 160 162 164 164 163 164 166 165 165 167 153 159 166 167 159 168 168 168 156 163 157 134 83 28 4 3 3 3 5 1 2 0 0 0 0 2 1 0 1 8 0 1 1 0 1 1 0 0 1 1 0 0 0 0 1 0 1 0 0 0 0 1 1 1 0 0 0 1 1 0 1 0 0 1 1 1 0 2 0 0 0 1 0 0 0 2 1 0 1 1 0 0 3 0 0 0 0 0 9 1 1 0 1 0 9 0 1 0 0 0 0 0 0 1 1 0 0 0 2 1 3 0 0 0 1 0 2 1 0 0 0 0 0 0 1 1 0 0 1 2 0 0 1 0 
0 0 0 0 0 0 2 0 1 0 0 0 0 1 0 0 0 4 0 3 3 1 0 0 0 1 0 0 0 2 1 0 1 0 0 0 0 0 1 0 0 0 0 2 9 1 0 1 0 2 1 0 2 0 0 0 0 0 1 1 0 0 1 12 0 0 0 1 0 1 0 0 0 1 8 10 1 2 0 0 0 0 0 0 0 1 2 1 1 0 1 1 0 1 2 1 1 0 1 0 0 1 1 0 0 1 1 2 9 0 1 1 1 0 0 0 1 1 0 2 0 0 0 2 1 1 0 0 1 0 1 0 1 1 0 0 1 0 0 0 1 2 0 0 0 1 1 0 0 0 1 0 0 3 0 0 0 0 0 0 0 0 2 0 1 2 0 1 0 1 1 0 1 2 1 0 1 2 0 0 0 0 6 1 0 1 1 1 0 1 0 0 0 1 20 134 145 176 172 179 170 182 183 182 183 184 183 183 165 170 183 185 183 184 185 185 185 173 184 185 184 178 185 185 178 185 170 165 167 176 184 186 185 182 181 184 183 183 182 176 182 181 180 181 179 180 180 180 179 180 180 180 170 181 180 165 179 179 179 178 178 159 178 179 176 173 178 179 173 179 177 178 178 178 179 177 177 167 164 175 164 177 170 178 178 176 177 177 177 161 176 177 176 176 168 178 177 170 180 182 181 177 183 185 186 188 187 190 189 191 194 190 189 180 160 104 40 37 79 115 170 156 181 184 185 185 186 176 188 175 187 169 187 190 189 190 189 191 185 191 191 191 192 192 191 190 172 189 191 191 193 191 191 192 191 193 193 189 193 193 192 192 193 189 192 177 168 190 180 177 193 193 192 192 176 191 176 177 191 193 193 191 187 193 194 186 192 193 193 193 193 194 193 193 192 192 193 193 192 166 175 182 192 183 192 192 179 191 176 192 194 194 194 194 180 193 192 166 171 113 32 4 0 0 1 4 20 92 111 178 190 173 192 189 195 197 196 196 195 195 184 181 193 192 191 191 190 190 189 172 187 187 185 175 184 181 176 165 163 163 163 162 162 162 162 161 161 163 160 160 160 160 161 161 160 160 161 160 162 162 161 158 162 161 159 161 160 160 150 163 162 164 163 164 148 149 165 165 165 166 160 158 167 149 156 167 169 167 168 159 154 167 165 162 152 127 79 27 5 1 0 1 0 5 1 0 2 0 0 0 1 2 0 0 1 0 7 0 0 0 0 2 0 1 1 1 0 1 1 2 1 0 0 0 0 0 1 0 0 1 1 1 2 2 1 3 0 1 0 0 0 1 2 0 0 0 1 1 0 0 1 0 1 1 0 1 0 0 1 2 1 0 1 1 0 2 1 0 0 0 2 0 0 1 4 1 1 1 2 0 1 0 0 2 7 1 0 0 0 0 0 1 0 0 0 0 0 0 0 0 0 0 2 1 0 0 0 0 0 0 
0 0 0 1 0 1 1 2 1 0 2 1 1 1 1 1 0 1 0 2 7 1 1 0 1 0 0 1 1 0 0 0 0 2 0 0 1 0 0 0 1 1 0 1 1 1 2 0 0 1 0 1 1 0 0 2 3 0 0 0 1 2 0 6 2 1 0 1 1 0 1 1 0 0 2 1 9 1 1 1 0 0 0 0 3 0 0 0 9 0 1 0 0 0 0 1 0 2 0 2 1 1 1 0 1 1 0 11 2 1 1 0 0 0 0 0 12 0 0 0 1 0 0 0 0 1 6 1 4 0 1 1 0 0 0 0 0 1 0 2 2 3 0 0 1 1 2 2 0 1 0 2 1 1 0 0 0 0 2 6 0 0 1 0 0 1 0 1 0 1 1 1 3 4 0 1 0 0 0 0 0 1 2 7 0 0 7 3 0 0 0 0 1 1 33 116 169 175 178 178 180 182 181 181 182 182 185 167 183 182 167 184 174 184 184 184 185 184 185 181 185 178 184 183 184 184 184 184 184 183 183 184 182 183 183 182 183 183 181 181 181 169 167 180 181 181 180 180 168 180 180 180 180 175 179 179 178 179 180 179 178 165 179 178 159 176 178 177 178 179 177 176 171 178 176 178 176 176 175 165 176 177 177 177 177 178 178 177 169 176 176 169 177 176 169 175 176 178 177 178 179 182 181 182 184 186 187 188 189 189 192 192 190 192 188 181 153 97 34 36 98 151 176 181 182 184 176 187 188 187 189 188 187 190 189 178 190 190 179 190 191 176 190 191 191 184 191 183 193 180 189 192 191 193 181 191 193 193 191 183 191 193 191 192 191 194 193 193 193 192 193 192 195 191 193 192 180 175 191 195 192 194 191 190 192 187 194 193 193 193 194 191 193 191 181 193 178 192 192 193 193 192 181 191 191 173 191 191 179 193 193 194 193 193 194 191 185 151 81 10 13 5 1 2 5 47 124 167 155 192 193 194 179 182 195 197 196 193 195 195 192 192 192 190 183 190 190 190 188 168 170 181 184 184 182 165 176 168 165 148 155 162 165 155 146 164 163 163 163 155 163 164 160 161 152 160 162 164 162 164 162 164 162 163 142 148 153 162 154 164 166 170 166 167 165 155 166 168 167 168 167 167 168 167 157 168 166 169 168 165 162 154 110 112 67 23 4 2 10 1 0 2 2 0 5 3 0 0 0 1 2 1 0 0 3 0 2 0 1 0 0 0 0 0 2 0 0 0 0 1 1 1 1 0 0 1 1 2 0 0 0 0 2 3 2 0 2 0 1 0 0 1 0 1 1 0 0 2 0 1 0 0 0 1 1 1 1 2 1 0 0 2 0 4 2 0 3 1 0 0 0 0 1 2 1 1 0 0 0 0 0 0 4 0 2 7 1 1 0 0 0 0 0 1 2 1 0 0 1 1 0 0 0 0 1 1 0 0 1 2 
0 0 1 1 2 0 1 1 0 0 4 1 0 0 0 0 0 1 0 11 1 1 0 0 0 0 0 0 2 4 0 0 2 0 0 0 1 0 0 0 0 0 2 1 0 1 1 2 0 1 1 0 1 0 0 0 0 3 2 0 1 0 0 0 0 1 0 0 1 0 0 1 1 1 0 0 1 0 0 1 0 0 0 0 0 1 0 0 2 1 0 0 1 0 6 0 0 1 0 0 1 0 2 0 0 1 1 8 1 0 2 0 0 1 2 0 4 1 1 1 1 1 0 0 0 0 1 0 0 2 2 0 3 1 1 1 1 1 0 1 0 0 2 0 0 0 0 1 0 0 0 0 1 1 1 1 1 0 1 1 1 1 0 2 1 1 0 1 0 2 8 1 1 1 8 5 1 0 1 1 0 0 0 1 1 1 2 1 0 1 0 0 0 0 7 95 164 167 177 178 179 166 180 181 183 182 184 184 172 169 168 184 184 185 184 185 183 175 184 185 184 183 183 184 177 184 183 184 184 183 182 174 181 183 183 182 182 181 160 163 180 180 181 181 179 180 179 179 178 180 171 179 177 165 169 177 165 177 179 177 180 178 178 177 164 176 178 176 177 178 181 178 163 177 178 177 174 151 176 175 162 170 175 176 176 175 176 177 174 174 170 172 178 178 177 175 162 177 176 162 169 179 182 181 178 184 184 175 187 187 174 189 174 191 190 191 188 180 150 91 31 44 100 157 176 182 184 184 186 187 188 188 188 187 188 189 180 190 183 180 191 189 190 192 191 185 191 193 191 191 176 179 192 180 192 191 193 191 191 191 180 176 193 191 190 195 195 195 193 181 190 191 191 192 193 193 183 192 193 194 192 192 177 180 193 192 193 192 192 194 192 192 192 192 193 192 185 190 193 192 193 193 192 191 192 192 192 193 193 185 175 191 166 170 189 176 126 36 4 1 1 3 6 16 71 117 178 161 172 192 195 193 193 194 183 196 196 195 195 193 182 193 193 192 192 190 183 187 187 176 186 187 184 184 171 180 176 167 157 149 147 146 163 157 165 165 165 156 164 165 166 164 163 148 163 164 165 165 164 165 163 166 164 165 165 165 164 167 166 166 165 168 168 168 168 168 167 169 168 168 165 170 168 168 168 167 141 163 158 113 95 83 37 11 3 8 1 6 0 1 0 0 1 4 0 0 1 1 0 0 3 1 0 2 0 3 8 9 0 0 1 1 7 2 2 0 0 0 2 1 0 0 1 0 0 0 0 9 0 0 1 1 2 1 3 0 3 3 0 2 1 0 0 2 1 1 0 1 0 0 1 1 1 1 2 0 1 0 1 2 0 0 1 1 1 0 0 1 1 1 2 0 4 0 0 0 1 2 8 0 0 1 0 3 1 0 0 0 4 1 2 7 1 1 0 0 0 0 0 0 1 0 0 3 0 0 0 0 0 0 
1 0 0 1 1 0 1 1 1 1 1 0 0 0 1 2 0 1 0 1 1 0 0 1 0 1 0 0 0 2 0 1 0 2 5 0 1 2 0 1 1 0 1 1 0 0 1 0 1 15 0 0 0 4 1 0 1 1 0 2 0 0 0 2 1 0 6 1 0 0 1 1 0 0 0 0 1 2 3 1 5 4 0 0 0 1 1 0 2 0 1 0 0 0 0 0 0 0 0 1 1 0 0 0 1 0 6 1 0 2 4 1 1 1 1 1 1 0 0 1 1 0 1 0 0 0 1 0 0 0 1 1 1 1 0 1 0 0 0 0 3 1 0 0 2 1 0 1 0 1 2 0 0 2 1 1 0 0 0 0 1 1 1 2 2 11 0 0 1 1 1 0 1 0 0 0 0 0 0 0 2 0 0 0 1 1 0 0 0 0 1 0 1 1 6 72 158 172 176 177 180 170 179 180 181 177 184 183 183 185 181 184 182 167 183 183 182 170 182 184 183 184 184 184 172 184 177 182 183 183 184 183 181 180 171 183 181 179 163 180 182 179 178 180 179 181 177 170 179 180 178 165 165 180 178 179 168 162 177 178 171 178 179 176 177 178 177 178 177 178 179 170 176 168 178 177 163 152 146 150 175 175 166 175 177 175 177 176 162 161 175 173 175 176 175 174 159 175 176 175 178 179 179 180 177 182 182 173 184 186 168 186 188 189 191 189 181 178 187 145 143 83 30 53 118 158 175 182 182 183 183 178 187 188 187 184 189 188 188 189 190 191 190 191 191 190 186 191 190 192 192 192 192 193 192 192 187 191 193 191 191 191 191 192 192 194 192 193 193 184 191 191 188 192 175 192 193 181 192 192 192 193 175 190 175 193 193 193 192 192 193 194 193 194 185 192 191 174 191 182 191 191 192 191 193 193 192 192 193 194 172 166 167 184 156 85 51 4 1 2 3 36 67 102 166 184 192 194 193 195 193 179 182 174 194 194 195 193 192 186 191 193 191 191 176 173 192 188 190 188 187 186 168 183 183 178 172 165 167 166 166 166 157 166 167 165 146 165 165 161 166 165 165 166 147 165 165 166 167 166 161 166 168 167 168 168 168 165 168 167 154 154 168 162 169 169 167 171 170 169 169 169 169 166 164 160 149 103 98 54 19 5 1 1 0 1 0 0 0 2 0 0 0 0 0 1 0 2 0 0 0 4 1 1 1 1 2 0 1 1 0 5 4 0 0 1 0 0 1 2 1 0 4 0 1 1 0 1 1 1 1 0 1 1 1 0 1 1 0 1 0 0 0 2 0 0 3 1 1 1 0 0 0 0 1 0 1 0 0 0 0 3 1 1 1 0 0 2 0 0 6 1 0 1 1 0 0 7 1 1 0 0 1 0 1 0 0 1 1 1 0 1 3 1 0 1 1 0 1 0 1 1 1 0 0 1 0 0 0 2 
0 0 0 0 0 1 2 1 1 1 2 2 0 0 0 2 1 0 0 1 1 1 1 0 0 0 1 1 1 0 0 0 1 2 0 0 0 0 0 0 0 0 0 0 2 1 0 0 1 6 1 1 0 1 9 0 2 0 0 1 0 1 2 1 1 1 0 0 1 0 0 1 5 1 0 0 1 0 1 2 0 0 1 1 2 1 0 0 0 0 0 1 0 0 0 0 0 1 1 0 0 1 1 0 0 1 1 2 0 0 2 1 0 2 0 0 3 0 1 1 0 2 0 0 0 0 2 0 1 0 0 0 2 0 1 0 0 0 0 0 0 0 0 0 1 0 1 2 1 2 1 1 1 0 0 0 0 1 1 4 1 1 0 0 1 2 2 0 1 0 1 0 2 0 0 1 6 0 2 2 1 0 0 2 1 0 1 0 0 1 1 1 1 0 14 59 142 170 175 176 179 180 179 179 180 180 183 182 183 183 182 164 169 170 180 163 164 168 182 183 169 182 181 164 165 182 182 181 180 184 183 182 170 171 178 181 181 180 178 180 172 180 180 180 170 178 178 178 179 180 179 178 178 160 178 178 176 159 177 180 178 178 178 179 177 176 176 177 176 174 163 177 176 177 176 175 175 175 175 175 174 175 177 175 175 175 174 174 176 176 167 159 174 167 174 164 176 176 174 175 176 176 177 178 169 181 180 181 184 183 184 185 188 188 188 180 178 190 192 189 188 175 143 99 31 55 121 159 171 161 180 182 186 185 186 186 186 170 186 188 189 191 191 191 191 189 189 189 185 192 190 188 191 186 193 191 192 190 194 192 193 192 191 191 194 193 194 193 191 192 193 193 193 192 181 192 192 174 192 192 191 181 190 169 191 191 192 193 192 192 193 182 192 193 192 180 175 189 191 178 193 182 192 192 193 177 171 175 193 193 192 185 169 124 42 7 13 3 22 8 43 67 123 177 189 195 195 196 196 193 186 194 195 195 195 194 195 193 187 193 182 192 191 192 190 189 175 189 189 188 187 187 186 185 181 178 168 169 168 169 168 167 168 167 168 168 167 167 166 167 168 168 163 168 169 168 168 168 169 169 169 167 162 168 170 170 170 170 170 169 151 148 169 169 154 168 169 159 168 167 166 154 158 147 131 103 64 26 7 5 1 1 1 1 1 2 0 0 0 3 4 0 1 1 0 0 0 4 1 1 0 0 1 1 1 0 1 1 0 1 0 4 0 1 0 0 1 0 1 2 0 1 3 1 0 0 0 0 3 1 0 0 0 0 0 1 1 0 0 0 0 1 0 0 0 0 1 2 0 0 1 0 0 3 0 1 1 0 0 1 0 1 0 0 0 0 0 0 0 1 1 2 0 0 0 0 0 1 7 0 0 2 1 1 1 2 6 0 0 0 1 0 0 1 0 2 2 1 0 1 0 0 1 2 0 1 3 1 0 2 
1 0 1 0 0 0 0 0 1 1 0 0 1 0 1 0 0 0 0 0 0 2 1 8 1 1 0 1 1 0 0 0 1 0 4 0 0 1 1 1 1 1 1 7 1 1 1 0 1 1 5 0 0 0 1 0 1 0 0 0 0 0 1 1 0 1 0 2 0 0 0 1 0 0 0 1 1 1 0 0 0 1 0 0 0 1 0 0 0 0 0 0 0 0 0 0 0 2 0 0 0 2 0 4 0 0 0 2 0 2 1 2 5 0 1 0 0 0 1 1 2 1 1 0 5 0 0 0 2 0 1 0 0 0 0 0 0 3 2 0 0 0 1 2 1 5 0 2 1 1 1 0 1 0 2 0 1 1 1 0 1 0 0 1 0 0 0 7 1 0 1 1 2 4 2 5 0 1 1 1 4 0 0 4 1 0 1 0 1 0 0 1 2 0 2 10 109 164 173 176 178 178 168 165 169 180 181 180 184 183 182 182 182 182 156 162 180 184 171 182 182 182 175 182 181 183 183 183 183 183 181 181 182 179 161 180 170 163 167 179 180 165 178 181 177 167 178 179 179 178 169 173 178 178 177 177 177 168 176 176 177 178 178 176 176 178 177 156 161 175 154 176 176 177 176 177 177 175 176 173 166 174 175 176 174 173 165 166 175 175 176 174 165 167 177 174 175 176 175 175 150 155 164 175 169 178 178 177 182 180 183 185 186 179 185 174 187 189 183 191 192 190 186 172 135 66 28 52 97 138 134 174 181 184 183 184 180 184 167 185 178 188 188 188 188 191 190 191 191 190 189 190 191 190 191 191 191 192 191 193 195 196 181 191 191 192 194 193 193 192 188 188 194 192 183 192 192 194 193 192 192 192 192 193 176 193 193 185 192 193 192 191 179 193 192 191 190 192 192 192 192 193 191 191 172 190 192 193 192 185 167 127 52 11 2 11 1 2 41 72 109 161 182 188 191 194 193 195 195 197 196 195 185 194 193 187 191 192 192 185 192 193 185 191 191 190 175 187 170 187 186 185 171 183 181 179 171 171 169 170 168 169 169 168 169 170 169 169 171 171 170 168 170 169 170 171 169 169 170 170 169 169 170 170 170 171 169 170 171 169 151 147 167 160 169 167 154 163 161 155 143 123 92 56 24 8 3 14 1 0 0 8 5 7 2 1 1 0 1 1 1 0 1 0 0 1 0 1 0 0 1 0 1 2 1 1 0 1 1 1 0 0 0 0 0 0 1 1 0 1 1 0 1 0 0 1 0 1 0 1 0 0 0 0 1 1 0 0 0 1 2 0 0 0 0 0 0 0 0 1 1 0 0 0 2 0 1 0 3 0 0 0 0 3 0 0 0 1 0 0 0 0 0 0 0 2 0 2 0 0 7 1 0 1 1 1 0 0 0 0 1 0 1 4 1 0 3 0 0 1 0 0 5 1 2 2 1 5 0 1 
0 1 4 0 4 0 5 1 0 0 0 2 0 1 2 1 1 0 1 1 0 1 1 2 1 1 0 1 0 0 0 0 1 2 1 0 0 1 1 0 1 1 1 1 1 0 1 1 1 0 1 1 0 0 1 1 2 0 0 0 0 1 7 8 2 2 0 0 1 2 0 0 0 0 0 1 0 2 0 0 1 0 0 1 0 0 0 0 1 0 2 0 0 1 0 0 0 0 0 0 1 1 2 2 0 0 5 1 1 0 3 0 1 1 0 1 0 0 1 2 0 0 2 1 1 2 1 2 0 0 0 0 0 1 0 1 1 0 1 1 0 0 0 1 0 1 15 0 1 1 6 0 1 1 0 1 0 0 2 0 1 0 0 0 0 1 1 0 0 1 1 0 1 0 1 1 1 1 1 0 1 10 0 2 0 0 1 0 0 0 1 1 1 0 1 3 61 153 170 174 176 177 178 178 177 179 181 182 181 182 181 182 183 181 162 166 181 182 182 175 184 182 183 182 173 182 182 181 164 166 183 181 164 170 179 180 179 153 178 181 181 179 178 178 171 178 176 177 177 179 177 178 180 178 177 178 177 177 177 169 176 177 177 176 176 165 177 158 175 173 160 167 170 177 177 176 178 177 174 164 175 174 163 174 175 175 174 174 175 175 163 173 173 176 175 175 174 176 174 175 173 151 174 174 170 178 178 178 178 181 182 183 183 185 186 186 186 187 188 190 189 173 190 191 186 169 129 67 80 29 57 111 148 167 175 181 183 184 185 170 185 186 186 186 189 189 189 190 190 190 189 190 190 189 191 190 188 190 179 183 193 193 192 191 190 190 191 192 193 193 193 194 182 184 191 191 192 193 190 192 193 193 191 184 184 192 193 187 192 192 192 182 191 192 192 190 192 192 192 192 193 191 183 190 168 177 191 184 165 119 48 59 39 5 1 4 6 22 76 140 173 187 166 162 173 195 196 196 197 196 196 195 194 195 194 183 192 184 192 193 192 192 190 181 189 190 189 182 187 186 188 186 173 181 180 177 172 170 170 170 157 169 171 171 171 171 170 171 171 171 171 172 171 158 169 158 171 168 170 170 171 172 171 152 170 156 154 170 170 170 168 168 149 163 162 157 147 131 112 77 45 18 28 3 1 0 0 2 1 0 0 1 2 0 0 1 0 1 0 1 1 0 1 1 2 1 0 0 0 0 1 0 2 0 1 3 1 0 0 1 2 0 0 0 0 0 1 0 1 0 0 0 1 1 2 0 0 0 1 0 0 6 0 1 6 0 1 1 0 1 1 0 0 0 0 0 0 0 1 0 1 1 0 0 1 2 1 0 1 0 0 0 0 1 3 0 1 0 0 1 2 0 0 0 0 0 1 0 1 8 0 0 1 1 0 1 0 0 0 1 4 1 1 0 1 0 0 0 0 0 1 1 0 1 1 0 0 0 0 0 
1 0 1 1 0 0 0 0 0 1 6 3 1 0 2 0 0 1 0 0 1 5 2 1 1 1 1 1 2 0 0 1 0 0 0 0 0 5 0 0 0 1 0 2 0 3 3 2 0 0 1 0 0 3 0 0 2 1 0 0 0 1 1 6 0 3 0 1 0 5 2 0 0 1 0 1 1 0 0 1 1 1 0 1 0 0 1 0 0 0 0 2 0 1 0 0 0 0 0 0 0 1 0 1 2 0 2 0 1 2 1 1 1 0 6 1 1 0 1 10 0 0 1 0 1 1 6 2 0 1 0 0 1 0 2 0 2 1 0 0 1 0 0 0 1 2 1 1 1 1 1 0 0 0 0 0 2 1 0 0 1 0 1 0 0 1 1 1 0 1 0 0 1 0 1 2 1 0 0 1 1 1 0 0 1 2 1 0 0 1 0 0 1 1 9 16 26 133 136 170 159 176 177 180 180 180 180 182 181 183 184 182 181 166 182 181 183 182 181 182 182 182 182 182 179 172 181 179 171 181 181 180 168 179 180 181 179 179 166 179 179 179 178 165 178 166 178 178 177 177 179 173 175 176 178 174 169 178 177 177 177 175 177 167 176 168 178 177 176 176 161 175 175 170 175 172 176 174 175 166 174 175 163 173 174 174 175 174 174 175 171 175 175 174 176 174 175 174 176 173 173 174 166 175 175 175 177 178 178 178 180 181 182 183 183 184 181 186 187 173 176 188 191 192 192 190 166 170 126 106 53 25 32 71 99 153 170 179 180 175 184 185 178 186 187 187 187 189 183 188 188 174 187 189 189 191 190 191 191 191 192 191 191 191 190 189 191 192 192 193 191 191 191 192 192 191 191 192 190 179 191 192 190 191 191 193 192 191 180 191 189 191 191 185 193 193 191 192 190 193 193 187 192 169 188 180 154 102 40 46 5 3 27 26 9 58 84 139 170 185 191 192 161 171 192 195 185 194 196 195 189 193 194 194 194 193 194 193 194 192 192 190 189 172 189 180 188 188 187 186 186 187 178 181 180 177 173 158 159 171 169 172 171 172 173 171 169 156 170 171 166 171 171 170 171 172 170 171 170 171 165 170 170 151 169 169 167 158 154 163 142 151 113 129 109 78 61 28 11 4 2 1 0 1 1 3 0 0 0 1 0 0 6 1 0 1 1 1 0 0 0 2 1 2 0 0 1 0 1 3 0 0 6 0 0 0 0 2 0 0 1 0 5 2 0 0 0 0 0 1 0 0 0 0 1 1 0 0 1 0 0 4 0 0 1 2 1 2 5 0 1 1 0 0 0 0 0 1 1 2 0 1 0 5 8 0 3 1 0 0 0 1 0 0 0 0 4 2 0 0 0 2 5 3 0 1 1 1 0 2 2 0 1 0 0 2 2 0 1 1 1 0 1 0 1 0 0 0 0 0 1 0 0 7 0 1 1 0 1 1 
0 0 2 2 0 0 0 1 0 0 0 0 0 2 0 0 1 1 1 0 1 0 0 1 0 2 0 1 10 0 0 5 1 0 5 1 1 5 0 1 0 1 0 1 0 1 2 3 2 1 0 0 1 0 0 0 0 0 0 0 0 0 0 1 0 0 0 0 0 2 4 1 1 0 0 0 0 0 0 0 0 1 0 1 0 1 1 0 2 1 0 0 1 1 0 0 0 1 0 1 0 1 0 0 0 3 1 1 1 0 0 1 0 4 2 0 0 0 0 0 1 0 1 0 0 1 0 0 1 0 1 1 1 1 0 2 1 2 5 0 0 1 0 1 0 1 0 0 1 0 0 0 1 2 0 0 1 0 0 0 0 0 0 2 0 1 0 1 0 2 0 1 1 0 0 1 0 10 1 0 1 1 0 0 1 1 0 2 0 0 1 2 5 9 0 1 5 69 124 168 157 174 177 178 180 178 181 180 181 181 180 174 180 181 180 181 181 181 182 182 182 181 181 181 172 181 181 175 179 163 180 180 170 180 173 177 180 174 170 179 173 178 178 161 163 170 177 181 179 177 177 171 177 177 177 178 177 176 177 176 177 177 177 176 165 176 176 176 176 175 177 174 164 174 175 174 175 175 174 175 175 175 174 171 174 175 165 173 165 174 167 175 176 174 172 173 174 172 174 167 173 174 173 175 176 173 175 177 176 177 173 177 179 181 181 169 183 184 186 185 187 173 189 189 190 191 191 189 187 158 167 140 93 43 22 40 83 130 161 173 179 169 184 184 173 185 186 186 184 172 185 182 188 189 180 187 176 191 189 189 190 182 190 191 192 188 191 190 189 190 191 191 190 191 192 179 190 191 191 191 191 191 193 191 189 189 192 180 191 192 191 191 193 190 191 191 191 192 191 192 192 190 186 173 144 85 26 7 2 4 3 22 9 40 98 150 174 186 191 193 194 193 180 194 196 195 195 195 193 194 196 192 194 184 191 194 191 183 192 192 193 191 191 190 189 191 189 175 187 177 174 187 183 181 180 174 173 171 172 174 173 171 173 169 173 150 143 170 172 171 172 172 172 166 172 170 158 171 170 170 170 169 152 150 163 144 155 149 142 125 102 74 45 45 11 3 2 1 2 2 0 0 2 0 1 0 0 1 1 0 0 1 1 0 1 8 0 1 0 1 1 1 1 1 2 1 3 0 0 1 0 0 0 0 1 0 0 0 1 0 0 1 1 1 0 0 0 1 1 1 0 5 0 0 1 1 0 0 1 0 1 1 1 1 0 0 1 2 0 1 1 2 1 0 0 0 0 1 0 1 0 1 0 0 0 1 1 4 4 0 0 5 1 1 0 1 0 0 1 0 0 1 0 0 1 0 1 8 1 0 0 0 0 0 0 1 0 0 1 0 1 0 1 0 0 1 0 0 1 0 0 0 1 0 0 0 3 0 0 0 
1 0 0 0 0 0 0 0 0 1 0 3 0 3 1 0 0 0 1 0 0 1 1 0 6 6 6 1 4 2 2 0 1 0 0 0 0 1 0 0 0 4 1 1 0 0 1 1 2 0 1 2 1 1 0 5 0 0 0 0 0 0 1 1 1 0 4 0 0 0 0 2 0 0 2 1 1 0 0 2 0 0 0 0 0 1 0 0 0 0 0 0 1 1 0 0 1 0 0 0 0 0 1 0 0 1 0 0 0 0 0 0 1 0 0 0 0 0 1 0 2 0 2 1 0 0 0 0 0 0 0 0 0 1 5 1 0 1 0 0 3 2 0 0 0 0 2 2 1 1 0 0 0 0 4 1 1 0 0 0 1 0 0 1 0 5 0 3 1 5 0 0 0 0 1 0 1 1 1 0 1 0 0 7 8 10 2 0 4 15 9 1 0 1 0 4 4 62 150 166 147 153 174 167 178 179 169 178 180 180 179 182 176 180 172 181 181 176 179 180 179 181 179 168 180 181 181 180 163 178 180 180 178 180 180 177 179 178 179 178 178 178 169 178 178 177 172 177 176 177 177 176 177 176 169 177 177 175 177 175 168 175 177 175 175 176 176 176 176 175 174 175 175 176 158 165 175 171 175 163 175 175 173 171 174 174 171 174 175 174 175 163 174 175 173 173 173 174 172 174 173 173 171 165 173 166 174 173 175 174 175 178 178 179 180 179 182 173 183 186 187 187 186 187 190 183 190 190 191 190 171 188 179 163 129 83 34 24 92 98 140 165 175 178 179 182 182 173 184 180 184 186 185 187 187 179 187 187 188 189 189 190 189 190 192 190 188 187 189 190 191 190 190 190 186 190 190 190 190 191 192 184 191 182 191 176 190 178 189 190 187 190 178 191 192 190 191 191 192 189 185 169 110 66 18 4 0 0 3 26 13 52 109 154 176 188 192 193 193 194 191 194 195 194 195 182 195 195 195 196 194 193 195 192 175 193 194 191 191 192 190 190 191 190 190 190 188 173 188 188 185 185 184 181 179 162 159 156 167 172 162 172 156 171 171 170 141 150 170 149 169 154 171 171 169 169 147 166 146 163 161 155 147 137 102 104 83 58 38 20 8 3 3 3 1 0 0 0 1 0 1 0 1 0 0 2 1 1 1 0 0 1 1 0 0 1 1 2 2 1 0 1 1 1 3 1 0 1 1 1 0 0 0 2 0 1 0 0 0 6 0 3 1 0 1 1 2 0 1 1 1 2 2 0 0 1 0 0 2 0 0 0 0 1 0 0 0 0 1 2 1 0 1 1 1 1 0 1 0 1 0 0 0 0 1 1 1 4 0 2 0 0 3 2 1 1 0 0 0 0 1 1 6 0 1 0 0 2 0 1 1 0 1 0 0 0 1 1 2 1 1 0 1 0 1 1 0 1 0 0 0 0 0 0 0 0 1 0 2 0 
0 1 6 1 0 4 0 1 0 7 1 1 1 1 0 0 0 0 0 1 0 0 0 0 0 5 3 0 0 0 1 1 0 0 2 1 1 1 0 0 0 1 0 0 0 0 0 0 9 0 0 2 1 0 0 0 1 5 0 1 2 1 0 0 0 0 0 0 0 0 0 0 0 0 1 0 1 0 1 0 0 2 1 1 0 0 0 0 0 0 0 1 0 0 0 0 1 1 0 0 1 0 1 0 0 0 0 0 1 1 0 1 0 1 3 0 1 0 4 0 0 0 0 0 0 0 0 1 1 0 1 0 0 0 1 1 1 1 0 0 0 1 0 0 0 2 2 11 2 2 0 0 0 9 8 1 0 1 0 7 1 2 0 1 0 5 2 1 8 1 0 1 0 0 0 2 0 1 1 6 0 1 0 1 2 12 2 0 1 1 2 0 5 0 1 2 3 47 130 164 144 150 176 176 177 162 177 180 180 181 180 171 179 169 179 168 179 165 181 166 166 180 179 171 180 180 170 179 180 172 181 179 173 181 178 178 179 180 177 177 178 173 176 177 161 177 178 178 178 177 175 176 178 177 178 175 176 176 176 175 175 175 168 177 176 176 176 176 174 159 174 175 175 173 175 173 176 175 176 174 161 174 174 173 172 173 172 173 174 167 173 174 174 173 174 154 172 173 162 157 165 172 175 173 173 175 172 172 159 156 173 175 170 176 177 178 178 164 178 181 183 186 186 187 188 182 188 191 192 179 191 191 183 191 185 143 153 117 66 27 27 95 111 127 127 162 171 175 179 182 184 183 183 184 185 185 166 163 187 188 186 186 187 189 187 188 188 189 184 188 190 189 190 188 189 188 189 178 190 189 190 188 189 188 186 189 190 191 190 190 190 191 173 191 190 188 183 175 160 134 100 53 14 18 5 1 3 5 47 61 120 161 181 189 192 195 194 193 184 194 195 183 195 186 180 193 194 195 183 194 194 191 191 176 192 193 192 180 191 183 172 176 190 190 180 174 171 173 187 186 185 185 182 181 179 158 170 171 172 172 169 153 170 170 155 170 169 170 167 140 134 166 153 162 139 155 148 121 134 120 100 76 54 35 36 8 6 2 1 2 1 0 0 0 1 0 1 6 1 1 0 0 1 0 1 8 7 1 4 1 0 0 0 0 0 0 0 6 0 1 0 1 2 1 0 0 0 0 1 0 0 0 2 5 0 1 3 0 1 1 0 0 0 2 1 3 9 4 1 0 0 0 1 0 1 2 0 0 0 0 0 0 1 0 1 0 6 1 0 4 1 0 1 0 0 1 0 0 2 1 0 4 0 1 2 0 1 9 1 0 1 1 1 0 1 0 0 0 1 0 0 0 1 5 2 9 2 1 1 1 1 5 1 1 4 1 0 2 2 0 0 1 3 1 2 1 0 2 0 1 0 2 0 0 1 0 0 0 0 4 
0 1 0 3 0 1 0 1 0 1 3 0 0 1 0 0 0 0 0 0 0 0 1 2 0 0 0 1 1 3 1 1 1 0 2 1 0 1 3 0 3 1 4 1 0 0 0 1 0 3 1 1 1 1 1 1 5 1 0 2 1 0 1 1 2 1 0 0 0 0 1 0 1 0 1 1 0 0 0 0 0 4 1 1 0 0 1 1 1 1 0 0 0 0 0 1 2 1 0 1 0 1 1 0 0 0 0 2 2 2 0 0 0 1 0 0 0 0 0 0 5 0 1 1 2 0 0 0 0 0 1 1 0 0 1 1 0 2 1 1 0 2 0 0 2 9 3 8 2 1 2 0 0 1 0 1 0 2 1 4 3 1 0 0 1 0 3 0 1 1 0 0 0 1 0 1 1 1 8 0 0 0 1 1 1 0 1 0 0 1 5 0 0 0 0 0 0 7 72 155 144 171 175 176 170 176 179 172 179 173 178 159 155 179 180 180 175 178 180 181 180 179 172 179 179 180 165 178 179 180 179 177 179 179 172 178 173 179 178 170 178 176 159 152 176 175 176 177 177 178 177 169 176 177 177 174 176 177 175 158 173 176 174 174 175 176 175 177 174 174 172 175 174 164 172 174 173 175 173 174 174 174 174 174 174 174 174 172 175 173 173 173 174 173 165 172 174 173 173 161 172 173 174 174 173 173 172 173 173 172 173 174 175 175 175 178 176 157 177 180 182 182 183 177 186 186 186 189 189 190 191 190 189 193 192 192 188 165 172 147 105 57 80 22 72 51 79 104 133 152 165 173 178 178 154 153 158 183 184 186 184 185 185 184 186 187 187 186 187 186 179 188 188 188 188 188 173 187 187 188 188 189 190 189 188 190 189 191 190 171 189 187 183 174 164 136 100 60 30 9 24 3 17 2 5 9 51 85 129 164 149 188 192 181 194 195 191 194 186 195 196 195 197 196 195 194 176 194 195 192 178 192 180 191 193 194 193 191 191 191 178 189 192 190 188 190 188 178 187 185 169 185 167 180 167 173 172 169 168 162 168 151 167 150 144 165 162 160 133 149 108 134 127 115 97 78 60 42 26 14 28 3 2 1 10 1 1 0 0 1 7 1 2 1 8 5 1 1 2 0 1 0 1 1 5 2 6 2 0 1 4 2 0 0 5 1 3 2 1 1 1 1 1 1 0 0 0 0 1 2 0 1 1 0 3 2 1 2 1 1 1 0 0 1 0 0 1 0 2 0 1 0 0 0 0 0 1 0 0 1 1 1 1 0 0 0 1 2 0 2 1 0 1 0 2 1 0 0 1 0 0 2 1 0 0 0 0 0 1 0 0 1 1 1 0 1 1 1 1 0 0 1 0 1 1 2 1 1 0 0 4 0 0 0 0 1 3 0 1 1 0 0 0 0 0 0 0 0 2 1 0 0 1 1 0 1 0 1 0 0 
2 6 0 0 2 0 0 1 2 1 0 2 0 0 1 0 0 1 1 1 0 1 0 0 7 1 2 0 1 1 0 3 0 0 0 1 0 0 3 1 1 1 2 1 0 6 1 1 1 2 0 0 0 0 0 1 0 1 0 2 1 0 1 2 1 0 2 0 0 1 9 2 0 1 1 2 2 0 0 1 0 1 1 0 2 1 2 0 0 1 1 1 0 0 1 0 1 2 0 2 7 0 2 0 0 0 1 1 0 0 3 0 0 0 0 0 0 0 1 2 0 1 1 0 0 0 0 0 0 0 1 1 0 0 0 0 0 0 0 1 0 1 1 1 1 10 10 11 2 7 6 2 3 0 0 1 0 0 1 1 1 0 0 2 2 0 1 7 0 1 0 2 2 0 1 1 1 0 0 4 1 0 1 0 0 0 0 1 0 1 0 1 1 0 1 0 1 3 43 96 162 154 174 160 174 176 177 175 177 178 178 147 158 178 178 180 180 177 180 169 178 171 178 164 178 179 179 176 169 178 168 179 179 179 178 178 177 177 178 177 175 158 160 174 175 177 176 177 175 176 176 176 176 176 177 175 176 174 171 175 157 160 175 175 175 173 175 177 175 174 175 175 159 173 169 174 172 173 161 162 173 175 165 173 174 173 169 174 174 163 173 173 173 161 165 172 174 172 173 173 172 172 172 161 174 174 175 174 173 173 153 173 174 174 174 174 172 174 169 178 178 179 166 163 183 184 185 186 187 180 189 189 189 190 191 193 192 191 174 189 182 168 142 102 101 39 68 15 16 31 55 88 120 140 119 165 173 153 180 183 182 176 180 183 183 185 184 183 185 181 186 186 185 180 186 173 185 187 187 185 175 188 188 173 188 188 187 186 183 174 164 140 104 61 32 11 6 2 21 2 4 7 16 40 73 114 122 168 166 189 175 194 194 177 195 195 196 194 190 196 196 193 187 195 196 193 194 195 192 170 183 192 192 178 192 193 193 192 176 190 190 184 191 190 189 189 181 188 186 177 184 183 175 181 175 164 164 160 132 154 151 149 144 137 129 121 112 97 80 65 45 29 20 41 35 5 4 2 2 1 1 0 0 0 2 0 0 0 1 0 0 0 0 0 0 0 2 1 1 0 1 1 0 0 2 2 0 0 1 1 0 3 1 0 0 1 0 0 1 0 1 0 4 1 0 0 0 0 1 1 1 2 2 6 0 0 1 0 1 0 0 0 0 0 1 0 0 2 6 1 0 1 2 6 1 0 0 0 1 3 3 1 0 0 0 0 1 0 0 0 0 1 0 0 0 1 1 1 0 1 1 0 0 0 1 3 0 1 0 1 1 0 0 2 0 2 1 1 0 0 0 0 0 0 0 2 0 0 0 0 1 1 0 0 0 0 0 2 7 1 0 1 0 0 1 1 0 0 1 3 0 1 0 0 0 0 0 0 0 2 
2 1 0 0 1 1 1 0 0 2 0 0 1 0 0 0 0 0 0 0 0 0 1 0 1 1 0 1 0 3 0 1 1 0 0 0 0 0 0 1 5 2 1 0 2 1 0 0 0 0 0 0 1 0 1 0 0 1 0 0 0 0 0 1 0 0 0 0 0 1 0 0 0 0 6 2 1 1 1 0 0 1 1 0 0 0 1 0 1 0 1 0 0 1 0 0 5 0 0 0 0 1 0 0 1 0 0 0 0 0 1 2 0 4 0 0 0 0 4 0 0 2 0 0 1 2 1 0 0 0 0 1 2 8 1 0 0 0 2 0 0 0 2 1 1 1 3 2 0 6 2 0 0 0 0 1 0 0 0 1 0 1 0 0 2 1 1 0 0 2 0 0 2 1 3 0 0 1 0 1 0 0 2 0 0 1 8 0 1 0 2 2 2 1 0 0 0 1 22 78 133 169 170 150 156 174 160 176 164 177 179 177 179 180 177 179 179 178 179 169 164 178 177 162 166 162 178 180 178 179 178 179 178 179 179 178 177 176 177 176 175 175 158 175 176 164 176 177 175 180 176 176 175 176 175 175 176 165 174 175 173 163 174 175 175 163 175 175 175 175 173 175 167 172 174 161 171 173 173 174 173 171 151 171 174 161 173 173 172 174 175 173 172 172 173 174 171 172 171 172 172 158 171 147 170 160 172 167 173 172 172 170 173 173 174 173 173 174 176 176 177 178 165 180 182 182 178 184 184 185 186 187 187 182 181 189 189 187 192 192 192 192 189 182 172 132 144 117 86 75 32 15 12 21 37 65 96 126 143 147 152 157 162 129 139 168 144 176 179 179 184 183 184 184 183 182 181 179 136 133 171 169 136 160 156 147 139 128 104 62 34 12 6 25 24 3 2 7 14 37 72 108 140 133 174 183 189 190 194 192 194 194 194 195 190 195 195 195 196 195 195 196 195 195 192 194 194 193 194 193 193 193 191 191 192 192 188 190 175 190 192 192 176 189 190 188 187 187 185 186 185 167 179 180 151 131 118 110 97 83 68 57 45 33 24 15 9 7 14 4 14 2 2 9 0 0 2 1 1 0 2 0 8 0 1 1 0 0 0 1 4 2 0 1 2 0 0 1 1 2 0 1 1 1 1 2 2 0 1 0 1 0 1 0 0 1 0 1 0 0 0 0 2 0 2 0 2 0 0 1 2 1 9 2 0 0 2 1 1 0 1 2 0 1 1 1 1 1 1 0 0 1 1 3 0 0 0 1 0 1 2 0 0 1 0 0 7 0 0 0 0 3 1 1 0 0 0 3 0 1 0 0 1 0 1 1 0 0 0 2 0 0 0 0 1 1 0 0 0 1 1 4 1 0 0 1 1 0 1 2 0 0 0 1 0 0 1 4 9 1 2 0 0 0 0 1 0 1 0 1 1 1 1 0 1 1 0 0 0 1 
0 4 0 0 5 0 0 1 0 1 1 1 1 0 0 0 6 1 1 0 1 0 1 0 1 0 2 0 1 1 0 1 0 1 1 1 0 0 0 0 1 1 5 1 3 1 0 0 0 1 0 0 1 1 0 2 0 2 0 1 0 1 0 1 1 0 0 0 0 0 1 1 0 0 1 1 0 0 0 1 0 0 0 1 1 0 0 0 1 0 0 0 0 0 0 0 0 0 0 0 1 1 1 0 0 1 1 0 0 0 0 2 6 1 1 1 0 0 0 0 0 0 1 0 0 0 0 0 0 1 2 3 0 0 0 0 0 0 0 0 0 0 0 0 0 0 0 1 1 0 0 0 0 0 0 0 1 1 1 0 0 3 1 0 0 0 1 1 0 1 0 1 0 0 0 0 0 1 0 0 0 0 1 0 3 0 2 2 2 1 0 0 0 0 0 2 0 1 5 74 154 168 170 153 157 173 176 175 176 176 165 177 177 179 177 173 178 177 177 178 177 177 159 160 177 177 173 177 176 168 170 175 177 178 176 177 176 177 163 166 177 176 174 172 174 175 175 175 176 176 174 175 175 176 175 174 175 174 176 167 172 175 176 176 173 173 174 176 174 164 169 173 174 174 174 173 174 172 173 171 162 171 161 172 173 154 172 161 172 173 171 167 172 172 172 172 172 172 167 169 157 152 170 149 157 171 163 173 172 156 155 171 172 173 172 173 172 174 174 175 174 177 177 178 180 180 182 181 183 183 179 184 186 185 186 187 190 188 190 180 190 191 192 191 165 187 160 156 179 172 156 109 108 76 45 25 14 15 17 20 25 34 65 48 66 69 80 94 104 113 125 131 139 149 142 132 117 93 89 77 80 52 61 34 56 15 12 38 7 3 4 23 3 5 12 34 63 105 138 160 174 183 188 189 194 180 176 176 192 193 194 195 195 195 195 196 181 194 194 193 194 195 194 183 193 194 194 193 193 193 193 192 185 192 187 191 192 192 190 192 190 188 189 189 189 173 187 189 186 187 186 182 180 177 152 42 16 43 49 40 5 3 1 1 0 1 1 1 0 1 1 1 10 1 5 1 0 0 0 1 2 0 4 2 10 1 10 0 0 0 7 1 1 0 0 6 1 11 0 0 1 0 0 0 4 1 0 0 11 1 2 2 0 1 0 0 1 0 0 1 0 0 2 1 0 1 0 1 1 1 0 0 1 1 0 2 0 0 0 1 1 0 0 0 0 1 0 0 1 0 0 0 5 0 0 0 0 2 0 0 3 0 1 0 2 0 1 0 0 0 1 0 0 0 1 0 2 1 1 2 0 0 0 1 1 0 3 6 0 0 0 2 1 0 0 0 0 2 0 2 2 0 0 0 2 0 0 0 2 1 1 0 0 0 0 2 0 1 2 0 0 0 0 0 1 0 0 0 1 0 0 1 0 0 3 1 0 0 0 0 
0 5 1 1 0 1 2 0 3 0 0 0 0 0 0 0 2 2 0 1 1 1 1 0 0 0 0 0 1 0 0 0 1 0 1 4 0 0 0 1 0 0 0 1 0 1 0 0 5 0 2 0 1 1 0 0 2 0 0 1 2 2 5 1 2 1 0 1 2 2 0 0 1 0 0 1 3 1 0 1 3 2 0 0 0 1 0 0 0 0 0 0 0 0 0 0 0 1 2 1 0 1 0 1 1 0 0 0 0 0 0 0 0 1 0 0 0 1 3 2 0 2 5 1 0 0 1 1 0 0 0 1 0 0 1 0 0 3 1 0 0 0 0 0 0 0 0 0 0 0 0 0 0 0 0 0 0 0 1 1 0 0 0 0 0 1 1 0 1 0 0 1 0 1 0 0 1 1 2 0 2 0 1 1 1 0 1 0 0 0 0 0 0 0 0 0 1 0 4 52 141 166 170 172 173 168 162 156 174 176 177 176 176 179 178 177 178 177 178 178 178 177 166 176 160 177 177 175 177 177 178 176 176 177 175 161 175 174 175 174 166 175 175 164 164 174 174 175 175 166 174 174 167 175 171 169 174 175 167 174 175 175 174 174 170 176 175 166 162 173 173 174 173 170 174 173 172 155 173 172 171 157 172 172 156 173 171 171 173 171 171 171 171 171 172 171 164 171 171 170 170 169 144 149 156 171 171 171 172 171 170 158 171 172 172 173 173 172 173 172 161 163 177 177 176 178 178 180 180 180 180 172 183 185 184 185 184 178 187 188 187 189 190 189 173 189 192 190 190 171 189 186 155 177 166 152 132 101 66 39 21 16 12 9 12 60 60 14 9 9 11 10 16 64 18 9 6 7 4 5 7 39 6 7 6 8 44 15 16 24 34 46 65 100 132 158 173 180 187 193 192 195 188 194 192 194 193 194 194 194 194 183 193 195 182 194 193 178 171 168 183 194 194 194 193 193 192 194 192 192 181 193 193 193 182 192 192 177 191 191 188 179 190 188 179 189 187 186 180 186 184 176 181 173 131 13 0 3 2 14 7 1 1 0 1 0 1 0 0 1 1 0 1 0 1 0 0 1 0 0 1 0 7 2 5 4 0 0 1 1 0 1 0 0 2 5 1 1 1 0 1 1 2 1 0 1 1 3 2 5 0 1 2 0 1 1 1 1 0 0 1 1 1 0 1 1 1 1 0 3 0 0 0 2 0 0 0 0 0 0 2 1 0 2 0 0 0 0 0 0 0 1 0 0 3 1 0 0 0 0 7 1 0 1 4 1 0 2 0 0 0 1 0 1 0 0 1 0 2 1 2 0 1 4 2 0 1 0 0 1 0 0 0 0 0 0 0 0 0 3 0 0 1 0 0 0 0 1 1 0 0 0 0 1 1 4 1 0 0 2 0 0 0 2 1 1 0 0 1 2 1 0 2 0 0 0 0 0 0 0 
2 2 0 0 2 1 0 0 0 1 2 0 0 0 0 1 0 1 0 0 3 1 0 0 1 0 0 1 0 0 0 0 0 0 1 0 1 0 7 0 2 0 1 0 1 3 0 1 6 0 0 0 0 1 1 1 1 1 1 1 0 0 2 0 0 0 0 0 1 0 2 0 1 1 0 0 2 1 0 1 0 0 2 0 1 0 1 1 0 0 0 0 2 1 1 1 0 0 0 1 0 0 0 1 1 0 0 0 0 1 1 2 0 1 1 0 0 1 0 0 0 1 1 1 5 0 1 1 1 0 2 0 0 1 2 0 0 1 0 0 1 1 2 1 1 1 0 0 2 1 1 1 1 1 1 1 0 1 0 2 0 1 1 0 0 0 1 0 0 0 1 1 0 0 0 1 2 4 2 8 0 0 0 0 0 1 4 0 0 0 1 7 2 1 0 0 0 2 0 11 111 159 169 171 171 169 173 175 175 177 176 175 162 168 168 178 179 178 176 178 177 162 177 177 176 177 176 177 176 177 177 176 170 162 176 162 174 175 162 175 175 176 174 175 175 175 163 173 171 173 174 176 171 175 175 174 175 175 169 173 175 174 175 175 173 174 173 174 173 173 161 165 162 173 172 157 172 165 171 173 173 172 172 173 170 168 172 173 170 162 171 171 166 172 171 171 170 172 172 162 158 169 171 172 171 171 172 173 173 171 172 172 158 161 162 172 172 172 160 170 172 174 173 171 174 176 177 170 175 179 180 180 181 182 183 183 173 184 186 175 176 187 188 188 189 190 190 189 177 168 171 190 171 179 190 190 187 182 175 166 154 144 114 128 122 114 105 91 81 69 56 49 44 33 47 24 15 18 28 37 70 63 74 86 100 115 118 138 129 154 134 167 173 179 186 190 193 193 194 194 187 194 193 194 193 193 194 194 194 193 194 194 195 194 196 193 184 192 191 171 181 192 193 189 193 193 174 193 193 192 179 192 192 192 192 192 192 191 192 190 190 189 183 188 189 187 175 186 179 184 184 183 178 142 82 6 0 2 0 1 2 1 1 3 0 0 4 0 0 0 1 0 1 0 1 1 1 2 0 0 0 0 0 1 0 1 0 0 3 0 4 0 1 0 3 0 0 2 2 1 2 2 6 1 1 1 0 2 0 0 0 2 0 2 1 9 1 0 0 0 0 1 6 1 2 1 1 0 0 0 1 0 2 0 0 0 0 1 0 1 2 1 1 0 0 2 0 0 0 0 0 0 0 0 0 1 0 0 0 0 0 0 0 1 2 0 1 0 0 1 0 0 1 0 0 1 0 2 0 2 0 1 3 1 0 0 1 0 0 0 1 0 0 1 0 0 1 1 0 8 2 1 0 0 0 0 0 0 0 0 1 1 0 0 1 1 1 0 0 0 0 0 0 2 1 0 0 0 1 0 0 1 0 0 1 0 1 2 0 1 
5 1 1 2 0 0 2 0 0 1 1 0 2 0 0 1 0 0 0 1 1 1 0 1 0 0 0 0 0 4 0 0 0 0 1 2 2 0 1 0 1 0 0 1 0 0 0 0 1 1 1 2 0 1 0 8 0 0 0 0 0 1 1 0 0 4 7 0 0 0 0 0 0 1 0 0 1 9 0 0 5 2 1 1 0 0 2 0 0 2 0 1 1 0 2 5 0 1 0 0 1 0 0 0 2 0 0 3 0 0 0 1 0 0 2 0 0 1 0 0 1 2 0 0 0 1 4 1 0 0 0 1 1 0 0 1 1 10 1 0 1 0 2 2 1 3 2 2 8 0 1 0 1 2 0 2 0 1 9 2 0 4 6 1 2 1 1 0 0 1 0 1 0 1 0 1 0 1 1 1 1 0 1 1 1 0 1 1 0 0 0 2 1 0 0 0 1 0 1 4 69 153 166 170 171 173 174 167 174 176 174 176 176 176 176 177 177 177 176 177 176 177 177 172 177 177 176 177 173 176 176 176 176 177 176 176 163 161 174 175 174 175 174 166 174 173 174 176 168 174 174 174 174 175 174 173 174 164 170 174 173 174 174 172 172 174 172 174 173 162 173 173 161 172 172 171 174 171 158 159 173 173 173 171 173 173 167 173 172 172 170 163 171 171 172 172 170 172 171 163 171 172 160 171 173 170 172 170 171 170 154 170 171 156 171 173 171 173 172 173 171 173 172 172 172 174 175 174 158 161 177 179 179 180 180 181 182 166 183 169 187 186 186 175 189 189 187 165 187 188 189 174 190 191 192 184 182 192 191 192 190 190 188 189 187 184 183 180 176 129 127 169 165 115 118 150 120 146 154 161 169 173 177 180 162 184 188 189 188 191 192 192 175 193 194 193 194 193 193 192 193 194 194 194 191 191 194 194 194 184 193 182 195 193 193 193 193 195 194 193 194 193 192 193 192 193 183 192 192 191 194 193 192 192 183 191 192 184 191 191 189 190 189 175 187 188 186 187 185 184 183 180 178 159 59 3 1 0 0 1 0 1 1 0 1 0 1 0 1 1 0 1 0 1 1 0 0 1 0 0 0 0 3 0 0 1 0 2 0 1 0 0 0 0 1 0 3 5 0 0 0 7 1 1 1 0 0 0 2 0 1 0 0 0 0 0 0 1 0 1 2 0 0 1 0 0 1 4 0 0 1 1 2 0 1 0 0 1 2 9 12 0 1 0 0 4 1 0 0 0 0 1 0 0 0 0 2 1 0 0 0 0 0 1 1 1 7 0 1 1 1 0 0 2 0 0 0 0 0 1 0 0 0 0 2 1 2 1 1 0 0 1 0 0 0 0 0 0 1 1 1 0 0 0 0 0 0 1 0 0 0 1 0 4 5 7 1 1 0 1 0 1 0 0 0 2 1 1 1 0 0 2 0 1 1 0 6 1 0 0 
1 0 1 0 0 0 0 1 2 5 0 0 0 0 0 5 0 1 0 1 0 0 0 2 0 0 0 0 0 0 0 0 1 0 1 2 0 0 1 0 1 1 0 1 0 0 0 0 1 1 0 0 0 0 3 1 1 2 2 1 1 0 0 0 0 0 4 0 0 0 0 1 2 11 2 11 1 0 3 0 4 2 0 1 3 1 1 0 8 1 0 0 1 0 0 0 0 0 0 1 0 0 0 0 1 0 0 1 0 0 0 0 2 0 1 0 1 1 0 1 1 1 1 0 0 1 0 2 0 0 0 1 0 1 0 0 1 9 6 2 0 0 0 0 0 0 0 1 1 0 1 0 0 0 0 0 1 2 1 2 0 1 1 1 1 0 1 0 6 1 0 5 1 1 0 1 0 1 1 7 7 0 1 1 0 0 0 0 1 2 1 0 2 4 0 0 0 1 0 1 33 133 164 164 170 171 172 173 175 174 162 175 176 176 167 175 176 177 175 177 175 177 164 176 159 176 165 176 176 176 162 176 176 169 175 174 175 174 174 174 166 174 162 173 160 174 174 174 175 173 173 168 175 174 174 175 174 173 174 174 173 174 173 174 172 173 173 163 172 173 165 171 172 172 171 172 172 172 163 171 172 156 171 171 171 172 172 170 162 172 171 171 171 165 171 170 172 169 171 170 171 171 170 170 155 164 170 171 170 149 136 150 170 170 172 171 172 172 172 173 165 168 171 172 170 168 173 172 172 162 158 175 176 176 177 178 179 179 181 182 184 185 185 185 186 187 186 172 184 188 189 188 191 191 190 181 188 191 190 192 191 191 191 192 180 192 192 194 191 167 192 193 192 189 189 192 189 189 190 191 193 193 194 192 193 193 193 193 178 192 177 193 192 192 192 193 194 194 193 193 192 193 186 190 194 185 193 194 193 193 193 195 192 194 193 194 191 192 193 193 193 193 184 191 177 191 185 192 192 192 192 193 190 190 176 190 190 174 190 189 192 191 176 189 189 189 187 188 185 181 174 180 177 147 31 2 0 0 0 4 1 1 0 1 1 0 0 2 0 1 1 3 1 1 2 1 1 1 0 0 0 1 0 0 0 1 0 0 0 0 0 2 0 0 1 1 0 0 0 0 1 1 1 0 1 0 0 0 0 0 0 1 1 1 0 1 0 0 0 0 0 0 0 9 1 0 1 1 0 1 0 5 0 1 1 0 1 0 0 1 1 0 0 3 1 1 0 3 1 1 1 1 1 2 0 0 0 0 0 1 1 0 1 1 0 5 1 0 1 1 1 0 0 0 0 2 0 2 0 1 0 2 0 0 0 2 0 0 1 0 0 0 1 0 0 1 0 1 1 2 1 0 0 0 0 1 1 1 2 2 0 0 1 2 0 1 0 0 1 4 0 0 0 0 0 0 0 4 0 1 1 0 1 1 1 2 1 1 2 0 
1 1 0 1 0 1 6 1 0 0 1 1 0 0 0 0 0 0 0 1 0 1 0 0 1 5 0 0 0 1 0 0 0 0 0 0 0 3 1 2 1 9 1 0 0 0 1 0 1 0 2 0 0 0 1 1 0 8 8 0 0 1 2 0 1 3 1 1 2 1 2 1 0 2 1 0 0 1 0 4 1 2 0 1 1 0 1 0 0 0 0 0 1 1 0 0 0 0 0 0 1 0 1 0 1 0 0 0 0 1 1 0 0 1 1 1 2 0 1 0 1 0 0 0 4 0 2 7 2 0 1 0 0 0 2 4 5 1 1 0 1 0 0 0 0 0 0 0 2 1 7 4 0 0 0 0 1 0 1 8 1 0 0 0 0 0 1 0 1 4 1 0 0 0 0 1 1 1 6 0 1 0 1 1 1 0 0 0 1 2 1 1 1 0 1 2 1 0 1 1 38 94 158 167 170 170 171 172 174 173 173 174 176 177 176 175 175 178 177 177 176 175 176 176 175 175 175 176 175 176 176 176 175 175 173 175 173 174 175 174 174 173 174 173 172 173 161 173 175 174 174 172 169 175 172 175 173 173 174 172 172 172 173 173 172 174 172 173 171 171 172 173 171 173 172 172 172 161 171 172 171 157 170 155 170 172 170 161 171 171 173 171 172 172 170 163 171 170 165 171 163 169 169 170 169 170 169 170 169 150 145 169 170 158 171 171 172 171 173 170 170 172 173 172 173 172 171 158 172 172 175 175 175 161 174 177 167 177 180 180 181 182 182 183 184 185 184 169 184 186 186 187 188 186 189 187 177 189 191 190 191 188 192 191 190 178 192 193 192 190 193 193 194 193 194 193 193 194 192 194 185 192 192 193 192 192 194 185 191 191 191 191 192 192 193 192 193 192 191 181 180 193 193 193 192 183 192 183 193 193 192 193 183 192 193 192 193 193 192 193 191 193 192 191 193 178 192 192 193 193 185 190 176 173 189 166 161 172 190 191 189 189 184 189 189 188 186 188 186 184 183 179 174 124 11 8 1 0 0 1 2 1 1 0 0 0 0 0 1 1 0 1 6 5 6 8 1 0 1 7 0 1 2 1 0 0 0 0 1 0 0 0 0 1 0 1 0 2 1 0 0 1 1 1 2 1 0 0 1 0 1 1 0 0 0 0 0 0 0 1 1 0 1 3 1 0 0 1 0 9 3 0 0 0 0 1 0 0 6 0 0 5 6 1 0 1 0 6 2 9 0 1 0 1 0 0 1 0 1 1 7 1 0 0 0 2 2 0 1 1 0 0 0 0 1 2 0 1 0 0 1 5 0 0 0 0 0 0 1 0 0 0 1 0 1 2 0 1 0 2 2 2 0 0 0 0 0 0 0 0 0 0 0 1 0 0 1 0 4 1 0 1 1 2 1 3 0 0 0 1 0 0 0 1 1 0 3 0 0 1 
0 0 3 0 1 0 1 0 1 0 0 0 0 0 1 0 0 0 0 1 0 0 0 1 0 0 0 2 0 0 2 0 0 1 3 0 0 0 3 3 4 4 2 0 0 0 0 0 1 1 2 0 0 0 0 0 0 4 2 0 0 1 1 1 0 3 2 1 2 0 0 0 0 1 0 0 1 0 2 1 1 2 2 0 0 0 0 1 0 2 0 0 0 0 0 1 0 1 2 0 1 0 3 4 1 1 1 3 0 1 1 0 2 0 0 1 0 1 1 0 0 0 1 1 2 1 2 1 0 0 0 1 0 0 0 0 1 4 1 2 2 1 0 1 0 1 0 0 2 0 1 1 1 0 0 0 0 0 0 0 2 0 0 0 0 1 0 2 2 0 0 3 0 1 1 1 0 0 0 1 1 2 2 0 0 0 1 2 1 1 1 0 0 2 1 6 1 1 3 2 5 58 147 165 167 169 164 169 170 154 153 173 174 174 175 175 177 176 176 176 176 176 176 174 173 163 176 175 171 175 165 176 174 173 174 174 174 174 174 174 172 175 174 172 172 173 172 173 173 168 174 173 172 173 173 173 173 173 172 170 173 171 171 172 172 172 173 168 172 174 173 165 171 171 172 172 171 171 150 157 171 171 171 170 165 170 170 170 158 169 172 171 170 172 171 170 164 169 170 171 162 154 169 159 162 170 170 168 170 170 170 171 170 170 169 166 171 171 165 171 172 173 173 171 171 172 172 171 172 173 173 172 172 163 174 174 175 177 177 176 179 179 180 176 181 181 183 175 182 185 185 184 187 186 172 185 188 186 188 187 189 190 188 188 188 190 189 189 185 191 188 191 192 192 191 191 192 192 192 179 192 191 188 192 190 183 191 191 192 190 171 190 192 180 183 191 191 194 192 192 192 192 183 182 179 192 192 193 192 194 192 193 192 191 191 192 191 180 191 192 193 194 192 184 192 179 191 192 193 192 191 191 191 191 189 188 173 190 190 189 173 188 173 189 188 185 174 186 185 183 166 178 166 85 6 1 0 0 0 0 2 0 1 1 0 1 1 0 0 1 0 0 2 1 5 0 0 1 2 5 0 0 0 0 0 0 0 0 2 0 1 0 2 1 0 0 0 0 1 0 0 1 0 4 3 0 0 1 1 0 2 0 0 0 0 0 0 0 1 2 1 0 2 1 0 0 1 1 1 4 0 0 0 1 0 3 0 0 0 1 1 2 0 1 0 1 4 0 1 6 1 3 0 0 0 0 0 0 0 0 0 1 0 0 0 0 0 1 1 1 0 0 1 1 1 0 0 0 1 0 0 1 2 1 1 0 1 2 2 0 1 1 0 0 1 1 2 0 1 0 2 0 1 1 0 5 0 0 1 0 1 1 2 0 1 1 0 0 0 1 1 1 1 0 0 0 1 3 0 1 2 1 0 0 0 0 1 0 0 1 
0 0 2 1 0 0 1 0 0 0 2 1 0 0 0 1 4 1 1 2 0 2 1 0 0 0 0 1 0 0 1 0 0 2 0 0 1 7 1 0 0 1 1 0 0 0 1 1 0 0 1 2 0 0 0 1 0 1 0 0 1 2 2 0 0 0 3 1 1 0 0 1 0 0 0 0 1 1 2 2 1 1 0 1 0 2 0 0 0 0 0 1 0 0 1 0 0 0 1 0 2 1 0 1 1 0 0 0 2 1 0 0 0 1 0 1 1 1 0 0 0 1 0 0 2 2 7 3 1 0 0 0 0 1 0 3 0 1 0 1 0 0 0 0 2 0 1 2 0 0 1 0 0 0 1 1 1 0 1 1 1 0 0 0 1 1 4 0 1 1 1 0 1 0 2 1 3 5 0 2 1 0 1 0 0 2 0 0 0 1 0 1 0 0 0 0 2 0 1 0 12 22 102 158 165 168 169 169 154 158 171 173 172 174 161 173 166 175 175 173 168 174 176 162 156 158 174 175 176 174 174 173 167 175 173 174 174 174 161 173 165 173 172 169 173 162 172 172 173 172 158 163 173 173 167 164 172 173 174 171 171 170 156 157 172 160 172 172 172 167 171 170 171 171 170 163 170 171 159 170 172 155 170 156 171 170 170 170 171 170 171 169 171 170 173 170 168 151 153 169 168 168 170 170 169 161 171 169 170 169 170 170 161 160 170 170 170 171 166 170 170 170 171 173 171 170 171 171 171 160 172 172 172 172 172 171 172 175 176 173 177 177 176 169 180 177 168 180 181 181 182 174 184 182 184 174 186 176 187 187 188 189 188 180 186 187 188 189 188 189 188 188 188 190 190 188 181 179 190 190 192 190 190 190 189 182 190 192 190 171 175 191 192 189 177 191 192 192 192 193 192 192 192 191 191 193 190 178 192 176 191 192 174 175 174 192 192 181 192 193 193 191 182 192 193 191 192 192 192 192 193 191 175 178 191 191 190 180 191 191 189 189 189 188 176 186 185 184 184 182 181 176 152 45 2 1 0 0 0 1 1 1 0 0 0 0 1 0 1 0 0 2 2 0 0 1 0 1 0 1 0 0 0 0 2 0 1 0 0 0 0 2 1 0 0 0 0 0 0 2 1 2 0 0 1 0 0 0 14 1 0 0 0 0 0 0 0 0 0 3 2 1 0 0 0 0 0 0 0 0 0 0 1 0 0 1 0 0 0 0 1 1 1 1 0 2 2 1 1 1 5 1 0 0 0 0 0 0 0 0 0 2 0 2 1 0 0 0 0 0 0 1 2 3 0 0 0 0 1 0 1 0 0 1 2 1 1 0 0 0 1 0 0 2 1 1 3 0 0 0 0 0 0 0 0 0 1 0 0 1 2 1 2 2 0 1 0 0 0 3 1 5 1 0 1 1 1 0 0 1 0 0 0 1 2 0 0 0 0 0 
1 1 2 0 0 5 0 0 0 1 0 1 0 0 0 1 1 6 3 0 0 0 0 0 0 0 0 0 2 1 1 0 1 0 2 3 0 0 1 1 0 2 2 1 0 0 0 0 1 1 0 0 0 1 0 1 0 0 0 1 2 1 0 0 0 0 1 0 0 1 1 0 0 0 0 6 1 0 2 0 1 2 1 2 0 1 1 0 1 0 1 0 0 0 1 2 1 0 2 1 1 1 0 1 0 1 0 0 0 0 1 0 0 1 0 0 0 6 0 0 1 0 1 1 0 2 0 0 1 0 1 1 1 0 2 0 0 0 2 2 1 0 0 1 1 0 2 1 4 0 1 0 0 0 1 0 0 1 0 0 1 1 0 1 1 9 3 6 0 0 1 1 0 0 1 0 7 0 1 1 1 0 0 0 0 2 0 0 1 0 0 1 0 0 0 0 0 2 1 0 2 7 90 153 163 166 167 147 169 170 171 171 157 171 174 172 162 165 161 174 160 174 174 175 157 161 163 174 174 173 174 174 173 173 174 168 172 164 172 173 172 170 158 170 172 172 172 173 172 172 171 161 172 171 172 173 173 173 173 172 171 171 170 170 170 172 167 172 171 169 157 164 171 173 170 172 171 172 170 171 170 171 171 170 170 170 160 170 170 170 160 151 164 169 170 159 154 168 169 169 170 170 159 170 170 170 160 170 161 169 164 168 160 168 163 170 171 170 169 169 169 169 170 171 171 170 155 162 158 170 171 171 171 171 165 172 172 172 173 159 161 174 176 176 175 176 168 178 178 169 179 181 179 162 181 165 183 184 182 184 184 185 185 167 172 186 186 175 186 186 189 172 174 188 183 188 186 190 188 189 184 190 190 188 189 189 191 191 190 189 191 190 183 176 177 191 192 188 191 191 192 192 192 185 190 172 181 191 191 178 191 191 190 190 174 173 191 191 192 178 192 193 191 177 175 191 193 192 191 178 191 191 191 191 191 192 189 189 180 189 183 188 189 189 187 187 186 184 183 182 179 173 121 14 1 0 0 0 4 0 1 0 1 0 0 0 0 5 1 1 1 0 1 0 0 0 0 1 2 0 0 0 0 0 2 0 1 0 1 0 1 1 0 0 0 1 0 0 0 0 0 0 2 2 0 0 0 3 1 1 1 0 0 0 1 0 0 0 0 0 0 0 1 0 0 1 0 1 0 0 1 1 2 0 0 0 0 0 0 1 4 0 0 0 0 0 2 0 1 0 7 0 0 0 0 0 1 1 0 0 0 0 1 0 1 1 0 3 3 0 0 0 2 0 0 1 0 0 0 0 0 0 2 2 2 0 0 0 0 1 1 1 2 2 1 1 0 0 0 1 0 0 0 0 0 1 0 0 1 0 2 0 3 0 0 0 0 0 0 0 0 1 0 4 8 2 1 1 0 0 1 0 1 2 1 0 1 1 0 2 
7 0 0 0 2 0 0 0 1 0 1 3 0 0 0 0 2 0 0 0 0 0 0 0 1 1 0 1 0 1 0 1 0 1 0 0 0 0 1 0 0 0 1 0 1 5 1 3 1 0 0 0 1 0 0 1 0 0 0 0 0 4 0 0 0 0 0 1 1 0 0 0 1 1 0 0 0 3 0 1 0 0 1 4 0 0 0 0 0 0 0 0 2 0 0 1 1 0 0 1 2 0 3 0 1 1 1 0 0 1 1 1 1 2 1 0 0 0 1 0 0 2 2 0 0 1 1 0 0 1 2 0 0 1 3 1 1 1 0 0 1 3 1 0 2 0 1 1 1 0 0 0 1 1 0 0 2 1 1 2 1 5 0 0 0 0 1 3 1 2 0 0 0 1 0 0 0 1 0 2 0 0 2 3 0 0 0 1 0 0 0 1 0 0 1 1 0 0 1 0 1 4 46 139 159 164 148 167 155 149 169 173 171 172 171 165 173 173 173 174 174 173 174 172 166 174 175 172 174 174 173 173 172 173 172 172 172 172 173 171 173 153 160 172 164 171 163 171 172 172 171 159 171 172 169 172 172 173 172 172 173 170 171 157 161 171 171 171 171 170 173 170 172 171 171 171 170 171 153 169 171 164 170 171 169 171 169 170 171 168 150 146 160 169 156 168 156 170 170 169 170 169 168 167 168 168 169 169 168 169 169 170 170 169 167 170 167 169 161 160 172 169 166 170 170 166 155 168 170 170 164 171 171 165 172 171 172 173 173 172 173 173 173 173 173 174 177 176 178 177 177 178 178 156 179 176 181 182 183 183 182 183 174 164 182 183 185 184 185 185 185 178 184 186 185 167 173 188 188 189 187 192 189 189 189 188 188 190 188 189 182 190 189 190 190 192 190 190 181 191 190 181 191 191 191 173 189 190 192 190 190 193 193 191 192 190 185 185 190 179 184 192 191 184 167 170 191 180 191 190 192 183 191 191 190 191 190 177 190 190 189 188 188 185 186 188 185 184 183 167 178 130 70 4 0 1 1 1 0 2 1 0 1 1 1 0 1 1 0 4 1 1 2 1 0 0 1 1 0 0 0 0 0 0 1 0 0 0 1 1 0 0 4 0 0 0 0 1 0 0 1 1 2 1 1 0 0 0 0 0 1 2 0 0 1 0 2 1 1 0 0 2 0 2 1 3 0 0 0 0 1 0 0 0 0 0 1 2 0 2 4 2 0 0 0 1 5 1 0 0 3 5 0 0 0 0 1 2 1 2 0 0 1 0 0 1 1 0 0 3 0 0 0 1 2 1 0 0 1 2 2 1 0 1 0 0 1 2 1 5 2 4 1 0 0 2 1 1 0 0 1 0 0 2 1 1 0 0 0 0 0 0 0 0 1 0 0 1 0 0 0 0 0 1 1 0 1 1 0 1 1 1 1 0 0 2 0 1 0 0 
2 0 1 4 3 0 0 0 0 0 0 0 2 0 0 2 1 1 0 0 0 1 1 0 0 4 2 1 0 0 0 0 1 0 1 0 0 1 4 0 2 1 0 1 0 1 2 1 2 0 1 0 0 0 0 2 0 1 0 1 1 1 0 0 0 0 0 1 1 1 2 0 1 1 1 2 0 0 3 1 0 0 0 0 2 2 0 0 0 0 0 0 1 0 4 1 0 0 0 0 0 2 0 1 0 2 0 0 1 0 1 1 0 1 0 1 1 0 7 3 0 0 2 0 0 0 0 1 0 0 0 0 9 2 0 0 0 5 0 0 2 0 0 2 0 1 0 1 0 0 0 2 1 0 0 1 0 0 0 0 0 4 5 0 1 4 1 0 0 1 7 0 2 1 1 1 0 0 0 1 0 1 0 0 1 1 1 1 0 0 1 2 0 1 0 0 1 5 0 0 0 1 13 106 153 161 164 165 140 143 169 169 171 171 172 172 174 173 173 174 172 174 172 162 172 171 173 173 171 158 172 165 171 172 170 168 171 163 170 171 162 171 170 172 171 171 171 171 171 171 164 171 172 170 165 171 167 171 171 167 171 170 165 171 169 152 170 156 170 170 171 170 170 170 163 170 172 170 150 154 157 170 170 170 162 161 170 168 163 169 169 170 170 168 151 167 148 166 170 169 150 168 170 162 153 147 153 169 168 151 168 170 169 168 170 169 171 168 168 170 169 169 170 170 170 171 169 169 170 157 170 171 170 165 171 170 171 171 170 173 171 164 171 171 157 173 172 174 176 176 176 177 178 177 178 179 178 178 180 181 181 170 181 180 182 184 184 174 183 184 185 185 185 187 186 185 186 186 188 187 187 189 189 187 188 181 187 189 190 189 189 189 173 190 184 190 185 189 191 190 190 191 191 191 189 180 190 192 192 190 193 191 192 192 191 179 190 191 192 191 190 179 192 192 190 191 191 192 183 181 191 190 191 182 190 192 189 190 182 190 189 189 175 186 185 185 183 182 168 163 176 145 29 1 5 0 4 0 0 2 12 0 0 1 0 0 1 0 0 1 1 0 2 0 0 0 1 1 0 1 2 1 1 0 0 0 0 0 1 0 1 0 0 1 0 0 1 0 0 0 1 0 0 0 0 0 0 0 2 0 2 1 1 1 2 1 2 0 0 0 0 0 1 0 0 0 0 0 0 1 0 1 4 1 1 2 2 0 0 0 3 1 0 0 1 0 0 7 1 0 0 1 1 1 0 1 1 1 0 0 0 0 0 0 0 0 1 1 0 0 2 0 3 0 0 0 0 1 0 1 8 2 1 0 1 0 0 0 2 0 0 1 0 2 1 5 1 0 0 0 2 0 1 0 1 0 0 0 0 1 0 2 5 0 2 1 0 0 1 0 0 1 0 0 0 0 6 1 0 2 1 0 0 0 2 0 1 0 2 8 
1 0 0 10 1 0 0 0 1 1 0 2 1 2 4 0 0 0 0 0 0 1 0 0 0 0 1 0 3 0 1 1 1 0 0 7 0 0 2 0 6 1 1 0 1 2 0 0 2 0 0 0 0 0 0 0 1 0 0 0 1 1 0 0 0 0 0 0 1 0 0 0 2 1 0 1 0 0 1 4 1 0 0 2 8 3 1 1 0 1 1 1 1 0 2 1 1 2 2 1 0 1 0 0 2 0 0 1 1 2 2 1 0 0 1 0 0 0 0 1 1 0 0 1 5 1 0 0 0 0 1 0 1 2 0 0 3 3 0 0 0 0 1 1 1 1 0 0 0 1 1 1 1 2 2 0 0 0 0 1 0 0 0 1 1 0 2 4 0 0 0 1 1 0 1 1 0 0 0 2 0 0 1 0 0 0 0 1 0 0 0 5 7 4 1 2 1 1 1 1 2 1 19 54 136 155 144 161 140 165 154 168 153 169 171 172 171 171 173 171 171 174 173 172 167 173 174 173 161 171 173 172 172 171 170 160 169 171 170 169 155 169 170 163 171 171 171 170 169 171 171 170 171 161 171 172 171 171 163 171 170 171 171 170 170 170 170 155 169 170 169 171 170 169 160 171 169 169 170 169 169 170 169 169 171 169 169 169 169 165 170 169 162 161 168 151 149 153 161 168 158 170 169 168 168 155 166 168 157 146 168 169 164 169 169 169 170 170 154 169 168 169 170 169 169 157 170 168 170 171 162 170 170 169 171 170 172 164 162 170 170 172 171 171 172 172 173 160 171 174 171 174 174 176 178 176 165 170 177 180 179 168 163 180 180 182 182 183 183 167 180 183 185 186 184 184 185 186 187 186 186 187 188 187 188 189 188 188 189 186 189 176 187 190 190 190 191 189 190 190 189 190 179 189 190 191 191 191 190 192 183 191 193 192 192 188 191 192 180 192 192 192 191 188 192 191 190 191 190 189 176 190 191 191 190 189 190 187 188 189 187 172 186 184 166 183 157 162 182 179 170 94 7 8 2 0 1 0 1 0 2 4 0 0 0 1 0 0 4 1 1 0 0 1 1 0 1 1 1 1 1 6 1 0 0 1 1 1 0 0 1 0 1 1 0 0 0 2 0 1 0 1 0 3 1 0 1 2 0 0 0 1 0 0 0 0 0 0 0 0 1 2 0 1 0 1 1 1 1 1 0 0 0 1 0 0 1 2 0 1 0 2 1 0 1 1 0 2 1 0 4 2 1 1 0 2 0 0 0 0 0 1 0 0 1 1 1 0 1 4 1 0 1 0 1 0 0 0 0 2 2 3 1 0 1 1 1 0 3 2 1 1 0 5 1 4 1 2 0 0 2 0 0 0 0 0 1 2 0 1 3 1 1 1 0 0 0 0 9 1 0 0 0 1 0 1 4 0 1 0 0 0 0 0 1 2 0 0 0 0 
0 0 9 1 0 0 0 0 2 1 0 0 0 0 2 1 5 0 0 0 0 0 4 0 0 0 0 0 6 0 1 1 2 0 0 0 0 1 1 1 1 0 0 0 4 0 0 0 0 0 2 0 0 0 7 3 0 2 0 0 0 0 0 0 0 0 1 0 0 1 0 0 1 0 1 1 1 1 0 0 0 0 0 1 1 5 1 0 0 1 0 0 1 5 1 1 1 2 1 0 0 1 1 0 1 0 0 1 1 0 1 0 0 0 0 1 1 0 0 0 0 1 0 0 0 1 1 2 0 0 0 1 2 4 1 0 1 2 1 0 2 4 0 0 0 0 0 0 0 0 2 1 0 1 1 1 0 1 1 0 0 1 0 0 0 0 2 0 0 0 0 1 1 3 0 0 0 0 2 0 2 0 0 0 0 1 0 2 5 2 1 1 0 1 1 1 0 0 0 1 0 0 3 15 102 125 157 144 162 152 167 168 154 169 171 172 171 171 170 165 167 172 172 173 170 172 173 173 172 170 171 172 173 170 158 170 171 170 170 170 169 156 150 168 169 170 169 154 155 149 150 171 170 171 169 168 171 172 171 171 171 171 163 170 169 162 170 170 170 172 170 154 154 170 171 170 172 170 169 170 170 168 170 169 169 173 169 169 169 168 170 169 169 169 168 157 167 166 168 168 168 168 167 168 169 159 168 168 167 158 168 168 168 168 168 167 167 168 169 168 168 169 169 161 169 155 169 168 168 170 159 157 170 170 171 170 172 171 163 170 156 171 165 171 160 164 174 173 171 175 173 175 176 175 175 176 177 176 161 177 179 161 177 180 180 175 180 181 183 181 183 174 184 184 184 165 162 184 185 185 186 186 185 187 186 186 186 176 186 188 189 177 189 187 189 189 189 188 189 188 189 190 175 189 191 190 190 191 191 190 190 191 191 190 184 191 191 190 191 192 193 193 191 183 192 189 191 191 190 174 189 190 184 189 182 189 190 189 189 188 188 187 187 164 162 152 157 182 180 159 125 65 4 1 0 0 0 1 1 0 0 1 1 0 1 2 4 1 0 0 0 0 0 1 0 1 0 0 0 0 0 0 0 1 0 0 2 0 1 1 1 0 0 0 0 0 1 0 0 1 0 1 0 0 1 1 1 1 1 1 0 0 0 0 0 1 0 0 0 0 0 2 0 0 0 0 1 0 0 0 0 1 0 0 0 0 1 0 0 1 0 0 2 0 1 0 0 2 1 3 2 0 0 0 1 1 2 5 1 0 1 2 0 0 0 1 0 1 0 5 1 1 0 0 2 1 0 0 0 0 0 1 0 4 5 1 0 1 1 1 1 0 0 1 0 2 0 1 0 0 0 0 2 0 0 1 0 0 0 1 2 2 1 0 3 3 0 0 1 1 0 1 0 0 1 1 7 1 7 1 0 0 2 0 0 0 0 3 1 0 
2 0 1 1 1 4 1 0 1 1 1 5 0 0 0 1 1 1 0 0 0 1 1 0 1 0 0 0 2 0 0 1 1 1 0 0 0 1 0 1 0 0 1 1 0 0 1 1 2 0 0 3 11 2 0 1 0 1 1 2 1 1 0 1 0 0 0 0 0 0 0 0 0 0 1 1 0 1 1 1 0 1 0 0 0 0 2 0 1 2 0 0 0 1 3 0 0 0 0 0 0 0 0 0 0 0 0 5 0 2 0 1 1 0 2 0 0 0 1 0 1 0 1 1 0 1 0 1 0 0 0 0 1 0 0 0 3 0 0 1 0 0 1 0 0 1 0 1 0 1 1 0 0 3 1 0 0 1 0 0 0 0 0 0 0 0 0 0 1 0 0 0 4 1 1 8 2 1 0 1 0 0 0 0 3 0 4 0 1 1 1 2 0 1 1 7 2 4 0 0 2 1 1 15 45 132 155 162 164 164 165 167 169 168 169 170 161 170 155 170 172 170 170 171 157 173 172 169 165 170 171 170 166 170 170 171 170 169 169 167 163 168 169 169 164 170 169 167 156 169 169 155 154 168 170 170 168 171 170 168 170 170 169 168 154 168 171 169 168 170 170 169 170 161 156 170 169 170 169 170 169 167 168 169 168 168 170 170 169 168 168 164 169 169 167 169 169 169 152 147 144 151 169 168 167 163 168 168 155 165 167 169 168 166 169 167 170 154 161 169 160 166 169 171 169 160 161 169 170 169 157 169 170 170 169 170 170 170 164 158 170 171 169 171 171 173 173 174 172 174 175 174 175 175 176 176 176 175 164 159 176 177 178 169 179 179 180 169 183 181 181 182 183 183 169 182 184 184 170 161 185 186 185 186 187 187 185 173 187 188 187 187 188 188 188 189 189 189 178 175 190 190 190 179 191 191 190 188 191 191 189 190 191 190 190 189 190 192 191 191 192 192 191 191 191 190 192 192 191 172 164 173 190 181 190 190 190 189 188 188 187 180 186 183 149 153 181 182 165 175 135 19 0 1 1 1 0 1 1 2 1 1 0 0 0 0 1 0 3 1 1 0 0 0 1 1 0 0 0 0 0 0 0 2 0 1 1 0 0 0 1 0 1 0 0 1 0 0 1 1 2 0 0 0 0 0 0 0 0 0 0 0 0 0 2 0 1 0 0 2 0 1 1 1 0 0 0 2 0 0 1 2 0 0 0 0 0 0 0 0 0 2 0 1 1 0 0 0 3 0 0 1 1 1 3 1 0 0 0 0 1 0 0 0 0 2 0 3 2 1 0 0 1 0 1 1 0 0 2 0 1 0 0 1 1 0 0 5 1 1 10 2 0 1 0 1 1 1 0 1 4 0 1 2 2 1 0 1 1 0 1 1 0 0 1 0 1 0 0 0 1 0 0 1 0 1 1 0 0 0 1 0 0 0 2 1 2 4 1 0 
1 0 0 0 0 1 0 0 0 1 0 0 0 4 1 0 1 1 0 1 0 1 0 0 0 0 0 0 1 0 2 3 4 0 1 0 1 0 1 0 0 1 1 0 0 1 1 0 1 6 0 1 1 0 2 0 1 1 4 0 0 2 0 1 1 0 0 0 1 0 0 2 1 0 0 0 0 0 1 1 0 0 0 1 1 1 1 1 0 1 1 1 0 5 1 0 0 0 0 1 0 1 0 1 0 0 1 0 1 0 0 0 0 0 0 0 0 1 0 0 1 2 0 0 0 0 1 0 0 0 4 0 0 0 0 0 0 3 1 0 0 0 0 0 0 2 0 0 1 2 0 0 0 0 2 2 0 0 1 0 1 0 1 0 1 4 1 1 0 0 1 0 1 0 1 1 0 0 0 0 3 2 0 0 0 5 0 0 0 0 2 2 0 6 1 1 1 2 2 0 2 2 2 15 9 83 145 157 160 164 165 152 167 169 167 154 153 168 155 170 169 163 169 169 169 171 166 170 158 169 170 160 169 171 160 160 169 168 169 168 161 164 170 170 162 168 170 169 153 170 170 169 168 154 170 169 169 168 170 171 170 155 158 169 168 168 170 169 169 169 153 169 168 170 168 170 168 168 159 169 163 168 169 170 167 163 167 168 169 168 169 170 162 168 169 169 169 168 169 167 147 153 167 164 168 167 169 168 168 167 167 169 168 167 168 169 167 168 168 168 167 168 170 167 169 168 168 169 168 154 169 168 169 171 170 171 170 172 170 170 170 172 172 173 171 172 171 172 171 165 173 174 166 175 176 174 175 176 176 155 177 165 178 178 171 180 180 176 182 181 181 183 182 183 170 184 176 184 182 153 182 186 185 185 188 187 178 187 187 188 187 173 187 188 179 187 165 187 188 189 190 190 189 189 182 189 191 177 192 190 190 191 191 191 183 191 190 191 192 192 192 190 192 191 191 191 191 190 189 189 191 191 186 189 188 190 187 175 164 165 172 187 186 187 182 160 163 171 179 170 91 5 0 0 0 0 0 1 2 0 0 0 1 0 0 2 0 1 2 1 0 0 0 1 1 1 1 0 2 0 0 1 1 0 0 0 0 1 0 1 0 0 0 0 0 0 0 0 1 0 0 1 1 0 0 0 0 0 1 1 1 0 1 1 2 0 0 2 2 1 0 0 3 5 1 0 0 0 0 0 2 4 0 0 0 0 1 0 0 2 0 0 0 1 9 0 2 0 4 1 0 0 1 1 0 0 0 5 2 0 0 1 2 2 0 0 0 0 1 0 0 0 1 0 0 1 7 0 0 1 2 0 0 0 0 0 1 1 1 1 2 0 0 1 1 1 0 2 0 2 1 1 0 2 0 0 0 1 0 6 0 0 0 0 2 0 0 0 1 3 1 2 0 1 0 5 0 0 0 1 0 2 1 0 2 1 0 1 3 1 
1 8 0 0 0 0 1 0 0 1 1 0 0 1 0 0 5 1 1 0 0 0 0 0 1 0 1 0 0 0 1 0 1 1 1 1 0 0 0 3 0 1 0 0 0 2 4 1 1 1 0 0 0 2 0 1 0 0 1 0 0 0 1 0 1 0 1 0 0 0 0 1 1 0 0 1 3 1 2 1 0 0 0 0 1 0 1 0 0 5 1 1 0 0 10 1 0 1 1 0 2 0 0 0 0 2 6 0 0 2 1 1 0 0 0 1 0 1 0 0 2 0 2 0 1 0 9 1 0 1 0 0 0 2 0 0 3 0 0 0 2 0 0 0 1 0 1 0 1 0 0 1 0 1 0 0 1 1 0 0 0 0 0 0 1 5 0 1 1 0 0 0 0 7 0 1 0 0 0 5 3 0 1 0 9 1 1 0 0 0 0 1 0 0 1 1 1 0 0 1 0 0 1 0 2 37 125 136 159 161 164 163 154 166 167 168 154 168 169 169 169 171 169 169 174 169 169 170 169 162 171 170 164 168 169 168 170 170 168 169 168 167 168 168 169 168 167 160 168 167 164 169 167 151 168 170 169 169 169 169 168 158 169 167 168 169 167 169 169 169 168 170 171 170 170 169 169 169 168 167 168 162 169 168 169 168 169 170 169 167 159 168 168 158 168 159 169 169 165 170 168 168 168 169 169 168 168 168 167 167 161 159 168 168 168 167 168 168 169 168 169 167 169 168 161 169 168 168 168 169 157 168 167 168 158 164 169 170 170 170 169 161 171 171 173 170 172 161 172 174 168 174 174 174 174 175 176 176 177 176 177 178 163 172 178 181 180 182 181 181 182 181 182 172 182 183 184 184 184 185 184 186 185 169 186 187 185 187 188 187 187 177 189 188 189 189 172 175 174 188 190 189 189 190 180 190 190 189 191 191 191 182 189 192 190 179 190 190 190 191 191 184 191 191 191 181 191 190 185 181 191 192 190 173 190 190 189 174 187 187 188 186 185 187 185 183 182 180 179 152 40 2 1 0 0 2 2 5 1 0 0 0 0 0 1 0 1 1 1 0 0 1 0 1 0 3 0 1 0 7 0 1 1 2 0 0 0 0 0 3 2 3 0 1 1 1 1 0 0 0 1 0 1 0 0 0 0 0 0 2 0 1 1 1 2 8 0 1 0 0 3 0 3 1 0 0 0 0 1 0 3 7 8 0 0 0 1 1 0 0 0 0 0 1 1 1 1 0 1 0 1 0 0 1 1 5 1 0 1 0 0 2 9 0 0 1 0 2 1 1 1 1 1 0 2 0 2 0 0 1 0 0 1 0 1 0 0 1 2 0 0 6 0 1 2 3 1 0 0 1 2 1 2 0 0 0 0 0 1 1 1 0 2 9 1 1 0 1 0 0 0 1 0 1 0 0 0 0 1 4 0 0 1 0 0 0 2 1 1 2 
2 2 1 2 0 0 2 0 0 1 0 1 3 0 0 1 1 1 0 0 1 1 0 6 8 0 0 0 1 0 0 2 0 0 3 1 0 0 1 2 0 1 0 0 0 1 0 0 2 0 1 1 0 0 1 1 1 0 0 1 0 0 0 0 1 0 1 0 0 0 0 0 0 1 1 1 1 0 0 0 1 2 0 0 1 2 0 1 1 1 0 0 1 2 0 0 0 0 0 1 0 0 0 1 1 1 0 5 0 0 1 2 1 0 0 0 0 0 0 1 1 0 0 0 0 0 1 0 1 1 0 0 0 0 0 1 0 0 0 1 1 0 0 0 0 0 0 2 0 0 2 0 0 1 2 1 0 0 1 1 0 0 0 0 0 0 0 0 1 0 0 0 1 6 1 1 0 0 3 0 0 0 0 0 0 1 0 1 1 0 1 1 0 0 0 1 0 3 0 0 0 1 9 1 0 7 81 140 155 160 163 162 154 165 167 165 155 167 167 169 161 168 157 168 170 169 170 169 169 164 168 168 159 168 168 168 168 167 160 169 168 161 159 157 167 169 168 168 167 169 168 169 159 168 168 168 167 159 169 169 168 168 159 169 157 167 168 167 169 168 168 161 168 168 168 169 157 159 167 167 169 168 169 168 168 168 168 168 169 167 169 167 167 169 166 168 167 167 168 168 169 163 168 167 168 167 167 167 168 168 168 167 162 167 167 169 168 166 167 169 167 167 169 157 156 167 165 170 168 168 169 168 168 169 169 170 172 169 169 170 164 169 162 171 170 170 172 171 173 173 175 174 175 174 175 174 176 178 177 177 166 177 165 179 179 178 179 181 180 181 181 173 183 182 182 183 183 186 183 185 184 185 185 186 185 187 187 188 188 187 187 186 188 188 188 188 187 171 187 179 187 190 189 183 189 191 190 190 193 191 191 192 192 190 190 184 189 184 191 183 191 189 191 191 189 188 191 190 191 189 191 189 189 184 189 189 188 187 189 179 186 187 185 185 183 184 182 181 175 119 10 0 0 0 0 1 1 1 2 2 0 2 0 0 1 0 1 1 2 0 0 0 0 0 0 1 0 1 0 1 0 0 1 0 0 1 0 2 4 0 0 0 0 1 1 1 0 2 2 0 1 0 0 0 0 0 1 0 0 0 1 0 0 2 0 1 0 0 0 2 1 6 1 0 1 0 2 0 0 0 2 1 1 7 0 0 1 0 0 0 1 2 1 1 2 1 8 0 0 0 0 9 5 1 0 0 0 1 0 0 0 0 0 1 0 0 2 0 2 2 0 2 1 0 0 0 0 0 1 8 1 0 0 1 0 0 0 0 1 2 0 1 1 5 1 0 0 1 1 0 2 0 0 2 1 1 0 0 0 0 1 0 0 0 0 0 1 4 0 0 0 0 2 0 1 0 0 1 1 5 0 1 0 0 0 1 2 0 2 5 
1 2 1 1 0 1 0 0 0 1 0 0 1 3 1 0 0 0 1 0 0 2 1 1 0 1 1 0 0 0 2 4 2 3 0 2 0 1 1 0 0 0 0 0 0 0 1 0 0 0 1 1 1 0 2 0 1 1 3 0 0 0 1 1 3 2 1 0 0 0 0 4 2 0 1 0 1 2 0 1 0 1 0 0 0 0 0 0 0 0 0 2 1 0 1 0 0 0 0 1 0 2 1 1 1 0 0 0 2 0 1 2 0 1 5 1 0 0 0 0 2 1 0 5 0 0 1 1 1 0 0 1 0 0 1 0 1 1 1 0 0 0 1 0 1 1 0 0 1 1 0 0 2 8 2 2 0 1 1 1 0 0 2 0 1 0 0 2 1 2 0 1 0 1 1 0 0 0 1 0 0 2 0 0 1 0 1 3 0 0 0 1 0 0 1 0 0 1 0 2 2 1 1 1 1 8 31 117 148 156 154 161 148 164 166 166 166 161 167 169 167 169 167 151 166 167 168 168 162 166 169 169 167 168 167 159 165 148 152 164 167 167 166 168 168 167 167 168 166 169 168 169 169 166 169 157 166 167 169 169 168 168 167 167 166 150 167 168 168 167 168 167 168 166 155 159 166 167 151 167 168 160 169 167 167 167 168 167 167 167 168 166 168 168 167 152 158 167 157 166 167 169 169 168 168 166 169 168 160 165 168 167 166 156 169 167 168 167 168 167 167 168 168 167 167 166 168 162 169 168 162 154 163 169 169 169 169 168 168 168 161 172 171 172 171 170 172 172 172 174 174 166 163 157 160 159 165 176 177 166 177 169 178 180 179 180 174 172 181 181 175 180 172 182 182 182 184 184 184 184 185 185 185 186 185 187 186 187 186 187 187 188 188 187 175 188 178 188 177 188 189 188 189 190 190 189 189 191 189 190 190 190 191 190 191 190 186 190 191 191 189 177 176 187 170 172 168 190 190 190 189 180 190 182 190 189 187 188 188 187 187 186 186 179 185 179 180 179 165 68 4 0 0 1 0 0 0 0 2 1 1 1 0 0 0 0 0 1 0 1 0 1 0 0 0 0 0 0 0 0 0 1 0 1 0 0 0 1 1 2 5 1 0 1 1 0 0 1 0 2 0 1 0 0 0 1 0 0 0 0 1 0 1 0 1 0 0 0 1 1 1 1 0 4 0 1 0 1 0 0 0 1 0 1 5 1 3 0 1 1 1 2 0 2 1 4 0 0 0 0 1 1 5 1 1 0 1 1 0 0 0 0 5 2 5 0 1 0 0 0 0 1 1 2 1 1 0 0 2 1 0 0 0 0 1 1 1 0 0 0 0 5 1 1 0 0 0 1 0 0 1 1 4 1 0 1 0 0 0 2 1 1 0 0 1 0 0 0 1 0 1 1 0 0 1 3 1 0 2 2 0 0 1 0 2 3 1 0 1 1 
9 5 2 1 0 0 0 0 0 0 1 0 1 0 1 0 0 1 0 2 5 1 2 1 0 0 2 0 0 1 9 7 2 0 0 1 2 0 5 1 2 0 0 0 0 1 0 0 0 0 1 0 0 0 3 1 0 1 1 1 1 1 1 2 4 0 0 0 0 0 1 1 1 0 0 0 0 0 1 0 1 2 0 0 2 0 1 2 6 1 0 0 12 2 0 0 0 0 0 2 2 0 0 7 0 0 0 0 0 1 1 1 2 1 1 1 0 0 2 0 1 1 0 0 8 5 2 0 0 0 0 1 0 0 1 1 0 1 0 0 0 0 0 0 0 0 0 1 0 0 0 0 0 2 1 0 0 1 1 1 1 0 0 0 0 1 0 0 0 0 3 7 4 1 1 0 0 1 1 0 0 0 6 1 0 1 2 3 1 0 0 0 1 0 0 2 2 1 1 0 0 0 1 0 1 0 4 67 137 144 157 160 161 158 165 166 163 166 165 167 167 162 166 150 146 146 167 168 167 169 164 167 167 167 168 167 166 158 164 166 167 165 166 167 156 145 154 152 167 167 166 162 166 167 168 167 168 167 168 168 155 165 157 156 166 167 168 166 168 169 169 169 169 166 156 152 168 167 167 166 154 167 167 167 166 169 166 161 169 168 167 168 166 167 168 167 167 166 167 167 164 167 166 167 166 167 168 167 155 149 167 166 167 168 167 167 167 169 169 166 167 167 159 167 168 155 168 160 169 167 167 168 168 169 168 162 169 167 158 169 169 171 171 170 171 172 172 172 174 173 168 157 172 173 175 175 176 174 177 177 178 177 180 178 178 180 181 179 180 181 180 181 179 172 182 174 183 183 183 184 185 185 185 185 174 186 187 186 187 178 186 176 186 175 170 187 189 188 189 188 189 189 189 190 190 190 190 190 176 190 189 190 190 190 189 191 190 189 190 190 190 189 163 173 187 189 188 190 181 190 190 190 190 189 188 182 188 187 177 186 173 185 185 187 184 182 180 177 144 27 1 2 0 1 2 5 2 0 0 0 0 2 0 3 1 4 0 2 0 0 1 0 2 0 1 0 1 1 0 1 0 0 0 0 0 0 2 0 1 0 1 1 0 1 1 6 1 0 2 0 0 1 0 0 0 0 1 0 1 5 0 1 0 2 1 0 0 1 0 0 0 0 0 1 4 2 1 2 1 0 0 3 0 1 1 0 0 1 0 10 1 5 1 3 0 1 0 1 1 0 0 0 1 0 2 1 0 0 0 0 0 0 0 0 1 0 0 0 0 1 0 0 1 2 0 0 0 5 1 0 1 1 1 1 0 4 1 0 2 0 0 0 0 1 0 0 0 2 1 1 6 0 5 1 0 0 1 0 1 2 0 0 0 1 0 1 0 0 0 0 0 0 1 0 0 1 1 2 1 0 1 0 0 0 0 0 0 1 0 1 
2 0 1 1 0 0 0 2 1 2 0 1 0 0 0 1 0 1 1 2 0 1 1 1 0 0 0 0 0 0 1 0 1 1 0 2 1 0 2 0 0 1 0 2 0 2 0 0 1 2 1 0 0 1 1 0 1 0 2 0 0 2 0 2 2 1 0 5 0 0 0 4 1 0 0 1 0 2 1 0 0 1 1 1 1 0 1 1 4 1 0 1 1 1 0 0 0 0 0 4 0 1 0 2 0 1 2 0 1 1 0 2 0 0 2 2 1 0 1 2 0 0 1 1 7 2 0 1 1 1 0 0 2 0 0 0 0 0 1 0 1 1 0 0 1 0 0 1 1 0 0 0 1 1 0 0 1 1 0 1 1 4 0 1 0 0 0 0 0 0 1 1 0 0 0 0 2 0 0 0 1 0 0 2 1 0 1 1 0 0 0 1 0 0 0 1 0 0 2 2 1 1 0 0 0 1 2 21 78 116 153 158 160 163 164 164 163 158 165 164 164 159 157 165 149 165 165 157 168 167 166 159 166 165 166 166 166 165 166 159 166 162 166 166 165 165 166 165 166 166 167 167 168 166 168 167 153 150 153 167 165 150 166 166 166 167 168 166 166 167 168 166 168 165 166 166 167 165 169 165 165 167 157 152 166 162 167 168 168 167 167 167 166 154 167 166 167 161 167 167 167 166 161 166 167 168 167 166 166 167 167 167 165 168 166 166 156 167 165 167 168 168 167 157 168 159 168 164 167 168 168 169 168 167 162 168 166 152 167 168 169 169 170 165 171 172 171 171 171 165 172 172 174 175 176 174 176 177 178 172 178 178 178 171 167 179 180 182 181 180 179 180 171 182 181 183 184 184 184 183 184 186 184 186 185 186 187 187 187 188 187 186 162 187 187 188 190 188 188 190 180 188 189 183 188 189 189 190 189 190 189 189 191 180 190 191 189 174 176 191 181 189 159 163 188 191 189 179 188 189 191 190 190 189 188 188 187 188 186 185 184 176 184 185 184 179 180 171 102 6 0 1 0 0 1 2 1 1 0 0 0 1 4 1 1 1 1 1 0 0 0 0 0 0 0 1 4 2 4 0 0 0 0 2 1 6 0 1 0 0 0 1 0 0 2 0 0 1 0 0 0 1 0 1 1 0 0 0 0 0 1 1 0 3 1 0 0 1 0 1 1 0 11 0 1 2 0 1 1 0 1 0 1 1 0 0 1 0 6 1 0 2 1 0 1 0 1 0 0 0 3 2 1 1 0 0 0 0 0 1 0 0 0 0 1 1 0 7 0 0 0 0 0 0 2 0 1 0 0 0 2 5 2 1 0 4 0 1 0 0 1 0 0 0 0 1 0 0 1 0 0 1 0 1 3 1 0 5 0 1 1 0 0 0 0 1 1 1 1 1 3 0 0 1 1 2 1 0 0 1 0 1 0 0 1 1 1 0 0 2 
2 1 1 0 0 0 0 6 0 0 0 0 0 1 1 0 0 0 1 1 1 2 1 1 0 1 2 0 0 0 2 2 2 0 0 1 0 0 2 1 0 0 1 3 0 1 0 2 0 1 2 1 0 2 0 1 0 0 1 0 0 0 0 0 0 0 1 1 0 0 0 1 0 0 0 1 1 0 1 1 0 0 0 0 1 0 2 1 5 1 0 0 0 1 0 1 0 0 0 0 0 0 1 1 0 2 0 0 3 3 0 2 1 0 0 1 0 1 2 1 0 0 0 1 6 0 0 0 0 0 2 0 1 1 0 0 0 0 0 0 0 0 2 1 1 0 0 0 1 0 0 1 1 1 0 0 0 0 0 0 1 3 1 1 2 0 1 0 0 1 1 1 0 1 2 0 1 1 2 8 1 1 0 0 1 1 0 0 1 2 0 2 1 1 0 1 0 2 1 5 2 0 1 0 1 1 1 4 55 101 147 154 158 160 159 155 163 146 164 152 165 165 165 167 166 157 167 167 164 151 164 166 165 166 166 166 165 166 166 165 165 164 165 158 165 166 165 167 166 166 166 166 166 155 166 166 164 166 167 167 165 148 166 156 149 166 166 168 167 166 167 162 167 167 152 152 156 166 167 154 165 166 150 165 167 167 167 167 165 167 166 166 166 166 156 159 166 167 167 166 166 157 167 166 168 166 166 166 167 167 167 167 167 167 167 156 166 168 165 169 167 168 167 167 168 167 168 168 168 151 157 168 168 162 167 167 168 167 168 160 169 169 170 157 169 170 171 172 172 172 173 173 173 175 175 176 175 175 176 171 177 176 178 172 177 179 179 179 180 171 181 173 169 181 180 182 183 182 183 183 185 184 184 174 186 185 185 185 186 187 187 186 179 186 190 187 188 189 188 189 189 187 178 189 190 188 182 190 190 191 191 190 188 189 189 181 175 190 189 179 174 190 189 189 191 189 189 188 177 189 191 189 188 182 189 187 188 187 187 186 187 185 184 173 182 180 177 158 51 5 2 0 0 0 1 1 1 0 0 2 0 0 0 4 0 0 0 0 0 0 0 1 0 0 0 1 0 0 0 1 1 0 0 0 0 2 0 0 0 1 0 1 0 1 0 0 1 0 4 0 1 0 0 1 5 2 1 1 0 0 0 1 0 1 1 1 1 1 5 1 0 4 1 1 0 0 1 1 1 1 0 0 1 0 0 1 1 1 1 0 0 0 1 0 1 1 1 0 1 0 1 9 2 0 0 0 1 0 1 5 0 1 0 0 0 2 0 1 1 0 0 0 0 5 2 0 1 2 1 1 0 0 1 1 0 0 0 0 0 0 1 1 0 0 1 0 1 0 1 0 0 0 1 0 1 0 0 0 0 1 5 0 1 0 0 2 1 0 1 1 0 1 1 0 0 1 0 0 0 0 0 0 0 0 0 1 1 2 6 5 
0 0 0 0 0 1 0 2 1 0 1 0 0 0 1 0 1 0 0 0 0 0 0 0 0 3 0 1 0 2 1 1 0 1 0 0 1 0 0 3 0 1 0 2 2 0 1 0 0 0 1 0 0 1 4 1 1 0 0 1 1 0 1 1 0 0 1 2 0 1 0 0 0 0 0 1 0 0 0 1 0 1 0 0 1 0 0 0 1 2 1 1 0 0 0 1 0 0 1 0 0 1 0 1 0 1 0 0 1 0 0 0 0 0 1 0 0 0 0 0 0 1 1 1 0 2 1 0 0 0 1 0 0 1 1 0 0 0 1 0 1 1 1 2 0 0 0 0 1 0 0 1 10 1 0 0 0 0 0 1 0 1 1 0 1 0 3 0 0 0 1 1 0 0 2 0 1 2 3 1 1 0 0 1 1 1 5 4 0 1 0 1 0 0 0 0 1 0 0 0 2 8 1 0 1 5 2 20 42 100 142 152 156 159 149 143 161 154 163 151 162 165 165 164 165 165 165 166 164 150 164 165 156 164 165 157 164 165 165 164 164 163 156 164 167 165 163 156 164 167 164 166 165 164 149 153 153 164 165 166 152 166 165 165 165 166 166 166 165 166 167 166 166 165 166 166 167 167 166 166 152 164 137 147 165 167 165 167 166 168 168 166 166 165 166 164 166 167 162 165 166 167 166 167 166 163 167 162 167 168 167 165 152 145 165 167 167 158 166 155 167 168 165 168 167 167 168 167 167 167 168 167 166 167 167 168 170 161 160 169 169 170 169 162 169 165 162 171 172 172 172 175 174 175 176 169 176 177 177 178 177 177 177 179 179 179 178 168 171 180 181 171 182 181 169 182 182 165 183 183 182 185 168 183 185 184 186 171 173 186 177 187 186 188 187 186 187 189 190 188 188 190 187 171 188 189 188 190 189 189 190 190 190 190 175 177 188 190 191 178 188 190 191 190 179 190 190 190 189 190 188 189 188 188 174 188 187 186 187 187 185 185 183 171 168 164 173 132 17 2 1 0 1 0 8 1 2 0 0 1 0 1 0 0 1 1 4 1 0 1 0 0 1 0 1 0 1 8 0 1 0 0 0 1 0 1 0 1 0 5 2 0 0 1 0 0 0 1 0 0 0 0 0 0 0 0 0 0 6 1 1 1 0 2 1 0 1 0 0 2 0 0 0 0 0 2 1 0 1 1 0 0 2 0 1 1 0 0 1 3 0 0 0 1 1 0 1 0 0 0 1 2 1 0 1 7 0 0 0 1 1 1 1 0 5 0 0 0 1 2 1 1 0 2 0 1 0 4 2 0 0 0 0 1 1 2 1 0 1 0 0 0 0 0 2 1 0 0 1 2 0 0 0 3 0 0 0 5 1 0 0 0 0 1 0 0 0 0 1 0 0 0 0 1 0 0 2 3 0 0 1 0 0 0 1 0 1 0 2 2 
0 0 0 0 1 0 0 1 0 1 0 0 0 0 1 1 1 1 0 0 0 1 0 0 0 1 1 0 0 0 0 0 1 2 0 1 0 0 0 0 2 0 1 0 1 5 0 1 0 0 0 0 0 0 0 2 0 0 1 1 0 1 1 0 0 0 1 0 0 0 0 0 0 0 0 2 5 2 1 0 0 4 2 0 0 0 1 1 0 0 0 1 0 0 0 0 0 1 0 1 0 0 0 0 0 1 0 1 1 0 7 1 1 0 0 0 0 0 1 0 0 0 0 1 0 0 0 0 0 0 1 1 0 1 0 0 0 0 0 0 2 0 1 0 0 2 3 2 0 2 0 0 2 0 0 0 0 0 0 0 0 0 1 1 1 6 0 0 0 0 0 1 1 0 0 2 0 0 0 1 1 1 3 1 1 0 5 1 0 1 0 1 0 1 0 0 0 0 0 0 9 8 3 2 0 5 1 3 22 46 127 147 153 156 158 159 147 161 162 162 163 162 164 163 159 164 166 154 161 151 163 165 164 164 165 162 163 164 163 163 163 163 163 165 164 163 164 163 165 155 160 164 150 148 149 163 163 151 165 166 153 165 158 165 166 154 166 165 166 157 165 165 152 158 166 156 152 165 166 167 164 141 133 162 145 149 164 165 165 168 165 166 166 167 165 166 166 168 167 166 166 157 166 167 165 167 155 167 165 157 158 166 152 166 152 165 153 166 167 166 167 164 168 167 166 167 168 169 166 166 167 168 161 168 167 168 167 168 168 168 168 170 169 169 170 170 158 170 173 172 172 175 173 175 175 173 175 165 176 177 168 178 178 180 178 167 160 181 180 168 180 182 180 174 180 182 182 172 181 176 182 184 185 174 185 185 185 165 185 174 185 188 179 187 186 177 187 189 188 190 189 189 187 189 187 166 175 189 189 189 190 190 189 177 188 191 190 187 190 190 190 188 190 176 190 188 189 192 188 190 190 190 188 188 187 166 170 169 179 186 184 183 170 182 181 177 130 85 5 1 0 2 0 2 1 2 1 1 1 1 0 0 0 0 4 0 1 9 1 1 0 0 1 0 0 0 0 11 1 0 0 0 1 1 0 1 0 4 1 1 5 1 1 2 4 0 1 0 1 0 0 0 0 0 0 0 1 1 3 0 2 1 1 0 0 0 0 1 0 0 0 0 0 1 0 6 0 0 0 0 4 0 0 4 1 0 0 7 0 4 2 1 0 0 1 0 0 0 0 1 0 1 0 0 1 1 0 0 0 0 0 1 0 2 1 0 0 1 2 1 0 1 0 2 1 0 1 0 0 3 0 0 1 2 1 1 0 1 1 1 0 1 1 1 1 1 1 1 0 0 0 1 1 1 0 2 0 1 0 0 1 1 1 0 0 2 1 1 0 0 1 0 0 0 0 0 7 3 0 1 0 0 0 0 0 0 0 1 11 11 
0 0 0 0 0 1 0 0 0 0 1 0 0 0 0 0 0 1 1 0 1 2 0 0 1 1 2 0 0 1 0 0 0 1 1 1 2 0 0 0 0 0 1 1 1 0 0 0 0 0 0 9 0 2 1 0 0 1 0 0 1 0 1 0 0 0 0 1 1 0 1 1 0 0 0 0 0 1 0 1 1 0 1 1 0 0 0 0 0 0 0 2 1 0 0 0 0 1 0 4 0 1 0 0 1 0 0 1 1 3 1 1 0 4 0 0 0 0 2 0 0 0 0 1 0 1 1 1 0 0 0 3 1 1 0 0 0 0 1 4 0 1 1 2 0 0 0 0 0 0 0 0 1 0 0 2 0 0 0 1 1 1 0 1 2 0 0 0 1 2 1 0 0 0 0 2 0 0 6 0 2 1 1 0 0 1 0 0 0 0 0 0 0 0 0 0 2 0 1 0 0 0 0 1 1 0 1 1 1 10 91 139 150 155 156 158 159 159 161 162 157 164 163 150 141 162 163 152 148 145 141 149 152 162 162 163 163 163 163 163 156 163 163 163 164 163 165 164 165 163 165 162 165 164 164 164 165 164 165 166 164 165 153 164 164 154 164 167 164 165 165 166 163 165 167 164 164 167 164 159 164 142 145 165 155 166 165 166 165 164 165 161 164 165 166 154 155 163 165 166 167 163 155 166 166 166 165 164 166 154 165 166 164 158 167 166 167 165 159 165 167 166 166 167 167 166 167 166 149 167 167 168 167 167 167 157 155 168 169 169 168 169 169 170 170 155 171 172 171 173 174 174 174 176 175 176 175 171 176 177 176 179 179 177 178 162 166 180 181 180 175 181 161 157 163 184 183 181 182 174 185 175 183 185 185 184 186 185 185 186 172 186 187 188 179 186 175 188 187 181 188 188 179 188 173 188 169 166 168 169 188 190 189 189 187 178 189 177 189 181 190 189 188 189 188 190 189 189 190 190 187 178 187 188 188 186 186 184 187 185 183 184 174 181 180 176 150 42 24 1 2 1 0 0 2 2 1 0 1 1 0 0 1 0 0 0 1 2 0 0 3 1 0 1 0 2 2 11 1 0 0 0 4 0 0 0 0 0 1 0 1 1 2 1 0 2 0 0 7 0 3 1 0 2 0 4 0 1 1 0 1 1 2 1 2 0 0 1 0 0 2 0 0 1 1 1 1 0 0 1 2 2 2 0 2 2 1 3 3 0 0 2 1 1 0 0 1 1 0 1 0 0 2 1 1 0 0 1 0 1 1 4 1 1 1 1 0 1 8 12 1 1 1 0 1 0 1 0 0 0 0 0 0 1 1 1 1 1 0 0 2 0 0 1 0 0 2 2 0 0 0 2 0 1 0 4 1 1 0 1 0 0 0 0 1 2 1 1 2 0 0 0 0 0 0 0 8 1 1 0 1 0 0 6 1 0 0 1 0 1 
1 0 0 0 0 0 0 0 2 1 0 1 2 0 2 1 1 0 0 0 1 2 0 0 1 1 5 1 0 0 5 0 0 1 1 1 0 0 0 0 5 1 0 0 0 0 0 0 0 0 0 1 2 1 1 1 0 0 9 1 1 0 0 0 0 0 0 0 0 0 1 0 0 1 0 1 1 1 0 1 0 1 1 1 1 0 0 0 1 1 0 4 1 0 3 0 0 0 1 0 0 1 0 1 0 0 0 0 2 0 1 0 0 0 0 0 1 2 1 0 1 1 1 1 1 3 0 0 0 0 1 0 2 1 7 0 1 0 0 5 0 1 1 2 1 4 1 0 0 1 1 2 2 3 1 1 7 1 0 0 0 1 1 1 0 1 0 0 0 0 0 0 0 0 2 0 1 2 1 2 0 0 0 0 0 0 0 0 0 0 1 0 0 0 0 0 0 0 0 2 0 0 1 3 4 1 1 6 3 2 39 119 143 151 153 157 158 159 158 160 160 161 161 162 161 164 162 161 152 162 162 162 160 155 155 162 162 162 161 161 163 151 162 163 163 163 159 164 157 163 162 145 164 164 163 163 164 157 164 165 165 161 164 165 165 164 164 166 164 160 152 165 165 158 163 165 165 164 164 158 165 148 164 166 165 165 167 164 166 164 165 165 165 157 165 167 165 154 164 165 165 164 155 158 165 164 164 164 165 154 153 149 166 166 166 166 166 167 166 166 166 166 166 166 169 167 165 167 166 167 166 149 167 156 167 167 167 168 169 169 169 170 169 169 161 171 171 171 173 172 172 161 174 174 175 175 176 176 176 178 176 177 179 179 178 179 178 179 180 180 180 181 181 163 179 180 161 170 184 184 184 182 185 185 185 187 176 185 179 185 185 187 188 188 188 187 187 188 188 187 173 173 170 188 188 190 188 174 167 188 188 189 189 189 190 190 189 190 190 188 189 183 189 190 189 183 188 189 189 189 189 188 188 187 189 188 188 186 185 185 164 169 181 182 178 170 113 10 6 4 1 1 0 0 5 7 1 4 1 0 0 0 1 2 0 0 2 0 0 1 1 2 2 1 0 0 1 4 1 0 0 0 0 0 0 1 3 9 1 0 1 1 0 0 0 2 1 0 1 0 1 0 1 0 0 3 0 0 1 0 1 1 9 0 0 0 3 2 0 1 1 0 0 0 1 0 1 0 0 1 2 1 1 1 0 0 0 0 1 2 1 0 1 0 1 0 1 0 0 0 1 0 0 0 0 0 0 0 1 0 0 0 0 0 0 0 0 1 0 0 1 2 0 1 0 0 0 0 0 2 0 1 1 1 0 0 1 0 0 0 1 1 0 1 0 1 0 1 0 0 0 1 1 1 0 1 1 2 1 2 1 1 0 1 1 1 1 1 1 3 0 0 0 0 0 0 1 0 0 0 2 0 1 0 0 0 2 0 0 1 
6 0 1 1 1 0 0 1 0 0 1 0 2 0 0 1 0 0 0 0 0 1 0 0 2 0 0 0 1 0 1 0 0 0 2 0 1 2 1 0 1 0 0 3 1 1 0 0 0 0 0 0 1 1 0 0 0 0 1 6 1 0 0 0 0 1 0 2 0 1 1 1 0 0 0 1 0 0 0 0 0 0 1 0 1 0 2 0 0 1 0 0 2 0 0 1 0 0 0 0 0 0 2 1 4 1 0 5 1 0 0 0 0 0 0 0 2 0 4 0 0 0 1 1 0 1 0 3 0 6 0 1 1 1 6 0 0 1 1 2 0 0 1 0 5 1 0 0 0 0 1 0 1 0 2 2 2 1 1 1 14 1 0 3 0 0 0 0 1 0 1 0 0 0 1 1 0 0 0 1 0 0 0 0 2 1 1 1 0 0 1 8 3 0 0 2 1 2 0 1 1 0 1 0 2 1 0 0 1 6 7 76 113 146 151 141 154 156 158 159 159 146 158 146 161 162 161 161 162 162 163 162 162 163 160 163 153 161 160 162 160 161 161 147 162 162 162 162 152 162 162 163 163 164 165 164 164 164 163 161 164 164 164 164 164 163 149 163 165 163 163 163 150 152 165 164 164 154 164 164 165 163 156 165 164 152 165 165 165 165 163 156 165 164 165 165 167 164 155 155 164 155 165 164 166 164 162 165 164 165 156 165 164 167 161 165 166 167 165 166 154 162 167 165 166 167 165 154 167 154 146 165 162 169 165 167 167 165 169 160 169 169 169 160 161 170 173 170 173 172 172 172 173 174 175 174 166 176 175 177 164 171 177 179 179 178 179 180 176 179 181 174 180 180 165 156 180 167 182 182 184 183 178 185 185 184 184 186 178 185 177 187 188 186 172 187 183 189 187 188 187 186 173 189 187 191 189 173 187 177 188 173 168 167 190 190 183 189 189 188 190 189 189 188 187 190 189 189 180 188 188 188 176 188 187 186 186 185 176 184 178 172 180 180 178 160 64 3 1 0 1 0 2 0 0 0 2 0 1 1 0 0 2 0 0 0 0 0 0 0 0 0 0 1 0 0 0 1 0 3 1 0 0 1 0 0 0 6 0 0 0 1 0 0 9 0 1 0 0 1 3 1 1 1 0 1 1 0 0 1 6 0 1 0 1 1 1 0 0 0 0 1 0 0 0 5 0 0 0 1 0 0 0 0 0 0 0 1 0 1 0 1 0 6 6 3 1 4 2 4 4 0 0 0 0 1 0 0 0 0 0 0 0 2 1 1 1 0 1 1 1 0 0 1 0 1 0 0 0 0 2 0 0 0 0 1 0 0 1 5 0 2 0 1 1 1 1 1 4 0 1 4 2 0 0 1 1 0 1 0 2 0 0 2 0 0 5 0 0 1 0 4 0 1 1 0 0 1 0 0 0 1 0 1 0 0 0 0 1 0 
1 0 0 1 1 0 1 1 0 1 1 2 0 0 1 0 1 0 1 0 0 0 0 1 0 1 0 0 0 2 0 1 0 1 8 0 1 0 0 3 0 3 1 0 2 2 1 1 0 0 1 1 1 1 0 0 0 1 1 1 0 0 0 0 1 0 0 0 0 2 2 0 0 1 1 1 0 1 0 0 0 7 1 1 0 0 0 6 0 1 0 0 2 0 0 1 0 1 1 0 1 1 0 0 0 0 0 0 8 0 0 0 0 6 1 1 1 2 0 0 1 0 0 1 0 0 2 0 0 2 0 0 1 1 0 0 0 1 0 1 0 0 0 0 0 2 0 1 0 1 1 0 0 1 1 0 1 1 0 0 1 2 0 2 0 0 0 0 2 0 0 0 0 0 1 0 4 0 1 1 3 1 0 0 0 1 1 1 2 1 1 2 1 0 0 0 0 0 0 1 0 1 0 1 0 2 2 1 0 2 3 30 110 140 137 150 151 137 143 156 158 159 160 159 160 159 160 161 160 162 163 160 160 162 161 159 160 160 161 148 149 161 144 160 149 161 161 161 161 161 163 163 161 164 163 154 162 164 163 163 159 162 164 162 164 163 163 155 164 164 165 153 149 162 165 166 158 164 148 162 152 165 159 165 165 165 166 164 163 150 164 162 164 166 164 165 163 165 164 164 164 153 163 164 165 164 146 164 155 165 157 165 165 166 165 166 166 166 166 166 165 164 166 166 159 166 165 160 166 167 166 166 151 165 155 168 167 169 168 167 167 169 161 170 169 170 172 173 173 172 164 173 174 163 165 163 173 167 175 163 175 178 177 177 172 178 179 180 179 179 182 182 181 181 180 157 165 167 182 170 183 184 184 181 185 185 185 185 186 184 186 187 181 184 169 186 188 188 189 180 187 188 175 188 188 188 187 188 188 173 190 188 187 175 188 189 190 188 190 190 190 188 188 190 189 168 188 179 189 174 188 174 185 186 186 187 187 184 185 183 183 181 180 178 171 111 22 2 1 1 1 0 0 0 1 1 2 2 0 0 0 0 1 0 0 1 1 1 1 0 1 1 3 1 2 1 9 8 0 0 1 1 0 1 2 1 0 1 1 1 1 1 1 0 1 0 0 3 1 0 2 0 1 1 2 7 1 0 0 0 1 1 0 4 5 0 0 1 0 1 0 0 1 1 0 0 1 0 0 0 0 0 0 0 0 4 0 0 0 0 2 0 0 0 3 1 1 0 0 3 0 1 2 0 1 1 0 0 1 0 0 0 1 0 1 8 1 0 1 0 1 0 0 0 0 0 1 0 3 0 2 2 1 0 0 1 1 1 0 0 0 0 0 0 2 0 0 0 2 1 2 1 0 1 0 0 0 3 1 0 0 0 1 2 0 0 0 2 0 0 0 0 0 0 0 0 1 0 0 0 0 0 0 0 1 2 1 0 2 1 
2 0 0 0 0 2 0 0 1 2 4 1 1 1 0 1 0 3 1 0 0 2 2 1 0 0 0 2 0 1 2 1 1 1 5 1 0 1 1 0 1 1 4 1 1 0 0 1 0 1 0 1 1 1 0 2 1 0 1 1 1 0 1 0 0 0 0 1 1 0 0 0 1 0 1 0 1 0 1 1 1 3 0 2 0 1 0 0 0 0 0 0 1 2 0 0 0 1 1 1 2 0 0 0 2 10 4 2 1 1 0 0 1 2 0 0 0 1 0 0 0 6 4 0 0 0 0 0 2 1 0 0 1 0 0 0 0 0 0 0 0 5 0 0 0 1 1 1 1 0 1 0 0 0 0 1 0 0 0 0 0 0 0 0 1 3 1 4 1 2 1 2 0 3 0 2 1 4 0 1 0 2 1 0 1 0 1 0 1 2 1 2 2 0 0 2 1 0 0 1 0 0 1 1 0 1 0 0 1 1 3 31 67 128 141 135 151 152 153 155 156 156 155 158 159 158 159 159 160 160 159 160 159 154 160 160 145 145 159 161 160 159 159 160 160 161 162 160 149 153 162 162 161 161 163 162 162 163 163 162 163 162 162 163 147 151 162 164 162 164 164 162 164 163 164 161 165 153 163 164 151 164 163 163 164 165 164 164 162 164 163 165 164 165 153 164 165 166 166 165 164 165 164 153 147 164 149 163 165 164 165 164 165 165 166 167 165 165 165 166 155 165 165 166 166 166 166 161 165 158 166 165 159 166 156 167 158 166 169 169 168 157 167 170 169 169 171 172 171 171 173 173 174 173 176 174 165 176 175 167 171 177 177 177 177 168 177 168 180 180 180 179 182 181 182 181 174 182 184 183 182 174 184 184 185 186 186 185 182 186 187 188 187 171 166 166 171 171 185 181 188 182 183 187 177 189 187 188 189 188 188 190 189 168 188 190 191 190 189 190 189 184 188 188 188 172 169 188 189 188 187 179 165 173 184 186 184 184 184 165 168 180 182 176 135 89 7 3 0 1 1 0 1 1 0 0 2 1 0 0 1 0 4 3 0 1 0 0 6 0 0 1 0 0 2 1 4 1 1 2 3 0 0 0 0 1 0 3 0 0 1 2 0 0 2 1 2 3 1 0 0 1 1 1 0 0 1 0 1 1 2 7 2 0 1 0 1 1 0 2 1 0 1 0 0 0 0 1 2 1 0 0 0 1 0 5 0 0 2 1 6 1 2 1 2 0 0 1 0 1 1 0 1 1 0 2 0 0 0 3 0 1 2 0 8 1 0 1 1 0 0 0 2 2 0 0 0 2 2 1 0 0 0 0 0 1 0 0 0 0 0 0 0 0 0 1 0 0 0 0 0 0 0 0 1 0 0 0 0 0 0 0 0 0 3 2 2 2 0 0 1 1 0 0 0 2 0 1 1 1 0 0 0 1 0 0 1 0 5 2 
2 1 0 0 0 0 0 1 0 1 1 0 0 1 0 3 0 1 2 0 3 0 0 0 2 0 0 1 1 1 0 0 0 2 3 0 0 0 9 1 4 0 1 0 2 1 1 0 0 1 0 0 1 1 2 1 1 2 0 2 1 1 0 0 0 1 0 1 1 0 0 0 0 0 0 0 0 0 0 1 0 1 0 1 0 0 0 2 1 1 3 0 0 1 1 0 0 0 1 1 7 0 0 0 6 1 1 0 0 1 1 1 2 0 0 1 0 2 0 0 0 1 0 0 0 0 0 1 2 2 2 1 1 1 1 0 0 0 0 0 0 1 0 0 0 1 7 1 0 0 0 0 0 0 0 1 0 1 0 0 0 0 0 1 0 2 0 0 0 1 3 0 0 1 1 7 0 2 1 1 1 1 0 0 1 1 0 2 2 0 0 2 1 0 0 0 0 1 1 0 0 0 1 9 1 0 4 1 1 0 2 14 22 95 132 142 146 136 151 153 156 155 156 158 157 157 158 158 149 160 159 158 158 158 158 158 157 158 159 152 158 154 158 158 160 161 160 160 161 160 160 161 147 162 161 162 162 163 164 163 162 152 162 161 161 150 162 163 162 157 158 162 163 162 162 163 155 164 164 164 163 164 163 163 164 164 164 163 164 157 164 163 151 163 165 164 164 167 166 164 150 163 160 162 154 165 147 162 159 165 156 163 154 164 164 164 165 166 165 153 166 165 165 158 167 166 165 165 167 166 166 166 166 165 167 153 165 167 157 167 167 163 169 169 169 156 171 172 172 173 173 173 174 173 166 175 177 177 176 177 167 177 177 160 160 165 165 179 180 179 181 170 181 181 182 182 184 182 183 174 182 183 184 184 184 186 187 184 187 186 187 183 186 186 176 186 185 170 187 187 187 188 188 188 187 189 177 187 189 190 187 181 190 189 189 189 180 190 189 169 189 188 189 184 190 174 186 179 188 188 188 187 185 167 185 184 175 184 184 183 180 174 178 173 144 54 3 0 0 2 3 0 1 0 0 1 0 0 0 3 1 1 3 1 0 0 2 0 0 0 1 1 1 2 0 1 0 0 0 0 1 2 0 3 12 2 1 1 0 1 1 0 0 2 1 1 1 2 0 2 1 0 1 3 1 0 0 0 4 2 0 1 1 0 0 0 1 0 0 0 0 1 2 1 1 0 4 2 1 0 0 0 0 0 0 0 1 0 0 0 1 0 1 0 1 0 0 6 1 7 1 1 1 1 1 0 1 0 1 3 0 0 0 0 2 1 1 0 0 2 1 0 3 1 1 2 0 0 0 2 1 1 0 0 1 2 0 0 0 0 0 2 0 1 0 0 0 0 2 1 1 0 1 4 0 5 2 0 0 0 5 0 0 0 0 1 0 0 1 0 0 1 2 0 0 0 1 0 0 0 0 1 1 0 0 0 0 1 1 1 
0 1 1 0 0 1 0 1 1 2 0 0 0 0 1 0 1 1 1 2 1 0 1 1 1 0 0 0 0 1 3 0 2 3 0 2 1 1 5 1 1 0 0 0 1 0 0 0 1 0 0 2 2 3 1 0 0 0 1 1 1 0 1 1 0 1 1 0 0 0 0 0 0 1 1 0 0 0 1 1 0 0 0 1 1 1 7 2 1 1 4 0 1 1 9 7 1 0 0 0 0 0 0 0 0 1 0 0 0 0 1 0 0 0 0 0 1 2 0 1 0 1 1 0 0 0 1 0 0 1 2 3 0 1 0 1 0 0 1 1 0 0 1 0 1 0 0 1 0 0 1 1 1 0 0 2 1 0 1 1 3 1 7 1 0 0 1 2 0 0 1 1 3 1 1 1 0 2 0 1 3 1 0 0 0 1 0 1 0 0 5 2 11 0 0 1 0 2 0 1 1 1 0 1 0 1 1 4 2 1 0 1 5 42 110 135 141 144 151 150 152 154 156 142 155 151 157 158 142 156 158 158 157 146 147 146 158 158 141 157 158 159 159 146 159 158 147 159 160 160 152 161 161 160 161 160 162 161 162 161 146 159 161 161 158 161 157 162 163 162 161 161 163 163 160 165 162 157 159 164 164 164 163 162 152 161 163 162 164 161 162 164 164 164 162 164 164 165 164 164 154 163 165 164 164 163 164 164 163 164 164 163 164 165 164 165 164 166 163 164 164 165 164 165 166 164 165 153 164 165 165 166 164 166 167 165 144 167 167 156 167 168 170 169 170 171 171 173 172 171 173 173 174 174 174 176 176 175 176 176 176 177 177 166 177 179 179 180 180 181 179 180 175 172 181 182 182 183 182 171 172 184 184 173 183 183 185 184 185 185 186 186 186 186 188 186 187 186 186 188 171 172 187 174 187 174 189 178 188 190 188 188 188 190 189 187 189 189 179 187 188 188 189 188 188 188 188 189 189 187 186 188 187 185 185 184 185 183 182 182 182 178 177 164 89 9 0 2 0 0 1 1 1 0 1 1 1 1 5 1 1 1 1 0 0 1 1 2 0 1 0 1 1 0 1 0 0 0 0 4 0 2 2 0 2 2 1 1 0 0 0 0 0 0 1 0 0 3 8 1 0 1 0 1 1 1 0 0 1 0 0 1 0 0 3 0 0 0 1 2 1 1 0 1 0 0 0 0 0 2 0 0 1 0 0 0 0 1 0 2 0 1 6 7 4 0 0 0 0 1 0 1 0 1 0 0 0 0 0 1 1 0 1 8 1 0 0 1 0 0 3 7 2 1 0 0 0 0 0 0 0 0 0 0 0 1 0 0 0 0 1 0 0 0 1 0 0 1 0 0 1 2 1 6 0 1 0 0 0 2 3 1 1 2 1 0 0 0 1 1 2 1 2 2 0 0 1 0 1 1 0 0 0 0 0 0 1 4 1 0 
0 2 0 1 0 1 1 0 0 0 1 1 2 0 1 0 0 1 1 0 1 0 1 1 0 0 0 0 1 0 0 1 1 0 0 1 0 1 0 1 1 0 0 1 1 1 2 0 0 1 0 0 1 2 1 0 1 0 1 1 0 0 0 0 1 1 1 1 2 2 1 0 0 1 1 0 0 0 1 0 2 0 0 0 0 0 0 6 0 1 0 0 1 0 9 1 1 4 1 5 2 1 0 0 2 0 1 0 0 0 1 1 0 2 2 1 0 3 2 7 1 1 0 0 1 1 1 0 0 1 1 1 0 0 0 0 0 1 1 0 0 0 0 0 0 5 1 5 2 0 0 1 0 0 1 0 0 2 1 0 0 1 2 0 4 0 5 0 1 0 0 1 5 1 8 0 4 1 1 10 0 0 3 0 0 1 2 2 0 1 1 1 0 0 0 0 1 1 1 0 1 0 0 0 0 1 10 9 8 2 1 0 0 5 59 118 135 142 145 141 151 151 154 154 153 156 155 156 156 152 158 157 157 156 157 157 157 149 156 145 155 155 157 156 154 158 149 158 154 159 159 160 152 160 152 160 161 161 161 160 140 160 144 160 159 161 163 161 162 162 162 160 163 162 162 161 163 163 162 162 163 162 162 155 161 163 156 163 164 151 163 162 165 160 163 153 164 164 163 163 155 163 165 164 164 163 165 164 164 164 160 165 164 155 165 164 164 163 163 165 165 164 165 164 165 165 166 165 166 164 166 165 165 164 166 156 166 166 168 167 168 169 170 169 170 170 166 171 173 173 174 172 162 160 175 176 179 176 175 176 177 176 177 177 178 180 178 168 179 180 181 180 180 183 181 182 182 182 182 182 181 183 182 184 185 184 171 184 179 185 185 187 186 185 187 179 188 187 187 187 188 186 172 187 175 187 188 188 188 189 188 188 181 189 186 176 174 188 189 187 189 189 188 183 180 187 187 188 186 176 186 186 185 185 167 183 183 184 181 174 180 166 171 136 28 11 0 0 1 1 1 1 0 2 2 8 1 0 0 1 1 1 0 0 0 1 0 0 0 0 0 0 0 0 1 1 0 1 1 1 1 1 1 6 2 0 1 0 0 1 1 0 1 0 2 0 1 1 3 2 4 1 0 0 0 0 1 0 1 0 0 1 0 1 0 0 0 0 2 0 1 0 0 0 0 0 0 0 1 0 0 0 0 0 0 0 0 1 0 1 1 0 0 0 0 0 0 0 0 0 0 1 0 0 0 1 0 0 0 1 1 1 4 1 0 0 8 1 3 1 0 2 0 0 0 0 1 1 0 2 2 0 0 0 1 0 1 0 2 2 2 0 0 0 1 1 0 0 0 1 0 1 1 0 0 0 1 0 0 2 2 2 0 1 2 0 0 0 0 5 0 0 4 2 0 0 1 2 0 2 0 0 0 0 0 1 0 0 2 0 
0 0 0 0 1 0 0 0 1 1 0 2 1 0 1 0 1 0 1 0 0 1 0 0 0 0 0 1 0 0 1 1 0 0 1 0 0 0 0 0 1 0 2 1 1 0 0 1 2 0 10 2 1 1 1 2 1 0 1 0 0 0 1 0 0 0 0 1 0 1 1 0 1 0 0 2 0 0 0 1 1 0 1 0 0 0 0 2 1 0 1 0 2 0 1 1 0 0 0 1 1 1 0 0 1 2 0 0 1 0 1 1 0 0 0 0 1 0 2 1 0 1 0 2 1 1 0 1 0 0 1 3 1 0 0 0 0 1 3 1 0 0 0 0 0 0 0 0 0 0 1 1 0 0 1 1 0 0 0 0 1 1 0 0 7 1 2 2 0 0 1 0 4 0 1 0 1 1 0 1 2 0 2 3 0 0 1 1 0 1 6 0 1 0 0 0 8 4 7 2 1 0 0 1 0 2 2 0 4 0 0 1 0 1 12 76 123 119 141 147 149 151 151 151 137 154 154 155 155 154 156 155 156 157 156 155 155 155 157 156 155 142 155 142 150 157 157 157 158 157 157 158 158 160 161 159 161 160 160 154 158 160 161 160 161 162 162 161 163 162 161 160 162 161 163 161 161 162 162 151 157 160 161 161 156 162 162 162 163 154 163 161 162 157 161 162 160 163 149 154 163 163 163 162 164 163 163 163 163 164 154 164 165 164 163 149 164 159 155 163 165 163 158 165 165 164 166 164 164 165 165 166 166 166 164 160 167 167 167 167 168 169 170 168 170 170 170 164 171 172 173 173 172 174 175 176 175 174 177 177 175 177 178 170 178 178 179 180 178 180 179 178 181 171 180 182 182 175 175 183 183 183 183 184 161 159 182 171 185 184 187 186 186 187 186 182 187 186 178 187 188 186 176 187 188 188 177 187 189 188 189 188 175 188 186 175 188 189 182 189 188 188 188 187 187 188 188 189 187 169 177 175 185 174 172 183 182 182 182 180 178 174 123 73 6 1 0 0 1 7 0 0 0 1 0 6 1 0 1 1 0 4 0 0 1 2 0 2 2 0 1 0 0 0 1 0 7 2 0 6 6 2 0 0 1 2 5 1 0 1 0 0 0 0 0 0 0 0 0 1 0 0 0 0 0 1 1 6 8 1 1 0 0 0 1 1 1 0 1 0 0 0 0 0 0 1 0 0 2 1 0 0 0 1 0 3 0 0 0 1 0 1 0 0 0 0 1 0 0 0 0 0 1 0 1 0 0 1 0 1 2 2 8 4 0 0 1 0 1 0 0 0 1 0 3 0 0 1 1 1 2 1 3 0 0 3 0 7 2 0 1 1 0 1 0 0 1 1 0 1 1 4 1 0 1 0 0 0 0 1 1 1 0 0 0 2 0 1 1 2 0 0 2 0 1 0 4 0 0 0 0 1 0 0 1 0 0 0 0 0 
0 0 0 0 0 2 0 1 1 0 0 1 2 0 0 0 1 0 2 0 2 1 0 2 0 0 0 1 0 0 0 1 0 0 1 1 0 0 0 1 0 2 0 0 0 2 0 0 0 1 1 1 1 0 0 0 5 1 1 1 1 0 1 1 1 1 1 0 1 1 1 0 0 0 0 1 1 1 2 0 7 1 1 0 0 0 1 2 1 1 0 0 0 0 0 0 0 7 0 0 0 0 0 0 1 2 4 0 1 1 1 1 1 1 0 0 0 1 0 1 1 0 0 2 2 1 2 0 0 0 1 1 1 0 0 1 0 0 0 0 0 1 0 1 3 0 1 1 0 0 1 1 0 2 0 0 0 0 0 0 1 3 0 1 2 1 1 2 2 0 1 0 0 1 3 0 0 0 0 1 2 0 0 1 0 0 0 1 0 0 0 0 0 1 0 1 9 0 0 1 1 0 1 2 1 0 1 0 0 1 0 0 2 0 3 24 90 125 134 133 143 129 148 150 140 152 151 154 153 149 155 154 154 155 153 148 154 155 154 155 153 155 145 155 148 156 146 157 156 158 157 158 158 160 158 159 153 146 159 159 159 160 160 159 160 160 161 160 161 162 161 160 162 162 161 161 161 161 161 162 159 152 153 161 152 162 161 162 160 161 162 152 161 162 161 162 162 163 162 160 162 155 163 162 164 163 163 153 163 157 163 163 162 154 163 146 162 164 164 157 165 164 165 167 164 148 165 165 165 164 165 164 165 166 166 166 168 163 167 169 167 168 170 171 170 167 172 170 172 173 172 172 159 173 174 175 176 176 173 175 177 178 177 177 179 178 180 178 180 168 178 180 180 181 182 182 181 166 175 183 183 178 184 183 182 162 163 183 165 185 183 184 186 186 178 186 187 176 186 187 188 189 177 186 189 188 177 189 188 187 189 188 187 188 176 188 179 187 187 187 190 188 187 188 187 186 188 186 175 185 186 186 185 184 184 177 183 182 182 180 162 168 88 17 12 1 1 0 1 1 0 0 0 1 0 2 1 0 1 0 0 1 0 0 0 0 1 0 0 0 1 0 1 0 2 0 1 0 0 2 1 2 0 1 0 2 1 1 1 0 1 2 0 1 2 0 0 0 0 0 2 2 0 0 0 0 1 0 1 0 0 0 0 0 0 0 2 3 2 0 0 0 0 0 1 0 2 0 1 0 0 0 2 0 1 1 5 1 1 0 0 0 1 0 0 0 1 0 1 0 0 0 0 0 0 1 0 0 1 1 6 0 0 1 1 0 1 0 0 0 0 0 0 0 1 1 2 0 0 0 1 2 3 1 2 2 1 1 1 0 0 0 1 2 1 1 1 1 1 1 0 2 3 1 0 1 1 0 1 1 1 1 1 1 0 2 1 1 0 5 0 0 1 1 1 2 1 0 1 1 0 0 0 0 0 0 0 0 0 1 
0 0 0 1 0 0 0 0 0 1 0 1 1 0 0 1 1 0 2 2 0 1 1 0 2 0 0 0 3 0 0 0 0 0 1 0 0 0 1 1 3 0 0 1 1 0 0 0 0 0 0 0 0 0 1 0 1 1 0 0 0 0 0 0 0 2 0 0 1 0 3 0 0 0 1 0 0 3 1 0 1 2 1 1 0 0 0 1 4 0 0 0 1 0 0 0 0 0 1 1 1 0 1 1 0 10 6 1 2 1 0 0 0 0 0 0 0 0 2 4 0 0 1 1 1 0 0 0 3 0 1 1 1 1 0 1 2 0 0 1 0 0 1 0 0 1 2 1 0 4 0 2 0 0 1 5 0 3 1 0 1 1 0 1 1 1 0 2 1 0 0 0 1 1 1 1 0 0 0 0 1 0 0 0 0 0 0 0 1 0 0 0 0 0 0 0 0 1 3 0 2 0 0 1 2 2 5 2 0 1 0 0 1 0 2 2 53 101 128 135 140 126 146 147 150 150 150 147 151 151 143 150 153 153 154 152 154 154 153 152 153 153 155 154 155 154 154 154 156 157 156 156 156 157 158 159 158 158 160 159 159 158 152 159 158 158 161 160 160 159 160 159 161 161 160 160 160 159 160 161 163 162 159 161 162 161 161 162 162 162 162 161 162 162 161 161 161 162 163 164 163 162 161 163 162 162 150 162 155 163 164 163 163 163 164 162 151 149 152 165 164 164 163 164 164 164 164 165 164 165 164 164 166 166 167 156 166 167 161 167 167 168 159 170 170 171 171 158 172 171 170 174 159 172 174 176 175 175 175 176 176 177 177 173 178 178 179 178 172 180 179 180 180 180 181 182 183 182 183 184 183 184 183 168 182 168 183 185 186 186 170 186 186 185 186 187 185 177 188 184 189 183 189 189 188 189 188 186 188 188 188 187 188 174 187 188 188 176 173 180 187 188 188 187 188 177 186 188 186 187 182 187 186 183 184 182 184 180 169 163 171 116 63 4 7 1 1 0 1 1 1 1 0 0 0 0 0 1 1 2 9 1 1 0 5 1 0 2 0 0 0 0 0 0 0 1 1 0 1 0 0 1 0 0 0 0 0 1 2 6 1 1 0 0 0 0 2 0 1 2 0 0 1 1 1 0 1 2 2 0 1 1 0 1 1 0 1 2 4 1 0 1 0 0 0 1 1 0 0 4 0 0 2 0 1 7 1 0 1 1 0 0 0 0 0 0 1 0 0 3 0 1 0 0 0 1 0 0 0 1 0 1 1 1 1 0 0 0 0 0 0 2 0 0 0 1 0 0 0 1 0 1 0 0 0 1 1 3 0 0 1 0 0 0 1 0 1 1 0 0 1 2 1 6 1 1 0 0 0 0 0 3 0 0 0 1 0 0 3 1 1 1 0 2 0 0 0 0 0 1 0 4 0 0 0 0 1 0 2 0 
1 0 0 0 0 5 0 1 0 1 1 1 1 0 0 1 1 0 1 1 1 4 10 0 2 0 0 4 1 0 0 0 0 2 9 0 0 0 0 1 0 1 0 0 1 2 0 3 1 1 0 0 0 0 0 0 0 0 0 0 0 2 1 0 0 0 0 1 0 1 1 2 0 1 0 1 1 4 0 1 1 0 2 0 0 0 0 0 1 1 0 0 0 1 1 1 1 2 1 0 1 2 0 1 0 6 2 0 0 1 0 0 0 0 0 0 0 0 0 1 8 1 1 0 2 1 0 1 1 0 0 1 0 0 2 6 1 0 0 0 0 0 0 1 0 0 0 1 1 0 0 0 0 0 0 0 1 0 0 1 1 1 1 1 1 0 8 0 1 1 0 1 1 0 0 0 0 0 2 0 1 1 0 1 0 1 0 0 1 0 0 0 0 0 2 0 1 1 1 0 1 0 0 0 0 4 3 1 2 0 0 0 1 0 1 3 6 53 109 114 134 125 143 133 145 149 149 150 151 153 151 151 152 152 152 151 143 152 153 152 154 153 153 153 153 154 154 136 145 155 156 150 156 150 157 156 157 147 159 158 159 159 150 157 157 151 160 158 159 165 160 160 160 158 159 160 160 159 160 162 159 162 160 161 160 162 161 154 161 161 162 155 163 161 159 160 162 163 159 159 162 162 158 162 151 161 162 161 156 163 163 162 162 163 154 163 162 163 162 163 163 165 163 164 164 164 165 164 165 165 165 164 164 165 165 166 165 160 166 167 153 169 170 168 169 171 162 171 172 171 167 173 167 175 173 175 174 177 175 176 173 176 179 177 172 179 179 177 178 179 167 179 181 180 167 165 182 181 168 182 183 183 183 183 184 184 185 182 184 185 185 184 177 185 186 178 186 185 187 186 186 187 187 182 187 188 187 188 187 189 188 175 166 172 187 187 186 188 187 189 187 188 188 188 189 186 177 186 187 185 185 185 182 171 169 180 182 181 180 178 166 94 9 10 1 1 0 0 0 2 1 5 1 2 0 1 0 0 0 0 0 2 1 0 1 4 0 1 1 0 1 0 0 0 0 0 3 6 0 0 0 1 2 0 1 1 0 1 1 1 0 1 0 3 0 2 0 0 0 2 1 2 0 1 0 0 1 2 0 0 1 2 0 0 0 0 2 4 1 0 1 0 3 2 5 1 8 2 1 0 0 2 5 0 0 1 0 0 0 1 0 0 1 0 1 1 1 0 2 1 2 0 2 0 1 0 0 0 1 1 1 0 0 1 2 0 0 0 0 0 1 0 0 0 0 0 1 1 0 0 0 0 0 1 0 2 0 0 0 2 1 0 1 2 3 1 4 2 1 0 0 0 0 1 0 0 1 1 1 1 0 1 2 1 0 2 0 1 0 0 1 0 0 5 0 0 0 0 1 1 0 1 0 0 1 0 3 1 1 1 
2 0 0 1 0 0 2 0 0 0 0 0 1 1 0 1 0 0 1 1 8 1 1 0 0 0 0 1 0 0 0 0 0 0 1 0 0 0 0 0 1 0 0 1 0 0 0 1 1 0 0 0 0 0 0 1 0 0 2 0 1 9 0 0 1 1 1 0 0 1 0 0 0 0 0 1 0 0 1 0 0 0 1 0 0 0 0 3 0 0 0 1 1 0 1 0 1 1 0 0 0 2 0 1 0 1 0 0 2 0 1 0 0 3 0 2 2 0 1 0 2 2 3 2 1 1 0 2 1 1 1 0 0 0 1 1 1 3 1 0 2 0 0 0 5 0 1 0 1 0 0 0 1 1 0 0 1 1 0 1 0 0 0 0 0 0 0 0 0 0 1 0 0 1 0 1 0 0 0 1 0 1 0 3 1 0 0 2 0 0 0 0 1 0 0 0 0 0 1 1 2 0 2 0 0 0 2 0 1 0 1 0 0 0 1 0 1 9 66 113 117 135 130 126 145 146 149 149 143 150 144 151 151 151 151 151 151 150 151 149 150 142 152 152 153 152 153 153 154 155 155 155 144 155 155 149 157 157 157 157 158 157 157 157 159 158 157 158 159 159 161 160 159 158 148 159 156 159 160 160 160 159 156 161 159 153 159 161 149 160 160 160 162 163 161 160 163 161 162 154 161 162 161 150 162 161 163 164 164 163 163 162 156 163 161 163 162 164 164 162 154 162 164 164 163 164 163 165 165 165 164 164 166 164 164 165 166 167 150 157 168 166 168 170 169 172 171 172 173 171 172 172 174 174 173 174 175 174 177 176 177 177 177 178 171 178 179 180 179 179 179 179 181 165 179 180 174 172 174 182 183 183 183 184 184 185 185 184 177 173 184 185 187 185 185 185 177 186 185 186 173 177 187 186 178 187 188 187 187 187 188 186 168 186 189 187 189 188 189 186 172 186 186 183 188 186 177 187 186 186 186 184 184 184 183 176 168 180 176 173 138 31 2 0 1 0 0 1 3 13 3 0 1 11 9 1 1 0 0 0 0 0 0 2 0 1 3 1 0 0 0 1 1 1 0 3 0 2 1 0 0 0 2 0 0 0 3 0 1 0 0 0 0 1 0 0 0 1 5 1 0 0 0 1 0 1 1 1 1 1 1 0 0 0 0 2 2 1 0 1 0 0 0 0 0 1 4 5 1 3 3 1 1 0 0 0 0 0 3 2 0 1 1 0 0 1 0 0 0 1 0 0 0 1 1 0 0 0 2 0 1 1 1 0 0 0 0 0 0 0 1 1 2 0 0 0 0 0 0 0 0 1 0 1 2 0 0 0 1 0 1 3 0 0 0 0 2 1 2 1 0 1 0 1 1 1 0 0 1 2 1 0 0 0 0 1 1 0 1 0 1 0 0 0 3 0 1 0 1 0 0 0 0 1 3 0 4 0 0 1 
1 0 1 0 0 7 1 0 1 1 2 2 0 2 1 0 0 0 1 1 1 2 0 0 0 0 1 1 0 0 0 1 1 1 0 0 2 1 0 0 1 0 0 0 1 1 1 0 1 1 1 0 2 0 0 1 0 0 1 0 1 0 2 0 1 0 0 1 0 0 1 0 0 1 0 0 1 0 0 0 0 0 0 1 1 1 1 0 1 0 0 0 5 1 0 0 6 1 0 0 4 4 0 0 1 0 0 1 1 0 0 1 1 1 0 7 1 6 0 1 0 4 1 1 1 6 2 0 0 1 0 0 0 0 0 0 0 1 1 1 1 0 0 1 0 1 2 1 0 1 0 1 0 0 0 0 0 0 2 0 0 1 0 1 8 2 0 1 0 0 0 0 0 1 0 1 1 0 1 3 1 0 3 2 0 1 1 0 4 1 1 0 0 0 0 2 1 0 1 0 0 0 2 0 1 0 1 1 0 1 0 1 0 0 1 0 2 9 19 79 117 130 134 139 143 139 145 147 149 147 149 149 149 150 150 149 151 149 140 152 149 148 151 150 151 151 152 146 153 154 154 141 143 147 155 154 155 156 156 157 156 157 156 157 156 158 154 158 157 158 158 153 158 159 158 158 159 160 145 158 160 160 161 158 160 160 159 160 155 160 160 160 160 162 162 161 161 152 161 161 160 161 162 161 162 162 162 161 162 162 162 163 162 163 162 162 148 154 162 144 145 163 154 164 164 164 164 164 164 163 163 164 165 165 164 166 166 166 167 166 159 161 169 171 169 171 172 171 171 156 160 173 173 173 160 174 175 175 176 176 177 176 177 177 178 178 178 180 179 175 171 180 180 181 181 179 182 183 182 182 182 183 182 184 183 186 183 184 185 185 186 185 186 187 178 175 185 185 188 186 188 185 173 188 187 186 187 187 183 187 187 187 172 169 187 187 187 187 187 180 186 187 187 186 188 187 185 185 174 185 184 183 183 182 172 175 179 179 177 161 72 4 0 0 1 0 1 4 2 11 12 5 1 12 14 1 1 0 0 2 0 0 0 1 1 0 1 0 1 0 0 0 1 0 0 1 0 1 0 1 0 0 0 0 0 0 0 0 0 2 1 1 1 0 0 2 0 1 1 1 0 0 6 0 1 0 1 0 0 0 0 0 0 0 0 2 5 8 1 0 1 0 0 4 0 0 0 0 0 0 0 0 1 1 0 0 0 0 1 1 0 0 0 1 0 1 6 0 1 1 0 1 0 1 0 0 0 0 1 6 0 1 0 0 0 1 3 1 2 0 1 0 0 0 1 0 0 1 0 0 2 2 1 2 2 0 0 2 0 0 0 1 0 1 1 0 1 2 0 0 0 1 0 0 1 1 0 0 2 0 0 0 1 2 1 1 0 1 0 2 0 0 0 1 1 1 0 1 0 1 0 0 1 2 0 0 0 2 1 0 
0 2 1 0 1 0 1 0 0 0 0 0 0 0 0 1 3 0 0 0 2 1 0 1 0 0 1 0 1 0 1 0 1 0 1 0 0 0 0 1 1 0 2 0 0 0 0 0 0 0 0 3 2 0 1 0 0 0 2 4 0 1 1 0 0 0 0 0 0 1 1 0 1 0 0 0 0 0 0 0 1 2 0 1 0 0 1 0 4 1 1 0 0 1 1 0 1 0 1 1 0 0 0 1 0 1 0 1 1 1 0 1 0 0 2 1 0 2 0 1 0 1 1 0 0 0 0 0 0 1 0 0 0 1 1 0 0 0 0 2 2 1 4 0 0 1 0 2 0 0 0 0 4 0 2 0 1 0 0 0 3 0 0 2 1 1 0 0 0 0 0 0 0 2 1 1 5 2 1 1 1 0 1 0 0 2 0 0 0 0 0 0 0 1 1 2 0 4 0 0 2 1 1 1 0 1 0 0 0 2 1 2 0 1 0 0 0 1 3 27 88 99 116 134 131 142 142 145 146 147 147 147 133 146 148 149 147 149 148 149 148 141 138 149 136 150 150 150 151 138 152 152 142 153 153 155 155 155 156 155 154 156 157 144 156 157 158 157 157 154 158 158 157 158 152 145 158 159 159 146 159 160 159 159 160 159 146 160 159 159 159 150 159 151 160 160 159 159 161 162 160 162 162 162 160 143 160 163 160 156 153 161 163 162 163 162 161 160 163 162 162 163 162 162 164 163 164 164 156 162 163 165 165 164 164 165 165 154 166 155 168 168 168 170 169 169 171 172 172 172 171 172 174 174 173 173 175 175 176 177 176 176 177 176 179 177 180 178 180 178 179 180 181 180 180 181 174 182 176 182 182 172 161 168 173 184 174 174 184 185 185 174 184 187 185 186 184 173 184 187 186 187 187 187 186 179 187 187 187 188 188 186 166 186 187 187 186 169 166 187 187 188 186 180 186 186 186 184 176 185 184 183 183 167 181 179 180 178 170 118 16 3 0 2 1 1 0 2 1 2 2 1 0 3 1 0 0 0 1 2 1 0 0 1 6 1 2 1 0 0 1 0 1 0 1 0 3 0 2 8 0 0 0 0 0 0 5 1 2 0 0 0 1 0 1 0 2 1 3 0 2 0 1 0 0 0 0 0 0 1 0 0 0 1 2 1 1 0 1 0 1 0 0 2 1 0 0 6 3 2 1 0 0 1 1 2 0 0 1 0 0 0 1 0 2 0 0 0 1 0 0 5 0 1 0 0 0 2 0 0 0 1 1 0 0 1 9 0 0 0 0 2 2 2 3 2 0 2 4 1 0 1 1 0 2 0 0 1 0 0 0 0 0 0 0 0 1 0 1 0 1 1 1 0 0 0 0 2 0 0 1 0 1 2 1 1 0 0 1 0 0 0 0 1 2 2 1 1 0 0 0 0 1 0 0 1 1 0 0 1 
1 2 0 0 1 0 0 0 0 1 1 0 0 5 3 1 0 0 0 7 0 1 0 0 0 1 0 0 0 1 1 1 1 0 2 0 0 0 0 1 0 0 0 0 1 1 2 0 2 0 1 0 0 0 0 1 0 1 2 0 0 0 1 0 0 0 0 1 1 0 1 1 0 1 1 1 0 0 5 1 0 0 0 0 0 1 1 1 0 0 0 0 0 0 0 1 1 0 0 1 0 0 0 1 0 0 0 0 0 0 0 1 1 1 6 0 1 0 0 1 1 0 1 4 1 1 2 0 3 0 1 0 0 1 1 0 1 0 1 0 1 0 5 0 0 2 0 0 1 1 0 0 2 1 0 1 0 4 0 0 1 0 4 0 0 0 0 2 0 0 0 1 0 0 0 0 0 1 0 1 1 0 0 0 0 1 1 4 1 0 0 0 1 0 0 0 0 0 0 0 0 2 4 1 1 0 0 0 1 0 2 2 5 0 0 1 1 0 1 12 42 98 119 129 135 138 131 141 143 145 144 146 137 145 143 147 147 147 147 147 147 146 142 133 134 128 135 131 133 150 151 142 152 153 153 153 154 144 155 149 154 156 156 155 151 156 156 149 156 157 157 155 139 157 156 155 154 157 158 152 158 156 158 159 158 150 158 160 158 159 149 146 159 159 160 151 159 159 158 161 160 161 162 162 161 161 160 160 160 161 145 161 161 162 162 162 161 154 161 161 160 163 163 162 163 164 163 163 162 159 165 164 164 154 157 164 153 155 166 165 168 164 169 161 169 170 169 170 173 171 156 156 173 174 175 174 175 176 177 174 176 177 177 177 177 178 172 178 180 164 181 179 181 180 180 181 181 182 182 181 183 180 183 175 182 173 182 183 184 174 184 184 185 185 185 170 162 186 187 186 186 180 176 174 186 178 186 187 187 188 187 188 177 187 188 186 187 185 186 187 187 187 185 186 185 187 185 185 179 184 184 183 182 168 180 180 178 176 148 46 3 0 0 2 0 0 1 1 0 0 1 1 0 2 0 1 1 1 1 1 0 0 0 0 0 1 1 1 0 2 1 0 1 0 1 2 0 0 2 0 1 1 0 0 1 0 1 0 1 2 2 8 1 3 9 1 0 1 0 0 1 0 0 1 0 0 0 0 0 0 1 0 2 2 0 1 0 1 0 1 0 0 0 0 0 2 1 1 0 1 2 1 1 0 0 1 0 0 1 1 2 1 0 0 0 0 1 0 1 0 0 0 3 0 1 0 0 1 3 0 1 1 4 0 0 2 1 0 2 0 0 1 0 1 0 7 5 1 4 5 0 0 0 1 1 0 0 0 0 0 0 0 0 1 2 0 2 0 1 1 0 0 1 0 1 2 0 0 0 1 0 1 0 1 11 6 0 1 0 3 1 1 5 2 9 4 6 5 1 0 0 1 1 1 2 0 0 0 0 1 
0 0 0 1 0 1 0 0 1 1 1 2 0 0 0 0 1 0 0 1 0 2 0 0 0 1 1 0 0 0 0 0 1 1 0 0 0 0 0 0 0 1 0 1 0 2 1 0 0 0 1 2 0 0 0 0 1 0 0 0 0 0 3 1 0 0 0 1 1 0 0 1 0 1 0 1 0 0 0 0 0 0 0 0 5 1 0 1 1 0 0 0 1 1 0 2 0 0 0 1 1 2 0 0 0 2 1 0 0 1 2 1 0 1 1 1 0 0 0 0 1 0 0 0 0 2 0 0 0 0 0 0 0 0 0 0 0 0 0 0 2 0 1 1 1 0 0 0 1 0 0 0 0 0 0 0 2 0 0 2 0 0 0 0 0 1 0 0 0 0 0 1 0 1 1 2 1 1 2 1 0 2 0 0 1 0 1 0 1 0 0 0 2 1 0 1 0 1 0 2 0 1 1 0 0 0 0 0 2 1 0 0 1 2 1 2 0 1 2 3 28 56 87 122 121 119 137 140 141 142 143 144 144 147 145 145 141 147 147 140 146 147 146 147 147 135 133 147 150 150 151 151 153 151 151 152 142 152 154 144 154 154 154 156 153 155 156 156 155 156 159 156 156 156 157 157 158 156 158 157 150 158 159 158 145 157 157 144 132 143 158 158 147 159 158 156 161 160 150 158 160 160 150 159 159 161 161 159 147 159 148 161 162 156 161 160 160 162 156 160 163 162 162 162 162 161 161 162 151 163 164 165 165 163 164 166 164 167 160 167 168 168 170 168 168 170 170 172 171 172 163 172 174 173 173 170 176 175 176 163 177 178 177 178 177 179 172 167 179 179 178 167 179 181 181 182 181 181 182 182 183 182 177 182 184 183 184 172 183 183 185 184 185 186 186 184 168 171 185 185 187 186 185 187 186 188 187 183 188 188 186 188 188 186 176 187 181 186 187 186 178 184 179 167 185 186 185 184 185 183 183 183 176 180 178 179 177 166 94 8 8 2 1 0 0 0 1 0 1 0 0 0 0 0 3 1 0 0 0 0 1 0 5 0 0 1 1 3 0 0 0 0 0 0 1 1 0 0 0 0 1 0 1 0 1 0 1 0 0 0 3 3 1 0 1 0 1 1 2 1 1 0 1 1 0 1 0 0 0 1 1 0 0 1 1 0 0 1 0 3 0 4 0 0 1 1 1 0 0 1 0 0 1 0 1 0 0 7 1 0 0 0 0 0 0 0 0 1 0 0 3 2 9 0 1 0 0 0 1 0 1 0 0 1 2 0 2 1 0 1 1 0 1 0 1 1 1 0 2 1 0 0 1 0 0 0 0 0 0 0 0 1 0 0 1 0 0 0 1 1 1 1 2 0 0 2 0 2 0 1 0 2 0 1 4 1 1 1 3 1 0 2 0 1 2 7 1 0 2 1 1 0 0 0 0 0 0 0 1 2 
1 0 1 1 2 0 1 2 0 0 0 0 0 0 0 1 0 0 1 1 1 0 0 0 2 0 0 1 0 1 0 1 0 0 0 0 0 0 1 1 0 0 0 0 0 0 0 0 1 1 0 0 1 5 2 1 1 0 0 0 1 1 0 0 0 1 1 8 6 1 0 0 0 1 1 0 0 0 1 1 0 0 1 0 0 1 1 0 0 2 0 0 0 1 0 1 0 1 1 0 1 0 0 0 0 1 1 0 0 1 6 0 0 1 0 1 0 0 0 1 0 0 0 0 0 1 1 0 0 1 0 0 0 0 0 1 0 0 0 0 1 1 2 5 2 2 0 0 0 1 0 0 0 0 1 1 0 1 1 0 0 1 0 0 0 0 1 0 2 0 1 1 0 0 0 0 0 0 0 3 0 2 2 0 1 2 0 0 0 0 0 0 0 1 1 0 1 1 0 0 0 0 1 0 1 1 0 0 0 5 1 0 1 2 0 4 1 2 0 1 11 13 68 107 113 128 134 136 138 131 140 141 143 143 144 144 145 144 145 144 145 143 145 144 145 146 145 149 149 149 149 147 140 145 151 140 151 141 152 153 154 153 154 155 153 155 155 157 156 156 156 157 156 155 141 144 157 152 155 146 158 156 157 157 154 139 155 156 144 157 159 158 158 158 150 160 159 160 158 158 158 159 160 153 161 160 160 161 159 146 160 162 160 162 161 162 160 160 160 157 163 161 148 162 162 163 163 162 162 163 164 164 158 164 165 166 165 167 155 167 169 168 169 161 169 170 168 172 171 171 172 172 173 173 174 175 175 174 169 162 175 168 177 175 178 178 178 169 177 181 179 180 172 181 180 181 183 182 180 183 182 182 182 182 183 183 183 184 183 185 184 171 176 177 185 185 185 185 185 187 186 186 188 187 176 185 187 185 186 188 187 187 187 179 166 172 185 187 186 186 175 185 185 184 176 180 184 184 184 181 173 181 180 180 177 176 172 136 62 3 1 0 0 0 1 0 0 1 2 2 1 0 0 1 1 1 1 0 0 0 0 2 5 0 1 0 2 0 0 1 0 0 0 0 2 1 0 2 0 4 0 0 0 0 0 2 0 1 1 0 2 0 0 0 0 1 2 1 1 0 8 1 1 0 0 0 1 0 0 0 0 1 0 1 0 1 1 0 0 0 2 1 3 1 0 0 0 0 0 1 0 1 0 0 1 1 2 0 1 1 0 0 1 0 1 1 0 0 0 1 1 0 1 0 0 2 0 1 0 0 0 0 0 1 0 0 0 2 1 1 0 0 2 2 4 1 0 1 0 0 0 1 0 0 0 0 0 0 0 1 0 0 1 1 2 1 0 1 0 2 6 1 7 1 0 0 2 3 1 1 0 2 1 0 0 0 1 9 5 1 1 0 0 2 5 1 1 0 1 0 3 0 0 0 0 1 0 1 3 1 
0 0 1 0 1 1 1 1 2 1 1 0 2 0 1 1 0 0 0 0 1 2 3 1 1 0 0 0 2 0 3 0 1 0 0 0 0 0 2 0 1 1 0 0 1 0 0 0 1 0 0 0 1 5 0 0 1 1 0 2 0 5 0 0 0 2 1 1 3 1 6 0 1 4 2 4 0 1 0 3 0 0 0 2 0 0 0 0 1 0 1 0 0 1 0 1 0 0 0 0 1 1 0 0 0 0 1 1 1 2 5 1 0 0 1 1 0 1 1 1 0 1 0 1 1 0 1 1 1 1 1 2 1 0 0 0 0 3 0 1 0 6 2 0 1 0 0 0 0 1 1 0 0 0 0 1 0 1 0 0 1 0 0 1 2 0 0 1 0 1 0 2 0 0 0 0 1 4 1 0 1 0 1 1 1 1 0 1 0 3 0 0 0 0 1 1 0 1 0 0 2 1 5 2 0 4 1 0 0 0 4 1 0 2 6 0 0 1 1 0 0 2 22 78 112 125 129 134 126 135 137 125 140 141 143 144 142 142 143 142 130 134 144 144 145 146 145 147 147 147 148 149 149 150 150 144 151 152 153 150 151 152 153 152 153 152 154 150 154 153 155 154 143 154 154 139 154 148 156 155 156 156 140 157 140 130 124 134 157 158 158 157 146 158 159 157 161 159 159 155 148 159 160 159 160 159 159 158 160 149 159 162 162 159 161 160 161 146 160 162 157 161 160 150 161 153 162 151 163 164 162 163 155 163 151 164 166 155 152 167 155 168 168 163 159 170 170 170 171 172 171 172 173 174 174 174 174 174 174 175 176 176 158 176 178 178 175 177 179 173 178 179 170 180 178 181 181 180 181 182 181 183 181 167 171 176 184 171 175 184 183 185 185 184 183 170 174 185 185 185 186 186 186 186 179 179 173 186 184 186 186 186 187 187 186 186 187 185 171 187 186 183 174 184 185 185 184 183 184 177 179 181 180 162 166 173 118 60 6 0 0 0 1 0 0 1 0 1 1 1 1 1 0 0 2 1 3 1 1 7 5 0 2 0 0 0 0 0 1 0 2 0 0 0 0 4 1 0 2 1 0 0 1 0 0 1 0 0 2 3 1 0 0 0 0 2 4 1 1 1 0 0 0 0 0 2 2 0 1 0 0 0 0 1 0 2 0 1 1 3 0 0 1 0 1 0 0 0 0 1 0 1 0 1 0 0 0 2 0 0 0 0 0 0 5 1 1 0 0 0 0 0 0 0 1 2 0 1 1 0 2 1 2 0 0 0 2 0 0 0 1 0 0 0 1 0 0 1 0 0 8 3 0 0 0 0 0 0 1 0 0 4 1 1 0 0 1 0 2 1 0 0 0 2 1 0 5 0 1 0 2 0 0 0 2 0 1 0 0 0 0 1 1 2 2 1 0 0 0 0 0 0 2 8 0 0 1 1 0 1 
0 0 0 0 1 0 1 0 2 0 0 0 0 0 0 0 1 0 1 0 2 1 1 2 1 4 1 1 0 0 0 1 6 0 0 0 0 0 2 0 5 1 0 2 0 0 0 0 0 0 1 1 1 0 0 1 0 1 0 0 1 1 1 0 0 1 1 1 0 0 0 1 1 1 0 0 1 1 0 0 0 0 0 1 0 0 1 0 0 0 0 0 0 1 0 0 0 1 0 0 0 0 1 1 0 0 1 0 0 2 2 1 2 1 0 0 0 2 1 1 0 0 1 1 1 11 1 0 1 0 0 0 2 5 1 0 1 0 3 4 1 2 1 1 1 0 0 1 0 0 0 1 0 0 0 1 1 2 2 1 1 0 0 1 1 2 1 1 1 1 0 2 0 1 0 0 0 0 2 1 1 0 1 2 5 0 0 5 0 1 1 4 0 0 0 0 0 0 0 1 1 1 0 1 1 5 1 0 1 0 2 0 0 2 1 5 1 0 1 1 0 0 2 32 88 112 121 128 130 133 136 137 138 138 140 141 135 140 140 142 142 141 141 142 142 142 145 144 145 145 146 147 147 148 149 150 149 150 150 150 152 151 152 145 152 152 154 152 155 148 153 155 153 133 140 155 156 154 155 157 156 156 154 147 154 156 156 156 155 157 156 148 146 146 149 158 158 158 159 158 159 158 151 160 159 154 158 149 159 159 160 157 160 160 149 148 161 148 161 161 150 152 162 161 162 162 162 163 161 163 163 162 164 164 149 150 163 149 165 160 167 168 169 164 169 169 155 160 171 172 172 165 172 174 174 175 175 174 176 175 175 175 176 168 176 177 178 176 180 180 178 179 180 180 168 180 179 181 169 181 172 183 181 183 181 174 176 182 171 185 184 171 183 184 184 184 172 186 187 185 186 184 186 185 186 187 185 186 166 186 186 187 186 185 186 186 182 186 186 185 184 186 186 185 183 183 182 181 182 181 181 179 179 178 176 169 83 12 0 0 0 1 1 1 2 0 0 0 0 2 0 1 0 1 0 3 0 0 1 2 0 1 0 0 0 1 0 1 1 0 0 0 1 1 0 1 0 0 0 0 0 0 0 5 0 0 1 1 2 0 0 1 0 1 0 2 1 1 0 3 0 1 0 0 1 1 1 1 0 1 0 0 0 0 0 1 1 1 1 2 0 1 0 1 1 0 0 1 0 0 1 1 0 3 1 1 0 0 0 0 1 0 0 2 2 0 1 1 0 0 2 0 1 1 7 2 2 0 0 0 0 0 1 0 0 0 1 0 0 0 0 0 0 0 0 0 0 0 1 0 0 1 1 0 0 0 0 1 1 0 1 3 1 0 0 0 2 0 0 2 1 1 1 4 1 0 0 5 0 0 0 0 0 0 0 0 0 0 0 0 1 0 7 7 1 1 1 1 0 1 0 0 0 0 0 0 1 1 1 0 
1 0 1 0 0 0 0 6 0 0 0 0 0 0 0 0 0 0 1 0 1 1 5 0 1 0 1 0 2 2 0 1 0 0 1 0 1 1 0 1 0 1 0 1 0 2 0 0 2 1 0 0 1 0 0 1 0 1 0 0 0 0 0 0 0 1 0 1 1 1 0 0 0 0 0 0 0 0 1 0 0 0 0 0 1 0 0 0 0 0 1 0 1 1 1 0 1 0 0 0 1 0 1 2 1 0 1 0 2 0 0 0 0 0 0 1 1 0 1 0 0 0 0 1 1 4 1 0 1 2 1 0 0 0 0 1 0 1 0 1 1 0 0 0 0 2 1 2 4 0 0 0 0 1 1 15 0 1 7 0 1 0 1 1 10 1 4 0 0 0 0 1 0 0 0 2 0 0 1 8 1 1 1 0 0 2 1 0 1 1 1 0 0 1 0 0 0 0 0 1 0 1 0 1 1 1 1 0 0 0 1 1 0 0 2 2 0 0 0 1 1 2 0 4 42 68 110 105 124 130 132 133 134 137 137 139 132 138 140 140 139 140 140 140 141 141 142 143 144 144 145 145 147 146 142 148 148 149 149 148 150 142 149 151 150 151 152 153 154 145 151 148 152 141 152 155 154 147 155 154 145 150 155 155 156 150 155 156 157 156 157 155 156 158 156 156 157 158 158 152 158 148 158 159 159 152 150 158 158 159 159 156 159 161 159 144 160 153 159 160 160 159 159 162 160 153 162 159 162 148 163 164 164 164 164 156 165 165 151 165 167 168 168 170 170 150 169 163 170 173 173 172 172 173 171 175 173 174 175 175 158 175 170 176 177 178 178 179 179 177 157 167 178 180 179 169 180 181 181 180 181 182 182 183 183 183 183 183 184 185 183 184 184 185 184 184 184 185 183 186 174 178 185 182 186 186 179 185 185 170 173 174 175 178 186 185 186 180 185 171 167 184 184 182 172 161 156 164 181 183 181 172 178 177 174 145 55 2 1 1 0 0 2 0 0 4 1 1 1 1 0 0 0 1 1 1 0 1 8 2 0 1 0 0 2 0 1 0 0 0 1 1 1 1 1 7 0 0 0 0 0 1 1 0 0 1 5 1 0 0 0 6 1 0 1 0 1 0 0 1 0 1 0 1 2 0 2 0 1 0 0 0 0 0 1 1 0 1 1 0 0 1 1 0 0 0 0 1 1 1 0 0 0 1 0 0 1 2 0 1 1 1 0 1 0 0 0 0 1 0 1 1 2 2 0 0 0 0 0 2 0 0 0 1 0 0 0 1 1 1 1 0 0 1 2 1 0 1 0 1 1 2 0 1 1 0 0 1 5 1 1 2 0 0 0 0 1 1 0 1 4 0 0 1 1 2 1 0 4 0 0 0 0 0 0 8 2 1 2 0 1 0 1 1 1 1 0 1 1 0 0 1 1 9 0 0 1 0 0 1 
0 0 1 0 2 0 0 0 1 1 1 0 0 0 0 1 2 1 0 0 0 2 1 0 0 2 2 0 1 0 0 0 0 0 0 1 2 0 2 0 1 0 0 2 0 1 0 0 1 2 0 0 0 0 0 0 0 1 1 2 0 1 1 0 0 0 0 0 0 1 2 0 0 2 1 0 6 1 6 2 0 0 0 0 0 0 1 0 1 0 0 1 2 7 0 0 1 1 1 1 0 1 0 2 0 1 1 0 0 2 1 0 0 0 1 0 0 0 5 1 0 1 0 0 1 1 4 0 0 0 2 1 1 1 0 0 0 0 0 0 1 0 2 0 0 1 0 0 2 1 0 5 2 0 0 1 1 0 0 0 0 0 1 1 0 0 0 1 0 0 0 3 0 0 0 0 1 0 0 4 1 1 0 0 0 0 0 0 0 8 1 1 0 1 0 1 0 0 0 0 0 0 0 1 0 0 0 0 2 0 0 0 1 2 1 3 6 0 1 0 2 1 1 1 7 37 75 107 117 123 121 130 130 133 135 135 135 135 137 138 138 138 130 138 133 140 142 142 133 142 144 145 145 145 146 137 134 139 149 149 150 149 148 151 149 150 141 152 151 134 138 153 153 154 153 153 152 149 155 154 152 154 154 156 154 155 155 156 155 157 156 156 155 151 156 158 150 158 158 157 148 145 158 152 157 157 158 158 157 158 159 160 159 159 158 145 145 158 159 159 161 161 151 161 160 146 143 151 160 161 162 162 164 164 164 157 165 166 166 166 167 169 167 162 168 153 169 172 171 171 171 173 173 173 174 172 174 175 173 176 175 175 175 177 177 177 170 178 177 171 178 163 167 180 179 180 179 179 170 173 182 182 181 183 181 184 183 183 184 183 183 185 184 183 170 185 186 184 172 184 186 186 181 185 186 188 185 184 173 184 186 185 186 187 185 186 186 184 185 183 167 183 173 184 183 180 155 180 180 181 178 178 175 175 159 76 7 2 1 1 0 0 1 0 0 0 0 2 0 1 1 1 7 0 0 0 0 0 2 4 1 0 1 1 0 0 2 1 0 2 0 1 1 0 0 0 1 0 0 1 0 1 2 0 0 0 1 1 1 0 1 1 1 0 1 2 1 1 1 1 0 0 0 4 3 0 0 1 1 0 0 0 1 1 1 0 0 0 0 0 0 0 8 1 0 2 1 0 0 1 0 0 1 1 0 0 1 1 0 0 5 0 0 0 1 1 1 0 1 1 0 0 0 0 0 1 0 0 1 1 0 0 0 1 0 1 1 0 2 2 0 0 0 0 0 3 2 0 0 0 0 0 0 0 0 0 0 0 3 2 1 0 1 2 1 0 0 1 0 2 0 0 0 0 0 1 1 1 3 3 2 1 5 0 1 0 1 0 0 2 2 0 1 0 1 0 0 1 6 1 2 1 0 1 1 0 1 2 0 1 
2 0 0 0 0 1 1 0 0 0 0 1 0 1 0 1 0 0 0 0 1 2 1 2 0 0 0 1 1 0 1 1 0 0 0 1 5 0 0 1 1 4 0 1 1 1 1 2 1 1 0 1 0 1 2 2 0 0 0 1 0 0 0 0 0 5 0 0 4 0 2 0 0 1 0 0 0 0 1 1 0 2 1 1 0 0 0 0 1 0 0 0 1 1 0 1 0 1 0 0 0 0 0 2 4 0 1 1 1 0 0 0 0 0 0 5 1 1 0 0 0 1 0 1 0 7 2 1 1 0 0 0 0 0 0 0 1 0 1 0 4 2 1 1 1 1 1 0 1 0 2 10 2 2 0 1 0 0 0 0 0 0 2 0 1 1 0 1 0 5 0 0 2 0 1 0 1 1 0 0 1 0 0 0 0 1 2 0 1 0 1 1 0 0 0 0 2 0 1 1 1 0 0 5 0 0 0 0 1 1 0 0 1 1 0 3 4 1 1 1 6 6 0 0 2 22 45 62 84 98 118 116 115 128 132 131 129 134 135 137 135 136 126 135 136 139 138 139 139 141 141 143 144 143 143 135 138 146 146 147 147 141 147 148 149 149 150 149 151 138 150 151 151 152 152 152 147 152 153 153 154 154 150 154 154 151 155 152 154 156 156 145 145 154 155 156 157 157 158 159 156 156 156 157 159 146 157 156 148 157 158 157 158 158 158 159 159 160 160 160 160 159 156 161 160 160 151 161 155 163 162 163 163 164 164 164 166 166 166 168 167 168 168 169 169 159 169 172 159 163 172 166 173 173 172 161 173 174 171 174 175 176 178 177 176 177 177 180 179 178 180 179 179 180 181 180 161 181 181 181 175 181 183 183 181 172 183 183 177 183 183 185 184 183 171 184 185 185 184 184 184 185 185 185 186 174 185 166 184 184 186 178 185 185 175 184 177 185 185 182 183 183 183 167 182 174 181 182 178 178 178 169 174 168 97 20 0 0 0 1 0 0 0 1 0 0 1 1 1 0 0 0 0 1 1 1 1 2 0 0 0 0 0 0 0 1 0 1 8 0 0 0 0 0 7 0 0 0 2 0 1 1 0 1 1 5 1 1 1 0 0 0 1 1 6 0 0 0 1 0 1 0 0 2 1 0 1 0 0 0 1 2 0 0 0 1 1 1 0 0 0 0 0 1 0 0 0 0 1 1 1 0 0 0 0 0 1 0 0 0 0 0 2 0 2 0 0 0 6 0 1 0 0 0 0 0 0 0 0 0 0 0 0 0 0 3 1 0 1 0 0 1 1 0 1 1 0 2 0 0 0 1 0 0 0 1 0 1 0 1 1 0 0 0 1 0 0 1 0 0 4 0 0 1 1 0 0 1 7 1 2 5 0 1 1 1 2 2 0 0 0 0 0 0 0 0 4 2 0 1 2 0 0 0 0 5 1 1 0 0 
6 1 1 0 1 6 1 0 1 0 0 1 0 0 0 0 0 0 0 1 0 1 0 0 0 1 0 0 0 1 1 0 0 0 1 2 0 4 0 0 0 1 0 1 1 1 2 0 0 0 0 0 1 0 1 0 0 0 1 4 1 0 0 1 1 1 0 0 0 0 0 3 1 1 0 0 1 0 0 0 0 1 0 1 0 0 0 0 2 1 1 0 0 2 1 0 4 4 2 0 0 1 1 1 7 0 0 1 2 0 0 0 0 1 0 1 0 0 0 0 0 5 0 1 1 0 0 0 0 0 0 2 0 1 0 0 0 0 2 1 0 0 1 0 0 0 7 0 2 1 0 1 0 0 1 0 0 1 1 0 3 0 0 1 2 0 0 0 7 3 3 2 0 2 1 0 0 0 0 0 0 1 1 0 0 0 1 1 2 0 0 1 1 1 2 0 0 0 0 0 1 1 2 1 1 2 0 0 1 1 1 0 1 2 1 0 1 0 2 0 0 2 0 0 0 2 11 45 86 103 112 117 111 127 127 130 130 133 132 126 135 134 117 135 126 135 127 131 138 131 139 141 134 142 142 143 144 139 145 145 146 146 143 148 149 147 149 150 150 150 150 151 152 151 150 151 150 151 151 152 153 153 152 152 149 155 153 154 153 155 153 154 153 149 142 155 156 153 155 156 155 157 159 157 158 157 158 157 157 157 157 158 159 157 158 159 159 158 160 160 160 160 159 160 160 158 162 161 161 161 162 163 157 155 165 155 166 155 166 167 168 168 166 169 170 170 169 170 158 170 171 172 166 173 172 172 166 174 167 175 175 168 177 174 175 177 179 178 178 180 179 179 180 179 179 166 177 181 171 181 181 181 181 182 182 168 182 182 184 183 173 183 183 183 175 184 185 184 186 184 172 184 184 185 184 174 185 171 184 178 185 185 186 185 185 184 170 173 183 174 184 182 185 181 181 180 183 182 165 166 177 176 173 152 69 27 1 1 1 4 2 1 1 0 0 1 0 0 1 0 5 1 0 0 1 0 2 0 0 0 0 0 0 0 0 0 1 6 0 0 1 0 0 1 0 0 0 1 1 2 0 1 1 0 0 0 6 2 0 1 2 1 2 5 0 1 0 1 2 2 6 1 0 0 1 2 0 0 0 1 0 0 1 0 0 1 0 1 5 1 0 0 1 0 2 0 0 1 2 1 0 0 0 1 0 0 0 1 0 0 0 1 1 1 0 0 0 0 2 5 3 1 2 0 0 0 0 0 0 1 0 0 0 1 5 0 1 0 0 1 0 1 0 1 1 1 1 0 4 1 0 0 1 2 0 0 3 0 0 0 1 0 0 0 1 1 0 0 0 1 0 0 1 0 0 0 4 1 0 1 0 1 1 1 1 1 0 0 1 0 2 1 0 0 0 0 2 1 1 0 0 3 1 2 2 0 1 0 0 1 
2 0 1 1 0 0 0 0 1 1 0 1 0 1 0 0 1 0 1 1 1 3 1 0 0 1 1 1 5 0 0 0 0 0 1 0 0 1 3 1 0 0 0 0 0 0 0 1 2 0 0 0 2 0 0 1 1 0 0 0 0 0 1 0 0 1 0 0 0 2 4 2 0 0 2 0 1 1 0 0 0 0 0 0 1 0 0 1 3 1 1 0 4 1 0 0 0 0 2 1 0 1 0 0 1 1 0 0 3 0 0 0 1 1 1 0 1 1 0 0 0 1 1 0 0 0 0 2 0 0 0 0 0 1 1 0 0 0 0 0 0 0 2 3 0 1 4 0 2 0 0 1 2 0 0 0 1 0 6 0 0 2 0 1 1 4 2 1 1 1 1 1 1 7 2 1 1 0 3 3 1 2 0 0 1 2 0 0 1 1 0 0 0 0 0 1 0 1 0 1 0 0 1 1 0 2 1 0 0 0 0 0 0 0 0 0 4 0 0 0 1 1 0 4 1 5 5 9 48 84 101 110 116 123 122 126 127 129 130 131 132 129 120 131 132 129 133 134 136 123 136 126 131 141 141 142 143 143 143 137 146 146 142 144 146 147 134 147 148 148 149 148 150 151 152 151 142 140 150 146 152 151 152 153 153 152 142 152 153 147 153 153 154 155 153 154 155 147 155 156 156 156 156 156 155 155 154 157 158 157 157 158 158 152 158 158 149 158 159 159 158 160 158 155 159 161 160 159 160 163 162 163 164 163 164 165 166 166 167 167 167 160 167 169 170 162 170 170 161 169 170 172 172 171 173 158 173 174 173 174 176 162 176 176 177 177 177 177 177 179 177 179 171 179 162 162 164 180 180 182 181 181 167 180 172 182 181 184 178 183 171 184 183 184 184 184 177 184 185 183 164 168 173 168 184 175 184 168 183 186 183 184 186 185 184 176 183 184 183 167 183 182 182 180 172 181 182 181 179 176 162 173 159 85 10 1 3 1 0 0 0 0 0 1 0 0 1 0 0 1 0 0 1 1 1 2 0 1 0 5 0 0 0 0 2 8 9 1 0 0 2 2 0 0 0 0 0 0 8 2 4 0 0 0 0 1 2 0 0 1 5 0 1 0 0 0 0 0 2 0 1 1 1 0 0 0 0 0 0 0 1 1 0 0 1 0 1 0 0 1 0 3 1 4 0 0 0 0 0 0 0 0 0 1 2 0 0 0 0 0 1 0 1 0 0 1 1 1 0 0 0 0 0 1 1 1 0 0 0 1 1 0 1 0 0 1 0 0 0 2 1 0 2 0 1 1 1 2 1 0 1 0 0 0 0 0 0 0 0 0 0 0 1 0 1 0 0 0 0 1 0 0 0 1 0 1 0 0 2 0 0 0 0 0 0 4 3 2 0 6 7 2 0 0 0 2 2 0 1 3 5 3 1 0 1 0 0 0 0 0 
2 0 0 1 4 0 1 1 1 1 0 1 0 1 0 1 0 1 0 0 0 0 2 0 0 1 1 0 0 1 1 0 0 0 0 0 0 1 0 0 0 0 0 0 1 0 2 3 1 1 1 0 6 7 1 0 2 2 0 0 0 1 0 0 0 1 0 4 0 1 1 2 0 2 1 0 0 1 1 0 1 1 0 0 1 0 2 0 0 0 0 1 1 0 1 1 0 1 0 0 2 1 1 2 4 3 0 1 0 1 0 0 0 3 0 0 2 0 4 1 0 0 2 0 1 1 1 1 1 1 2 1 0 1 1 0 2 0 1 0 1 0 1 3 0 0 0 1 2 0 1 6 10 0 2 1 0 0 2 0 0 1 1 1 1 0 0 0 1 0 2 0 4 1 1 1 0 1 1 0 1 0 0 0 0 0 0 0 1 2 0 1 1 0 1 0 1 1 0 4 1 0 0 0 2 0 0 1 0 0 0 0 0 0 0 0 1 0 0 0 0 6 0 0 2 1 1 0 8 44 63 97 108 112 118 122 124 126 126 128 129 130 131 130 131 120 132 132 129 135 136 136 137 127 140 140 141 141 143 143 143 144 146 146 146 146 146 138 146 148 147 149 142 149 150 149 149 150 150 143 150 145 153 152 152 152 152 146 153 153 152 154 152 155 153 153 154 154 154 153 155 154 156 157 148 155 156 155 155 155 155 156 157 156 157 158 157 158 157 158 156 147 159 159 159 160 155 160 162 161 163 161 162 156 164 165 165 164 166 166 167 167 155 168 168 169 170 164 170 171 157 162 172 171 170 165 174 174 169 174 169 175 176 176 176 176 178 178 171 177 168 178 178 179 177 177 160 179 177 182 170 180 168 160 180 182 174 183 184 183 170 182 182 183 184 185 185 185 185 184 184 183 183 183 184 186 185 185 175 184 184 184 184 184 185 183 183 182 170 182 182 183 182 180 179 181 180 179 178 174 172 132 115 23 0 0 1 0 0 1 4 0 1 0 0 1 1 1 0 1 0 1 0 1 1 1 1 1 2 0 0 0 0 1 1 5 1 1 0 0 1 1 3 0 0 0 6 1 2 1 0 1 0 1 0 0 0 0 0 2 0 0 1 5 0 0 1 0 0 1 1 0 1 0 2 0 1 0 1 0 0 0 0 0 0 0 1 2 1 0 0 0 1 0 0 1 0 0 0 1 2 0 0 4 1 1 2 1 2 2 0 2 0 2 6 0 2 0 2 1 0 0 0 0 0 0 0 0 3 0 1 0 1 1 0 1 0 1 1 0 0 0 0 0 0 1 0 4 0 0 0 2 0 0 0 1 2 1 0 0 0 1 1 0 0 0 0 0 1 0 2 1 0 1 0 2 0 0 1 0 0 0 1 2 0 2 3 0 5 2 2 1 1 1 0 0 0 0 0 0 1 1 2 0 0 0 0 0 0 0 
0 1 0 0 4 4 2 0 1 0 1 0 0 0 0 1 0 1 1 0 0 0 1 0 0 1 0 0 1 0 7 1 0 0 1 0 1 2 1 0 0 1 0 0 0 1 0 1 0 0 0 2 0 1 1 0 2 0 1 0 0 0 2 1 3 6 1 0 0 0 0 0 0 0 0 1 0 1 1 0 0 0 0 0 1 0 0 0 2 1 0 3 4 5 1 1 0 1 1 0 0 2 0 1 1 3 0 1 0 1 2 7 1 0 0 0 0 2 0 0 1 2 0 0 1 0 0 1 1 1 0 0 0 0 0 0 0 0 0 0 1 0 0 1 1 0 0 1 1 0 1 0 3 1 1 2 0 0 1 0 0 0 1 0 1 0 0 1 2 6 1 4 1 1 5 0 2 3 0 0 1 0 0 1 8 1 2 0 0 0 6 2 0 0 0 0 0 3 1 0 0 0 1 0 0 2 1 0 1 1 0 0 0 2 1 0 0 1 0 0 1 1 0 0 0 0 0 0 0 12 39 76 96 103 111 116 120 114 115 124 126 122 127 121 130 128 131 131 130 133 132 134 136 136 136 138 139 132 141 142 140 143 144 144 143 138 145 128 145 146 148 144 147 142 142 149 150 143 149 141 149 149 150 151 151 152 151 152 149 151 148 154 152 153 153 153 155 154 154 152 155 153 156 154 155 143 155 155 145 156 156 157 158 156 157 156 157 157 157 151 143 158 156 157 153 158 160 160 160 161 161 164 164 154 164 161 165 155 166 167 167 167 162 168 168 168 169 170 171 169 171 171 157 162 172 173 173 173 174 175 175 175 176 176 176 176 177 177 174 176 168 178 178 168 161 163 179 179 181 180 181 169 178 165 166 181 180 183 182 182 171 183 173 184 183 184 183 184 184 185 184 184 184 185 184 178 184 184 183 184 184 184 184 184 184 172 172 183 168 170 183 181 181 181 179 169 177 177 160 145 164 132 38 15 0 1 0 1 0 2 1 1 4 1 1 0 1 0 0 1 0 1 0 0 1 0 5 1 1 0 0 0 0 0 1 0 0 1 1 1 0 0 0 0 0 1 2 1 1 0 1 1 2 0 1 1 0 1 0 1 1 0 0 0 1 0 0 1 0 2 0 8 1 3 0 0 0 2 0 0 0 0 0 0 0 0 2 0 0 1 0 1 0 1 1 1 2 0 0 3 0 1 2 1 2 1 1 0 0 0 2 1 1 6 1 2 0 0 0 1 0 0 0 5 1 0 2 1 0 1 2 2 1 1 0 1 0 0 2 3 2 1 0 0 0 0 0 1 2 0 0 2 0 1 1 2 0 2 1 1 2 2 4 2 0 0 0 0 0 0 1 0 0 0 1 0 0 0 0 0 1 0 0 0 0 2 0 1 0 7 1 1 2 0 2 0 0 1 0 0 0 1 4 0 0 0 1 0 1 0 
0 1 0 0 2 0 1 0 2 0 0 0 0 1 0 0 0 0 0 0 0 1 2 0 1 0 0 0 0 2 2 3 2 2 0 1 0 0 0 0 0 1 3 1 1 0 0 1 1 0 1 1 0 0 0 0 0 0 0 1 1 2 7 1 5 1 10 1 0 1 0 0 1 3 0 0 0 0 0 4 1 0 0 1 0 0 0 2 0 1 1 11 2 3 0 2 2 0 1 1 0 0 0 1 2 2 1 1 0 0 1 0 2 0 0 0 0 0 0 2 1 0 0 0 1 1 0 0 2 0 0 0 1 0 0 0 0 1 1 0 0 1 0 0 1 0 2 2 0 1 1 0 0 0 0 0 2 0 1 2 0 1 7 1 1 1 1 0 0 1 6 1 0 2 0 1 1 2 0 1 0 1 0 0 1 0 0 0 1 2 0 0 0 0 0 0 0 0 0 0 0 2 0 1 0 0 0 1 0 0 1 2 2 0 0 0 0 0 0 1 1 0 1 1 0 6 4 0 0 1 5 35 73 90 100 107 113 117 118 122 122 123 125 126 127 127 128 125 122 129 125 131 134 129 135 130 137 138 138 139 139 139 143 139 142 130 144 145 144 145 146 144 137 147 147 147 146 149 148 148 149 148 149 151 149 150 150 151 151 150 151 152 151 153 149 152 153 154 154 153 154 146 138 138 153 154 156 155 152 154 155 155 156 154 156 158 155 157 154 157 157 158 157 149 158 159 160 160 161 150 161 162 162 163 161 162 163 165 165 165 166 168 168 168 168 170 169 170 170 170 173 171 170 173 173 173 160 154 157 174 176 175 177 177 176 176 175 178 177 177 177 178 178 178 178 179 180 180 180 179 163 179 180 159 178 181 182 182 182 183 182 181 182 182 183 175 185 184 183 177 184 184 183 184 184 185 185 183 185 182 183 184 184 183 182 182 182 181 181 182 179 180 179 181 179 179 178 165 172 136 98 51 3 2 1 2 1 0 0 0 0 3 2 0 1 0 0 1 1 2 0 1 0 0 2 1 0 1 2 1 0 0 0 0 0 1 2 2 1 0 0 1 0 1 0 0 2 2 1 0 0 0 0 4 0 1 0 1 0 1 2 1 2 0 2 0 0 1 0 0 0 0 1 0 0 0 2 0 0 0 0 5 0 2 0 0 1 0 1 0 1 1 2 0 0 0 1 0 0 0 0 2 4 0 1 1 1 0 1 1 1 0 0 1 1 4 0 0 0 0 1 0 0 0 0 0 0 0 0 0 0 0 0 0 0 7 0 1 1 0 6 0 0 0 1 1 0 0 0 2 0 0 0 1 2 0 0 3 0 1 0 0 2 1 0 1 0 0 0 0 1 2 0 2 0 2 0 2 1 5 1 0 0 1 1 0 0 0 0 1 6 2 1 0 0 1 0 0 0 1 0 2 0 3 0 2 0 0 1 0 
2 0 0 2 2 0 0 0 1 1 0 1 1 1 1 0 0 0 0 1 4 2 0 0 1 1 0 0 0 0 0 0 0 1 0 0 1 1 0 0 0 7 1 0 1 1 2 1 0 0 0 2 2 1 0 0 0 1 0 0 1 0 1 1 0 1 1 0 1 0 2 1 0 0 1 0 1 0 2 2 1 1 1 1 1 0 1 0 1 0 11 12 0 0 0 1 0 1 0 0 0 1 3 1 0 1 0 0 0 0 3 1 0 1 6 1 0 0 0 7 1 0 1 0 0 1 1 0 0 0 0 0 0 0 0 0 0 1 0 1 0 0 1 2 1 0 0 0 0 1 0 0 1 1 0 1 0 7 0 1 1 0 3 0 0 5 0 1 0 1 8 9 1 0 0 0 1 0 0 0 0 0 0 1 1 0 2 0 0 1 0 2 1 0 0 0 2 0 1 7 2 0 0 1 0 0 0 0 1 0 0 2 0 0 1 0 2 0 0 0 1 1 1 0 0 1 2 0 5 9 1 5 33 68 80 98 106 112 114 111 119 120 121 123 123 124 125 125 126 127 126 129 131 123 133 134 134 137 136 132 137 138 142 141 140 132 142 143 145 135 143 146 144 137 146 146 148 147 146 149 148 140 149 148 149 146 150 151 151 146 150 150 150 151 147 150 152 151 152 145 152 134 150 127 153 153 154 155 155 155 154 144 155 155 156 156 154 156 157 151 156 158 157 148 157 159 159 160 161 160 162 161 163 163 164 164 165 150 158 167 161 167 157 166 168 160 168 169 163 171 170 172 170 161 174 172 172 151 173 174 173 174 174 176 177 178 177 177 177 171 171 178 167 177 162 168 179 179 164 163 178 181 180 170 179 168 172 182 181 182 181 171 184 181 179 184 183 183 183 183 184 183 183 183 182 182 183 183 182 169 163 183 184 184 183 183 182 181 174 180 166 180 181 179 178 178 176 164 170 146 65 5 2 0 1 3 0 0 0 0 0 2 0 0 0 0 1 0 0 0 0 1 0 0 0 2 2 8 2 2 0 0 0 0 1 1 0 1 0 3 0 5 0 0 2 1 0 0 0 0 0 0 1 0 0 0 0 0 1 0 0 1 2 0 0 1 1 0 0 0 1 0 2 0 1 2 7 1 0 0 0 3 1 1 1 0 2 1 0 0 1 1 0 0 0 0 0 1 0 0 1 0 0 2 1 0 1 0 2 1 2 0 0 0 2 0 1 0 1 0 0 2 1 1 2 1 0 0 0 0 0 0 0 0 1 1 1 0 3 1 0 2 1 1 1 0 0 1 0 1 1 1 1 1 1 0 0 0 1 0 1 0 0 1 0 0 2 2 1 2 1 1 3 0 1 1 1 4 1 1 0 0 0 0 0 0 0 1 0 0 1 0 0 0 0 0 1 0 1 3 1 0 1 0 0 0 1 0 0 4 
0 0 2 0 0 0 0 1 0 0 0 0 0 0 0 2 1 0 0 1 0 0 0 0 0 1 1 1 1 0 1 1 1 1 0 0 0 0 0 1 0 1 1 0 0 2 1 1 0 0 1 0 0 0 1 0 0 1 2 0 0 0 0 0 0 0 0 0 0 0 0 1 0 1 1 7 1 5 1 2 0 0 1 0 3 2 0 1 11 1 3 0 1 0 0 0 1 0 0 0 1 0 1 2 0 2 0 2 1 0 3 1 1 2 1 0 1 2 1 1 0 1 1 3 0 0 1 0 0 0 0 1 1 0 0 1 0 0 4 2 0 0 1 1 0 1 1 1 1 4 2 1 2 0 1 1 4 0 0 1 3 1 1 2 0 1 0 0 0 2 1 0 2 1 1 1 0 0 0 2 0 0 0 0 1 0 0 3 2 1 0 1 1 2 1 4 1 0 1 1 0 0 1 0 1 0 0 1 2 1 0 2 1 1 0 0 1 0 0 0 1 1 0 1 1 0 1 1 0 0 7 2 5 36 63 85 95 100 95 111 111 115 118 120 122 122 122 123 122 125 125 123 128 130 131 132 133 133 136 135 136 135 136 139 139 139 143 142 136 141 142 129 143 144 146 142 146 147 147 147 147 147 148 143 149 149 151 151 149 150 150 150 151 151 151 143 151 151 152 151 152 129 133 150 153 154 154 147 154 154 153 155 154 156 155 150 150 156 155 155 156 145 156 157 151 159 150 159 160 151 162 147 161 163 163 163 156 163 164 164 166 167 167 158 155 167 154 169 169 171 161 171 166 171 172 173 160 158 173 166 174 175 175 176 174 175 175 167 177 177 176 177 166 178 178 173 180 179 179 180 180 181 180 180 166 179 182 180 181 182 182 173 182 171 180 183 183 183 183 183 183 183 183 184 183 180 183 184 183 181 181 169 182 184 182 183 181 180 180 171 179 180 180 166 176 177 165 171 152 75 8 0 0 0 0 1 1 0 1 0 0 1 0 1 4 1 8 1 1 0 0 1 1 2 0 0 0 9 2 1 0 1 1 0 0 0 1 2 0 2 0 1 0 1 1 0 0 1 0 2 1 1 0 0 1 1 2 0 1 1 1 1 0 0 2 0 0 1 1 0 2 5 4 1 1 0 0 0 1 0 0 2 0 0 0 1 1 0 1 0 1 0 0 0 0 0 1 0 1 0 1 0 0 0 1 2 0 1 3 3 1 2 0 2 1 2 0 0 1 1 0 0 1 1 0 0 0 1 3 2 1 0 2 0 0 1 1 2 0 1 2 1 1 1 2 1 0 2 5 0 0 0 0 0 3 0 1 2 10 1 0 1 0 0 0 1 1 0 2 5 1 0 0 0 0 0 1 1 1 0 0 1 0 1 0 0 0 1 0 0 0 0 0 1 0 0 0 0 0 0 1 0 2 0 1 1 1 1 0 0 
0 0 0 0 1 2 1 1 1 2 0 0 0 0 1 0 1 1 2 1 0 0 1 0 0 1 10 2 1 2 1 0 0 1 0 0 0 1 0 1 0 0 0 1 0 0 0 0 1 0 0 0 1 2 0 0 0 0 0 1 0 1 0 0 1 1 0 0 0 0 1 0 1 2 0 0 0 7 1 1 1 2 0 1 0 1 1 0 0 0 1 0 0 0 5 8 1 1 2 0 2 1 0 0 2 1 0 0 7 0 1 2 0 1 0 1 0 0 0 0 1 0 1 0 0 0 2 0 1 0 2 0 0 2 0 0 1 0 0 1 0 0 2 0 0 0 0 0 1 2 2 0 2 1 0 0 0 0 0 0 0 2 0 1 0 0 0 1 0 0 2 0 1 0 0 0 0 1 0 0 0 1 0 6 1 1 1 1 0 0 0 0 2 0 1 1 0 1 0 0 0 0 0 0 4 0 1 0 0 2 0 1 0 0 0 2 1 1 1 0 1 0 1 0 2 1 2 8 1 0 7 3 3 13 29 54 80 92 99 98 110 112 114 115 117 117 108 119 121 120 122 124 123 127 128 130 130 131 134 133 135 136 136 137 138 139 139 132 139 133 142 142 143 137 144 143 144 146 152 146 146 146 147 145 133 148 148 148 148 149 150 151 150 149 145 148 140 150 151 148 152 136 150 135 151 145 151 152 152 153 153 154 154 152 150 154 155 155 157 149 155 154 136 139 158 158 160 160 159 160 152 162 162 163 163 165 164 166 165 166 165 160 165 166 167 168 169 169 159 158 170 171 171 161 172 173 173 175 173 161 162 174 175 175 176 176 176 163 176 177 165 176 177 178 179 179 179 179 180 180 180 181 180 180 169 181 182 182 181 182 183 180 170 181 184 183 182 183 178 182 183 182 184 181 173 182 181 184 183 170 182 181 184 182 180 180 175 168 180 181 179 180 178 177 177 174 173 155 86 10 1 0 0 1 0 0 1 1 0 1 0 1 2 0 1 5 1 0 0 1 0 0 0 8 1 0 0 1 0 0 2 0 4 0 1 0 0 1 0 0 0 0 1 0 2 0 1 0 2 1 0 1 0 0 0 0 2 1 1 1 0 0 0 0 0 0 1 1 1 2 2 1 1 1 0 1 0 1 2 2 0 0 6 1 0 0 0 0 0 0 1 1 0 0 0 0 0 7 0 0 1 0 1 1 4 0 1 0 1 1 0 0 0 0 0 0 0 0 1 0 1 0 0 0 0 0 0 1 2 1 1 0 2 0 0 0 1 1 0 0 0 1 1 0 0 0 0 2 0 1 0 0 0 0 1 1 0 0 5 0 1 0 6 1 1 2 0 0 0 1 2 0 0 2 0 1 0 2 1 0 0 0 1 1 0 1 0 0 2 0 0 1 0 0 0 0 1 0 2 1 3 6 0 1 1 0 1 0 1 0 
0 0 1 0 5 2 0 0 1 0 1 1 5 0 0 0 1 1 1 0 1 0 1 0 2 0 6 1 0 0 0 0 2 1 0 0 0 0 0 1 3 0 0 0 0 0 0 2 0 0 0 0 1 0 2 6 0 1 0 2 1 0 1 0 2 5 1 10 1 0 2 0 1 0 0 0 1 1 0 0 0 0 1 0 3 1 1 1 0 0 0 0 1 2 2 4 0 0 1 0 0 2 3 0 3 0 1 1 1 1 0 1 1 0 1 0 2 0 0 0 0 1 0 0 2 0 2 0 0 0 0 0 1 2 1 0 0 5 0 1 0 0 1 0 4 0 0 0 0 0 1 0 4 0 2 0 1 1 6 0 0 1 0 0 1 0 2 1 0 1 2 4 0 1 1 0 0 0 1 0 1 0 0 1 2 1 1 0 0 0 0 1 1 1 0 0 0 1 1 0 0 0 0 1 1 0 0 0 0 1 1 0 2 1 1 1 3 2 5 1 1 1 1 0 0 1 1 2 8 1 3 0 1 6 2 19 54 77 89 95 103 106 109 110 113 113 115 114 117 120 118 120 122 123 124 126 127 130 130 132 130 132 133 136 135 137 138 139 139 130 140 131 140 141 143 143 142 144 144 145 145 145 145 146 146 147 135 146 147 148 148 149 149 149 148 150 150 149 150 151 151 141 144 149 136 149 135 140 154 153 153 153 151 154 145 154 154 153 155 156 156 144 148 155 156 159 159 159 159 147 155 161 162 162 162 153 164 163 158 159 166 167 159 160 168 168 171 168 169 161 170 170 172 171 172 165 174 173 174 174 174 174 165 175 174 176 171 176 176 176 169 168 167 176 178 179 179 179 179 179 178 179 180 180 167 180 180 181 182 183 181 180 182 180 182 182 180 182 183 182 184 182 176 180 172 181 183 181 170 182 181 176 182 181 172 180 179 180 178 175 179 178 167 176 175 171 159 100 15 0 0 2 1 1 0 1 0 4 0 1 3 1 1 2 0 0 1 1 0 0 6 0 0 0 2 0 1 0 2 0 2 0 0 0 1 0 0 0 0 0 0 0 1 1 0 1 0 0 0 1 0 0 0 0 2 2 1 0 1 0 1 0 0 2 3 1 1 3 1 0 2 0 0 7 0 0 0 1 4 1 0 0 1 1 1 1 1 0 0 2 1 0 0 0 0 0 0 1 2 0 0 0 1 0 2 0 1 1 1 0 0 0 0 2 0 1 0 0 1 1 0 2 1 0 0 1 0 0 3 6 1 1 0 0 0 1 0 0 0 0 1 5 0 1 0 0 1 0 0 0 0 0 1 1 0 1 1 1 1 1 1 1 0 0 0 0 0 0 0 0 1 0 0 1 0 0 1 1 0 0 1 0 0 0 0 1 2 0 2 0 0 3 1 1 2 2 1 2 5 2 6 0 1 2 2 0 0 1 1 0 
0 1 0 0 0 0 1 2 0 1 0 0 2 0 1 2 3 0 0 0 0 1 0 0 4 1 0 1 0 0 0 1 1 0 1 2 0 0 1 5 2 2 0 0 0 0 0 1 1 1 1 1 0 0 1 2 7 1 0 1 0 2 1 0 1 2 5 1 0 1 5 1 0 1 0 2 0 2 1 0 0 1 0 1 0 2 0 0 0 0 0 0 1 1 6 6 0 0 1 0 0 0 0 1 6 1 0 0 1 0 1 1 1 1 1 1 0 0 1 1 0 2 5 0 0 2 0 1 0 0 1 0 2 1 0 0 0 0 1 1 0 0 2 1 2 1 0 1 1 0 1 0 0 1 0 0 0 3 0 0 2 3 0 1 0 0 0 0 0 3 0 7 1 1 1 0 0 0 0 0 1 0 0 0 1 0 0 0 4 1 0 0 0 0 1 0 0 0 0 0 0 0 0 0 1 1 1 0 0 0 1 1 1 1 0 1 0 2 1 0 0 0 0 2 1 0 1 2 7 5 0 0 1 1 1 1 23 51 74 84 85 89 104 107 107 109 110 111 112 109 115 116 117 119 116 122 125 128 127 121 114 120 124 124 117 134 136 134 137 137 138 138 134 134 141 140 143 142 142 142 143 143 137 135 145 144 145 140 146 149 148 149 147 145 138 148 148 144 149 150 150 150 149 150 150 133 138 150 152 153 143 143 142 153 153 147 154 154 153 154 157 155 155 148 158 158 159 158 159 152 160 162 162 162 161 153 163 164 165 165 167 167 167 167 169 167 169 169 170 168 171 171 160 165 170 171 172 173 174 174 169 173 167 175 176 175 176 176 178 177 177 178 177 179 178 178 178 179 179 171 177 181 180 179 180 179 180 180 171 182 166 181 181 182 181 182 182 181 180 181 182 182 182 181 182 183 181 181 182 180 182 181 174 181 181 179 166 178 177 178 176 177 168 174 173 161 112 58 3 1 1 0 0 1 0 0 0 1 0 1 1 2 8 0 0 0 1 0 1 0 2 0 3 3 0 0 0 0 1 2 0 0 0 0 1 1 0 0 1 0 1 0 1 0 1 0 1 0 0 0 0 1 1 0 0 2 0 1 1 0 2 1 0 1 1 1 2 1 0 1 0 1 0 1 1 1 0 0 0 0 0 1 1 0 0 0 0 0 1 1 1 1 6 0 2 0 4 0 0 0 0 0 0 1 1 2 1 3 1 1 0 0 0 1 1 1 0 1 7 1 2 5 2 0 1 0 3 0 0 1 0 3 0 1 0 1 0 0 2 1 2 1 1 0 1 0 0 0 0 1 0 0 1 0 1 0 0 0 0 1 1 0 1 0 0 1 0 0 1 0 0 1 0 1 1 0 1 2 0 0 1 2 0 0 1 0 0 0 0 1 1 1 0 2 2 1 1 1 1 1 0 0 0 1 2 2 1 1 0 0 
0 0 1 0 2 2 0 0 0 2 1 2 1 0 0 2 2 0 0 0 0 0 0 0 0 1 0 1 0 1 0 0 1 0 2 1 1 1 0 1 1 1 0 2 1 0 1 5 1 1 0 1 1 0 0 0 7 0 0 0 0 0 1 0 0 1 1 2 0 0 1 1 1 0 0 2 0 1 4 0 0 1 0 0 1 0 1 0 0 0 1 1 0 3 1 0 1 0 1 0 0 3 0 2 0 0 0 0 1 0 1 0 0 0 0 1 0 0 0 0 0 1 1 0 0 1 1 1 2 0 0 0 3 0 1 1 0 1 0 1 0 0 1 0 0 0 1 0 0 0 0 1 1 0 2 0 0 1 1 0 5 0 1 0 0 1 0 0 2 0 1 0 0 0 0 0 0 1 0 0 0 0 1 7 1 1 0 0 2 0 0 1 1 1 0 0 0 2 1 0 0 1 0 2 0 0 7 2 0 0 0 0 0 1 1 1 0 0 0 0 0 0 0 1 0 0 1 0 6 1 0 0 0 0 1 1 2 20 42 69 80 89 95 100 102 100 106 107 108 110 110 103 114 111 118 119 121 124 125 127 126 128 130 131 131 132 135 135 137 136 138 125 129 139 139 124 140 140 141 143 143 142 143 142 144 144 145 146 147 146 146 146 145 130 146 149 146 147 148 149 149 149 140 138 149 130 150 149 146 151 150 137 152 152 153 153 153 153 155 155 155 145 156 157 154 158 159 158 146 146 149 162 161 162 163 163 163 152 165 164 165 167 167 168 169 168 170 168 164 160 170 157 154 170 172 172 162 173 172 173 175 175 175 174 175 173 159 162 176 177 176 176 177 178 177 178 178 178 178 179 180 179 179 171 179 179 167 168 179 181 182 181 181 173 164 181 181 170 164 162 170 168 180 181 182 171 181 181 181 180 174 180 181 180 181 179 177 154 160 179 177 176 174 172 163 115 27 4 1 0 0 1 0 0 0 0 0 3 4 0 0 2 1 0 0 1 1 1 0 1 1 0 1 1 1 0 1 0 0 1 0 0 7 0 0 3 0 0 1 1 1 2 0 1 0 2 4 2 0 0 0 2 2 0 0 0 0 0 0 0 0 1 0 0 1 2 1 0 11 1 0 0 0 1 4 1 0 0 0 0 0 0 0 0 0 0 0 0 0 0 1 1 2 1 0 1 1 0 0 0 1 0 0 0 1 1 6 0 0 0 0 1 0 0 1 0 0 0 1 1 1 2 2 3 1 0 1 1 0 0 0 1 5 1 0 0 0 3 1 0 0 1 1 0 0 0 0 0 1 4 2 0 0 0 0 2 0 0 1 0 0 1 1 1 0 1 0 1 1 0 0 1 0 0 0 0 1 1 1 0 0 1 0 1 1 0 1 0 0 0 1 1 0 2 1 0 3 0 0 1 0 1 0 0 0 0 0 0 1 0 
2 0 0 0 0 4 1 0 0 1 0 0 2 0 0 1 3 1 0 2 0 1 1 0 0 0 0 0 1 1 2 0 0 0 1 0 0 0 0 0 0 0 0 1 1 1 1 8 1 2 1 0 1 1 1 1 1 1 0 1 1 1 0 2 0 1 9 1 2 1 0 1 0 1 0 1 1 0 1 1 0 0 0 0 0 0 3 0 0 0 0 1 0 2 0 1 0 0 0 0 2 2 4 2 0 0 0 0 1 0 0 1 0 0 1 1 1 0 1 4 0 4 0 0 1 0 0 0 1 3 0 0 4 2 0 0 0 0 1 1 1 0 2 2 0 1 0 0 0 2 3 0 0 1 1 0 0 2 0 9 2 0 0 0 0 2 1 2 0 2 2 1 0 1 1 0 0 0 0 0 0 0 9 0 1 0 1 5 5 1 1 0 0 0 0 0 1 0 1 0 1 0 0 2 0 0 1 8 2 1 1 0 0 0 1 1 1 0 0 0 0 1 1 0 1 1 1 0 0 1 1 0 2 1 1 0 1 2 9 41 64 76 86 91 87 97 99 97 103 95 105 95 110 112 114 115 118 119 122 122 125 127 128 128 130 129 126 133 132 134 134 136 136 137 138 138 140 139 136 131 140 139 138 143 134 143 139 143 144 142 134 146 147 130 146 147 147 147 147 150 148 148 143 149 149 149 150 150 151 150 148 150 151 146 151 153 153 152 152 154 154 154 155 158 157 159 150 158 159 158 160 162 161 162 162 164 150 151 164 164 166 167 166 167 167 168 168 169 169 169 170 169 168 170 164 172 171 173 160 171 173 174 173 174 169 161 175 176 173 158 154 157 163 176 178 175 178 178 178 179 179 179 165 179 168 171 180 180 180 174 181 180 179 180 181 182 179 181 157 179 180 181 181 180 181 181 171 181 181 165 179 180 178 165 178 177 178 159 158 177 176 174 173 164 100 32 2 2 4 5 0 0 0 0 4 1 2 0 0 4 1 1 1 0 0 0 0 1 0 0 0 1 0 2 0 5 0 1 1 3 3 0 0 0 0 2 0 0 0 1 1 0 0 0 0 1 1 11 0 0 2 4 1 0 0 1 1 0 1 2 0 0 0 0 0 2 1 0 0 0 0 1 1 1 1 0 0 1 0 1 0 1 1 0 0 1 0 1 0 0 0 0 1 1 4 1 1 0 0 0 0 0 0 1 0 0 1 1 0 0 2 0 0 1 2 0 0 0 0 0 1 0 0 0 0 1 0 1 0 0 0 1 0 0 0 0 0 0 1 0 0 0 0 0 0 0 0 0 7 1 2 1 1 1 0 0 0 0 0 0 0 2 0 0 2 1 1 0 0 1 0 0 1 0 0 1 0 2 0 1 0 1 0 4 1 0 1 0 0 3 1 3 2 4 1 0 5 0 0 0 0 0 0 0 0 0 1 0 0 0 
0 0 1 0 0 0 0 0 0 1 0 0 1 2 0 0 0 0 0 2 1 0 0 2 0 0 0 1 0 2 0 0 1 0 0 2 0 1 1 5 0 1 0 1 0 1 2 0 5 1 0 0 1 0 3 1 0 1 0 2 2 0 1 0 0 1 6 0 0 0 0 0 0 0 0 0 0 1 1 2 0 1 0 0 0 1 0 0 1 0 0 1 2 1 1 0 0 0 0 0 2 1 5 3 1 0 1 1 1 1 0 0 0 0 1 0 1 2 0 2 1 0 1 0 0 0 0 0 0 1 1 1 1 1 1 2 0 1 2 1 1 1 3 0 2 0 0 0 1 0 1 0 9 1 0 0 0 1 0 0 0 2 0 1 2 0 0 0 0 1 1 0 1 0 0 1 2 1 0 0 1 1 1 4 0 0 0 0 1 0 0 0 2 0 0 0 0 1 0 0 1 1 0 0 1 0 0 1 0 1 1 1 1 1 0 0 3 0 0 0 0 0 0 1 1 1 0 0 1 2 0 0 2 7 0 1 1 0 7 8 35 58 70 77 79 91 94 97 98 92 101 102 104 108 110 111 115 116 117 119 120 122 109 124 127 128 129 122 131 129 133 134 133 134 136 136 137 137 139 140 138 139 131 140 141 127 133 141 143 142 136 145 145 144 138 140 146 140 146 148 141 140 147 149 148 148 149 149 149 150 149 150 152 151 150 152 152 153 138 152 156 151 156 156 154 157 158 158 160 150 160 158 161 161 161 164 162 165 165 165 166 166 165 167 163 167 168 169 169 157 170 171 151 170 158 171 171 161 171 153 172 174 174 173 175 175 174 174 163 158 175 160 176 177 177 173 178 179 178 179 179 178 179 178 169 179 179 180 180 181 181 180 180 181 180 182 181 179 182 181 181 181 180 182 180 168 179 170 169 179 178 180 180 176 160 177 177 177 175 174 174 173 168 130 40 19 2 2 0 1 0 0 1 1 1 0 0 1 1 7 2 1 2 2 1 1 0 0 0 1 0 6 0 0 5 3 1 0 0 0 1 0 0 0 0 1 0 1 1 0 2 0 0 0 2 1 0 1 0 0 0 0 1 1 0 1 0 0 2 0 0 1 1 1 1 0 0 2 1 0 1 1 0 0 0 0 3 1 1 1 0 0 0 0 1 0 0 0 2 1 0 5 1 1 0 0 0 0 0 0 0 0 0 1 0 0 0 0 0 0 0 2 1 0 0 0 0 1 1 1 0 1 1 3 5 1 1 1 0 0 0 0 0 0 0 0 0 1 1 0 0 0 0 1 0 0 0 5 1 2 0 1 1 0 0 3 0 1 1 0 1 0 0 0 1 3 0 0 0 0 1 1 0 0 0 0 0 1 0 2 0 1 1 3 1 1 0 0 1 0 2 1 1 0 0 0 1 0 0 0 2 1 0 0 1 0 2 1 1 2 
0 1 0 0 1 0 1 1 0 0 0 3 1 1 1 0 0 0 0 0 0 1 1 1 0 1 0 1 0 2 0 0 0 0 0 1 0 1 0 0 0 0 0 1 1 0 1 0 2 0 0 3 1 1 0 1 0 0 1 0 1 0 1 1 0 1 0 1 0 1 0 0 1 0 1 0 0 1 0 0 0 0 0 0 0 0 0 0 0 1 0 1 1 1 1 0 1 0 1 1 0 0 1 1 3 5 1 0 0 1 1 1 2 0 0 0 1 1 0 0 1 5 3 2 4 0 0 0 2 0 1 0 0 1 1 7 1 0 0 0 0 1 0 0 0 2 1 1 0 2 0 0 1 1 0 2 2 0 0 0 1 0 0 2 0 0 0 1 0 0 0 1 0 0 1 8 2 1 4 0 0 0 0 0 0 0 0 1 0 0 0 0 0 0 0 0 0 2 0 1 0 0 0 0 0 0 0 0 0 0 0 4 2 2 0 0 0 1 0 3 1 0 0 2 0 0 5 1 1 1 2 1 1 8 1 0 0 1 1 2 7 26 47 63 69 78 85 90 91 94 95 98 99 101 104 108 109 103 108 115 97 117 102 105 124 113 120 125 129 129 130 132 132 132 134 134 136 131 136 136 137 139 139 139 140 140 142 142 143 142 143 142 144 143 144 143 134 146 144 146 146 147 147 147 149 143 148 148 149 148 149 148 149 150 151 151 152 152 151 145 153 154 155 156 146 150 158 154 159 160 146 160 161 161 156 162 162 163 164 163 157 166 166 167 166 152 157 169 168 170 169 169 158 171 171 171 163 173 170 149 172 174 173 174 174 174 167 167 176 176 177 175 175 176 175 177 178 177 177 177 179 178 178 165 178 179 181 180 174 179 180 173 181 180 180 177 181 182 180 180 180 181 180 181 179 170 178 162 179 181 167 178 179 177 176 179 177 176 175 174 171 168 141 75 5 1 0 0 0 0 0 1 1 0 1 4 0 0 0 0 9 5 0 0 0 0 0 0 1 0 2 1 2 1 2 1 1 0 1 0 0 1 1 1 1 0 1 0 0 2 0 0 0 0 1 1 1 0 0 0 0 0 1 1 3 0 0 2 0 1 1 1 0 0 2 0 1 1 0 0 2 0 0 1 2 0 2 0 2 0 0 1 0 0 0 0 1 0 0 0 0 0 1 0 0 0 1 1 0 1 1 2 0 0 0 1 1 1 0 1 0 0 1 0 0 1 0 0 0 1 1 1 0 0 0 1 1 0 0 0 0 0 0 1 0 0 1 0 1 0 0 1 2 1 0 1 0 0 2 1 0 1 1 0 2 0 0 0 0 0 0 1 1 1 1 1 1 0 0 0 1 2 1 0 0 2 0 1 0 4 2 0 2 1 1 0 1 0 1 0 0 0 0 0 1 0 2 1 0 0 0 0 1 1 1 0 7 0 1 0 
1 1 0 1 0 0 1 1 1 0 1 0 0 0 0 0 0 0 0 1 0 0 0 0 0 1 2 0 1 1 0 0 1 0 3 2 0 0 0 0 0 1 0 0 0 4 1 0 0 0 0 0 0 0 0 0 0 0 0 0 1 0 0 1 1 1 0 0 1 0 0 1 1 4 1 0 0 1 7 1 1 0 0 8 1 1 1 0 7 1 0 2 0 1 1 1 0 1 0 0 0 0 0 1 0 1 1 0 0 0 1 0 0 0 0 0 1 0 0 0 0 0 1 0 1 3 0 0 0 1 2 0 0 0 9 2 5 0 0 0 0 0 0 2 1 1 0 6 1 3 1 1 6 2 1 0 0 0 1 1 0 1 1 0 1 0 1 0 1 0 1 1 0 0 0 2 5 1 0 0 0 0 0 0 2 1 1 0 0 0 1 1 0 0 0 2 2 1 0 1 1 0 1 0 0 0 1 1 2 2 5 2 1 0 0 1 3 2 1 0 1 1 0 0 0 1 2 1 0 2 0 0 4 0 3 0 1 1 2 9 12 3 12 37 51 63 69 79 83 88 90 91 92 85 96 100 103 107 103 110 92 113 117 119 109 122 123 125 127 127 128 130 128 130 131 126 132 134 135 134 123 138 138 128 137 139 139 140 134 142 140 141 135 143 142 140 143 145 145 146 145 141 146 145 146 141 148 148 148 149 149 148 149 149 150 150 151 152 145 153 155 154 155 146 156 157 156 159 158 158 150 160 161 162 161 164 162 164 158 164 161 165 165 166 165 165 167 168 156 167 157 169 169 169 163 170 170 159 171 170 162 173 173 174 175 174 173 175 176 165 175 165 175 167 162 176 179 179 171 178 178 162 164 176 179 172 179 180 179 180 168 179 169 179 179 181 180 180 180 181 180 175 180 179 181 180 180 178 178 178 178 178 178 177 163 168 176 173 174 160 168 142 58 33 3 0 0 0 0 1 0 0 1 1 0 0 0 1 0 0 1 0 0 1 0 1 1 2 8 4 0 2 0 0 2 1 1 0 0 0 1 0 0 0 1 0 0 0 0 6 1 0 0 0 1 1 1 0 0 0 0 1 1 1 0 0 1 0 1 2 2 6 0 6 0 0 0 0 1 1 0 0 0 2 1 0 1 0 1 0 1 1 0 0 0 1 1 0 2 1 0 2 1 0 0 0 0 0 2 4 0 0 1 1 2 0 0 0 0 0 0 0 1 1 0 0 0 0 0 1 1 0 0 0 0 1 2 1 0 0 0 0 1 3 0 0 0 2 0 1 0 0 2 0 0 2 0 0 1 0 0 0 0 1 0 0 0 1 1 1 0 2 0 0 0 1 1 0 0 1 4 1 0 0 0 2 0 0 1 1 0 3 1 2 0 0 1 0 0 1 0 1 0 0 1 4 0 0 0 0 0 1 2 5 7 1 0 1 0 0 
0 1 0 2 0 0 0 0 1 1 1 0 0 0 0 0 0 0 0 1 1 0 0 0 0 0 6 0 3 1 0 0 0 0 1 2 1 0 0 0 0 2 0 1 1 0 1 0 0 1 1 1 0 0 2 0 0 0 1 1 3 2 1 1 0 0 0 0 0 0 1 0 1 0 2 1 0 2 0 0 0 0 0 1 1 0 1 1 1 1 1 3 1 1 0 0 0 0 0 0 0 1 2 1 0 1 0 0 1 0 2 1 1 1 1 0 0 0 1 5 0 0 0 0 0 1 1 0 0 0 0 2 0 0 1 1 1 2 0 0 0 1 0 0 1 0 2 8 1 1 1 1 0 1 1 1 0 0 1 1 2 1 0 0 0 0 1 0 0 0 0 0 0 1 1 3 0 1 1 0 0 1 1 1 0 0 0 0 3 0 0 0 1 0 2 0 1 0 1 1 0 0 1 1 0 0 1 1 0 2 3 0 0 0 0 7 7 1 3 0 5 0 0 2 2 1 4 1 1 1 1 0 0 1 1 0 0 0 1 1 1 12 7 5 24 32 53 61 71 78 83 86 87 81 81 93 97 102 104 109 102 111 114 116 118 120 121 123 122 125 125 123 127 129 129 124 131 131 131 134 135 134 129 127 136 137 130 138 139 134 139 140 140 141 142 143 143 143 143 139 144 144 146 144 145 146 145 148 148 147 140 149 148 148 150 152 151 151 152 152 154 154 154 148 155 156 157 158 158 159 159 159 161 161 162 161 162 152 162 162 164 165 164 166 150 150 166 158 167 167 168 148 159 170 170 154 150 154 147 172 172 173 173 173 173 173 175 175 167 174 164 174 159 176 176 160 177 178 179 175 177 178 177 179 179 179 178 169 178 178 178 179 178 179 180 179 180 180 180 179 180 179 180 181 179 178 179 178 179 179 166 177 177 177 175 175 172 171 170 168 145 67 7 2 4 0 0 1 1 1 0 1 0 0 0 1 0 1 3 0 1 1 13 2 0 1 1 6 0 0 0 1 0 2 3 2 1 0 1 0 1 4 0 0 1 1 0 0 0 2 0 0 0 1 1 0 1 0 1 0 0 0 0 1 2 0 0 1 8 1 0 1 1 1 0 0 0 1 1 0 0 1 1 1 1 1 0 0 0 0 0 1 0 0 2 0 1 1 1 0 0 0 0 0 1 0 0 2 0 1 0 0 0 0 1 1 2 0 0 0 0 0 2 1 1 0 0 0 2 2 0 3 3 0 1 1 1 0 1 1 1 1 1 0 0 1 0 8 0 2 1 0 0 0 2 1 0 0 2 0 0 0 0 2 1 0 1 1 2 1 2 1 0 1 0 1 0 0 0 0 0 0 1 0 1 0 1 0 0 1 1 0 3 0 0 1 1 0 2 2 5 0 0 1 0 0 1 1 1 0 0 0 0 0 1 1 0 0 1 0 
0 1 0 0 1 0 0 1 1 2 1 1 0 0 1 0 0 0 0 1 0 0 0 1 0 1 1 0 1 0 1 1 1 0 0 0 1 0 0 3 0 0 0 1 0 2 1 0 0 1 3 0 1 2 1 2 0 0 0 2 1 0 1 1 2 0 0 1 0 1 1 1 1 0 1 1 0 1 0 0 0 0 1 1 0 0 1 2 0 0 2 0 2 1 2 0 1 0 0 2 0 0 2 1 0 0 2 0 1 5 1 4 0 1 11 1 0 1 0 4 0 1 1 0 0 0 1 0 1 1 2 0 0 0 1 0 0 0 0 0 0 0 1 0 2 0 1 0 0 0 0 1 0 1 0 1 0 0 0 1 1 0 0 0 0 1 4 2 0 1 1 0 2 1 0 0 1 0 0 0 0 1 1 1 0 0 0 3 1 1 0 2 1 0 1 0 0 0 2 0 0 0 0 3 0 0 0 0 0 0 6 1 1 0 0 1 4 5 0 1 0 1 0 0 2 1 0 0 1 1 0 2 0 0 1 1 1 0 1 1 1 2 1 0 1 10 30 45 52 63 69 78 80 82 83 87 91 93 98 102 105 108 110 112 114 115 117 112 119 122 124 125 126 127 111 126 127 128 129 130 131 133 121 134 136 137 135 122 137 131 140 137 141 135 141 140 141 143 143 141 144 142 144 145 144 144 145 146 147 146 148 146 135 147 145 149 148 151 153 152 153 154 153 156 155 144 156 156 159 158 158 148 160 162 161 152 163 163 164 163 165 163 165 166 164 157 167 168 167 155 168 156 157 168 167 169 169 170 158 170 172 172 173 172 174 175 175 174 174 175 176 176 165 175 175 165 177 176 177 177 178 169 178 178 177 168 178 178 160 169 178 162 167 179 166 162 180 179 179 180 179 179 178 179 177 177 169 177 169 178 178 176 176 175 162 175 171 171 151 147 71 8 1 0 0 0 0 0 0 0 3 1 0 1 0 6 1 0 1 1 0 0 1 1 0 1 1 0 0 2 1 2 1 1 4 1 1 0 0 0 0 2 0 4 1 6 0 0 0 0 0 2 1 0 2 0 1 0 1 2 1 0 1 0 0 0 1 6 1 0 1 0 4 1 1 0 0 1 2 0 0 0 0 0 0 0 0 0 0 1 0 0 1 2 0 2 1 0 0 0 0 0 0 2 0 1 0 0 0 0 0 1 0 5 1 0 1 0 0 2 0 0 0 1 0 0 0 1 1 0 0 0 0 1 1 0 1 0 0 6 1 1 0 1 1 0 2 0 1 5 1 1 0 0 1 0 2 1 0 1 1 1 0 0 0 0 0 0 0 1 1 0 0 3 1 2 1 2 0 0 1 0 1 0 0 0 0 0 0 0 0 1 3 2 1 0 0 0 1 1 2 0 0 0 2 0 0 0 0 0 0 0 1 0 0 0 0 0 0 3 
0 1 1 0 3 1 1 0 1 0 0 0 0 1 0 0 0 0 0 0 0 0 0 1 0 1 1 1 0 0 1 0 0 0 1 0 0 0 2 1 0 0 0 1 0 1 0 0 0 1 0 1 0 0 0 0 0 0 1 1 6 0 1 1 1 0 0 0 0 0 1 1 0 0 0 0 0 0 0 2 0 1 1 1 0 0 1 0 0 1 0 0 1 0 1 1 0 1 0 1 0 1 0 2 0 1 0 0 0 4 2 2 0 1 1 1 1 1 1 1 0 6 0 1 3 1 0 1 0 1 1 4 1 0 0 0 0 0 1 0 2 2 1 0 1 1 2 2 0 0 1 0 0 0 0 0 1 0 0 0 1 1 1 0 1 0 0 0 0 5 1 0 0 0 0 1 0 1 0 0 0 0 0 1 0 1 0 0 0 0 0 5 0 0 0 0 2 0 1 0 1 0 0 1 2 0 6 0 0 1 2 1 1 2 0 1 0 0 1 2 0 3 2 1 1 1 0 1 0 1 1 2 2 0 8 2 0 1 1 0 0 1 0 0 0 0 4 17 31 45 55 63 63 76 72 78 82 86 90 93 100 104 99 108 110 111 110 114 116 119 119 122 125 116 124 126 125 126 128 122 129 131 131 132 133 135 136 135 138 136 138 138 137 138 138 139 140 140 141 141 142 143 142 143 144 143 141 144 146 146 147 146 148 148 148 149 135 148 151 153 154 154 156 155 154 140 156 158 157 157 148 158 159 156 160 161 161 162 163 164 164 165 167 164 153 166 168 153 167 168 168 167 168 169 170 169 169 165 172 173 157 165 173 173 172 174 175 175 174 174 174 175 171 175 161 167 177 177 175 177 171 177 163 177 167 177 179 173 177 178 169 177 177 178 177 179 178 160 166 178 165 161 170 178 178 178 178 177 176 177 176 176 166 173 173 171 156 165 149 77 8 0 1 1 1 0 1 0 1 0 0 2 0 0 0 1 0 0 0 0 0 1 0 0 1 1 0 0 0 1 7 1 0 1 0 1 0 0 0 1 0 4 1 0 1 0 2 0 1 0 0 0 1 1 7 6 2 0 1 0 3 3 0 0 0 0 0 1 2 0 0 0 0 5 1 0 0 1 0 0 1 1 0 1 0 2 0 0 0 0 0 0 0 1 0 0 1 0 0 0 0 0 2 0 2 0 0 1 0 1 2 4 1 0 0 0 2 1 0 1 2 2 1 2 1 0 0 1 0 0 0 0 1 1 2 0 0 2 0 8 0 0 0 0 2 0 4 0 0 1 0 1 2 2 1 1 0 1 0 1 1 0 1 0 0 0 1 0 0 2 2 8 1 1 1 0 1 1 0 0 0 0 2 0 1 0 0 0 2 0 0 0 2 2 0 0 1 3 0 0 0 0 0 0 0 0 0 0 0 0 1 1 1 0 1 0 0 0 0 0 
0 1 0 0 1 0 0 0 0 7 1 1 1 1 0 0 1 1 2 0 0 0 1 1 0 0 2 0 1 1 0 1 0 0 1 0 0 0 0 0 1 0 0 0 0 0 0 0 1 0 0 0 0 0 0 1 0 1 0 1 4 1 1 3 1 1 1 1 1 1 1 1 0 1 0 0 1 1 0 1 1 0 0 1 1 1 0 0 2 0 2 0 0 0 1 2 2 0 2 1 0 2 1 3 1 1 3 0 0 1 1 0 0 1 1 1 0 0 0 1 2 0 0 0 0 0 0 5 2 0 1 0 7 1 2 0 1 0 0 0 0 0 1 0 1 9 2 0 2 1 1 4 1 1 2 0 2 1 0 0 0 0 2 0 1 0 1 1 2 3 4 0 0 2 1 0 0 0 0 2 2 1 0 1 0 1 1 2 0 0 0 0 0 2 1 2 0 0 0 0 0 0 1 2 1 0 1 1 1 2 0 1 0 1 4 2 0 0 0 4 0 0 1 1 1 1 5 3 0 1 0 2 2 1 0 2 1 1 0 0 0 0 0 0 1 0 0 1 12 24 34 45 54 63 69 72 71 79 82 85 92 97 99 103 105 106 108 110 114 114 117 117 118 120 122 124 123 123 126 127 125 129 129 130 131 133 133 132 134 135 135 137 137 127 138 138 139 138 139 138 141 141 141 141 142 142 128 132 144 145 146 147 148 147 147 149 149 151 151 147 152 154 155 153 155 155 155 157 156 159 146 158 159 161 161 163 163 163 162 164 163 163 165 163 164 166 164 151 166 167 168 167 169 169 170 169 169 169 166 171 165 170 172 172 172 172 174 173 175 174 174 175 174 175 175 176 175 177 177 178 176 177 176 178 176 171 178 179 177 163 165 167 179 178 179 179 176 162 177 177 178 178 177 178 165 177 177 177 164 175 175 174 173 172 171 168 163 143 79 9 1 1 1 1 0 0 4 0 0 0 0 0 4 1 0 0 2 1 1 1 0 0 1 0 0 4 0 0 1 1 1 0 0 0 0 0 1 0 0 1 1 2 0 1 1 1 1 1 0 0 1 0 2 1 1 0 0 0 0 0 1 2 0 2 0 0 0 0 0 1 0 1 1 0 0 1 0 5 0 1 0 0 0 0 1 1 0 1 1 0 1 1 1 1 0 1 2 0 0 0 1 0 1 0 0 0 1 1 1 0 4 1 0 0 0 1 1 0 1 0 1 0 0 0 0 0 1 0 0 1 1 0 0 0 1 0 1 0 0 2 0 0 0 0 0 0 4 1 1 2 0 0 0 0 0 1 0 0 1 0 0 0 0 0 0 1 0 0 0 1 0 1 1 0 1 0 0 0 0 0 5 0 2 0 1 0 1 0 1 1 1 0 3 0 0 0 0 2 1 0 1 0 0 0 0 1 0 0 1 0 0 2 1 6 0 2 0 1 0 0 
0 1 0 0 0 0 0 1 1 1 0 1 3 0 0 0 1 1 0 0 0 2 1 0 0 0 0 0 0 0 0 0 3 0 1 1 0 0 0 2 1 0 0 0 0 1 0 2 0 0 3 0 0 1 0 0 1 0 0 0 0 1 0 6 1 1 1 1 1 1 2 0 0 1 0 1 1 0 0 1 0 1 0 0 0 0 1 1 0 0 0 1 0 1 1 0 1 3 0 0 0 4 2 0 0 0 0 0 1 1 0 5 11 1 1 5 6 2 0 1 0 0 0 0 0 0 1 0 2 2 5 2 1 5 0 0 0 0 0 3 3 1 0 0 1 1 3 1 0 0 0 0 1 4 0 0 1 0 0 2 0 1 1 1 1 0 0 2 1 5 0 1 0 1 1 0 1 8 2 0 0 0 1 2 0 0 0 2 1 1 0 1 0 0 1 8 1 0 0 0 2 0 0 0 0 0 0 0 0 0 1 1 1 0 2 0 1 0 0 2 3 0 0 0 1 1 0 0 0 0 0 1 2 3 2 1 2 0 1 0 1 0 1 0 2 0 0 1 1 3 9 24 34 46 56 62 67 69 70 77 82 88 90 96 99 103 106 107 108 110 112 112 113 116 108 120 120 122 123 124 125 126 127 127 128 131 129 132 134 133 133 133 135 134 125 136 138 138 138 139 139 137 139 141 140 128 123 141 132 142 142 145 145 145 144 149 150 150 151 151 152 154 153 154 152 154 156 157 152 148 158 160 159 151 160 163 162 158 162 163 163 163 164 165 155 159 166 166 167 167 168 168 169 169 169 169 158 170 172 169 172 157 157 164 173 167 173 170 174 175 161 166 174 175 174 176 175 174 176 176 177 177 176 177 177 178 177 175 175 171 175 177 176 179 180 177 161 177 167 176 162 176 178 176 176 174 176 177 174 175 161 174 172 170 167 158 105 61 7 1 4 0 0 1 4 5 2 0 2 1 1 0 0 1 1 10 1 1 0 1 0 1 2 1 1 1 1 0 1 1 0 0 0 0 0 1 7 1 0 1 2 1 1 0 0 0 0 0 1 1 5 1 0 0 0 0 0 1 0 1 0 0 0 2 10 1 0 0 4 5 0 1 0 0 0 0 0 1 0 0 1 2 0 0 0 3 0 0 2 1 1 0 0 0 7 0 0 0 0 0 0 0 1 0 1 0 6 0 0 1 0 1 0 1 0 0 0 0 0 1 2 3 0 0 0 0 0 1 0 0 0 0 0 0 7 0 0 0 0 0 1 1 0 2 1 1 2 1 0 1 1 0 0 2 0 1 0 1 2 1 3 6 0 0 0 1 1 0 1 0 0 0 0 0 0 0 0 0 1 0 1 1 2 1 0 1 0 0 0 0 2 0 0 1 0 0 1 4 0 1 0 5 1 1 0 0 0 4 0 0 2 0 0 0 0 1 0 1 1 0 
1 2 0 0 1 1 0 1 0 1 1 0 4 1 3 0 1 1 0 0 0 0 0 0 0 0 3 0 1 1 0 1 0 0 0 1 1 0 0 1 0 0 0 0 0 0 0 0 1 3 4 1 0 0 0 1 0 0 0 0 3 2 9 0 1 0 3 2 5 0 1 4 0 0 0 0 1 0 0 1 1 0 0 0 0 0 2 0 0 0 0 0 0 0 1 0 1 1 0 4 0 0 1 0 1 0 1 1 1 1 5 3 0 0 0 0 6 2 2 0 0 0 3 1 0 0 0 1 0 2 0 0 1 9 7 0 0 0 1 0 1 4 0 1 0 0 0 1 1 0 0 1 1 1 5 1 1 2 0 0 0 1 2 4 0 5 1 0 0 0 0 1 3 1 1 0 0 2 3 0 3 0 0 0 0 0 0 0 0 0 0 0 2 0 0 5 0 1 0 1 0 4 1 1 0 0 0 0 0 1 2 1 0 0 0 4 2 0 0 0 0 0 0 0 0 0 0 1 0 0 0 0 2 1 0 1 1 0 1 1 0 1 0 1 0 2 0 0 1 0 1 2 11 26 42 46 47 60 63 65 72 78 84 88 91 96 98 103 104 106 107 108 110 113 113 117 117 118 111 123 119 123 124 116 126 127 129 128 130 130 130 123 132 124 133 135 137 137 138 137 136 120 138 136 139 140 141 141 139 144 144 146 145 138 148 148 139 149 150 148 153 153 153 147 154 144 148 155 159 158 157 157 151 159 160 160 160 160 162 163 163 164 163 164 163 164 165 165 168 167 169 167 163 168 158 160 170 171 165 171 173 172 171 172 168 173 174 174 174 173 173 174 174 174 175 175 162 165 175 165 177 176 177 177 177 169 177 165 178 178 177 178 178 177 177 174 177 176 175 149 150 175 177 170 175 169 176 174 175 174 173 162 169 166 155 113 39 27 2 0 0 0 0 1 9 0 0 1 1 0 0 6 1 1 0 0 0 0 1 0 0 0 0 0 2 1 0 2 1 2 0 1 0 0 1 2 12 9 6 1 2 0 1 0 0 2 1 0 0 1 0 0 0 1 1 0 1 2 0 1 0 0 2 5 1 2 0 1 1 1 0 0 0 0 0 4 0 0 1 0 1 1 1 1 1 1 1 0 0 0 1 2 1 0 8 0 0 2 0 3 1 1 2 1 1 0 1 0 0 2 2 1 1 1 1 0 2 1 0 0 2 0 0 0 1 1 1 0 0 1 1 0 0 2 1 1 1 1 0 0 0 0 2 0 1 0 1 0 0 0 0 0 1 0 0 1 1 0 1 0 0 2 1 1 0 0 1 2 1 0 2 0 1 1 1 0 0 1 1 0 1 0 1 1 0 1 0 0 0 0 1 0 0 0 0 0 2 1 0 0 1 1 1 7 0 1 5 1 1 2 4 0 2 0 1 0 1 0 2 0 
0 0 0 0 1 0 1 2 1 9 3 0 2 0 0 0 1 0 1 1 0 1 1 0 1 0 0 1 0 0 0 0 0 1 0 3 0 0 1 0 1 0 0 0 0 0 1 1 1 2 1 0 0 1 1 0 0 0 1 0 0 0 1 0 0 0 0 1 0 1 0 0 3 0 0 1 0 1 0 0 0 1 0 1 2 0 1 1 0 0 0 0 1 0 0 1 5 1 0 1 0 0 0 0 1 0 0 0 0 0 1 2 1 0 0 0 1 2 1 1 0 1 0 0 1 1 1 0 1 3 1 0 1 0 1 0 2 0 0 0 2 1 0 0 0 0 1 0 0 0 0 0 0 0 1 1 0 11 1 0 2 0 0 2 2 0 1 1 2 0 1 0 1 0 0 0 0 1 0 0 0 0 0 1 0 1 0 1 1 0 0 0 0 0 1 0 0 1 1 0 0 2 1 1 0 1 2 0 2 0 0 1 1 0 0 0 2 7 1 0 1 3 1 0 0 0 4 0 1 1 1 0 0 0 1 1 1 2 1 5 13 1 0 0 0 0 0 1 7 1 0 1 1 20 13 21 34 47 53 59 61 68 71 77 81 90 91 95 98 100 103 104 100 108 110 110 104 101 101 119 120 120 121 112 123 115 125 127 124 129 129 123 130 130 131 127 133 134 134 134 127 124 137 138 139 138 140 141 142 142 141 141 145 145 147 146 148 149 150 150 150 151 153 154 152 154 142 149 156 158 157 158 147 160 160 160 161 162 162 163 163 163 163 165 160 164 167 167 166 167 167 166 151 167 168 168 169 168 171 169 170 173 172 172 171 162 172 172 174 166 173 173 165 174 175 176 175 175 175 175 176 176 176 173 175 176 176 177 176 177 167 175 178 176 177 176 177 176 166 162 175 164 174 165 174 174 174 174 173 171 162 168 163 146 91 22 2 2 1 1 2 0 1 1 0 2 1 0 0 0 1 1 1 1 0 0 0 3 0 1 0 1 0 2 2 0 1 0 0 0 0 1 1 1 1 0 0 0 0 1 0 0 0 0 0 5 0 1 2 1 1 1 0 0 1 1 0 0 1 0 0 0 2 0 0 4 0 1 3 1 0 0 1 1 0 0 0 1 1 2 0 1 0 1 0 0 0 6 1 0 1 1 0 0 2 2 2 1 0 1 7 2 1 0 0 0 0 0 1 0 1 1 2 1 2 6 0 2 0 0 2 0 0 1 1 1 1 0 1 1 0 0 1 0 0 0 0 0 0 0 0 1 2 2 0 2 0 0 0 1 0 0 5 1 0 1 0 1 0 0 1 1 1 3 1 1 5 1 1 0 4 1 0 3 0 0 5 0 0 0 0 0 0 0 0 0 1 0 1 0 1 2 0 1 0 0 0 0 0 1 2 1 0 2 0 0 2 1 2 1 4 2 0 0 0 2 1 1 2 0 
1 0 0 0 0 1 2 2 0 1 1 1 0 0 1 0 1 1 1 1 1 1 0 1 1 0 0 0 1 1 1 1 1 0 0 0 0 0 0 0 0 1 1 1 1 1 0 3 0 2 0 1 0 0 0 0 0 0 2 0 1 0 0 0 1 1 0 0 0 1 1 1 0 0 0 0 0 0 1 0 0 1 2 1 2 5 0 0 0 0 0 0 1 1 0 0 0 0 0 1 1 0 0 0 0 1 1 1 0 0 0 0 0 0 1 0 1 0 1 1 0 0 0 0 0 0 0 0 2 1 0 0 0 1 1 1 2 1 0 0 1 0 2 0 0 0 1 1 0 3 0 0 1 0 0 0 1 2 0 0 1 1 0 0 0 0 0 0 0 1 0 0 1 0 0 2 0 1 3 2 1 1 0 0 1 0 1 0 0 2 1 0 0 0 1 0 0 1 0 0 0 1 0 2 0 0 2 4 2 1 1 0 1 0 1 0 2 1 0 3 0 0 4 0 0 0 2 0 0 1 0 2 0 1 0 0 1 0 1 3 10 1 2 0 0 0 0 1 0 0 2 0 1 4 7 5 18 26 37 44 50 56 59 65 70 77 82 86 89 83 97 99 100 104 100 108 109 112 113 114 116 118 108 119 121 122 124 119 126 117 126 116 128 124 122 130 132 130 134 134 136 120 137 136 138 139 140 140 140 142 143 143 145 145 142 147 148 148 150 151 151 144 146 152 153 155 154 154 157 157 158 159 159 158 159 155 160 161 155 161 147 154 162 164 166 164 165 158 166 167 166 166 151 149 168 161 168 168 169 170 170 170 170 162 171 170 160 164 172 164 174 166 173 164 160 175 163 176 176 175 167 176 176 175 165 175 176 176 170 175 177 176 176 176 176 160 175 177 175 175 174 174 174 173 174 173 172 172 171 170 166 159 135 66 40 2 1 0 1 2 0 0 1 1 0 2 6 0 2 0 0 0 0 2 1 0 1 1 0 0 0 0 0 1 2 1 1 0 0 1 1 0 0 0 1 0 1 0 1 0 1 0 0 1 1 1 0 1 0 1 0 1 0 0 0 0 0 1 1 0 1 0 0 0 0 1 3 4 6 0 0 0 0 0 1 1 0 0 0 0 0 0 0 1 5 5 0 0 1 0 1 1 4 1 0 0 0 0 6 6 0 0 0 0 0 0 0 0 0 0 0 0 1 0 3 1 0 1 1 0 1 3 1 2 1 1 1 4 0 1 2 2 1 0 0 4 0 0 0 0 0 1 0 1 0 0 0 0 1 5 0 0 0 0 0 0 0 1 1 1 2 0 1 0 0 1 1 0 0 0 0 0 1 4 1 0 1 0 0 0 1 0 0 0 0 0 0 0 0 1 1 0 1 1 0 0 0 0 1 0 0 0 0 0 1 0 0 1 0 0 0 0 2 4 2 2 0 1 0 0 
1 0 0 1 0 0 1 1 0 1 0 0 0 0 0 0 0 1 0 1 1 0 0 0 0 0 0 1 0 0 0 0 0 0 1 0 2 0 0 0 2 2 0 1 0 0 0 1 1 1 1 2 1 0 2 2 1 0 1 1 1 1 1 0 2 1 3 1 1 0 0 5 0 0 0 0 0 0 0 0 0 1 0 1 4 0 3 0 1 0 0 0 1 1 0 0 0 0 0 1 0 1 0 1 0 1 0 0 0 0 0 0 0 1 0 0 0 1 1 0 0 0 0 1 0 0 1 0 1 0 1 0 0 0 1 1 0 0 1 0 1 1 2 0 1 0 0 0 1 2 1 1 0 0 0 0 2 2 3 0 0 0 1 0 0 0 0 0 0 1 0 2 0 0 1 1 0 0 0 0 0 1 1 1 0 0 1 0 0 0 0 0 0 0 0 0 1 0 0 1 0 0 0 1 1 0 1 1 1 4 1 1 1 0 0 0 0 1 0 3 1 3 0 3 1 0 2 0 1 2 1 0 0 1 1 1 2 3 2 3 0 0 2 1 0 5 0 0 0 1 0 0 4 0 0 1 3 9 15 28 34 40 47 48 55 62 69 75 67 84 89 93 96 98 101 103 104 103 101 110 112 114 114 116 119 121 121 114 122 125 125 112 126 127 128 127 130 129 130 129 132 123 134 137 137 137 139 138 133 142 142 143 143 147 147 146 147 139 148 150 150 150 152 153 154 139 154 144 147 155 157 158 153 158 161 159 160 161 161 161 149 161 156 162 164 154 164 152 163 166 166 168 167 152 167 167 168 169 169 170 165 170 162 170 159 170 172 173 173 172 172 173 174 174 173 173 174 175 174 176 175 174 176 172 175 175 166 174 176 174 176 177 176 176 164 174 175 175 171 174 175 173 174 173 169 172 173 171 168 164 126 112 41 25 3 2 0 1 0 1 1 2 1 0 1 4 0 1 1 0 0 1 0 1 0 6 0 2 0 0 0 0 1 1 0 1 1 0 0 8 4 2 0 3 0 0 1 1 0 0 0 1 0 1 0 2 0 0 3 0 1 0 0 1 0 0 0 0 2 6 0 1 1 1 1 1 2 2 1 1 0 1 1 1 1 0 0 0 0 2 0 1 1 1 1 1 0 1 0 1 0 1 2 1 0 0 0 0 0 0 1 0 2 3 0 1 0 0 0 0 0 0 0 0 1 1 0 0 0 0 0 1 1 1 1 0 0 0 1 1 0 7 6 1 0 0 7 0 0 0 0 0 0 1 6 1 0 0 0 4 7 0 1 1 1 1 0 1 4 0 0 0 0 2 0 0 1 0 0 0 1 0 0 0 0 0 0 0 0 2 2 3 0 1 0 0 0 0 0 1 0 0 0 0 0 1 0 1 0 2 0 1 1 1 0 1 0 0 1 1 0 0 1 0 0 3 1 1 2 2 
1 1 0 0 0 1 1 0 1 0 1 0 1 0 1 0 0 0 0 2 0 0 0 0 1 0 0 0 0 1 1 0 0 2 1 2 0 1 0 0 0 0 0 0 0 0 4 0 0 0 0 0 0 4 0 0 0 0 0 0 0 1 5 1 1 0 0 1 1 1 0 2 0 1 0 1 4 0 0 1 0 0 0 1 4 0 0 1 0 1 1 0 0 2 0 1 3 1 0 0 1 0 0 3 2 0 0 0 1 1 1 1 1 1 0 0 1 2 0 5 0 0 0 4 1 0 0 0 0 0 0 1 1 0 1 0 1 9 1 4 1 0 2 1 1 2 1 1 1 0 0 2 2 0 1 0 0 0 5 0 1 2 0 2 1 1 1 1 1 0 0 2 0 1 1 0 0 0 0 4 1 2 5 0 0 0 0 1 1 0 1 0 0 0 2 1 0 0 1 0 0 0 1 1 0 0 0 0 0 1 0 0 1 0 0 2 1 0 0 0 1 2 0 0 0 5 0 5 0 0 0 0 0 0 1 1 8 1 1 1 0 0 4 0 0 1 0 2 0 0 2 1 2 1 0 1 0 1 2 5 11 20 26 33 42 46 54 62 65 75 78 84 87 92 95 99 101 102 103 102 105 109 111 113 115 115 112 105 118 121 122 123 124 125 115 126 117 124 130 131 115 119 133 135 136 137 138 133 140 141 142 131 138 144 146 147 147 143 149 149 149 149 152 152 153 151 136 152 155 155 156 153 158 159 159 159 160 161 161 160 162 162 163 163 156 163 163 164 155 166 166 166 168 166 167 158 167 168 170 170 170 163 168 155 169 171 171 172 171 173 173 173 174 173 173 174 172 167 159 166 174 174 175 174 176 174 174 174 175 168 175 172 176 175 176 175 173 174 173 173 174 173 165 172 172 170 169 167 163 147 92 22 3 1 0 2 0 0 1 9 1 1 1 0 1 0 1 0 0 2 1 8 0 1 0 0 1 1 6 0 0 1 0 0 0 0 0 1 0 1 0 0 0 0 2 0 0 0 0 0 1 0 0 1 0 1 1 1 0 0 0 1 1 2 0 0 0 0 1 2 0 1 0 1 0 2 2 8 2 0 0 2 1 0 0 0 1 0 0 1 0 0 0 0 2 0 0 1 1 0 0 0 0 0 0 1 1 0 2 0 0 2 4 0 6 3 1 0 0 0 0 1 0 1 0 0 0 0 0 4 0 1 3 1 0 0 0 1 0 1 0 1 1 1 1 2 0 0 0 0 2 1 3 1 1 0 1 5 1 0 0 0 0 3 0 4 0 1 1 0 1 7 1 5 0 1 0 0 0 0 1 4 2 0 0 0 1 0 2 2 1 1 0 1 0 0 0 1 0 0 0 0 1 0 4 2 0 1 0 2 0 2 0 0 1 0 1 0 0 1 0 1 0 0 0 1 0 0 0 0 
0 1 2 0 0 2 0 0 1 0 0 1 1 1 0 1 1 1 1 0 0 0 0 0 1 0 0 1 1 1 3 0 0 1 1 2 2 0 0 2 3 1 1 2 0 0 0 1 5 1 0 0 0 0 0 1 0 0 1 0 1 1 1 0 1 0 1 1 0 2 1 1 0 0 0 7 1 0 1 0 1 0 0 0 1 1 0 0 1 0 1 0 0 0 0 0 4 0 1 0 2 1 0 4 8 3 2 2 1 1 1 0 0 2 0 1 1 0 0 2 1 0 0 2 2 1 1 1 1 2 0 0 0 0 1 1 4 2 0 0 0 0 2 1 0 1 1 1 0 0 0 0 0 1 0 1 5 0 1 0 1 0 0 0 2 0 1 1 0 1 0 0 0 0 1 1 0 0 1 0 1 0 1 0 0 1 0 0 0 1 2 1 1 0 0 1 0 1 1 0 3 3 1 0 0 0 1 0 0 1 0 0 1 0 1 1 5 0 0 0 0 0 0 0 1 4 2 1 0 0 1 4 0 1 0 0 0 1 0 0 1 0 5 1 1 2 0 0 0 0 1 0 1 0 7 1 0 1 2 8 1 1 4 12 20 30 38 40 42 61 67 70 77 83 88 91 95 96 94 101 104 93 105 109 112 112 114 112 117 118 119 121 122 123 124 126 124 126 123 128 130 125 133 134 135 135 138 137 138 140 142 133 137 144 145 146 147 147 149 148 149 150 150 151 143 145 153 154 155 156 155 156 157 158 158 158 160 160 160 161 161 163 162 164 163 163 155 163 160 165 166 166 168 167 168 167 166 163 167 169 169 170 170 151 150 168 170 172 171 172 171 173 172 162 172 174 174 174 173 173 161 155 173 175 174 174 174 175 174 175 174 174 164 174 169 174 155 156 173 168 172 171 171 170 168 169 166 143 134 66 9 2 10 0 2 0 0 0 0 0 0 1 1 2 1 0 0 0 1 1 5 2 1 1 2 1 2 0 1 0 1 0 1 0 0 3 1 0 0 0 0 1 1 0 0 0 0 0 2 0 0 1 2 1 1 1 0 0 1 0 2 1 1 0 0 0 0 1 2 1 0 1 1 3 0 2 5 2 0 0 2 5 1 5 0 0 0 0 0 1 1 1 1 0 3 1 0 0 0 0 0 1 2 0 0 1 0 0 1 0 0 9 1 1 1 1 0 0 1 1 1 0 1 1 0 0 1 2 0 1 0 1 0 1 0 0 0 0 1 0 2 1 0 0 1 0 0 0 2 0 0 0 0 8 2 2 1 7 2 1 0 0 1 1 0 0 0 2 1 0 1 0 0 2 1 0 2 0 0 1 0 0 1 0 0 0 1 0 0 0 0 4 0 0 0 0 1 0 1 0 0 6 1 2 0 0 0 1 0 8 1 0 0 0 0 0 0 0 2 1 1 3 0 1 2 2 1 0 0 0 
0 0 1 0 1 1 0 0 0 0 0 0 0 0 0 0 1 0 0 1 0 0 1 1 3 0 2 0 0 2 2 2 0 0 0 0 0 0 1 0 0 0 1 2 1 0 1 0 0 5 0 1 0 0 1 2 0 0 0 0 0 0 1 0 4 0 1 0 0 0 0 0 0 4 0 1 0 1 0 0 0 1 0 0 0 0 0 0 0 0 1 2 0 0 3 1 2 5 2 0 0 1 1 1 1 1 0 1 0 0 3 0 0 0 0 2 1 1 1 0 7 1 1 0 5 1 2 1 0 1 0 1 3 1 1 0 1 1 1 0 0 0 2 1 1 0 6 0 1 1 0 0 0 1 1 0 1 1 0 1 0 0 0 0 0 0 2 1 0 0 0 1 0 0 0 1 1 0 0 1 0 0 1 0 0 0 0 0 0 0 1 1 1 2 0 0 2 1 1 1 0 1 2 2 0 0 2 0 2 1 0 0 1 0 2 2 7 0 0 0 0 0 0 1 0 0 3 1 1 0 1 1 0 1 1 0 0 2 0 1 4 0 0 0 2 0 0 0 0 1 0 0 0 2 1 2 0 2 0 0 0 1 5 10 3 5 17 28 37 45 53 60 67 72 77 83 87 82 93 96 90 89 103 104 107 102 109 111 112 110 115 119 120 121 122 123 124 125 120 128 129 130 132 133 134 126 136 138 137 140 141 141 142 143 144 144 145 147 146 149 148 149 150 150 151 151 153 153 154 156 155 150 156 157 158 159 158 158 158 144 160 163 161 163 163 163 163 164 164 164 166 161 166 166 165 168 168 168 169 168 168 170 168 150 146 147 152 169 170 171 172 175 172 171 173 173 173 172 174 174 166 173 172 174 175 173 174 173 174 173 163 174 174 174 172 172 162 171 172 171 171 169 169 159 151 165 156 119 42 6 2 0 8 0 0 0 1 0 1 1 0 0 2 0 1 0 0 0 0 1 0 0 2 1 1 1 8 1 1 0 0 1 2 0 1 0 1 1 0 1 4 0 0 0 0 0 0 0 0 0 0 0 0 1 5 0 0 1 0 1 0 0 1 1 0 0 1 0 1 0 0 0 1 1 0 0 1 0 0 1 1 1 1 0 0 1 1 0 0 0 0 1 1 2 8 0 1 0 0 0 0 4 8 1 0 0 1 1 6 0 1 2 0 0 0 2 2 0 0 0 0 0 2 0 0 0 0 1 2 0 1 0 4 0 0 0 0 0 0 0 1 1 0 1 1 3 1 2 0 1 1 1 2 1 0 0 0 0 0 0 0 2 0 0 0 0 0 0 0 1 1 0 4 1 0 1 0 0 1 1 2 0 2 2 0 2 0 1 0 0 0 1 0 0 0 0 0 0 0 1 0 0 1 0 0 1 1 3 0 1 1 1 3 1 1 0 0 0 0 0 0 2 1 0 1 0 0 0 0 0 
0 0 1 1 1 0 1 0 1 0 2 0 0 0 0 0 0 0 1 0 5 2 1 6 1 0 1 0 0 1 0 1 0 2 0 0 0 1 0 0 2 4 1 0 1 0 0 0 0 0 0 0 0 0 1 1 0 0 1 0 1 1 1 0 1 0 1 0 1 0 0 0 0 2 0 0 0 1 0 0 0 0 2 0 0 0 0 0 0 1 0 0 0 0 0 1 0 0 0 0 1 1 0 0 0 1 1 1 1 3 0 0 0 2 0 0 0 0 1 2 0 3 5 10 1 1 2 0 0 0 0 1 0 0 2 6 1 2 9 0 0 1 1 1 3 0 0 1 2 0 0 1 0 1 2 0 1 3 1 0 1 0 0 0 0 0 0 0 0 0 0 0 1 1 0 0 0 0 2 1 2 0 1 1 0 0 1 0 0 0 0 0 0 0 1 0 0 0 0 0 0 1 8 0 0 2 0 1 1 1 0 1 0 0 2 1 2 0 0 0 0 0 0 0 1 0 6 0 0 4 1 0 0 3 0 0 0 1 2 0 1 2 1 1 1 1 0 1 1 0 0 1 0 0 0 0 0 1 1 0 1 0 0 0 1 0 4 5 17 29 40 48 56 61 68 74 77 83 83 91 94 97 96 101 104 104 106 108 110 112 114 114 117 119 120 121 123 123 124 126 129 129 131 131 129 135 135 136 125 140 139 141 133 142 143 138 144 147 147 147 150 149 149 142 151 152 154 153 144 153 156 155 156 144 158 153 158 151 139 136 159 161 160 162 162 162 163 164 164 163 163 164 165 166 165 166 165 169 168 166 166 170 169 170 167 169 153 169 171 171 170 164 172 172 170 172 172 174 171 172 174 171 173 173 173 172 173 173 172 173 156 171 174 162 173 172 172 170 162 169 168 154 165 165 160 147 94 26 4 0 1 0 1 0 0 2 1 0 0 0 1 0 0 3 0 0 1 1 0 3 1 0 0 1 2 0 1 2 0 1 1 2 0 1 0 0 0 1 0 1 1 0 0 1 1 0 1 1 0 2 0 0 0 0 1 1 0 1 0 0 1 0 1 1 0 1 0 0 0 0 0 2 0 1 1 0 0 0 0 0 0 2 0 1 1 0 1 1 0 0 3 2 0 1 0 0 0 0 1 1 0 1 1 0 0 0 1 2 1 1 0 1 0 1 1 0 1 0 1 1 0 0 0 0 0 0 0 5 0 1 0 1 0 1 0 0 0 1 0 0 1 0 1 0 0 0 0 2 7 1 0 0 3 0 0 0 0 0 0 1 0 1 0 0 1 0 0 0 0 2 3 0 0 0 1 0 0 1 1 1 1 1 2 1 0 0 1 1 2 0 6 0 0 0 0 2 1 0 1 0 1 0 0 1 1 0 0 0 0 1 1 1 0 2 0 0 0 1 1 1 1 0 0 0 0 0 1 1 1 0 
1 1 1 0 0 0 0 0 0 0 0 0 0 0 0 0 0 0 3 2 1 1 3 0 0 1 1 1 0 2 0 1 1 0 0 0 0 0 0 0 1 1 0 0 0 2 5 1 1 0 0 0 1 0 1 1 3 0 2 0 0 1 1 0 5 5 0 1 1 0 0 0 0 1 0 0 0 0 0 1 0 0 0 1 1 1 0 0 4 0 1 1 0 0 0 0 0 1 0 1 1 2 0 0 2 0 0 0 5 0 1 1 0 0 0 0 0 0 0 0 1 7 6 0 2 0 0 0 1 1 0 0 0 1 0 0 3 6 1 1 2 0 0 0 3 0 1 0 1 0 0 0 0 0 1 3 0 0 0 1 0 0 1 0 0 2 0 0 1 1 0 0 1 0 2 0 0 1 0 1 0 1 1 1 0 0 1 1 0 0 0 1 0 1 1 1 0 0 0 5 0 2 1 1 0 2 1 1 1 2 0 0 0 1 1 1 4 1 0 0 0 1 1 0 4 2 0 0 0 0 0 0 0 1 0 5 9 3 0 0 0 1 0 2 1 0 0 0 1 0 1 0 0 0 0 1 2 0 1 1 2 0 0 1 0 1 1 0 3 13 22 33 43 51 57 62 69 75 79 85 90 92 95 97 99 101 103 106 104 108 112 112 113 115 117 120 122 114 117 118 128 128 129 132 131 132 134 135 129 136 138 140 139 141 143 143 145 138 146 147 147 147 139 148 135 151 151 151 152 153 154 145 154 156 157 158 157 156 149 158 159 160 161 161 162 162 161 162 163 164 165 165 165 164 156 165 166 167 167 166 168 168 165 168 168 169 169 169 166 158 170 167 171 158 163 170 173 171 172 172 172 173 172 171 164 172 171 171 166 172 171 172 171 170 172 171 170 168 160 166 152 164 138 156 100 67 13 2 1 2 1 0 2 2 0 0 0 2 0 0 0 1 0 2 0 0 0 1 0 0 3 1 1 1 0 1 6 0 0 3 2 1 0 0 0 1 1 2 0 4 0 0 1 1 0 1 0 1 1 0 0 0 1 1 1 1 5 0 0 1 0 0 4 0 1 0 1 0 0 0 1 4 0 0 0 0 0 0 1 0 0 0 1 1 1 0 1 1 5 0 0 1 0 0 0 0 0 1 0 0 4 0 0 0 0 1 1 0 0 0 0 1 1 1 0 5 1 0 0 0 0 0 0 1 1 0 1 0 2 0 0 0 1 0 1 1 2 1 0 0 0 1 0 2 0 1 0 0 0 0 0 1 0 0 0 0 1 0 0 1 4 0 0 0 0 0 1 0 0 0 1 1 2 0 3 0 1 1 0 1 1 0 2 1 1 1 0 0 0 0 1 1 0 0 1 1 0 0 0 0 1 3 1 0 0 1 1 0 1 4 0 0 1 0 0 0 0 0 0 0 1 0 1 0 0 1 5 2 1 2 
0 0 0 3 0 1 0 0 1 3 0 1 0 0 0 0 0 0 0 0 0 0 0 0 0 0 1 0 0 0 1 0 2 0 1 0 0 0 1 1 1 2 0 0 0 1 0 0 0 0 1 0 1 3 1 0 0 0 3 0 0 1 0 0 0 3 0 0 2 0 0 0 0 0 0 1 1 0 0 2 1 0 0 1 0 0 0 0 0 0 0 1 0 2 1 3 2 0 1 0 0 0 0 0 1 0 0 0 2 1 1 0 1 0 0 0 0 0 0 0 2 1 3 7 4 1 0 0 0 0 0 6 2 1 0 0 2 0 1 1 0 5 1 1 0 1 0 0 2 1 2 0 0 0 1 0 1 0 0 3 0 0 0 1 0 0 1 0 3 0 1 1 1 0 0 0 1 1 0 2 0 0 0 1 0 1 0 1 0 0 0 1 1 0 1 0 0 1 2 1 2 0 0 0 4 1 0 1 0 0 0 0 1 1 0 1 1 1 1 0 0 0 0 1 0 0 0 0 1 0 1 0 2 0 0 0 1 1 1 0 0 0 0 1 1 1 0 1 2 0 0 0 1 0 0 0 1 0 1 1 2 0 0 1 0 0 0 0 3 6 6 14 28 40 47 54 61 62 72 77 84 86 90 94 97 92 98 100 103 103 108 109 112 113 116 117 119 120 122 124 124 128 129 130 131 126 132 126 137 137 138 139 139 141 140 138 142 144 144 145 138 148 147 148 140 141 149 141 152 153 154 154 153 155 155 141 158 159 157 158 159 160 160 161 161 161 162 156 162 163 164 163 160 163 160 166 150 155 165 167 167 168 166 156 167 167 169 169 170 169 170 169 170 169 169 163 168 171 170 172 171 171 171 163 170 164 172 171 159 169 158 169 169 170 171 168 168 166 149 164 162 157 120 113 46 5 1 1 0 0 1 1 0 1 0 1 0 0 0 0 0 2 0 0 2 0 0 0 1 0 0 0 1 2 1 7 2 0 1 0 0 1 1 1 2 2 0 0 0 0 0 1 0 0 1 1 1 1 0 0 0 1 0 0 0 1 0 0 1 0 0 0 0 0 1 0 0 0 2 0 4 2 0 1 0 2 1 1 0 0 0 0 2 1 0 0 2 1 1 0 2 0 0 0 0 0 0 2 0 0 0 1 0 1 0 0 1 0 0 0 2 1 0 1 3 0 0 2 1 1 1 0 2 0 0 1 1 0 4 1 0 1 0 1 0 1 0 1 1 1 0 1 1 1 0 0 0 0 0 0 0 0 0 1 0 1 0 0 2 0 1 3 0 0 0 0 1 1 1 1 1 6 6 5 2 8 0 1 2 1 1 0 0 0 2 0 1 1 1 0 1 0 1 0 4 0 1 0 0 1 0 1 0 1 0 0 1 0 1 0 0 2 1 0 1 0 0 0 1 1 0 0 0 0 1 0 0 0 0 0 
1 1 0 0 1 6 0 0 0 1 1 0 0 0 0 0 1 0 0 0 1 0 0 0 0 0 0 0 0 0 1 0 1 0 0 1 0 1 0 1 0 0 1 4 1 1 0 0 0 1 0 1 0 0 0 1 0 1 0 0 0 0 1 0 1 0 1 0 0 0 0 1 2 0 1 1 1 0 1 0 0 2 2 0 1 0 0 0 0 0 1 1 0 0 0 1 0 2 0 0 1 0 0 0 0 0 0 1 0 0 0 1 0 0 1 0 0 0 0 2 0 1 1 1 0 1 0 0 1 0 0 2 0 0 0 2 0 1 1 0 0 1 1 0 0 0 1 0 0 0 0 0 0 2 1 0 1 1 1 0 0 1 1 0 1 0 4 3 1 1 1 0 0 0 1 0 0 0 0 5 1 1 0 0 0 0 0 1 0 0 3 0 1 0 1 2 0 0 0 1 0 0 0 0 2 0 0 6 0 0 0 0 1 1 1 3 0 0 0 1 1 0 2 0 1 2 1 2 1 0 1 1 0 0 0 0 0 0 0 0 1 0 0 1 1 0 0 0 1 1 1 1 6 0 0 0 1 0 1 2 8 1 0 0 1 2 1 1 0 2 1 2 7 21 36 46 52 61 64 72 74 79 84 87 90 91 97 100 100 99 95 95 109 110 113 115 116 112 120 105 124 126 126 126 129 131 133 133 135 136 138 137 139 140 131 140 142 144 144 145 144 139 147 149 149 148 150 151 151 139 152 154 154 154 154 139 156 158 158 158 158 160 160 159 160 161 162 161 155 163 160 152 164 164 165 165 165 165 166 156 166 167 155 167 169 168 167 168 167 162 169 169 160 149 152 167 168 153 170 169 156 169 170 171 169 160 170 171 170 170 169 169 153 167 163 167 166 164 162 159 153 107 72 21 4 0 5 1 0 0 0 1 0 0 1 1 0 0 1 0 0 0 0 1 0 1 0 0 0 0 1 1 0 0 1 1 0 1 0 0 0 0 1 1 2 0 1 1 0 0 0 0 0 1 1 1 0 0 0 0 0 1 6 0 4 0 1 1 0 1 1 4 0 0 0 0 0 0 0 1 0 1 1 1 0 1 0 2 1 0 1 1 1 0 1 1 0 2 1 0 1 1 1 0 0 0 0 3 0 0 0 0 0 2 6 0 0 1 1 0 1 4 1 4 0 0 0 1 4 0 0 1 0 1 1 0 0 0 0 0 0 0 1 1 0 0 0 2 0 0 0 1 1 0 1 0 1 1 1 1 0 0 0 0 0 0 0 0 0 1 0 0 0 0 1 1 1 2 0 0 2 4 2 0 0 2 0 6 0 0 0 0 0 0 5 3 1 1 0 0 0 2 1 0 0 0 4 0 1 1 0 0 0 0 1 0 0 1 0 0 1 1 7 0 1 0 0 0 0 1 0 0 1 0 1 1 0 0 1 0 
6 0 0 1 3 0 1 1 1 0 1 1 1 0 0 1 2 1 1 9 8 0 0 0 1 0 1 0 1 1 0 0 1 1 0 0 0 1 1 2 0 0 3 0 1 1 0 0 1 2 0 1 0 0 0 0 0 1 0 2 1 1 1 1 0 0 1 0 1 0 0 0 0 1 1 0 1 1 0 1 0 1 1 0 1 0 1 1 0 1 5 1 0 0 4 1 1 2 0 0 3 0 0 0 0 1 6 3 1 1 1 2 0 0 1 0 0 2 0 0 0 2 0 1 0 0 0 0 1 1 0 1 0 1 0 1 0 0 1 1 0 0 1 1 6 1 0 1 0 0 1 1 0 1 1 0 0 0 1 0 0 0 0 0 0 2 4 2 1 0 1 1 1 1 0 1 1 0 0 1 0 0 1 0 1 3 0 0 1 0 2 0 1 2 3 1 1 1 0 0 3 0 1 0 0 0 0 2 0 1 0 0 2 1 5 2 0 0 0 0 0 0 0 1 0 0 0 0 1 1 0 1 0 0 0 1 1 0 0 0 0 0 5 1 4 1 0 1 1 1 0 0 1 2 0 0 0 0 0 1 1 1 1 0 0 1 1 1 2 1 2 1 1 11 14 30 40 52 59 64 69 71 79 82 86 89 92 95 98 100 102 105 108 109 106 113 115 116 120 121 122 124 113 119 128 129 131 132 134 135 136 136 126 119 127 140 142 143 142 144 145 146 142 148 149 139 149 149 151 150 150 139 153 154 154 143 154 157 155 153 158 158 159 159 159 162 161 161 162 163 154 163 164 164 163 165 165 157 164 165 167 165 165 166 166 168 168 167 168 167 168 167 168 148 166 156 143 145 168 168 155 168 170 168 159 168 164 164 169 168 168 167 166 152 165 164 161 132 114 138 100 38 6 0 0 1 1 0 0 1 2 2 0 4 1 1 1 0 1 1 0 0 2 0 0 0 0 2 1 1 0 0 0 0 0 0 0 0 0 0 1 2 4 0 0 1 0 0 0 0 0 0 0 1 1 6 1 0 1 1 1 8 1 0 2 0 0 2 0 1 3 0 0 1 0 2 0 0 0 1 0 8 1 0 0 3 1 1 0 1 1 0 7 1 0 1 3 1 0 2 1 1 1 0 0 0 1 1 0 0 0 0 0 1 0 0 5 3 0 1 0 0 1 0 1 1 0 0 0 1 1 1 1 0 1 1 2 1 1 0 0 0 0 0 0 0 1 0 1 1 0 1 1 0 1 1 0 1 1 0 0 0 1 0 2 0 0 1 1 1 0 0 0 0 1 1 0 1 0 1 0 0 0 1 0 0 0 0 2 1 0 4 0 0 0 0 1 0 1 0 0 0 2 0 2 0 1 0 0 1 0 0 0 1 0 1 6 1 2 0 1 0 0 2 6 1 1 1 4 1 0 1 0 0 0 6 1 1 1 0 
1 0 0 3 1 2 1 1 0 0 0 0 0 0 4 1 2 1 0 2 1 1 0 0 1 0 0 0 0 1 0 3 2 0 1 0 0 2 0 2 1 5 1 0 0 2 1 0 0 4 0 1 0 2 1 0 1 1 0 0 0 2 0 2 1 0 2 0 0 0 2 2 1 0 0 0 1 0 1 0 0 0 1 1 6 1 1 1 1 1 1 1 4 0 0 0 0 0 1 2 3 0 0 0 2 1 0 0 1 1 0 2 1 0 0 1 0 0 0 3 0 1 1 1 1 0 1 0 0 0 0 0 0 0 0 0 0 1 0 0 0 0 0 1 1 1 2 1 0 0 0 0 1 0 0 2 0 0 0 0 1 1 0 0 0 1 0 1 1 1 0 0 1 1 0 2 1 0 0 0 1 0 0 1 3 0 1 0 0 1 1 1 3 1 0 0 1 0 0 1 1 10 1 0 0 0 0 0 0 1 1 1 1 0 2 0 1 12 0 3 0 0 0 0 0 0 1 0 0 0 0 0 0 1 1 1 0 0 1 1 0 0 1 4 2 0 1 1 0 1 1 0 1 1 1 0 0 0 2 1 1 0 0 1 0 2 0 0 1 0 1 1 1 1 3 17 21 35 48 56 63 68 73 76 80 85 78 90 94 88 99 102 106 106 103 112 115 115 116 119 118 122 122 126 126 129 130 130 132 133 134 135 136 137 139 139 140 140 130 142 143 144 146 145 136 147 148 148 134 145 139 152 152 153 154 144 156 156 156 155 155 144 152 158 154 158 161 160 160 162 150 161 164 163 163 164 163 164 164 165 165 166 166 166 167 164 166 166 167 166 157 167 150 165 167 167 149 148 168 168 167 167 165 168 168 167 167 166 167 167 167 166 164 162 144 158 129 135 75 49 11 2 0 2 0 0 1 0 0 0 0 0 0 0 1 4 0 8 1 0 3 0 0 0 0 0 0 0 0 0 1 0 0 0 0 0 0 0 0 0 1 0 0 0 0 0 0 1 0 1 1 1 0 0 2 8 0 0 2 4 1 1 1 7 2 1 1 1 4 0 0 0 0 1 0 2 1 0 0 1 0 1 0 0 0 1 0 0 0 0 2 0 0 1 0 1 0 0 1 1 1 0 0 0 0 3 0 0 1 0 3 1 0 1 0 1 0 0 5 2 0 1 2 0 1 2 1 1 0 0 1 3 0 0 0 0 1 1 0 1 3 0 0 1 0 0 1 0 0 0 0 1 2 0 1 0 1 0 1 0 0 0 2 0 0 0 0 0 0 0 1 0 0 0 0 1 0 1 1 1 0 0 0 0 1 0 1 1 1 1 0 0 0 1 0 0 6 3 1 1 1 0 5 0 1 1 1 0 0 0 0 0 2 0 0 0 0 1 5 0 0 0 1 5 3 0 6 1 1 1 0 1 1 0 1 0 0 0 1 0 
0 0 0 0 0 0 1 3 1 1 1 0 0 1 1 1 1 1 0 0 0 1 0 5 2 0 1 0 0 1 2 3 1 0 0 0 1 0 1 1 0 2 0 0 0 1 0 1 6 1 1 0 0 1 0 0 0 0 0 1 0 0 1 0 1 0 0 1 1 1 4 1 0 0 0 2 0 1 2 1 0 1 1 0 1 0 0 4 1 2 0 0 0 0 0 0 0 2 6 1 0 0 2 0 0 1 1 0 0 1 0 0 0 0 2 0 0 0 0 0 0 0 4 2 0 2 5 2 0 0 0 1 0 0 0 0 4 0 0 1 0 1 0 1 4 0 1 1 0 0 0 1 1 1 0 1 0 1 2 0 0 0 0 1 0 0 1 0 1 0 0 0 0 1 0 1 0 0 0 1 0 0 1 0 1 1 0 0 0 2 0 0 1 1 0 1 1 0 0 1 5 1 0 0 0 0 0 0 0 0 0 0 0 0 0 3 0 2 2 8 1 3 0 0 1 1 1 1 0 0 0 0 1 0 1 1 1 3 0 0 1 1 1 1 0 1 0 0 1 0 10 1 5 1 0 2 1 1 1 1 2 0 1 0 0 6 0 0 1 5 0 2 0 0 1 7 15 13 28 42 53 58 65 66 75 78 82 86 88 91 93 97 94 91 106 109 110 112 115 102 118 118 122 115 124 126 129 131 131 132 133 126 124 132 133 137 130 140 140 127 123 127 143 145 142 146 148 133 148 150 148 137 142 153 153 154 154 155 156 147 155 156 158 156 159 158 164 160 160 161 161 163 161 156 161 162 158 163 164 165 164 164 164 166 167 165 166 165 167 167 161 167 157 166 167 167 167 167 168 167 167 166 167 166 167 166 165 166 166 165 164 163 161 134 153 140 103 50 11 1 2 2 2 0 0 2 0 1 1 3 1 1 1 0 0 1 1 0 0 0 0 0 0 2 1 0 0 1 1 4 0 0 0 1 0 0 0 0 0 0 2 1 0 0 1 1 2 0 0 0 0 1 2 0 1 2 2 0 0 0 0 1 0 1 0 1 1 0 1 0 2 0 1 5 0 2 0 0 2 0 0 1 1 1 0 1 1 3 0 1 1 0 1 0 1 0 1 1 0 0 2 0 0 0 2 0 1 0 0 1 0 0 1 0 0 0 0 0 1 0 0 1 2 1 0 0 1 0 2 1 2 1 1 0 0 0 0 1 2 2 2 1 1 1 1 1 3 0 1 1 0 0 0 1 0 3 1 1 0 1 0 0 1 1 0 0 0 0 0 0 1 0 0 0 0 0 5 0 0 0 0 0 1 0 0 1 2 2 1 0 0 0 2 8 0 1 1 3 0 1 0 0 3 0 0 0 0 0 0 1 0 0 1 1 4 0 0 1 1 0 0 0 0 1 7 1 0 0 1 1 6 0 0 1 1 1 1 0 1 0 
0 0 0 0 0 1 6 0 0 0 1 0 1 0 0 4 1 0 0 4 3 4 1 0 0 1 9 0 0 0 0 0 1 0 0 0 2 0 1 1 1 3 0 0 1 0 0 2 0 0 1 2 3 1 1 0 1 0 0 0 1 1 0 1 0 1 0 0 0 1 0 1 0 1 1 0 1 0 0 2 1 1 0 1 0 0 0 0 2 1 1 0 0 1 0 0 0 0 6 0 0 0 0 0 1 1 1 1 1 0 0 0 0 1 0 0 0 0 1 0 0 0 0 1 1 0 1 0 0 1 0 0 4 0 0 0 1 0 0 0 0 0 1 0 1 0 1 1 0 0 3 0 0 0 1 0 4 1 2 0 0 0 1 3 0 0 0 0 0 0 2 0 0 1 1 0 0 0 1 0 0 2 0 0 0 0 0 0 0 0 2 0 1 0 0 0 0 0 0 1 0 0 0 0 0 1 1 1 0 2 2 0 0 0 1 1 0 1 4 1 0 0 1 1 1 0 1 1 0 1 0 0 1 0 0 2 0 1 0 0 0 2 3 1 0 1 0 1 0 5 1 0 1 1 0 0 0 0 5 1 2 1 0 0 0 2 1 0 0 0 1 0 0 0 0 3 2 2 7 19 31 39 52 61 67 70 76 80 84 76 77 93 96 96 102 106 109 100 113 113 116 119 119 121 124 125 125 128 129 129 131 132 134 134 135 136 138 126 138 140 140 130 145 144 145 145 147 147 150 149 149 150 151 152 151 153 151 153 153 155 155 157 156 156 156 157 158 158 160 159 161 161 162 155 162 162 161 158 162 165 163 163 155 165 163 163 165 166 165 165 166 166 167 164 166 163 165 159 166 166 165 163 157 165 165 151 165 157 162 162 157 159 151 109 107 67 11 3 0 2 0 1 2 5 0 1 6 0 1 2 9 2 1 1 1 0 0 0 0 0 1 0 4 2 0 0 1 2 8 0 1 1 1 0 0 0 1 3 0 1 1 1 0 0 1 0 0 5 1 0 0 0 0 0 0 1 1 1 0 0 2 0 0 0 0 1 1 0 1 1 6 2 4 0 1 0 1 0 1 1 1 0 1 0 1 0 0 3 1 0 1 0 0 1 0 1 0 1 2 5 0 0 0 0 2 0 1 1 0 0 1 0 0 1 1 0 0 0 0 0 1 1 0 0 1 0 1 1 0 0 1 1 0 0 0 0 1 0 0 1 0 1 0 0 0 1 1 1 1 0 0 0 1 3 5 0 0 1 1 0 3 0 0 4 1 2 0 0 0 1 0 1 0 0 1 0 1 1 0 1 0 0 0 1 0 1 1 0 0 1 0 0 0 1 3 1 0 0 0 0 0 0 1 1 1 1 1 1 3 1 1 3 0 0 0 1 0 1 0 0 0 0 1 0 2 2 0 0 1 2 0 1 0 1 0 0 0 1 1 1 
0 0 1 0 2 1 0 2 0 1 1 1 1 1 0 0 3 0 0 0 0 1 0 4 3 0 1 0 0 0 1 0 0 6 0 1 4 2 1 0 0 2 0 0 1 0 0 1 2 0 0 0 0 1 1 0 3 1 1 1 2 0 0 1 1 2 0 9 0 1 1 0 1 0 1 0 2 1 0 1 1 0 0 0 0 0 0 0 0 1 0 0 1 0 2 0 1 0 1 1 2 0 1 0 0 1 0 0 1 0 0 0 1 1 1 1 0 0 1 0 1 0 8 1 0 0 0 1 1 0 0 0 0 0 1 0 1 0 0 3 0 0 0 0 0 0 0 0 2 4 2 0 1 0 0 3 0 0 1 0 0 0 0 0 0 0 0 0 1 0 0 0 1 0 0 0 1 1 0 1 0 0 0 0 0 0 1 0 0 0 0 2 0 1 0 0 1 1 1 0 0 1 1 1 0 0 2 5 0 0 0 0 0 0 4 5 2 2 0 5 0 1 0 0 1 0 0 2 0 1 8 0 3 0 1 0 0 0 0 0 1 0 0 1 0 1 1 1 2 0 0 0 0 0 0 2 0 1 8 1 0 0 0 1 0 0 0 1 1 0 0 0 0 0 0 0 0 1 0 2 19 18 35 41 42 59 67 73 76 69 64 75 92 95 99 90 102 92 109 112 105 116 118 120 122 122 125 127 127 128 122 130 131 134 133 136 137 136 127 137 140 141 142 143 143 145 138 146 146 148 146 149 150 151 151 150 149 151 154 154 145 154 157 156 157 158 157 158 151 158 161 160 161 160 161 162 161 154 161 154 162 152 162 161 163 164 164 164 157 165 165 164 163 145 150 165 165 164 164 165 164 165 164 164 161 151 151 160 159 156 152 139 105 54 35 4 5 4 2 0 1 2 2 1 0 1 0 1 1 0 0 0 1 3 7 2 0 0 0 0 1 1 1 0 2 2 1 1 0 1 0 0 0 0 2 1 6 1 0 0 3 1 4 5 2 1 1 0 1 0 0 0 0 0 2 1 1 0 6 1 1 0 1 0 1 0 0 1 1 0 0 0 0 0 2 3 1 0 5 1 1 1 1 1 0 0 0 0 0 0 4 1 1 0 1 2 0 1 5 2 0 0 1 0 3 2 0 0 0 0 0 2 1 1 0 0 0 0 1 0 1 0 0 1 3 0 1 0 0 0 1 1 1 0 0 1 1 1 0 0 0 1 0 0 0 0 1 3 1 2 0 0 1 1 1 0 0 2 0 0 0 0 0 0 0 0 1 0 0 1 1 1 0 0 1 0 0 0 2 1 0 0 0 2 1 0 1 4 0 1 0 0 2 1 1 0 1 0 0 0 1 1 1 3 4 1 1 0 1 1 0 0 0 0 2 0 0 1 0 0 1 1 3 0 1 0 1 0 1 1 0 0 0 0 1 2 0 0 1 2 
0 1 1 0 0 1 1 2 0 1 1 0 2 1 2 0 0 1 4 2 0 1 0 1 2 0 0 1 0 2 1 0 1 0 0 1 0 1 1 0 0 0 1 6 1 1 0 1 0 0 0 1 0 0 0 2 0 6 5 1 2 0 1 4 0 0 0 0 0 0 1 0 2 0 0 0 1 1 0 2 0 0 0 1 1 0 1 0 1 0 0 4 1 0 0 0 0 0 0 1 2 0 1 0 0 0 0 0 0 0 1 0 0 0 0 0 1 0 1 2 0 1 0 8 0 2 1 0 0 1 1 0 0 1 0 0 1 1 0 0 1 1 0 0 0 0 0 0 1 0 1 1 0 1 0 0 2 0 0 0 0 0 0 0 1 0 7 1 1 0 0 0 0 0 1 0 0 1 2 5 1 0 0 2 0 0 0 2 1 0 1 0 0 0 1 1 3 7 1 0 1 0 0 0 0 0 0 0 0 1 0 0 0 3 1 2 0 2 0 2 2 0 0 0 0 0 0 0 0 0 0 0 0 0 0 0 0 0 0 3 1 0 1 0 6 4 0 0 0 3 4 0 0 1 1 1 1 0 0 0 0 0 0 1 0 1 1 0 0 0 0 0 0 0 0 0 0 0 1 1 5 2 6 19 22 38 49 52 66 65 77 82 87 89 91 85 97 101 106 108 112 111 104 117 119 122 121 124 126 125 125 115 129 131 125 128 134 135 137 137 138 124 142 142 143 142 144 145 134 146 148 149 148 150 143 151 149 152 152 153 153 155 156 155 157 156 145 155 156 157 157 159 158 159 160 160 161 162 160 153 161 162 162 162 163 153 163 163 163 163 162 163 163 145 163 163 164 163 150 162 162 162 162 161 160 160 159 155 121 97 73 54 13 3 1 2 1 1 0 3 0 2 0 1 1 1 1 0 0 0 0 0 0 0 0 1 0 0 0 3 0 1 0 1 0 0 0 2 0 0 6 0 2 0 0 0 1 0 0 1 1 1 0 1 1 1 0 0 1 0 1 1 1 0 4 1 0 0 0 0 0 0 0 1 3 0 1 0 0 0 0 0 1 5 1 0 1 5 1 0 0 0 0 0 0 0 0 2 2 2 2 4 0 0 1 1 2 2 1 0 0 2 0 0 1 1 0 1 0 6 5 1 1 2 0 0 1 1 1 0 0 0 0 0 1 6 2 1 0 0 1 1 0 0 3 0 0 0 0 0 1 0 3 6 1 0 1 1 2 0 0 0 0 1 0 0 2 0 0 0 0 1 0 0 1 1 1 0 1 1 0 0 2 2 0 0 0 1 0 0 0 2 0 1 0 1 2 6 1 0 0 1 0 1 0 0 0 0 0 1 4 1 0 0 0 0 1 0 1 0 1 8 0 1 6 0 1 0 0 0 0 0 0 1 0 0 0 1 1 1 0 0 1 1 1 0 1 1 0 1 
0 3 2 1 0 0 0 0 0 1 0 0 0 0 0 0 0 2 0 1 1 0 1 2 0 1 1 1 0 0 0 0 0 1 0 0 0 1 0 2 0 2 0 2 1 1 0 0 2 0 1 0 1 1 1 0 0 0 0 8 0 0 2 3 2 0 0 0 0 0 0 0 0 0 1 1 2 6 0 1 0 0 1 0 0 1 1 0 1 5 1 5 0 3 2 1 1 1 1 1 0 4 1 1 2 2 4 1 0 0 0 0 0 1 1 1 1 0 0 0 0 0 0 7 0 1 1 0 1 1 0 0 1 1 0 0 0 1 1 0 2 2 1 0 1 1 0 1 2 0 2 8 2 0 0 0 1 0 0 1 0 2 0 1 1 1 0 1 0 1 0 0 0 2 0 1 1 1 5 0 2 1 1 1 2 0 1 2 0 0 0 2 0 1 0 6 1 1 1 0 0 0 1 0 0 0 2 1 1 0 0 0 1 0 0 0 0 1 0 0 1 1 0 1 1 0 0 0 1 1 0 1 7 8 7 0 1 0 1 1 0 2 2 2 7 2 0 0 0 0 0 1 1 0 0 0 0 0 0 0 0 1 2 0 0 0 0 0 1 1 0 0 7 1 0 0 0 0 3 0 4 0 1 0 3 12 24 36 47 58 66 72 78 83 79 90 95 97 98 104 106 108 102 114 116 117 115 109 121 125 125 128 129 120 130 131 131 125 135 137 137 138 140 140 141 143 142 129 129 146 147 147 149 148 147 148 150 151 152 151 152 153 154 152 142 154 154 145 155 158 157 158 158 156 159 158 160 160 159 160 161 160 150 160 161 160 161 149 161 154 161 162 148 161 161 154 161 162 161 158 158 157 157 157 141 155 151 138 108 50 10 3 0 1 6 1 1 0 1 1 1 0 1 7 2 3 8 1 0 0 1 0 1 0 1 2 1 5 1 1 0 1 0 0 0 0 1 0 1 0 0 0 0 1 0 0 0 1 1 0 2 0 1 0 0 0 0 1 1 1 0 0 0 0 2 1 1 1 0 0 0 0 1 0 0 0 0 0 0 2 1 1 0 2 0 0 0 1 0 2 3 1 0 2 5 1 0 1 1 0 1 0 1 0 7 9 1 1 0 0 0 1 0 0 1 1 0 3 1 0 0 1 4 1 0 0 1 1 1 1 8 0 0 0 1 4 0 1 1 1 6 1 0 0 0 0 1 0 2 0 1 1 0 1 2 1 1 0 0 1 1 0 0 0 0 2 1 0 1 1 0 1 0 0 0 0 1 1 2 0 0 0 1 4 1 1 1 0 1 0 0 1 1 1 0 0 1 0 0 1 0 1 0 0 0 1 3 0 0 0 1 0 2 2 2 0 0 1 1 4 5 1 1 0 1 1 0 0 0 0 0 1 0 1 1 0 0 0 1 0 2 1 0 0 0 0 0 1 3 0 
1 0 7 0 1 1 2 0 1 0 0 1 0 0 0 3 0 0 1 0 0 0 0 0 1 1 0 0 1 0 1 1 4 1 0 0 0 0 0 1 1 1 4 0 1 0 1 1 0 1 1 1 0 1 0 0 1 0 0 2 0 0 2 0 0 0 2 0 1 0 0 2 0 0 1 0 2 0 1 0 5 0 0 0 1 1 1 1 0 1 1 0 0 0 0 0 1 1 0 0 0 1 0 1 1 0 0 0 2 1 0 1 0 0 0 1 0 1 1 0 0 1 6 4 1 0 2 1 1 0 1 1 1 0 0 0 0 0 0 0 0 1 0 1 1 0 0 0 2 1 0 1 0 3 2 0 0 0 2 0 1 1 0 0 0 2 0 1 0 1 0 1 1 0 1 0 5 0 0 0 1 0 0 2 0 0 0 1 9 3 1 2 1 0 0 0 1 1 1 1 1 0 0 0 1 1 0 0 1 0 0 0 0 1 0 0 0 0 1 0 2 0 0 0 1 0 0 0 0 0 1 1 0 0 0 1 0 0 0 0 1 0 0 1 8 5 0 0 0 0 1 1 2 0 0 0 0 1 0 1 0 1 1 0 1 0 0 0 0 4 0 0 1 4 0 0 1 0 6 0 0 0 0 0 1 1 4 11 21 31 46 56 64 71 78 84 88 92 95 97 102 106 106 101 100 113 116 116 106 122 122 119 127 128 128 130 108 113 133 136 137 130 136 138 140 140 126 125 141 144 145 146 146 143 146 146 148 149 148 137 150 146 152 153 152 144 153 153 155 155 156 156 156 156 157 158 159 159 159 159 159 159 160 160 148 160 150 159 159 160 161 160 160 148 160 160 158 159 147 140 138 134 154 151 127 133 83 55 15 21 12 0 1 0 1 1 2 0 0 0 1 0 1 0 2 1 0 1 0 1 1 0 0 1 0 1 1 1 0 1 0 1 0 1 0 2 5 2 0 0 0 1 0 1 1 0 2 0 0 0 1 0 1 1 0 0 0 0 0 0 2 0 1 1 1 1 7 0 0 0 1 0 0 0 0 1 0 0 0 4 0 1 0 0 0 0 1 1 0 0 1 0 1 2 1 1 0 1 0 1 0 0 0 0 1 7 1 3 1 0 0 0 1 0 0 0 0 0 0 1 1 0 0 0 0 0 1 3 1 10 6 1 0 0 0 0 0 3 0 1 0 0 0 0 0 1 1 0 0 0 1 0 0 1 3 1 2 0 0 5 1 0 0 0 1 1 1 0 11 6 1 0 1 0 1 1 1 1 0 0 2 1 2 0 2 0 0 0 0 0 0 0 2 0 0 0 0 1 0 1 0 1 0 0 0 0 0 0 0 0 3 0 0 3 4 0 0 1 4 1 0 0 0 0 0 5 1 0 0 0 0 0 2 0 0 1 1 0 1 0 0 0 1 0 1 1 2 1 2 1 
0 0 1 1 0 1 1 0 0 1 2 0 1 0 0 0 1 0 1 0 0 0 0 0 1 0 0 1 1 2 0 0 0 1 0 1 0 1 5 0 0 0 1 0 1 0 1 1 0 0 0 1 0 0 0 3 1 1 1 2 0 1 0 2 2 1 1 3 0 1 1 5 0 2 1 0 0 0 0 1 2 2 1 1 0 1 0 2 1 0 0 1 0 0 2 1 1 0 1 0 1 2 0 3 1 1 1 2 1 0 0 1 0 0 1 1 1 0 0 1 1 1 0 1 1 0 0 1 0 1 0 2 0 0 0 0 0 1 0 0 0 1 1 1 0 0 0 0 0 0 2 0 0 0 0 0 2 0 1 0 0 0 1 0 1 0 0 0 0 0 7 3 1 1 1 1 3 0 0 0 0 0 0 0 0 0 0 0 1 0 0 0 1 5 1 1 0 1 0 0 0 2 0 1 0 0 1 0 0 0 0 1 1 0 0 0 1 1 1 1 1 1 0 5 0 1 0 1 3 2 0 1 0 1 1 0 0 1 1 0 1 1 0 1 3 1 1 1 0 1 1 0 1 0 0 0 0 1 1 1 1 0 0 1 1 1 0 0 1 1 0 0 0 0 0 1 1 0 1 1 1 0 1 2 1 1 0 1 2 6 19 28 42 56 64 70 77 85 89 93 88 99 103 106 106 109 110 113 115 117 119 120 123 119 125 120 109 106 131 132 134 134 135 137 137 138 140 141 141 143 143 143 138 144 145 127 145 137 138 149 149 149 150 148 152 151 133 136 152 154 154 155 146 154 145 155 143 155 157 157 157 158 157 150 158 158 158 146 150 158 159 159 159 156 157 155 138 155 142 150 148 147 141 130 106 55 13 3 2 1 1 0 0 0 2 0 0 0 4 2 2 0 0 0 2 0 0 0 0 1 1 2 0 0 1 1 1 0 2 0 1 1 2 1 1 3 1 1 1 0 0 1 0 0 0 0 0 1 0 0 1 0 0 0 0 0 0 0 0 0 0 0 2 1 1 0 1 0 0 2 0 4 0 0 1 0 0 1 0 1 4 6 0 0 1 0 1 0 0 0 0 1 0 5 0 2 1 0 0 2 0 1 0 4 2 1 0 0 1 0 1 2 0 0 0 0 3 0 1 1 0 2 1 1 1 3 2 7 1 1 0 0 0 0 0 1 2 1 2 1 1 1 1 0 0 2 0 0 2 1 1 0 0 1 1 1 0 1 0 2 8 0 1 0 0 0 0 2 5 1 0 0 1 0 0 0 2 0 0 0 0 2 1 2 1 0 0 0 2 2 2 0 1 4 0 0 0 1 0 1 0 1 4 0 1 1 0 0 1 1 0 0 1 0 1 0 0 0 1 0 0 0 0 0 6 1 1 0 0 0 0 0 1 1 1 0 7 8 1 0 0 2 3 1 4 5 1 0 1 1 
0 0 0 0 0 0 0 0 0 0 1 0 0 0 1 1 0 1 1 0 0 1 0 0 1 0 0 0 0 0 0 0 0 1 0 0 0 0 2 0 0 0 1 0 1 0 1 0 0 1 0 0 0 4 0 1 1 1 1 1 0 1 1 0 0 0 1 1 0 0 0 0 1 0 1 0 1 0 2 0 0 1 1 2 2 1 0 1 0 0 0 0 0 0 1 1 0 1 0 0 0 0 2 0 2 2 0 2 0 0 0 2 1 0 0 0 1 0 0 0 0 0 1 0 0 1 1 0 0 2 1 4 0 1 0 0 2 0 1 0 0 2 2 0 1 1 1 0 0 0 0 0 0 1 0 1 0 2 1 1 0 0 1 4 1 0 0 2 0 2 6 1 1 0 1 0 1 0 0 1 1 0 3 1 1 0 0 0 3 1 0 0 5 2 7 0 0 0 1 1 0 0 2 1 0 0 1 0 0 0 1 1 1 1 2 0 1 1 3 1 1 0 1 0 3 1 0 1 1 7 0 1 0 1 0 0 1 0 0 0 0 0 0 1 0 1 0 0 1 0 0 1 1 0 2 0 0 0 1 2 1 2 1 0 1 0 0 0 1 0 1 0 0 2 1 0 0 0 1 5 1 1 1 0 0 1 0 0 1 1 1 6 15 29 41 52 62 69 77 83 88 94 97 100 91 91 106 110 111 112 115 115 110 119 120 123 123 126 127 129 132 131 128 123 135 136 127 140 138 132 140 143 142 134 144 144 145 145 146 148 148 147 142 148 142 150 131 131 151 151 154 155 154 145 154 155 154 155 155 156 156 156 157 157 150 155 152 157 156 148 156 152 149 154 146 152 153 147 143 107 125 104 77 46 41 4 0 1 2 0 0 0 0 2 0 0 0 1 1 0 1 0 0 0 0 1 2 0 0 0 2 2 2 0 0 0 1 0 0 0 0 0 6 1 1 2 1 0 0 0 0 3 0 0 0 1 0 0 0 1 1 0 0 5 1 1 0 0 0 0 0 1 0 8 1 0 0 1 3 0 0 1 2 0 1 1 1 5 1 1 1 1 0 0 0 0 0 0 1 1 0 0 0 4 0 0 4 0 0 0 1 1 0 1 1 1 1 3 1 0 0 0 0 1 0 0 2 0 0 0 2 0 1 0 0 0 4 2 1 0 0 1 1 1 0 1 0 0 2 0 0 0 0 1 0 3 0 1 1 0 1 1 0 0 1 1 1 2 1 0 0 2 1 0 1 0 0 0 2 0 0 0 0 1 1 2 0 0 0 0 1 0 2 2 5 1 1 0 1 0 2 1 1 1 1 0 0 2 0 1 0 0 1 0 1 3 1 0 1 1 1 1 0 1 0 1 1 1 0 1 1 1 3 0 1 1 1 1 2 1 0 0 1 1 0 0 0 1 1 1 0 0 0 0 0 1 0 0 0 0 
0 0 0 0 0 1 0 1 0 0 0 0 1 0 0 1 0 0 1 0 1 2 0 1 0 2 1 0 0 1 0 0 0 0 1 0 0 0 1 0 0 0 1 0 2 1 6 0 4 0 0 0 0 1 2 5 0 1 0 0 0 0 0 0 3 1 0 5 1 3 1 1 0 0 0 1 1 0 2 2 0 0 1 0 1 1 0 0 0 0 1 1 0 1 0 1 1 0 1 2 8 0 0 0 1 0 1 1 1 1 0 1 0 0 0 0 0 3 2 1 1 0 0 1 0 1 0 0 0 0 0 1 0 0 0 0 1 1 4 2 0 2 0 1 1 7 0 1 4 0 0 0 2 0 2 0 1 8 0 0 0 0 1 1 5 1 1 0 5 0 2 0 0 1 0 1 0 0 0 0 2 1 7 1 0 0 1 0 0 2 0 1 1 0 1 2 1 0 1 0 0 0 0 0 1 0 1 2 2 2 1 1 0 2 0 0 0 0 1 0 0 0 2 0 0 0 0 4 0 1 1 0 2 0 1 0 1 0 0 0 0 0 0 0 1 0 0 8 4 1 1 1 1 1 0 0 1 0 0 1 0 2 0 0 0 2 0 1 2 1 1 1 0 0 0 0 0 0 0 3 1 0 1 2 0 2 0 0 0 0 0 1 2 10 12 25 38 40 59 68 75 71 85 78 93 97 95 94 105 109 110 102 98 116 118 110 110 111 123 126 127 122 121 131 134 135 136 136 138 137 132 141 142 142 142 142 144 143 144 145 146 147 145 148 139 148 148 149 140 145 152 151 152 151 146 152 153 153 153 152 154 154 154 153 153 149 154 153 144 153 144 152 151 150 145 140 131 92 93 63 38 14 4 3 1 0 2 1 0 1 1 0 10 1 0 4 0 0 8 1 1 1 0 0 1 1 0 0 0 0 0 4 0 0 1 0 0 0 0 1 0 0 0 0 1 2 0 4 0 0 0 0 0 0 4 1 0 0 1 0 0 0 1 2 0 0 1 1 1 0 0 1 2 2 1 1 0 5 0 0 1 1 0 1 1 0 0 0 0 0 2 1 0 3 5 1 3 11 1 0 0 1 0 0 1 1 0 0 1 1 0 0 0 1 1 1 7 1 1 0 0 0 0 3 0 0 0 2 2 1 0 1 0 0 1 1 4 0 0 0 1 0 0 4 0 1 1 5 0 1 1 1 1 0 1 1 2 2 1 1 1 7 2 1 0 0 1 1 2 1 0 0 1 0 0 0 0 1 1 0 1 0 0 1 0 0 3 1 0 0 0 1 1 0 2 1 0 0 1 0 0 0 2 1 0 0 1 0 0 0 1 1 1 0 0 0 1 0 0 0 1 1 0 0 0 1 1 1 0 0 0 0 0 1 0 1 2 1 1 0 1 1 3 1 1 0 0 1 0 1 1 1 0 0 0 0 0 1 0 0 
6 0 1 1 0 1 1 4 0 1 0 0 1 3 0 1 1 1 2 0 0 0 0 0 0 0 1 2 0 0 0 0 0 0 1 2 0 1 1 0 0 0 2 0 2 0 5 1 0 0 1 0 1 0 8 2 0 6 8 4 3 0 1 0 1 0 0 1 7 0 1 1 0 0 0 0 0 0 4 1 0 1 0 1 1 0 0 1 1 0 0 2 0 2 7 0 1 0 0 1 0 1 0 1 0 0 0 0 1 1 1 3 0 0 1 1 1 2 0 0 0 0 1 0 1 0 0 0 0 1 0 2 1 1 1 1 0 4 0 1 0 0 0 1 1 0 1 0 0 0 1 0 2 0 0 0 1 1 0 1 1 1 5 2 1 3 1 4 0 0 0 1 0 1 1 1 4 1 1 1 1 0 0 1 0 1 0 0 2 1 0 0 0 0 0 0 2 0 0 0 0 0 1 1 0 0 0 0 1 0 1 0 1 0 0 2 0 1 0 0 0 1 1 0 1 1 1 0 8 0 1 1 0 0 0 1 1 0 2 0 0 0 5 1 0 1 1 2 1 0 0 1 0 0 0 2 0 1 1 0 0 0 0 0 0 1 1 0 5 1 0 2 0 1 0 0 0 0 0 0 0 1 0 2 1 0 0 0 0 0 1 1 0 0 1 3 8 20 34 46 55 59 67 73 79 84 87 92 96 101 102 105 109 110 113 114 115 116 119 122 123 125 126 129 130 132 132 135 134 137 136 130 138 138 139 140 134 141 143 143 137 144 144 144 147 146 142 148 149 149 147 150 150 151 150 151 150 148 150 150 150 152 150 151 149 150 151 150 149 144 147 144 136 99 109 74 55 26 9 4 1 1 0 0 0 0 4 0 0 0 0 8 2 1 1 2 0 1 1 0 0 0 1 0 1 0 0 0 1 0 0 0 1 0 0 2 0 0 1 0 2 0 0 1 0 1 0 1 2 1 2 1 0 1 1 0 0 1 0 0 0 1 0 1 0 0 1 0 0 0 0 0 0 0 0 1 3 0 0 0 0 1 0 1 0 2 1 0 1 0 0 0 1 1 0 0 1 1 1 0 1 2 0 2 6 0 0 2 0 0 0 1 1 1 0 0 1 0 1 0 0 1 1 0 0 0 1 1 0 0 0 0 4 0 1 1 1 0 8 0 0 0 2 3 0 0 0 0 2 0 1 1 1 1 0 0 0 1 1 0 1 1 5 0 1 2 1 1 0 0 2 0 1 0 0 0 0 1 0 1 3 0 0 0 1 0 1 0 0 9 1 0 0 1 0 0 0 0 1 1 1 1 1 2 0 0 0 0 0 0 1 0 0 1 0 0 0 1 0 0 0 1 0 1 0 0 1 2 1 0 1 1 0 1 0 0 0 0 2 0 5 1 0 4 0 0 0 0 0 0 1 0 0 1 1 4 2 0 0 1 
0 0 2 1 0 0 1 0 0 1 1 0 1 2 2 1 2 0 4 6 3 2 0 0 1 0 0 0 1 0 1 0 2 0 1 0 0 7 1 1 0 0 1 0 0 2 0 1 0 0 0 1 2 1 10 1 1 2 0 2 1 1 0 0 1 0 0 1 0 1 0 3 1 7 0 1 0 1 3 1 1 0 1 0 0 0 0 0 0 0 1 0 1 0 1 1 4 0 1 0 2 1 1 0 0 0 0 3 6 1 0 0 0 0 0 0 0 3 1 0 0 0 0 1 2 0 0 2 0 0 0 0 2 1 0 0 0 1 0 1 0 0 0 0 5 9 4 0 0 0 1 0 4 3 1 1 3 1 1 1 0 1 1 2 0 0 0 2 0 0 0 0 0 0 0 1 0 0 0 1 4 0 0 1 1 2 0 0 6 0 0 0 2 0 0 0 1 0 1 0 1 0 0 0 1 1 0 0 0 0 1 0 0 0 0 1 0 1 2 0 1 0 0 0 1 1 0 0 1 6 3 1 1 0 0 2 4 0 1 2 0 1 6 1 1 1 0 1 0 0 0 0 1 1 1 0 0 0 0 0 0 0 2 0 1 0 1 2 2 0 0 1 2 0 1 0 2 0 1 0 1 0 1 0 1 3 9 1 0 0 0 1 0 0 0 0 0 1 4 13 28 32 43 51 58 64 71 76 79 86 81 93 90 101 106 102 110 113 116 117 115 116 124 124 126 128 129 129 130 133 133 133 130 135 135 136 138 137 140 139 135 140 141 142 142 145 144 145 137 139 146 146 146 145 145 146 148 146 145 135 147 146 147 145 146 147 145 143 140 132 122 103 76 50 20 5 2 1 4 0 0 1 1 0 2 11 1 2 1 1 2 7 2 1 0 1 0 0 1 3 1 0 1 1 0 0 0 1 0 2 0 0 0 1 0 1 0 1 0 1 0 0 3 1 1 3 0 0 1 0 0 0 0 1 0 0 1 1 0 2 2 1 4 1 1 0 6 4 0 0 1 0 0 1 0 2 1 0 0 0 0 1 1 0 0 0 0 0 0 1 0 1 1 0 0 0 1 1 0 0 1 0 0 3 0 0 0 3 0 0 0 0 1 0 0 0 1 0 1 2 3 1 1 1 0 1 0 0 0 0 0 0 0 0 1 0 0 1 1 0 0 1 2 8 2 0 0 2 0 0 0 0 0 0 0 0 0 3 0 0 0 0 1 2 0 3 0 0 0 0 0 0 0 1 0 0 1 0 0 0 0 0 0 1 0 1 0 0 5 1 0 1 0 0 0 0 2 2 3 0 2 1 1 1 0 0 1 0 1 2 1 1 0 0 0 0 1 1 1 1 0 1 0 0 0 0 0 0 1 0 2 0 1 0 0 1 3 0 0 0 1 1 0 2 0 4 0 0 0 0 0 0 1 1 1 2 1 1 0 0 
1 0 0 0 1 0 1 0 0 2 5 5 0 0 0 0 1 0 0 0 0 0 1 0 1 0 1 1 0 0 1 0 0 2 1 0 1 2 0 0 1 1 1 0 1 1 0 1 0 0 1 1 1 3 1 0 0 1 0 1 1 1 4 1 1 0 1 0 2 1 1 1 0 0 1 0 1 1 0 0 1 1 0 1 1 1 2 0 1 0 0 0 5 0 1 1 1 2 0 0 1 4 0 0 1 0 3 0 0 0 0 0 0 0 1 1 0 0 1 1 1 0 1 1 0 5 1 0 2 1 0 0 0 0 0 1 0 0 1 0 0 0 0 0 0 1 0 0 2 0 1 0 2 0 1 0 1 9 1 0 1 1 1 1 1 0 1 1 1 0 1 1 1 0 0 1 1 5 0 0 0 1 0 0 1 3 2 0 1 1 1 2 0 2 1 1 0 5 0 0 1 1 1 2 0 1 1 1 0 1 0 1 1 1 0 0 1 0 0 1 0 0 0 2 0 0 1 1 0 0 1 2 0 0 0 0 1 0 0 0 0 2 1 1 1 0 0 0 0 0 0 0 0 2 4 1 0 1 1 2 0 5 0 1 0 0 2 6 0 0 1 2 1 0 0 1 0 0 2 0 0 0 0 0 0 3 1 2 0 0 1 2 0 0 0 2 2 0 4 0 7 1 4 27 20 30 39 48 57 64 71 77 81 87 92 95 100 100 106 111 112 115 117 120 120 123 119 125 126 127 128 128 129 130 132 134 133 129 135 123 137 137 139 139 139 140 140 143 141 143 142 142 143 142 141 134 142 126 129 141 140 141 138 127 137 133 127 90 91 63 35 14 18 2 1 1 0 0 1 7 1 0 3 1 10 2 1 0 1 2 2 0 0 0 0 2 0 0 0 1 1 1 0 1 1 0 0 0 11 0 1 0 0 0 0 1 0 0 0 0 0 0 1 0 0 0 0 0 1 0 0 1 1 0 1 1 0 0 2 0 1 1 0 1 0 1 2 0 7 1 0 0 0 0 3 1 0 0 0 0 0 0 0 2 0 1 4 0 2 0 1 0 0 0 0 1 1 1 0 0 1 0 2 1 1 0 0 1 1 1 1 1 0 1 2 0 0 1 0 1 1 0 0 1 1 0 2 0 1 0 0 2 1 0 1 0 1 0 0 1 0 1 1 1 0 0 0 0 0 0 0 0 0 0 0 1 1 3 2 1 0 0 0 2 1 0 0 0 0 0 0 0 1 0 2 1 0 0 2 6 0 4 1 0 1 1 0 0 1 2 0 1 0 1 0 0 2 0 2 0 0 0 2 0 0 1 0 0 4 0 0 0 0 1 1 0 1 0 1 0 1 0 0 3 0 2 0 0 1 2 0 0 0 1 1 0 0 2 0 1 1 0 0 1 2 1 0 0 2 1 0 1 1 1 1 0 2 1 1 0 
2 1 0 0 0 0 0 1 1 1 0 1 1 0 1 1 6 0 1 1 0 1 0 2 0 0 4 2 1 1 0 1 0 1 1 1 0 1 0 2 4 1 0 0 1 0 2 0 0 0 0 1 1 0 1 0 1 0 0 1 6 0 1 0 1 0 0 0 0 1 1 0 1 1 8 7 2 0 0 1 0 1 1 0 0 0 1 0 0 0 1 0 1 4 0 4 0 3 1 1 0 0 0 0 0 1 6 3 1 0 0 0 0 2 0 0 0 1 0 0 0 2 4 0 1 0 0 0 2 1 0 0 0 1 2 0 0 0 1 1 1 0 0 1 0 0 1 0 2 1 2 0 0 0 0 0 0 2 5 0 0 0 0 0 0 0 0 0 0 2 1 0 0 2 1 0 2 0 0 0 0 1 1 0 1 1 1 1 1 1 0 1 1 7 5 0 0 1 0 2 1 1 0 1 0 1 0 1 1 1 0 0 0 1 1 1 0 0 1 0 0 0 1 1 1 0 1 1 0 1 0 4 1 0 0 0 1 0 1 0 1 0 0 0 0 2 0 0 0 1 0 0 1 2 1 1 0 4 2 0 1 1 0 0 0 0 0 2 0 1 0 0 0 1 0 1 0 1 0 1 1 1 0 3 0 0 1 0 3 0 0 1 0 1 0 1 0 1 0 0 2 7 1 2 10 2 4 7 12 24 34 44 55 63 71 71 83 88 92 97 100 105 108 111 113 116 106 118 119 121 122 123 119 125 127 127 129 129 130 131 132 133 134 134 137 136 137 135 138 139 137 137 136 123 114 117 132 130 128 126 106 119 113 106 74 81 56 24 8 3 2 0 2 0 0 1 0 0 10 6 0 3 1 2 0 0 1 1 4 2 4 2 1 0 0 1 1 0 1 2 0 0 1 1 5 0 0 0 5 6 1 0 0 0 0 1 1 2 0 1 2 1 0 0 2 1 1 1 1 0 2 0 1 1 0 0 1 0 1 0 1 1 0 0 1 0 0 1 2 3 0 0 0 1 1 0 3 0 0 0 0 0 0 0 0 1 2 2 0 0 1 0 0 0 0 1 2 7 1 1 0 1 0 1 0 3 2 3 0 7 3 1 0 1 0 0 1 1 0 2 0 0 0 1 1 1 0 0 1 1 0 0 0 0 0 3 0 0 0 0 1 0 1 2 0 0 2 0 0 0 0 1 0 1 1 1 0 1 1 1 0 0 1 1 1 0 0 1 1 1 0 0 1 2 1 1 0 0 0 1 0 2 0 1 0 1 1 0 1 2 6 0 1 0 0 1 0 7 1 0 0 0 0 2 0 0 0 0 1 0 0 0 0 0 0 1 0 4 1 0 0 0 0 2 0 0 0 0 0 0 1 2 1 0 1 2 0 0 3 1 4 0 1 0 1 0 1 0 2 0 0 1 1 1 2 1 1 0 0 1 
1 1 0 0 1 4 2 9 4 1 8 5 0 0 0 1 0 1 0 1 3 2 0 1 0 0 0 2 1 0 0 1 0 0 1 0 0 3 1 0 0 1 1 0 0 0 0 0 0 1 4 0 0 1 1 2 1 1 1 2 0 2 0 1 0 0 4 0 1 0 2 0 1 1 0 0 0 0 0 0 0 2 1 0 0 0 0 5 1 1 0 1 1 2 0 1 1 3 1 1 2 0 1 2 0 0 1 11 3 0 0 2 0 0 0 2 2 1 0 0 0 0 0 0 1 0 3 1 1 2 1 9 0 0 1 0 1 0 0 3 0 0 0 1 0 1 0 0 0 0 1 0 0 0 0 1 0 1 1 0 0 0 0 0 0 1 0 1 0 0 0 1 1 1 1 3 0 0 6 2 0 2 3 0 2 0 1 5 1 1 1 0 2 6 1 0 0 0 1 0 1 0 2 0 2 1 0 1 1 1 2 0 1 0 7 9 2 0 0 0 1 1 1 0 0 1 0 2 1 1 0 0 1 1 0 3 0 1 1 0 1 0 0 0 0 0 0 0 0 0 0 0 1 1 0 0 0 1 1 0 1 0 0 0 0 0 1 2 2 1 0 0 0 1 0 0 0 2 1 1 2 7 2 5 1 0 1 0 0 0 1 1 0 0 0 1 0 1 1 0 4 1 1 0 0 0 0 0 7 1 2 3 7 16 27 37 47 60 69 76 83 88 93 96 98 90 101 106 105 108 111 110 111 100 116 117 118 115 119 121 123 124 126 126 127 129 128 108 127 126 110 120 118 113 108 101 95 88 75 65 54 41 41 19 11 6 3 3 1 1 0 0 1 1 0 1 0 1 0 1 0 1 0 2 0 1 1 0 1 0 4 0 2 1 1 1 1 1 1 0 5 2 1 0 0 1 2 0 1 1 0 0 1 0 1 1 0 0 2 2 6 1 2 0 2 0 0 0 0 0 0 2 0 1 0 1 1 0 0 1 1 0 1 1 0 0 1 0 0 1 0 0 0 6 0 0 1 0 1 0 1 0 2 0 1 0 0 0 0 0 0 1 1 0 0 1 0 0 0 0 8 0 1 1 0 0 2 1 2 3 1 0 0 1 1 1 0 1 1 1 1 0 1 1 0 0 0 0 0 1 0 1 1 0 0 2 1 0 0 0 1 0 2 1 0 0 4 0 1 0 1 0 0 0 0 0 2 0 0 0 0 0 0 0 1 5 6 0 1 0 2 0 1 1 0 1 2 0 0 0 0 0 0 0 0 1 1 0 2 1 1 0 0 0 1 8 0 1 0 0 1 1 0 0 0 1 0 0 0 1 1 2 0 1 1 0 1 1 1 0 0 0 4 2 3 1 0 0 0 0 0 0 1 0 1 5 2 2 0 0 1 0 0 1 1 0 1 0 0 0 0 1 0 1 1 0 1 2 1 1 
1 2 1 0 0 5 0 0 1 1 0 1 1 1 0 1 0 1 1 0 0 1 0 0 0 1 0 0 1 0 1 0 3 1 0 0 0 0 2 1 1 1 1 1 0 0 0 0 1 1 0 1 1 1 0 1 1 0 0 0 1 0 0 0 1 0 2 1 1 0 0 0 0 1 0 1 0 4 0 0 1 0 1 0 0 1 0 0 2 1 1 1 0 2 0 0 0 3 1 1 0 1 0 0 0 0 0 4 5 1 2 0 0 0 2 1 0 3 1 2 1 5 1 0 6 0 5 1 1 2 1 0 1 1 1 2 1 0 0 1 1 1 1 0 2 0 0 0 0 0 9 1 0 0 1 7 1 0 0 2 1 1 1 0 0 1 2 0 0 0 1 0 0 1 0 0 0 2 2 0 0 0 0 0 0 1 1 0 2 0 0 2 1 0 2 2 1 2 0 0 0 0 3 0 1 4 1 0 1 0 0 0 0 1 1 1 0 1 0 0 0 0 1 0 0 1 0 1 2 0 0 1 0 0 0 0 1 0 0 1 2 0 1 1 0 1 1 1 0 0 1 1 1 0 0 1 2 0 2 1 0 0 0 0 0 0 1 0 2 1 2 1 1 0 0 0 0 0 0 1 0 1 0 0 0 0 1 6 1 0 5 1 2 2 0 1 0 1 0 3 1 1 4 0 0 1 0 1 2 0 0 0 2 0 8 1 4 9 18 29 41 50 56 61 64 67 72 74 76 79 80 84 70 88 72 93 95 97 88 102 104 106 96 109 109 106 81 97 90 82 68 63 51 40 29 20 11 7 6 2 2 2 1 1 6 1 0 1 0 1 1 0 8 9 2 0 0 1 0 0 0 0 0 1 0 1 0 0 0 1 1 1 2 0 1 0 0 0 0 0 0 0 0 1 0 0 1 1 1 3 7 0 1 1 1 9 1 2 0 2 1 1 1 2 5 0 1 4 0 0 0 1 0 0 1 1 1 1 2 0 1 1 3 0 0 0 2 0 0 0 0 0 1 6 1 2 0 0 1 1 0 1 0 0 2 0 0 2 0 0 1 1 0 1 0 0 1 0 1 0 0 0 0 1 0 0 0 1 0 1 1 0 0 0 0 0 6 1 1 1 4 1 0 0 1 0 1 0 0 0 0 0 0 0 1 0 0 0 0 0 0 1 7 2 0 0 0 0 0 1 0 0 1 1 1 0 0 1 0 1 0 0 0 0 6 1 0 5 0 1 1 4 0 1 1 0 2 0 0 0 0 0 0 0 0 0 0 1 0 1 1 0 2 1 0 1 1 1 0 0 0 0 0 1 0 1 0 0 0 2 0 0 5 1 0 0 0 0 0 0 0 1 0 1 0 0 0 0 0 0 1 0 3 0 1 1 0 0 0 0 2 0 0 0 1 0 0 0 1 0 1 1 1 0 1 3 0 1 1 0 
1 0 0 1 4 0 1 0 0 0 1 0 0 0 0 4 0 0 0 0 1 0 0 1 2 0 1 1 0 2 0 1 0 0 0 0 1 1 0 1 1 0 0 1 3 1 0 0 0 0 1 0 1 0 2 0 2 1 1 0 0 0 0 0 1 2 0 1 1 0 1 1 1 1 0 0 2 3 2 0 1 0 0 1 2 0 1 0 1 1 1 0 0 0 2 1 0 1 0 0 1 2 1 1 1 0 1 0 2 1 0 0 1 0 2 1 0 4 3 9 1 2 2 4 6 0 1 4 0 1 1 1 0 2 1 1 0 0 0 1 0 0 1 3 2 1 0 0 2 1 1 3 0 1 1 0 1 3 0 0 0 2 0 1 1 0 1 0 1 0 1 0 0 0 1 0 0 0 0 0 0 0 1 1 1 1 0 1 1 1 0 1 0 0 0 0 0 0 0 2 1 1 0 0 0 1 0 0 1 1 0 0 0 0 2 1 0 1 0 0 0 1 1 1 1 0 0 1 1 1 1 0 1 3 0 0 2 0 6 1 0 0 7 1 2 0 4 1 3 0 0 0 0 0 0 0 0 0 0 1 0 0 2 1 0 1 1 7 0 0 1 1 1 0 0 0 1 0 0 0 0 0 0 0 1 1 1 1 4 1 1 0 1 0 0 0 0 1 0 0 0 1 1 0 0 1 0 1 2 2 0 7 1 0 0 0 1 0 0 2 3 3 5 5 6 7 8 9 12 16 18 20 22 28 43 33 37 39 43 47 50 51 54 53 48 39 27 18 11 8 4 4 3 7 1 0 0 0 0 0 0 0 0 3 6 2 3 1 0 1 0 0 0 2 1 1 1 1 0 0 1 2 2 0 1 1 1 1 0 2 1 1 0 0 0 0 0 0 0 0 0 0 1 1 0 0 0 0 0 1 0 5 1 0 0 1 1 1 0 0 0 1 1 0 1 0 0 0 0 0 0 6 0 1 1 0 0 1 1 0 1 0 0 0 0 0 0 2 8 5 1 1 0 0 2 0 2 0 0 0 0 1 0 3 0 1 1 1 0 5 0 2 0 0 1 0 0 0 0 2 1 1 0 1 0 0 0 1 1 1 1 0 1 0 0 1 1 1 0 0 0 0 0 0 0 0 1 0 0 0 0 0 0 0 1 0 0 0 1 0 0 0 1 0 0 2 0 2 1 1 1 0 0 0 0 0 0 0 0 1 1 1 0 4 1 1 0 1 1 1 4 1 0 0 2 0 0 0 0 2 0 1 1 0 0 1 1 2 0 0 0 1 1 0 1 1 1 0 0 0 1 0 0 0 0 1 3 0 0 0 1 1 3 0 0 1 1 0 1 0 1 1 6 1 0 0 0 2 1 1 1 0 0 0 1 0 0 1 0 0 0 0 1 0 0 0 1 0 0 1 1 0 1 1 1 1 1 1 0 0 
0 1 1 0 2 5 1 1 1 1 1 4 1 0 0 2 1 1 1 0 0 0 0 0 0 0 0 0 0 0 0 0 0 0 0 0 1 1 0 1 0 0 0 1 3 0 1 1 0 0 1 0 0 1 0 0 2 9 1 1 0 7 0 1 0 0 0 1 0 1 1 1 1 2 2 5 1 1 0 0 0 0 0 1 0 4 0 2 0 1 1 1 0 0 1 0 0 0 0 1 0 1 1 3 0 0 0 0 0 0 0 0 0 0 0 0 1 2 4 2 0 0 0 2 1 0 0 1 1 1 0 3 1 0 1 1 0 1 0 1 1 0 2 2 6 1 0 3 2 2 2 2 1 1 3 1 0 0 0 0 0 1 0 0 0 0 0 1 1 0 1 0 0 0 1 0 0 0 0 1 1 0 1 4 1 0 0 0 0 0 1 0 1 0 1 0 1 1 1 1 3 0 0 0 1 1 2 1 0 0 0 0 0 1 0 0 0 0 1 0 1 1 2 0 1 0 0 0 1 0 0 0 0 1 0 0 1 1 1 0 1 0 0 1 2 1 1 0 1 0 0 2 0 2 1 1 0 2 1 1 0 0 1 1 1 0 2 0 0 0 3 0 0 0 0 0 0 0 0 0 0 0 2 0 2 1 1 0 0 0 1 3 0 2 2 0 1 0 1 3 1 0 0 0 0 0 0 9 1 6 1 2 3 0 0 0 0 0 0 1 0 1 0 3 2 0 0 0 0 8 0 0 0 1 1 1 3 3 3 13 19 5 3 2 3 2 2 13 1 0 1 0 1 6 1 0 1 2 2 2 1 0 0 0 1 1 0 0 0 1 0 0 0 0 0 1 0 1 0 1 1 0 0 0 0 0 1 0 0 1 0 0 1 1 1 1 1 0 0 0 4 0 0 0 1 0 0 0 0 0 0 1 0 0 0 0 0 0 2 0 0 0 0 0 0 0 1 2 0 1 0 1 1 2 0 0 0 1 2 1 0 1 0 1 1 1 0 3 1 1 1 0 1 2 1 0 2 1 1 0 1 4 0 1 1 1 1 1 1 0 2 0 0 0 1 1 0 0 0 0 0 2 0 0 0 1 0 1 1 0 0 0 0 0 0 0 1 0 0 0 0 3 0 0 0 2 1 1 0 1 0 0 1 1 1 1 1 0 1 0 0 0 0 0 0 0 0 0 1 1 2 0 0 0 0 1 4 1 0 0 1 1 3 0 0 0 0 1 0 1 1 0 0 0 1 1 0 0 0 0 3 1 0 0 0 1 0 0 0 0 0 1 1 0 0 1 0 2 4 1 1 1 0 0 0 1 0 0 0 0 1 1 1 0 0 1 0 0 0 4 0 0 1 1 2 3 0 0 8 1 1 1 0 0 0 1 1 1 0 3 1 5 0 0 0 0 0 1 0 0 0 1 1 3 0 0 1 0 0 0 
2 0 0 0 4 0 0 0 1 0 1 1 2 0 1 0 1 7 0 0 0 0 0 0 1 6 1 1 0 0 0 1 0 1 1 0 0 0 0 0 0 2 0 0 0 1 0 0 0 0 0 0 3 1 2 0 1 1 0 3 0 1 0 1 0 1 1 0 1 0 2 4 2 0 0 1 1 1 0 0 0 0 1 0 1 4 2 0 0 1 0 0 1 0 0 0 0 0 0 0 0 1 0 1 0 1 1 0 0 0 1 0 0 1 0 0 0 0 1 0 0 1 1 0 0 1 0 0 0 1 2 0 1 0 0 3 0 0 1 0 0 0 1 1 0 0 0 1 1 2 2 9 0 1 0 0 0 0 0 6 2 0 0 1 1 0 0 0 1 0 1 1 0 1 0 0 4 1 0 0 0 0 0 0 1 2 1 0 1 1 0 0 0 1 1 0 0 0 4 1 1 0 1 1 1 0 2 1 2 1 1 1 1 0 2 5 2 0 0 0 1 2 1 0 0 1 0 6 1 0 1 0 0 1 0 0 1 1 1 0 0 0 7 1 0 0 0 1 0 0 0 5 0 1 5 1 0 2 7 0 0 0 0 1 0 0 0 0 0 0 7 9 1 0 6 3 1 0 0 0 0 0 0 0 1 0 1 4 1 0 0 1 0 0 1 0 1 1 0 0 0 0 0 1 1 1 0 0 1 2 0 0 1 0 0 0 0 0 0 0 1 3 2 0 0 6 0 0 4 0 1 0 2 1 1 0 0 0 5 0 1 1 0 0 0 0 4 1 0 0 2 0 1 1 1 1 1 0 0 2 0 0 1 1 0 0 1 0 0 0 0 1 1 0 1 0 1 1 1 1 0 0 1 0 1 0 0 2 1 1 0 0 3 2 0 3 3 0 2 2 0 1 0 0 2 1 0 0 0 0 0 1 0 2 0 1 0 0 0 0 1 1 0 2 0 2 1 0 1 1 2 1 1 1 0 2 1 4 2 1 1 0 0 0 0 0 0 1 1 0 0 0 1 0 8 0 0 1 0 2 0 1 1 4 0 0 0 0 3 2 0 1 1 8 4 0 3 0 0 3 0 0 0 2 0 0 0 0 0 0 0 1 0 2 3 1 0 0 0 0 0 1 0 1 0 0 1 0 2 1 0 0 0 0 0 1 2 0 0 1 1 0 0 1 0 0 2 0 1 0 0 3 1 0 0 0 0 0 0 0 0 2 1 0 0 0 1 1 0 0 0 0 0 1 3 0 2 6 0 4 0 5 5 0 2 1 2 0 1 0 0 0 0 1 0 1 1 0 1 0 0 1 3 0 1 0 1 0 2 1 0 0 0 0 0 0 0 0 2 1 3 1 2 0 0 1 0 0 1 1 0 1 0 0 0 0 1 0 0 2 0 0 1 1 2 2 0 0 1 0 0 0 0 0 0 0 3 0 0 0 
2 0 0 0 2 1 0 0 1 1 1 1 1 0 0 1 0 1 2 2 0 1 1 1 1 1 2 0 2 0 0 0 0 0 0 0 0 1 0 0 0 0 0 0 1 0 0 0 0 0 0 1 1 0 1 0 0 0 0 1 1 0 3 0 1 0 1 0 0 0 0 0 1 0 0 1 0 0 2 0 0 2 1 0 1 0 1 1 0 0 3 0 0 0 0 0 0 1 1 1 1 0 0 0 1 3 0 0 1 1 2 0 1 0 0 1 1 0 2 1 0 0 1 1 0 0 0 0 1 1 2 0 3 0 0 0 0 1 0 1 0 1 2 0 0 0 1 2 1 1 0 2 1 0 2 1 1 0 2 0 1 1 2 0 0 0 0 0 1 2 1 0 2 0 0 0 0 0 0 0 0 0 0 0 1 0 0 1 1 1 0 0 0 1 0 0 0 0 2 1 1 3 0 1 0 0 2 0 0 0 1 1 1 0 1 0 3 1 0 0 1 0 3 0 0 3 0 0 3 0 2 1 0 0 0 1 1 0 0 0 0 0 1 0 1 0 0 1 0 0 0 2 0 1 1 0 1 1 2 0 0 0 0 0 0 0 0 0 1 1 0 5 6 1 0 0 0 0 0 1 0 0 0 0 0 0 1 1 1 0 1 1 2 0 1 0 0 1 2 1 0 0 0 0 1 2 0 1 1 2 0 1 2 0 0 0 0 1 1 0 1 1 2 0 1 1 0 0 1 0 0 0 0 1 0 1 0 2 0 1 0 1 0 0 4 0 0 1 0 0 0 1 0 0 0 0 2 0 0 1 3 0 1 1 0 0 1 0 0 3 0 1 1 0 1 1 0 1 0 0 0 0 1 1 0 1 1 0 1 2 0 0 0 1 1 0 0 0 2 1 4 0 1 1 2 1 0 2 0 0 1 0 0 0 0 0 0 1 0 1 0 1 0 0 1 0 0 0 0 0 1 2 0 1 0 0 1 0 0 1 0 0 0 0 0 0 0 1 0 0 5 1 1 1 1 1 0 0 0 2 1 0 2 2 1 0 0 0 1 0 1 0 0 3 1 1 3 0 0 0 0 4 1 1 1 0 0 0 0 1 1 0 0 1 0 0 1 0 1 1 3 0 0 0 0 0 1 1 0 1 1 0 0 0 0 0 2 1 1 1 2 1 1 0 0 4 0 0 1 0 0 1 1 1 2 1 1 1 1 4 0 1 0 0 0 0 0 1 0 0 0 0 0 1 0 1 1 1 1 1 0 3 9 0 4 3 0 1 1 0 2 2 0 0 0 0 1 0 0 0 1 0 0 0 1 0 0 1 1 1 0 0 0 0 0 0 2 1 1 0 0 1 0 0 4 1 0 0 0 0 0 0 0 1 0 0 0 0 0 1 1 1 2 2 4 0 0 0 1 1 0 1 0 3 1 0 1 0 1 0 
1 1 1 0 0 7 0 1 3 2 0 0 0 1 0 2 1 0 2 1 3 2 5 1 0 0 1 0 0 3 1 0 0 0 0 0 1 0 1 0 0 0 2 0 0 0 1 1 2 0 0 0 1 0 0 1 0 4 0 0 0 2 0 0 0 2 0 0 1 1 1 2 0 0 1 0 0 0 1 0 4 1 0 1 0 1 0 0 1 0 0 0 0 0 1 1 0 1 0 1 0 2 7 0 0 0 1 0 0 1 1 1 0 0 0 1 1 0 0 0 0 0 0 0 0 1 0 0 0 1 2 1 0 1 1 1 0 0 0 0 0 0 1 0 0 1 1 0 3 0 2 0 0 0 1 0 1 0 0 1 0 1 0 0 0 0 0 0 0 0 1 1 0 0 0 0 0 2 1 0 2 0 0 1 0 0 0 0 0 1 1 0 0 1 0 0 1 4 1 0 0 1 0 0 0 0 2 1 1 0 0 0 0 1 5 4 0 2 1 3 1 1 0 0 0 1 5 2 0 2 2 1 0 0 0 0 1 0 1 1 1 0 0 1 0 0 0 0 1 0 2 1 0 0 2 2 0 1 0 1 0 0 2 5 0 0 0 0 0 4 1 0 1 1 0 0 0 0 1 1 1 0 0 0 0 0 4 1 0 1 4 0 0 0 1 0 0 0 1 5 1 1 0 2 2 1 1 1 1 0 0 1 0 2 0 1 1 6 1 1 1 1 1 0 0 0 1 1 0 0 1 1 1 0 0 0 0 0 0 1 1 1 1 0 0 1 7 1 0 0 0 0 1 1 0 0 1 0 2 0 0 0 5 1 0 3 7 2 1 0 0 1 1 4 1 4 0 0 0 1 0 0 0 0 2 0 0 1 0 1 0 1 0 1 1 0 1 0 2 1 0 1 1 1 1 2 1 0 2 0 1 1 6 1 1 0 1 1 0 2 0 0 1 7 1 0 0 0 0 2 3 0 0 0 0 0 0 0 1 0 2 1 1 0 1 0 0 9 0 2 1 0 0 0 1 1 1 1 5 1 0 0 1 0 0 0 0 1 0 0 1 0 0 0 1 0 3 1 2 1 0 1 1 0 7 2 0 1 2 0 0 2 1 0 0 1 2 0 1 1 1 2 0 0 2 0 1 1 2 0 1 1 0 0 0 1 0 0 0 0 1 0 1 1 0 3 4 1 1 0 0 0 1 0 0 0 1 1 7 2 1 0 1 1 1 1 2 0 1 0 1 1 0 1 2 1 0 2 1 0 0 1 1 0 1 1 1 0 0 0 1 0 0 0 1 0 0 0 0 0 0 0 0 1 1 0 0 4 1 1 1 0 1 0 6 0 0 1 1 0 0 0 0 1 0 0 1 2 0 0 0 0 1 1 0 0 0 2 2 2 1 1 0 1 0 0 0 2 1 1 0 1 1 1 0 0 2 1 0 0 
1 1 0 0 0 0 0 0 0 1 0 0 2 0 0 1 0 0 2 1 0 0 1 4 1 0 0 0 0 0 2 1 0 0 0 0 1 1 1 0 0 1 4 1 0 1 0 0 0 0 1 1 0 0 0 0 0 2 2 0 0 1 1 0 2 0 1 0 1 1 0 0 1 1 0 0 0 0 0 1 0 0 1 1 0 1 0 0 0 0 0 0 1 0 1 0 1 1 0 1 4 2 1 0 2 1 0 8 0 0 0 0 0 0 0 0 0 3 1 0 3 1 0 1 1 0 1 4 0 5 1 0 3 1 2 0 1 0 0 0 2 1 0 1 8 1 1 1 0 0 1 0 0 0 0 0 1 1 0 1 0 0 0 0 0 0 0 1 0 0 1 0 0 1 0 2 0 0 0 2 6 1 0 1 0 0 1 0 1 0 0 0 0 0 0 0 1 1 1 0 1 0 1 1 0 0 1 0 1 0 0 0 1 1 0 1 1 0 0 0 1 0 2 0 1 1 0 0 1 5 2 0 2 1 0 5 1 0 0 1 0 0 0 0 0 0 0 0 0 2 1 0 2 0 0 0 0 0 1 0 0 0 0 1 0 0 1 0 1 2 0 0 1 0 1 2 0 0 1 0 0 0 3 1 1 2 0 0 0 0 0 0 0 0 0 1 2 0 1 0 0 0 0 1 2 1 1 1 0 1 1 0 0 0 0 0 1 1 0 0 2 1 2 1 7 0 0 1 0 0 0 1 1 0 0 0 1 3 0 0 0 0 1 1 0 1 1 1 1 0 1 1 0 0 2 0 0 0 0 0 1 1 0 2 0 1 0 1 0 0 0 0 1 1 0 1 1 0 0 1 1 1 0 1 1 1 0 0 1 2 0 0 0 0 1 1 3 0 0 2 0 0 4 0 0 0 0 0 0 0 0 0 0 0 0 2 0 0 0 0 0 1 1 2 0 0 0 1 7 0 0 0 1 0 0 2 1 3 0 0 1 0 1 0 0 1 0 2 0 3 1 0 0 1 0 0 0 0 0 0 0 0 1 0 0 1 1 0 0 0 0 0 0 0 0 0 1 2 4 0 0 2 0 1 1 0 1 0 1 0 0 1 3 2 0 1 6 2 4 1 0 1 0 1 1 3 0 1 4 1 1 0 0 0 0 0 1 1 1 0 0 0 0 1 2 2 2 0 0 1 1 0 0 0 0 0 0 0 1 1 0 1 1 1 2 2 1 1 0 2 1 1 1 0 5 1 1 0 0 0 0 0 1 0 1 0 0 0 1 0 1 1 0 0 0 0 0 0 0 1 0 0 0 1 1 0 2 0 0 1 1 0 3 2 0 0 1 0 0 0 0 0 0 0 1 0 0 1 0 1 0 2 0 0 0 1 1 0 0 0 0 1 0 0 0 0 0 0 0 0 0 1 0 3 0 0 0 0 0 0 
1 0 1 1 0 0 1 0 0 0 0 0 0 2 0 1 0 1 0 0 0 0 1 0 0 0 0 0 0 1 0 0 1 2 0 0 1 2 2 4 0 2 0 2 0 2 1 0 0 1 1 1 1 0 0 0 1 1 0 0 1 3 1 0 0 1 0 1 0 1 0 0 0 1 0 0 0 0 0 0 0 0 1 1 0 1 0 0 1 0 0 0 1 0 2 0 5 0 0 5 1 1 4 1 1 0 4 0 0 0 0 1 0 1 0 1 1 0 1 1 2 0 0 0 1 0 1 0 0 1 0 0 0 0 1 0 2 0 1 1 1 1 1 0 0 2 7 1 0 2 0 1 1 0 0 0 5 1 1 0 1 0 0 1 0 1 0 0 1 0 0 0 0 1 2 0 1 0 1 0 0 1 0 0 1 0 1 2 1 0 0 0 0 0 0 1 0 0 0 3 0 1 1 0 3 0 0 1 1 1 0 1 0 1 0 0 1 2 0 0 0 0 0 0 2 1 0 1 0 1 0 0 1 1 0 2 3 2 1 0 1 1 2 1 2 1 0 0 0 1 1 0 1 3 3 1 1 0 0 2 1 0 1 2 0 1 0 0 0 0 1 6 1 2 1 1 1 1 2 1 1 0 1 0 1 1 1 0 0 0 0 1 2 0 0 0 1 0 1 1 0 1 2 0 1 0 0 1 4 0 1 0 0 1 0 1 1 1 0 0 1 0 0 2 0 1 0 0 0 0 0 0 1 1 0 8 0 2 1 0 0 1 1 1 2 0 0 4 1 0 0 0 0 2 0 2 0 0 0 0 3 0 0 0 0 0 1 0 2 1 4 0 0 1 1 0 1 1 1 1 0 1 0 0 1 1 0 2 1 0 0 0 2 2 0 1 0 1 1 1 0 0 0 0 0 0 0 0 0 0 0 3 1 2 0 0 1 1 0 1 0 0 0 0 1 1 1 1 1 1 0 0 0 1 0 5 3 0 0 2 0 1 1 1 1 0 1 0 2 1 1 0 0 1 4 7 0 1 1 1 0 0 0 1 2 1 0 0 1 0 0 0 0 0 0 1 0 0 0 1 0 1 0 0 0 0 0 0 0 1 1 4 0 0 0 1 1 2 0 1 0 0 0 1 2 3 1 0 0 0 0 1 0 2 0 0 1 1 2 0 0 0 0 1 3 0 1 0 0 0 0 0 0 2 0 1 0 0 0 1 3 2 0 0 0 1 0 0 9 3 0 0 1 0 1 1 3 1 1 0 1 1 1 0 1 1 2 1 0 0 0 1 0 0 1 0 0 1 0 1 0 0 2 0 0 0 0 1 0 1 1 0 0 0 1 0 1 1 1 0 0 0 0 0 1 0 0 0 0 0 0 0 0 1 1 1 0 1 1 0 0 0 2 0 1 0 2 1 0 0 2 0 2 0 0 0 1 3 0 3 
1 1 1 0 0 0 0 0 0 1 0 0 0 0 0 0 0 4 1 0 0 1 1 1 0 0 0 0 0 0 1 0 0 0 5 2 4 0 0 2 1 0 1 0 0 1 1 0 1 1 7 2 1 0 0 0 1 1 1 0 0 1 2 0 1 3 0 1 0 0 0 0 0 0 1 0 1 0 0 1 5 1 2 0 2 0 0 0 1 1 0 0 1 3 1 0 0 0 1 0 0 0 3 2 0 2 1 2 1 0 0 1 3 1 0 1 0 1 2 1 0 0 0 2 0 0 5 0 1 0 0 0 0 0 1 0 0 1 0 1 1 1 1 0 4 7 0 1 1 0 0 0 0 0 2 0 1 0 0 0 1 0 0 1 1 0 0 1 3 0 0 0 0 0 0 1 1 1 0 0 0 0 0 1 2 0 0 0 0 0 1 0 0 1 0 0 0 0 1 1 0 0 0 0 0 1 1 0 0 0 1 0 0 0 0 1 0 0 1 0 1 6 0 1 0 0 0 1 0 0 2 1 2 0 0 0 4 1 0 1 7 1 0 3 1 1 0 1 0 0 1 0 0 1 0 1 1 0 0 4 1 1 4 0 1 0 0 0 2 0 0 1 1 1 0 3 1 0 1 1 0 1 1 0 0 1 1 2 0 0 1 0 3 9 5 6 0 1 0 0 0 2 0 1 0 1 1 1 0 1 0 0 1 0 1 0 0 0 1 1 0 0 0 0 1 4 1 1 4 0 0 0 0 1 0 1 8 2 0 2 1 2 0 1 2 0 0 1 0 0 0 1 1 0 1 0 1 2 0 1 1 0 0 0 1 5 1 1 3 3 1 0 1 0 1 0 0 1 7 0 1 0 0 0 0 0 0 1 0 0 1 0 0 2 0 1 0 0 0 1 4 6 0 0 0 0 1 0 0 2 1 0 0 0 5 0 5 0 0 2 5 4 1 0 4 1 2 0 1 2 8 1 1 2 0 0 2 2 0 1 0 0 0 0 1 0 2 1 1 0 2 1 1 2 1 2 0 1 0 1 0 0 0 1 0 0 0 0 1 0 0 0 1 0 0 0 4 0 2 0 2 0 0 1 0 0 0 0 0 8 0 1 1 3 2 0 0 1 0 0 0 0 1 0 3 0 0 0 1 2 1 1 0 0 1 0 1 0 1 1 0 2 1 0 1 2 0 2 1 0 0 0 0 2 1 0 3 0 0 1 0 0 1 0 1 0 0 0 1 1 5 0 0 0 0 0 0 9 1 1 0 0 1 0 0 0 0 0 0 0 0 0 1 2 0 2 3 1 2 0 0 1 0 1 0 0 0 0 1 0 0 0 1 0 0 0 0 0 0 0 0 0 0 1 1 1 0 1 0 0 0 0 4 1 0 2 0 0 0 2 1 0 0 0 0 0 0 0 0 1 1 0 0 1 0 4 0 0 0 1 
2 1 1 1 0 1 0 0 0 1 1 0 0 0 1 2 0 1 1 0 0 1 1 1 0 1 0 0 1 1 1 1 0 1 2 1 0 0 0 0 0 1 1 0 1 0 1 1 3 1 0 2 0 0 0 0 0 1 7 0 0 1 4 2 0 1 0 2 2 0 0 0 0 0 0 1 3 1 0 1 1 0 0 6 0 1 0 0 0 0 0 0 0 0 1 5 2 1 3 0 0 0 0 1 0 0 7 0 0 0 1 1 0 2 1 0 1 2 1 0 1 1 0 1 0 1 5 0 0 0 0 1 0 1 0 0 0 2 0 1 0 0 0 2 0 2 3 1 1 2 0 1 2 1 0 0 0 0 0 1 1 0 0 1 0 0 1 1 5 0 0 1 1 0 1 4 1 0 0 1 1 0 0 0 0 0 0 1 0 0 0 1 1 1 0 0 0 6 2 0 0 0 1 2 1 0 0 1 0 0 1 0 0 0 1 0 1 0 0 0 0 1 0 0 0 0 3 0 1 0 0 1 1 1 1 2 0 0 0 1 4 1 2 1 0 1 1 0 0 0 0 0 0 3 1 0 9 1 1 7 1 1 1 0 1 0 1 0 0 0 0 1 0 0 2 0 1 1 0 7 0 1 0 0 0 0 0 1 1 1 1 0 10 10 9 0 0 2 0 1 0 6 1 0 0 0 0 1 0 0 0 0 0 0 0 0 0 0 1 3 0 0 0 0 1 2 2 1 1 2 1 0 1 0 0 0 0 0 0 0 2 1 0 0 0 1 1 1 2 0 1 2 0 1 0 0 0 0 1 0 1 0 0 0 0 0 0 1 1 0 1 3 2 0 0 1 0 0 0 0 0 0 1 0 0 1 0 2 0 0 1 1 2 0 1 0 0 1 0 0 1 1 1 0 0 0 0 0 0 1 1 0 0 1 1 0 0 1 0 0 1 1 1 1 1 0 0 1 1 1 2 1 8 4 1 0 0 1 0 7 1 0 0 0 0 1 0 1 2 0 0 1 0 0 0 2 1 0 0 0 0 1 1 0 1 1 1 1 0 0 1 0 1 0 1 0 1 0 0 0 6 9 0 0 0 0 1 0 1 0 1 1 2 1 7 5 2 0 0 1 1 0 0 1 1 0 3 0 1 0 1 0 0 0 0 1 0 0 0 0 1 0 1 0 0 2 0 1 1 0 1 0 1 0 0 1 1 0 0 0 0 0 1 0 2 0 0 0 3 0 0 0 0 0 0 1 1 1 3 1 1 2 4 0 1 1 0 0 0 0 0 0 1 0 1 1 0 1 0 0 0 1 1 4 0 1 0 0 2 1 0 1 0 1 1 1 0 0 1 2 0 0 0 1 2 1 2 0 0 1 0 0 0 8 1 0 0 1 0 0 1 1 1 1 0 1 1 1 0 1 0 2 0 1 0 0 0 0 0 1 
2 1 0 0 1 0 1 2 2 1 1 1 1 1 0 0 0 0 0 1 0 1 0 1 0 1 1 0 0 0 0 0 0 2 0 0 1 0 0 0 0 0 0 0 0 0 0 1 1 1 2 1 0 0 0 1 1 2 1 0 1 0 0 2 0 0 0 0 5 4 1 0 0 0 0 1 1 0 0 2 0 0 0 0 0 0 1 0 1 1 1 2 1 1 0 1 1 0 0 0 0 1 0 1 0 1 0 1 0 0 0 1 0 6 2 0 1 1 0 1 0 0 0 2 0 2 2 1 2 0 0 0 0 0 0 1 1 1 0 0 1 0 0 0 0 1 0 1 2 0 1 0 0 0 0 0 1 1 0 2 0 0 1 4 1 1 1 0 0 1 0 2 0 1 1 1 1 0 0 1 0 1 1 0 0 0 1 1 0 0 1 1 1 3 0 1 0 1 0 0 1 1 1 0 1 0 5 5 2 1 3 2 0 0 1 1 1 1 1 0 1 0 3 0 0 0 0 1 0 1 0 0 0 0 0 0 0 0 2 6 0 0 1 2 0 0 0 1 1 0 1 0 1 0 0 0 3 0 2 0 1 0 0 0 0 1 1 0 0 0 0 0 0 0 1 0 1 0 0 1 2 0 1 1 3 0 2 1 2 0 2 2 2 1 1 1 5 2 1 1 0 0 1 0 1 0 1 0 0 1 0 1 0 0 1 0 0 2 2 1 1 2 0 1 0 1 1 0 1 7 1 0 1 1 0 0 1 1 1 1 1 0 1 1 0 0 1 0 2 1 1 2 2 1 0 0 1 0 1 1 2 7 1 1 1 1 0 1 1 1 0 1 1 0 1 2 0 4 2 1 1 1 0 2 1 0 0 0 7 0 1 1 0 1 2 0 1 0 0 0 3 0 0 0 1 2 0 0 0 0 4 1 0 0 0 0 4 0 0 0 1 0 0 0 1 3 0 0 1 2 0 2 9 0 0 1 2 0 1 2 6 2 0 1 0 0 0 0 2 0 2 0 2 0 1 1 0 0 0 0 1 0 1 0 0 1 0 1 1 0 0 0 0 0 0 1 0 0 1 0 0 0 2 1 0 1 1 0 0 0 0 0 1 8 2 0 0 0 1 0 1 2 1 1 0 1 0 2 0 0 1 1 3 0 0 3 1 0 0 1 0 0 1 0 1 0 1 2 1 0 1 0 0 0 0 0 7 1 4 1 1 0 0 0 0 3 0 0 2 3 1 1 1 0 2 0 1 0 4 1 0 2 0 0 1 1 0 1 0 1 0 1 0 0 0 3 0 3 1 0 0 0 0 1 0 1 1 0 1 3 1 2 0 0 1 0 0 0 0 0 0 0 0 0 3 1 1 0 0 1 0 0 0 1 0 0 1 3 0 6 0 0 0 1 0 1 0 0 0 1 1 0 0 0 0 1 1 0 0 0 
0 0 0 1 1 1 3 0 0 0 0 0 0 0 1 0 0 0 1 0 0 0 0 0 1 0 0 0 2 0 1 1 0 0 0 1 0 1 1 0 0 0 0 0 0 0 1 0 3 1 1 3 0 2 1 0 0 0 1 1 0 0 1 2 6 1 0 1 0 0 0 0 1 0 1 0 0 0 0 1 0 1 0 0 0 2 1 0 1 2 0 0 2 1 1 1 0 0 2 1 1 2 1 0 2 1 0 0 0 0 0 4 1 0 0 4 1 0 1 0 1 1 0 0 3 1 2 1 0 1 0 0 0 0 1 1 1 0 0 0 2 0 0 0 7 1 0 1 0 1 0 1 0 0 0 0 0 0 1 0 0 2 0 0 0 0 2 1 1 0 1 0 0 0 1 1 0 1 1 2 0 0 1 0 2 0 1 0 0 0 0 1 1 1 1 1 1 1 0 1 0 1 0 0 1 0 0 0 4 4 1 2 0 2 0 0 0 0 1 1 0 1 5 0 3 1 0 0 0 0 0 0 0 0 0 0 1 1 1 1 0 0 0 1 0 1 0 1 6 7 0 0 0 0 10 0 0 0 2 0 1 0 1 0 0 0 1 0 1 0 0 0 0 0 1 0 1 1 0 1 0 0 1 0 1 0 1 1 1 2 0 1 0 1 1 0 1 1 1 0 0 1 0 1 0 1 1 0 0 1 1 0 0 0 1 0 1 1 0 3 1 0 1 1 0 0 1 0 1 7 2 1 0 0 0 0 0 1 1 1 0 1 0 0 1 1 0 0 0 0 0 0 0 0 1 2 1 0 0 0 0 0 2 1 1 1 3 2 1 5 0 0 2 2 0 1 0 6 0 1 0 0 2 0 2 2 0 1 1 0 0 0 1 2 0 0 0 0 1 0 0 0 0 6 0 2 1 0 0 1 1 2 1 0 0 1 2 1 0 1 1 2 0 1 1 0 0 0 0 0 0 1 1 0 1 0 2 1 1 0 8 2 2 0 0 0 0 0 1 2 0 1 0 4 2 2 0 0 0 3 1 1 2 0 0 1 0 0 1 0 0 2 0 0 0 0 0 1 2 2 0 0 0 0 0 1 5 1 1 0 0 0 6 1 0 0 1 2 0 0 0 0 0 0 0 0 2 0 2 0 1 0 0 0 0 0 0 0 1 0 0 0 0 0 0 0 1 3 0 0 5 4 0 0 0 1 1 0 0 0 0 0 1 0 1 0 0 1 6 0 0 0 1 0 0 1 0 7 1 0 1 2 0 0 1 0 4 1 0 0 1 0 1 0 0 1 0 1 1 0 0 0 1 3 0 1 1 0 0 1 0 0 1 0 0 0 0 1 0 1 1 0 1 1 1 0 2 0 0 2 1 1 0 1 1 0 2 0 0 0 1 0 0 0 1 1 0 0 0 0 1 1 0 0 4 1 1 0 0 2 
0 0 0 1 1 0 4 1 1 0 0 0 1 0 0 2 0 0 0 2 1 0 2 1 1 0 0 1 1 0 0 0 1 1 2 2 0 1 4 1 2 1 0 1 0 0 1 1 2 1 0 0 2 0 1 0 1 0 1 0 1 0 0 5 0 0 0 1 0 3 0 0 1 1 2 0 1 1 0 0 0 0 1 2 0 0 1 0 1 1 0 1 0 4 1 1 0 0 0 0 3 6 7 2 0 0 0 0 0 1 0 1 0 2 1 0 0 2 1 1 1 0 0 6 0 0 0 0 0 0 1 0 2 8 1 1 0 0 0 4 1 1 1 1 0 0 0 0 1 0 1 1 1 0 0 2 1 1 0 0 1 0 0 3 2 1 0 1 0 1 1 1 0 0 0 1 0 1 5 0 1 0 3 0 1 1 0 0 1 2 0 1 0 0 0 0 0 1 1 0 0 1 0 1 0 0 0 0 1 0 0 0 0 0 1 6 1 0 0 0 1 1 1 0 0 7 2 1 0 0 0 0 0 1 0 1 0 0 0 0 0 0 0 0 1 0 0 0 2 5 1 2 0 0 0 0 0 0 2 0 1 1 1 0 0 0 1 0 1 1 2 1 0 0 1 0 1 1 0 1 0 1 1 0 2 0 0 0 0 1 0 0 1 2 1 4 1 13 0 1 1 2 1 0 4 0 0 0 0 0 0 0 1 1 2 1 2 1 2 3 4 1 0 2 0 0 0 0 0 0 0 0 1 3 6 1 4 0 6 0 1 2 0 0 0 0 2 1 1 1 0 0 0 0 3 0 1 2 0 1 0 0 2 0 0 0 0 0 1 0 0 1 0 2 0 0 0 0 2 0 0 0 1 0 1 0 5 0 0 1 0 0 1 1 0 0 0 0 0 0 0 0 2 1 0 1 4 2 1 0 1 5 1 1 0 0 0 1 6 2 0 0 0 2 0 0 0 0 0 0 0 0 1 0 1 0 0 0 0 0 0 2 0 0 1 0 1 0 0 1 1 0 1 1 0 0 2 1 0 0 0 1 1 0 1 0 1 0 2 1 0 1 1 1 0 1 0 1 0 0 1 1 0 0 0 0 1 1 0 0 0 1 5 3 0 0 1 1 1 0 0 1 1 1 3 1 0 1 2 0 0 0 1 0 0 2 1 0 1 1 0 0 0 0 2 1 0 0 0 0 1 0 0 1 1 0 0 0 0 0 0 0 0 1 0 0 0 0 0 0 1 2 1 0 1 1 0 1 0 1 2 2 1 0 0 1 1 0 1 1 5 0 0 0 1 0 0 2 5 1 0 0 1 1 0 0 0 0 1 0 0 0 0 0 0 0 0 1 1 1 1 1 1 0 3 0 1 0 2 0 2 1 1 0 1 0 0 0 0 0 0 2 0 0 1 0 1 0 4 1 0 0 0 3 0 0 1 3 0 0 
0 0 1 1 2 1 0 0 1 2 1 0 1 0 0 0 2 0 0 2 0 1 1 1 1 0 0 0 0 0 0 0 1 1 1 5 3 2 9 1 0 0 0 1 0 0 0 1 0 0 1 0 2 0 0 0 1 0 0 1 0 0 2 0 0 0 2 0 1 0 1 1 0 0 0 0 1 0 0 0 0 0 1 0 1 0 2 1 3 0 0 2 0 0 2 0 0 2 0 0 4 0 0 1 0 0 1 0 0 0 0 1 1 0 0 0 0 0 0 0 1 0 0 2 1 0 1 0 1 0 2 1 1 1 0 1 1 0 0 0 0 1 6 0 0 0 1 0 0 2 1 2 1 2 1 3 1 1 1 0 1 0 3 0 2 0 0 0 0 1 0 0 0 2 1 0 0 0 0 2 1 0 0 2 0 1 0 0 1 3 0 1 0 1 2 0 0 1 1 0 1 0 0 0 0 0 0 4 1 0 0 0 2 0 0 1 1 8 2 0 0 0 0 0 1 1 0 1 0 0 0 1 2 0 0 3 1 0 0 0 2 5 2 0 0 0 0 2 0 1 0 0 0 0 0 1 0 1 3 2 1 0 2 0 0 2 1 0 1 0 0 2 0 1 1 1 0 1 0 1 2 0 1 0 0 1 0 0 0 0 1 1 1 1 0 1 2 1 1 1 4 1 1 0 0 0 1 0 1 0 1 4 1 0 0 2 0 0 1 0 0 1 1 0 1 0 1 0 0 1 1 1 8 6 1 1 0 0 0 2 2 0 1 0 0 0 0 0 2 1 0 0 0 0 1 0 0 0 0 1 4 0 0 1 0 0 0 2 2 0 0 0 2 1 1 1 0 0 0 0 1 0 0 0 0 0 0 0 1 0 0 1 4 1 1 0 1 2 0 1 0 0 1 1 0 1 1 2 2 0 0 0 1 1 0 0 1 1 2 9 1 1 0 1 1 0 0 1 0 1 1 0 1 0 1 0 1 0 0 0 0 4 1 0 0 0 0 1 0 2 0 0 0 1 0 0 0 2 0 0 6 1 0 0 2 1 0 2 1 1 0 1 5 0 0 2 2 2 1 0 1 0 1 0 1 0 0 2 0 0 0 0 1 3 4 0 0 0 0 1 1 0 0 1 1 1 1 0 0 0 0 0 0 1 0 1 1 0 1 0 0 1 1 0 1 1 0 1 0 0 0 0 0 0 1 0 0 1 1 0 0 0 0 0 0 1 0 1 1 1 0 0 1 0 0 0 1 0 0 0 4 0 0 3 0 0 0 1 0 0 1 0 0 4 0 0 1 0 0 0 1 0 2 1 0 3 0 1 1 0 1 0 0 0 0 0 1 1 0 1 1 0 0 0 0 0 0 0 6 1 0 0 0 4 4 0 0 0 0 1 1 0 0 3 3 2 1 1 0 0 0 0 0 2 3 0 1 1 0 0 
0 1 1 0 0 0 0 1 0 0 0 0 0 1 0 0 1 0 0 0 1 0 0 0 0 1 1 1 1 0 0 0 0 0 2 3 5 6 1 3 0 0 0 0 1 0 0 0 0 1 1 0 1 0 0 1 0 0 0 0 0 0 0 0 0 0 2 0 2 2 1 0 1 0 0 0 1 1 1 0 0 0 1 0 1 1 0 1 0 1 1 0 4 0 1 0 1 0 1 0 2 0 4 2 2 0 1 2 1 0 1 1 0 0 0 1 1 0 0 0 0 0 0 1 0 0 0 0 0 1 1 0 1 1 1 0 0 0 0 0 0 0 2 2 0 0 0 0 0 0 0 0 0 1 1 0 0 0 0 1 0 0 0 0 0 0 1 0 0 1 0 1 0 0 1 1 0 1 0 0 0 1 1 2 0 1 1 1 3 1 1 0 0 1 0 0 0 0 1 8 1 0 0 2 1 0 0 1 0 1 0 1 0 1 1 1 1 1 0 0 1 1 0 2 1 0 0 1 0 1 0 0 0 0 2 4 2 0 1 1 0 2 1 0 0 0 0 2 0 0 0 1 0 0 1 1 1 0 1 0 1 9 1 1 0 1 2 1 1 0 1 0 0 1 0 0 0 0 1 0 1 2 0 0 1 0 0 0 0 0 0 0 0 1 0 1 0 0 1 0 1 0 2 0 2 1 0 0 1 0 0 0 0 0 2 2 2 0 1 0 0 0 1 1 0 4 1 1 0 0 0 0 0 0 0 2 0 0 0 1 0 0 0 0 0 0 0 1 4 1 1 0 0 0 0 0 0 0 0 2 0 1 0 0 0 1 1 2 1 0 0 0 0 1 0 0 1 1 0 1 0 1 2 1 1 1 1 0 1 0 1 1 0 2 1 1 0 0 0 1 1 0 0 1 2 0 0 2 1 1 1 1 0 1 0 2 1 1 0 2 1 1 0 2 0 1 1 1 0 0 0 0 0 0 0 0 0 0 0 0 0 0 0 0 0 0 2 0 1 1 2 0 1 2 0 1 0 2 0 1 0 1 0 0 1 0 1 0 0 1 1 0 0 1 0 6 0 0 1 0 0 0 1 0 0 1 0 1 1 0 1 0 0 0 0 0 0 0 1 1 2 1 1 1 0 1 0 0 2 0 0 0 0 1 1 0 1 1 0 0 0 0 2 2 0 0 0 1 2 0 0 0 0 2 4 1 2 5 0 1 2 1 0 1 4 0 0 0 1 1 1 0 0 0 0 1 2 0 0 1 0 0 1 2 0 0 0 5 3 1 0 1 0 6 1 1 0 1 0 0 0 1 0 0 1 0 1 3 1 0 0 0 1 0 1 2 1 0 0 1 0 1 2 0 0 1 1 1 1 1 1 0 0 0 3 0 0 0 0 0 1 2 1 0 1 0 0 0 1 0 1 1 0 1 1 0 1 1 0 0 
1 1 0 0 0 0 1 0 0 1 0 0 1 0 0 1 1 1 0 0 0 1 1 0 0 1 0 0 0 0 0 0 1 1 1 2 0 1 1 1 1 2 0 0 0 1 1 0 0 1 0 1 1 1 0 0 0 0 1 1 2 1 2 1 0 0 1 0 0 0 1 0 0 2 1 1 4 0 0 0 1 1 2 3 0 4 0 1 0 0 0 0 1 0 0 0 1 0 1 1 1 1 0 0 0 0 1 0 1 0 0 0 0 0 0 0 1 0 1 2 0 1 0 0 1 0 2 1 1 0 0 0 0 2 1 0 1 0 1 1 1 0 1 0 1 0 1 1 0 0 0 0 0 0 0 0 1 0 0 0 0 1 1 0 4 1 0 6 1 0 0 0 0 1 1 0 4 2 1 1 0 1 1 0 0 0 1 2 0 1 0 1 0 0 0 0 0 1 0 0 1 1 6 1 0 1 0 0 1 6 0 1 0 1 2 1 0 0 5 0 0 0 0 1 3 1 1 0 1 0 2 1 2 0 2 0 1 7 1 0 0 0 0 0 0 0 0 1 1 1 1 5 1 0 0 0 2 0 7 0 1 1 0 0 0 1 0 1 1 5 0 0 0 0 0 1 0 0 1 2 1 1 1 0 0 1 0 0 1 0 0 0 0 1 0 1 0 0 0 2 1 0 0 0 0 0 1 0 0 1 0 0 1 1 1 0 0 1 0 1 0 0 0 0 2 0 0 0 5 0 3 0 1 0 0 6 0 0 0 1 1 0 0 0 0 0 0 1 1 0 0 1 0 0 0 0 0 1 0 2 11 0 0 1 1 0 0 1 0 0 1 3 0 0 1 0 1 0 0 0 1 2 1 0 0 2 0 1 5 1 0 1 1 0 1 2 1 0 0 1 0 1 1 8 1 1 0 1 5 1 0 0 5 0 0 1 0 0 0 3 1 0 1 1 1 0 0 0 3 1 6 0 0 2 0 1 0 0 0 1 0 1 2 0 0 1 0 1 1 0 0 0 0 0 0 1 1 1 1 0 1 0 1 0 2 0 0 1 0 0 0 2 2 2 0 0 1 0 0 0 0 1 0 0 0 1 0 1 1 2 0 2 1 1 2 0 0 0 1 0 1 0 0 0 1 3 0 2 1 0 0 0 0 2 2 0 0 0 0 0 0 0 0 0 0 0 4 0 0 1 0 1 0 1 0 2 0 1 1 0 1 6 0 3 1 0 0 1 1 5 0 0 1 0 1 1 0 0 0 1 0 1 1 3 5 1 0 3 5 8 2 0 1 1 0 1 1 0 0 0 1 0 0 0 1 0 0 0 0 0 0 0 1 0 1 1 2 1 0 0 1 0 3 0 0 1 1 1 1 0 1 0 0 1 0 1 0 1 0 1 0 0 1 0 0 0 0 1 0 0 1 1 0 0 0 0 1 1 1 2 
1 1 0 0 0 0 0 0 1 0 0 2 0 3 1 1 1 1 1 0 1 1 1 1 1 0 0 0 1 1 2 1 0 0 0 1 0 0 0 0 1 0 0 1 1 1 0 0 0 0 1 0 0 0 2 0 0 0 0 2 1 5 0 0 0 0 0 0 1 1 0 0 0 1 0 1 0 0 1 1 1 0 1 1 0 0 0 7 6 1 1 2 0 1 5 0 0 1 0 0 1 0 1 1 1 0 0 4 1 0 1 1 0 0 0 0 1 1 0 0 0 0 0 0 1 0 0 1 1 0 1 0 0 0 1 2 2 0 2 0 0 1 1 0 0 1 0 0 1 0 0 0 1 1 0 0 0 0 0 0 0 0 0 5 2 0 0 0 6 0 1 0 1 0 2 1 2 1 0 0 0 0 0 0 0 1 1 0 1 0 1 0 0 1 0 0 1 0 1 0 0 0 1 1 1 0 0 0 1 7 1 1 0 2 1 0 1 1 1 1 0 1 1 1 1 0 0 0 2 0 0 0 1 11 1 0 4 0 0 0 1 0 1 1 0 1 0 0 0 0 1 1 8 6 0 0 4 1 1 0 1 1 1 0 0 1 1 1 1 0 0 0 0 0 0 0 0 1 0 0 0 0 0 0 0 1 0 1 3 7 2 0 0 0 0 0 3 1 0 0 1 1 0 0 0 0 0 0 0 1 0 1 0 2 0 0 2 1 1 0 1 0 0 1 1 0 1 1 0 2 0 0 0 0 0 1 0 0 0 1 1 0 1 0 0 0 1 3 2 0 1 0 0 0 0 3 0 0 0 1 0 0 1 0 0 1 2 1 0 0 0 1 0 0 1 2 0 0 0 0 0 1 1 0 0 0 2 1 1 2 1 0 1 0 1 0 3 0 1 0 2 1 1 0 1 0 1 4 4 1 1 0 0 0 1 0 0 0 0 0 0 0 1 1 1 0 1 1 0 1 1 1 5 4 0 0 0 0 1 0 0 1 1 1 0 0 0 1 0 0 0 1 0 0 2 0 2 0 0 0 2 0 0 0 0 0 0 7 1 0 0 0 1 0 0 0 0 1 1 1 0 1 1 1 4 2 0 0 0 1 0 0 0 1 1 0 0 1 1 0 2 0 0 0 0 0 1 0 4 0 1 0 0 0 1 0 0 0 0 0 0 0 1 0 1 0 1 0 0 1 0 0 0 2 0 0 0 1 0 0 0 0 2 1 2 1 2 1 0 0 0 0 0 1 4 0 1 0 0 0 1 0 1 0 0 3 0 0 1 3 0 0 1 0 2 2 0 1 1 0 0 0 0 1 0 0 0 1 0 0 4 1 0 0 0 1 0 1 0 0 2 1 0 0 0 2 5 4 5 1 1 0 0 1 0 0 0 1 1 0 0 1 7 3 0 0 1 2 0 1 0 1 0 3 1 0 0 0 0 0 
1 1 0 0 0 1 0 2 0 0 0 1 0 0 0 2 0 1 1 0 0 0 0 2 1 1 0 0 4 0 0 1 0 0 0 1 0 2 0 1 1 4 0 1 2 2 1 1 0 0 0 0 1 0 0 0 0 0 2 0 2 1 0 1 6 2 0 0 3 0 0 0 1 2 0 1 0 1 0 1 0 0 1 9 0 0 0 2 1 0 0 1 0 1 1 0 0 1 2 0 0 1 1 0 0 1 0 2 1 2 3 3 0 1 1 1 1 1 0 1 0 0 0 0 1 0 1 0 0 1 0 0 0 1 0 0 1 0 1 0 0 0 2 0 0 0 1 1 1 0 4 0 0 0 0 0 0 1 0 0 0 0 0 0 0 0 0 1 2 3 0 1 0 1 1 0 1 1 0 1 1 2 0 1 1 1 0 0 1 0 1 0 4 2 0 0 0 2 0 0 2 0 1 0 2 0 1 0 1 7 1 0 0 1 1 2 1 0 0 2 1 1 0 1 0 2 3 1 1 0 2 0 0 0 1 0 0 1 0 1 1 1 1 0 0 0 1 1 1 0 0 1 1 1 0 2 0 1 0 1 0 2 0 0 0 1 1 0 1 1 1 1 0 0 0 0 1 1 0 0 1 1 1 0 0 0 1 1 1 0 2 3 1 1 0 0 0 1 1 1 0 1 0 0 1 0 0 0 0 1 1 0 0 1 1 0 0 1 1 1 1 0 0 0 0 1 0 0 1 0 1 1 1 2 1 0 1 0 1 0 0 0 1 1 0 1 1 1 3 1 0 0 0 0 0 1 0 0 1 1 0 0 1 0 4 0 0 1 1 1 1 0 2 1 0 0 0 0 1 1 1 1 1 1 5 2 11 1 0 2 9 2 1 0 0 0 0 0 2 0 1 0 3 0 0 0 0 0 1 0 0 1 1 0 0 4 0 2 0 0 0 0 1 0 0 1 0 1 0 0 0 0 1 0 1 0 1 1 0 0 0 1 0 1 1 1 1 1 1 0 0 0 0 0 0 0 0 1 2 0 1 2 0 1 0 0 1 3 2 0 1 0 2 0 0 0 0 0 0 0 1 1 1 1 0 1 6 0 1 1 0 0 1 2 0 0 2 0 0 1 1 0 0 0 0 1 0 1 0 0 0 0 0 2 0 0 0 0 0 3 1 0 0 1 0 0 0 0 0 1 0 1 0 1 0 1 1 0 0 0 6 0 0 1 1 2 1 0 1 0 0 1 0 0 0 0 0 2 0 1 0 0 1 0 1 0 0 2 0 1 2 1 1 1 1 2 0 2 1 0 0 0 0 1 0 0 0 0 1 1 0 1 0 0 1 1 4 6 0 0 7 2 2 0 0 1 1 1 2 0 1 1 0 1 2 0 4 0 0 0 1 1 1 1 1 0 1 0 0 0 0 0 0 1 1 1 0 3 1 0 
1 0 0 0 0 0 0 2 0 1 0 0 0 0 0 0 1 0 0 1 1 0 0 0 0 0 0 0 1 0 1 0 0 1 0 1 0 0 0 0 2 3 1 0 1 5 1 0 1 0 0 0 1 0 0 2 8 0 0 0 0 0 2 1 1 1 0 1 0 1 1 0 0 0 0 0 0 0 2 1 0 0 1 0 0 0 0 1 0 0 0 1 5 0 3 0 1 0 1 1 2 1 0 2 0 0 1 1 0 1 2 0 0 0 0 3 2 0 0 1 0 0 1 0 0 0 0 1 0 3 1 0 0 0 1 1 0 1 0 0 3 1 1 1 1 0 0 0 0 1 0 1 1 0 1 0 0 0 0 0 0 0 1 0 1 1 1 1 0 1 0 0 1 0 4 1 1 0 0 6 2 1 1 0 0 1 0 0 0 0 0 0 4 0 0 0 0 1 0 0 1 0 0 0 1 1 0 0 0 1 0 0 3 7 0 1 1 0 0 0 1 0 1 1 7 7 11 0 0 0 3 1 2 1 0 1 1 0 0 0 0 0 0 0 1 1 0 2 6 1 0 0 9 1 1 1 0 1 0 1 1 1 1 0 0 0 1 1 1 0 1 4 2 0 0 1 1 0 7 0 1 0 1 2 5 0 1 0 0 0 0 1 0 2 2 0 0 0 0 1 0 0 0 0 1 1 0 1 0 0 0 0 0 0 0 0 1 1 0 1 0 0 0 1 3 1 1 1 0 0 1 0 0 0 1 0 1 0 0 0 1 0 1 1 0 0 1 1 0 0 0 0 0 0 2 0 0 0 0 1 0 0 0 0 0 0 1 0 0 0 4 0 0 0 0 0 0 0 0 1 0 0 1 2 1 2 8 1 0 0 0 2 0 0 0 1 1 1 0 0 0 1 1 1 0 0 0 0 2 0 0 1 1 0 3 1 0 1 1 5 0 1 0 0 1 7 1 2 1 1 0 1 0 1 0 0 0 1 0 0 0 0 0 2 4 2 1 0 0 0 1 0 1 1 0 1 0 0 0 0 0 1 0 0 2 0 0 0 0 0 2 0 1 0 0 0 0 0 0 1 0 0 0 0 0 1 0 1 2 0 0 0 1 0 0 0 0 0 1 2 1 2 0 0 2 0 1 1 1 0 0 0 1 1 0 0 0 0 0 1 2 1 4 1 0 2 0 0 0 0 0 0 1 1 0 0 0 1 0 0 1 0 0 0 0 0 1 1 1 0 0 1 2 1 0 0 0 1 1 0 0 1 1 0 0 1 0 1 1 1 2 2 0 0 0 1 1 1 1 0 1 1 2 2 0 0 1 1 0 1 0 0 1 0 0 0 0 1 1 0 1 0 2 0 0 2 6 0 1 0 1 0 0 3 6 2 1 1 0 0 1 2 0 0 0 0 1 1 0 0 0 0 0 1 2 2 2 0 0 0 
1 0 2 0 0 1 2 0 0 0 0 1 0 0 0 0 0 2 0 5 1 1 1 1 0 0 1 1 1 0 0 0 0 0 3 1 0 0 0 0 0 2 1 0 5 1 0 0 0 0 1 0 2 0 1 1 0 2 6 0 0 0 0 1 0 2 0 0 1 1 1 2 0 2 2 0 0 0 0 0 2 0 0 0 1 1 1 0 0 1 0 4 1 9 0 0 2 3 0 0 1 1 3 1 1 0 1 4 3 1 0 0 0 4 0 0 0 1 0 0 1 0 1 0 0 0 0 1 1 5 0 1 0 2 0 0 0 2 0 0 0 0 2 2 1 0 0 2 1 2 0 2 1 0 1 1 1 1 2 1 1 2 0 0 1 1 1 0 1 0 2 1 1 1 1 0 0 2 0 0 7 0 0 0 0 0 0 0 2 9 1 1 0 0 0 1 1 0 1 0 0 0 0 0 1 0 0 0 0 0 0 0 0 0 0 0 1 1 1 0 2 0 1 0 1 1 2 0 0 0 2 1 0 1 0 0 1 0 0 1 0 1 0 0 0 0 1 0 1 0 2 0 0 2 2 0 1 8 1 1 0 0 1 0 0 0 0 0 4 1 7 0 1 1 1 0 0 1 0 1 1 0 1 0 1 0 1 5 0 1 1 0 0 1 0 1 0 0 0 0 0 0 0 2 0 0 0 0 0 1 0 1 2 1 0 0 4 0 6 0 0 1 3 0 0 1 1 1 0 1 0 0 0 0 1 1 0 0 0 0 0 0 6 3 0 0 0 1 0 0 1 1 2 0 0 1 1 0 0 0 0 0 1 0 0 0 2 1 0 1 2 0 1 0 0 0 0 0 0 0 0 0 0 0 0 0 0 1 1 0 0 0 1 0 0 6 0 0 1 5 0 0 0 0 0 0 1 1 4 0 0 1 7 1 0 0 0 0 0 1 0 1 0 0 0 0 1 0 0 1 2 1 1 1 0 1 1 1 0 4 1 0 0 0 2 0 1 0 0 0 1 2 1 2 0 1 0 2 1 0 2 0 4 0 1 0 0 2 1 0 3 1 1 0 0 0 0 2 0 1 1 1 0 0 0 0 1 0 1 0 0 0 1 0 0 1 0 1 0 0 0 5 0 0 0 1 1 0 0 2 0 0 1 1 0 0 2 1 0 0 1 0 1 0 0 1 0 0 0 0 1 1 0 1 1 0 0 1 1 1 0 1 0 1 0 1 0 1 7 1 0 5 0 0 0 0 0 1 1 0 0 0 0 0 0 1 0 1 1 2 0 0 0 0 0 0 0 0 0 3 1 1 5 6 1 1 0 1 0 1 1 1 2 0 0 1 0 1 1 1 1 0 0 0 0 6 1 0 0 0 0 1 2 1 1 1 2 0 3 1 0 0 0 0 0 3 0 0 0 0 1 0 1 0 0 0 0 0 0 0 
0 0 0 0 0 1 1 0 2 0 1 0 1 0 0 0 1 3 0 0 0 0 1 1 0 0 0 0 0 0 0 0 0 1 1 1 1 2 1 0 0 0 5 0 1 0 1 0 0 0 0 1 2 1 1 0 1 1 0 0 0 0 0 1 0 1 0 1 0 0 0 1 1 0 5 2 1 1 0 3 1 0 1 0 0 2 0 2 0 1 1 0 0 1 1 1 0 2 1 0 0 1 0 1 3 1 0 1 3 0 1 0 0 0 1 1 0 0 0 0 1 2 6 1 5 0 0 0 0 2 1 0 6 0 4 1 1 0 1 0 2 1 0 1 2 0 1 5 1 0 1 0 0 0 0 0 1 2 1 9 0 0 0 0 0 2 0 1 1 0 0 0 3 2 0 0 0 0 1 2 0 1 0 1 0 1 1 0 1 1 1 0 0 0 1 0 0 1 0 0 1 0 0 0 0 0 0 1 0 0 0 0 1 0 2 0 2 0 0 1 1 1 0 0 1 5 0 0 1 0 0 1 0 0 0 0 2 0 0 0 1 0 0 0 1 2 0 0 0 1 0 4 0 0 0 0 0 1 1 0 0 0 0 0 0 0 0 5 1 1 0 0 1 1 1 0 1 1 0 0 0 0 1 1 0 0 0 1 2 1 4 0 0 0 0 0 0 2 1 0 0 1 1 1 0 1 0 0 2 0 2 2 1 0 1 1 1 0 0 0 0 0 0 0 1 0 1 1 0 0 0 1 0 0 1 0 1 2 0 0 0 0 0 0 3 0 1 1 0 1 0 0 0 0 0 0 0 0 0 1 0 0 1 0 0 1 4 4 1 2 2 0 0 0 0 0 1 0 2 0 1 0 0 0 1 0 1 0 0 6 1 0 0 1 0 5 0 0 1 0 0 0 0 0 1 0 0 0 0 0 0 1 0 1 0 1 1 0 0 0 0 0 1 1 0 1 0 1 0 0 0 3 1 3 0 5 4 0 0 0 1 0 0 0 0 3 0 1 1 0 0 0 0 0 0 0 1 2 0 0 0 1 0 1 1 0 0 1 0 2 0 1 1 1 0 0 0 1 1 2 1 0 0 2 2 2 0 1 1 1 2 0 0 0 2 1 1 2 1 0 0 2 1 1 4 0 1 1 0 2 0 0 1 3 0 0 0 0 1 1 1 1 4 2 8 1 1 1 1 5 0 0 2 1 0 4 1 1 1 0 3 0 0 0 0 1 0 7 0 2 0 0 1 2 0 0 0 1 1 0 0 0 1 0 0 1 1 4 0 0 1 1 0 1 0 0 0 2 0 0 0 1 0 0 0 1 0 0 0 1 2 1 1 0 2 5 1 5 1 0 1 0 0 0 1 0 0 1 0 0 0 0 0 0 1 0 0 1 0 0 0 0 1 0 1 0 0 0 0 0 1 1 0 0 0 0 1 0 0 1 
0 0 0 0 0 0 0 0 1 0 0 3 0 1 1 0 0 1 4 1 0 1 2 0 0 0 0 0 0 1 1 1 0 1 0 2 0 0 0 0 1 0 6 1 3 1 0 1 0 1 1 1 0 0 0 1 0 0 1 0 0 1 0 0 3 0 0 2 0 1 0 0 0 0 0 0 5 5 2 1 4 7 3 1 0 2 3 0 0 2 0 1 1 1 0 1 0 0 1 0 1 0 0 1 0 1 1 1 0 0 1 0 0 0 0 0 0 1 0 0 1 2 0 1 1 0 0 0 1 0 1 8 2 1 0 0 1 1 2 0 0 1 0 1 1 0 2 2 1 1 1 0 0 1 3 1 0 0 1 0 1 0 1 0 0 0 0 0 1 0 2 0 0 2 1 1 0 1 0 0 0 1 0 0 0 1 1 1 0 0 0 0 1 3 0 0 0 0 0 0 0 2 0 0 1 1 2 1 1 0 0 1 1 0 0 0 0 1 0 8 0 0 1 0 0 1 1 0 1 0 0 0 2 1 1 2 1 1 0 0 0 0 1 0 0 1 1 1 0 0 1 3 1 1 1 1 1 2 10 0 0 0 0 0 0 0 1 2 0 0 1 0 1 0 5 1 0 0 6 0 0 0 0 8 2 0 0 0 0 1 8 2 1 0 0 0 1 1 1 0 1 0 2 0 0 0 1 0 0 2 1 1 0 3 0 1 2 1 0 0 0 2 0 3 0 0 0 0 2 0 0 0 1 0 1 0 0 1 1 0 1 1 0 1 1 1 0 2 0 0 2 0 0 1 1 1 0 2 1 0 1 0 0 0 0 0 2 9 3 7 1 0 0 0 0 1 1 0 1 0 0 0 1 5 1 0 3 1 1 1 1 9 1 1 3 5 1 0 1 1 0 0 0 0 0 0 1 0 0 2 1 1 1 0 8 1 0 0 1 0 1 0 4 0 0 0 0 0 0 0 0 1 0 1 0 2 1 1 0 1 0 6 0 1 0 0 1 1 0 0 0 1 1 2 3 1 0 0 0 2 0 0 0 0 1 1 2 1 0 0 0 3 0 0 0 2 0 1 0 1 0 0 0 0 0 1 0 0 0 1 2 0 1 1 0 1 0 1 0 2 0 0 0 0 1 0 1 0 1 4 0 0 0 1 2 0 0 0 0 1 0 10 1 0 0 0 2 0 0 0 0 1 1 0 0 0 0 0 0 0 1 1 0 1 0 0 2 1 2 0 0 2 5 0 1 1 0 1 0 0 0 0 1 0 0 1 0 0 1 0 1 0 0 2 0 0 0 1 1 1 0 0 1 1 1 0 0 5 1 1 2 4 1 1 0 4 1 0 1 0 0 0 0 0 0 1 1 2 0 0 0 1 0 0 1 0 1 1 0 0 1 0 1 0 0 1 0 2 0 1 0 0 2 0 2 0 0 1 0 1 
0 0 1 0 1 0 0 1 1 1 0 1 2 1 0 0 1 0 1 1 0 1 1 0 1 0 0 0 0 0 5 0 0 0 0 1 1 0 0 0 0 0 0 1 0 0 1 0 1 0 1 2 1 0 1 1 0 0 0 1 1 0 0 1 1 2 0 0 1 1 1 1 0 0 0 1 0 3 4 1 0 0 0 1 0 0 0 0 0 0 0 0 1 0 0 6 0 3 0 0 1 1 1 0 0 1 0 1 0 0 4 1 0 0 0 0 2 4 1 0 0 1 0 1 0 0 1 0 2 0 1 1 9 2 1 1 0 0 0 0 6 1 0 0 3 3 0 1 1 1 0 2 0 1 0 0 0 0 1 2 1 3 0 2 1 0 1 0 0 1 1 0 0 0 0 1 1 0 0 0 0 1 1 0 0 0 5 0 0 0 1 1 0 0 0 0 1 1 0 0 0 1 0 0 0 1 1 0 1 2 0 0 0 0 2 0 1 1 2 2 5 0 0 1 0 1 1 1 0 0 0 1 0 0 0 0 0 2 4 1 1 0 0 0 0 0 0 0 0 0 1 1 2 9 6 1 2 1 1 1 1 1 0 0 0 1 0 0 1 0 0 1 0 0 0 2 1 0 0 2 0 0 0 1 0 1 1 0 0 0 1 0 1 1 0 0 0 0 0 0 1 2 1 0 0 0 0 0 1 1 0 1 0 0 2 0 0 0 0 1 0 0 2 0 0 0 0 1 0 0 2 0 0 2 1 0 1 0 0 8 5 1 1 0 0 0 0 0 4 1 1 0 1 1 1 0 0 0 0 1 0 0 0 0 0 2 1 2 1 1 0 1 0 0 1 1 0 0 1 0 0 1 10 9 1 1 0 0 5 1 0 0 5 0 1 1 1 1 1 1 0 2 2 0 1 1 0 0 1 0 2 0 0 1 0 1 0 2 3 0 0 3 4 2 0 1 1 1 2 1 0 1 0 1 0 0 3 0 1 0 1 2 2 1 0 0 1 0 1 1 2 0 1 0 1 2 1 2 1 1 0 0 0 0 1 0 0 0 1 0 0 1 0 0 1 6 0 0 0 0 0 1 1 1 0 0 1 3 1 0 0 0 1 1 0 1 5 0 2 4 0 1 1 2 0 1 0 1 1 0 0 0 0 1 0 0 1 0 0 0 1 0 1 3 0 2 0 2 0 0 1 1 1 0 0 0 0 1 1 0 1 1 0 0 1 0 0 0 0 0 1 1 2 3 1 0 0 0 0 0 0 0 2 0 0 0 1 0 0 0 1 1 1 2 1 0 0 1 0 1 0 0 1 3 1 0 5 1 0 0 1 1 0 0 0 0 1 0 0 1 0 0 0 1 0 0 1 0 0 0 0 1 0 0 1 0 1 1 0 0 0 0 0 1 0 0 0 4 3 4 1 3 6 0 1 3 2 0 0 0 
5 1 1 1 0 0 1 1 1 0 0 1 0 0 0 1 0 0 0 6 1 0 0 1 0 1 0 1 1 0 2 0 1 1 1 0 0 0 0 1 0 0 0 0 0 2 1 1 0 0 1 4 1 1 0 0 0 1 0 1 1 0 0 0 0 5 0 0 1 0 0 1 1 1 1 0 1 0 1 2 0 1 0 0 0 1 0 0 1 1 0 0 1 0 0 0 0 2 7 1 1 0 1 0 1 1 1 0 1 0 1 2 1 1 1 1 0 1 7 1 1 1 0 0 0 0 0 1 1 1 0 2 5 0 0 0 1 0 1 1 1 0 0 1 1 0 1 1 0 1 0 3 1 1 0 1 0 0 0 1 0 1 1 12 2 1 1 2 1 1 0 0 0 1 1 1 3 1 1 0 0 0 0 0 0 1 1 1 1 1 0 0 0 0 0 1 2 0 2 0 0 0 1 0 1 0 0 1 1 0 0 0 0 1 0 1 0 1 1 0 1 0 1 3 0 3 0 1 0 0 0 0 0 0 0 1 1 4 5 0 1 1 0 0 0 2 1 3 0 0 8 1 0 1 1 0 0 0 0 0 0 0 0 1 0 0 2 0 0 0 1 0 0 0 0 2 1 0 0 1 3 0 0 0 0 0 0 2 0 0 0 0 2 2 0 0 0 0 0 0 0 0 0 0 1 0 1 0 0 0 0 7 1 1 0 0 0 0 2 1 0 0 1 0 0 0 0 1 0 0 0 1 0 1 3 2 0 1 2 1 0 3 1 0 1 1 0 1 0 0 0 2 0 0 0 0 1 0 1 0 0 0 0 0 1 1 0 0 0 0 0 1 5 0 1 0 1 0 0 1 0 0 1 0 0 0 0 0 1 0 1 1 1 0 2 0 0 0 0 0 0 1 1 0 0 0 0 3 0 0 0 1 0 0 0 1 0 2 0 1 0 0 1 0 0 0 0 0 6 1 1 3 0 0 0 0 2 1 0 0 0 2 0 1 1 0 1 0 5 0 0 0 1 1 1 1 2 1 1 0 0 0 1 0 1 1 0 0 2 1 0 1 1 1 2 0 0 2 0 1 3 2 0 5 1 1 0 1 0 1 0 2 1 1 1 1 0 1 1 1 0 1 1 0 1 0 0 0 0 0 0 0 1 1 0 2 0 1 1 0 0 0 1 1 0 0 0 1 3 1 0 2 0 0 0 1 0 0 1 3 1 1 0 1 1 0 0 0 1 0 0 0 2 1 1 2 1 0 0 1 3 5 1 0 0 0 1 1 0 0 3 0 0 3 1 0 0 4 1 0 1 1 0 1 0 0 0 1 1 1 5 1 0 2 0 1 1 0 2 0 1 1 0 0 0 1 0 0 0 0 0 0 1 0 0 0 0 1 1 0 2 0 1 2 1 0 0 0 0 0 0 0 1 0 0 0 0 0 1 0 
0 0 2 1 1 1 0 2 8 0 1 0 0 0 1 1 4 1 0 0 0 0 0 1 0 0 0 2 0 1 3 1 0 1 0 0 0 1 0 1 0 0 0 1 0 4 0 0 0 0 2 0 2 3 0 0 1 0 1 1 0 1 1 1 0 0 0 0 0 0 1 0 0 0 0 1 0 1 0 0 0 0 0 0 0 1 0 0 0 0 0 0 1 0 1 0 0 3 0 0 1 0 1 0 1 0 0 1 0 0 1 0 0 1 1 1 1 0 0 0 0 1 1 0 5 0 0 0 3 2 0 0 0 1 0 1 1 0 1 1 1 0 1 0 0 1 1 4 0 2 0 0 0 0 2 0 1 0 0 0 1 0 0 0 1 0 0 0 1 0 4 2 0 1 3 0 1 0 0 0 3 1 0 1 1 3 2 2 0 0 2 0 0 1 1 1 3 2 0 1 0 0 0 0 1 1 0 0 0 0 1 0 0 1 0 1 6 1 0 0 0 1 5 1 1 1 1 0 0 1 0 4 0 0 0 2 0 1 2 1 0 0 1 1 0 0 0 0 0 7 0 0 0 1 2 1 0 1 1 4 0 0 1 0 0 1 0 2 0 1 0 0 1 0 1 1 0 1 2 1 1 0 2 0 0 0 0 0 0 2 1 1 1 0 1 0 1 0 0 0 1 1 5 1 1 0 1 0 0 0 0 2 1 0 7 1 0 0 0 0 0 0 0 0 1 0 1 1 0 0 0 1 1 0 0 0 0 1 0 1 2 1 0 0 1 0 1 0 1 0 1 6 0 0 1 1 0 1 1 6 6 0 0 1 2 2 2 1 0 0 0 0 0 0 0 2 0 1 0 0 0 0 0 1 1 0 1 1 1 1 1 0 0 2 0 0 0 0 0 0 1 1 1 0 1 0 1 1 0 2 0 0 1 0 0 0 0 0 0 1 0 2 1 0 0 0 0 1 1 6 0 1 0 0 1 1 1 0 0 0 0 2 9 0 0 0 1 0 0 0 0 0 0 1 2 0 0 0 0 0 1 1 0 0 2 1 0 1 0 4 1 0 1 0 2 1 1 1 0 0 0 7 1 1 0 0 1 0 0 3 1 1 3 0 0 1 0 1 5 0 1 0 4 1 0 1 0 0 0 1 0 1 1 2 0 1 0 0 0 1 0 0 0 1 5 0 1 1 5 0 0 0 0 0 2 3 5 1 1 2 0 1 1 3 0 0 0 0 0 0 2 0 0 0 0 2 0 1 3 4 1 0 1 0 0 0 0 0 0 0 0 1 1 1 0 0 0 1 6 1 0 0 1 0 0 5 0 0 0 3 0 2 0 1 0 4 2 0 0 0 0 1 0 0 0 0 0 0 1 2 0 0 0 1 1 1 0 1 1 0 0 0 0 0 0 0 1 0 0 0 1 0 0 0 0 1 4 0 1 1 
0 0 0 0 2 0 1 0 2 0 3 0 0 0 2 1 2 0 2 0 2 1 0 0 1 1 1 0 2 1 0 0 1 1 0 0 1 0 0 0 4 0 0 0 1 1 0 1 1 2 0 0 4 1 2 3 0 1 0 1 1 0 1 4 1 2 1 0 1 0 0 0 2 0 0 0 2 0 0 1 0 1 1 1 0 0 1 2 4 0 0 0 1 0 0 1 1 1 0 1 0 1 0 1 0 0 1 1 1 1 0 1 0 1 4 1 1 1 1 0 0 1 0 0 1 0 1 0 2 0 0 0 5 1 1 0 0 2 0 0 0 1 0 1 0 0 0 1 1 1 1 1 0 0 0 0 0 1 1 0 0 2 0 0 0 1 1 1 0 0 1 0 2 0 1 0 0 0 1 1 0 0 0 1 2 0 2 0 0 1 0 1 1 2 0 0 1 5 1 1 0 0 0 6 7 0 0 0 1 0 1 2 0 1 1 1 1 0 1 0 1 2 1 2 0 1 1 2 0 2 2 0 0 0 0 2 5 1 0 1 2 3 1 0 0 0 2 1 1 0 0 1 0 0 0 3 1 1 1 1 0 1 0 1 0 0 0 0 0 0 0 1 0 1 0 0 0 1 0 0 0 0 1 0 1 0 1 0 0 0 1 1 0 1 0 0 0 0 0 0 2 1 0 0 2 0 5 0 1 1 1 0 0 0 2 1 0 2 2 1 2 2 8 0 0 0 0 0 1 1 0 0 0 0 0 2 2 0 0 0 1 0 0 1 0 0 1 1 1 0 1 0 0 0 0 0 8 0 0 0 1 0 1 0 0 0 2 2 1 1 1 1 0 0 0 0 1 0 1 1 0 1 0 0 0 0 0 0 1 1 3 0 1 0 3 0 0 0 1 0 0 0 0 2 0 1 5 0 0 0 0 3 1 0 0 1 0 0 0 1 0 4 0 0 3 7 1 0 0 0 1 1 0 0 0 0 0 0 0 0 1 4 1 0 1 0 0 1 0 0 1 1 0 0 0 0 0 0 0 1 1 0 0 0 1 0 0 0 6 1 1 0 0 0 0 0 0 1 3 2 0 1 0 0 1 4 1 1 7 0 0 0 1 1 0 1 2 1 7 3 1 1 1 1 0 1 0 0 0 1 0 1 0 1 0 0 0 0 0 1 0 0 0 0 0 1 0 0 1 1 0 1 0 1 1 0 0 1 2 1 0 1 1 0 0 0 1 0 1 0 2 0 3 1 0 1 0 1 1 1 1 0 0 1 0 0 0 0 0 0 0 1 1 0 0 1 0 2 4 0 0 1 0 1 0 1 1 0 0 0 0 1 0 0 4 0 0 0 0 0 1 0 1 0 0 1 0 0 0 3 0 1 0 4 2 1 1 0 4 1 0 1 0 0 0 0 2 1 0 1 1 0 2 0 1 0 0 1 0 0 
4 2 0 0 0 0 1 0 0 3 0 1 3 1 1 0 0 0 4 0 3 3 1 0 0 2 0 1 3 0 1 0 0 0 0 2 0 0 0 1 1 1 1 0 0 0 0 1 1 0 1 1 2 0 1 2 0 1 2 0 0 0 1 0 1 0 0 0 1 0 0 0 0 0 0 1 1 1 1 0 1 1 0 0 0 1 0 0 1 1 0 0 0 0 1 0 0 0 0 0 0 0 0 0 0 0 0 0 0 0 4 3 3 6 1 0 0 0 1 2 1 2 1 0 1 2 0 0 1 0 1 0 2 0 0 4 0 1 1 0 0 0 1 0 0 0 0 0 2 0 1 0 1 0 0 1 0 1 0 0 0 0 0 2 0 1 0 1 0 0 1 0 1 0 1 0 0 0 0 2 2 1 1 0 1 1 1 0 2 0 6 1 0 2 1 0 0 2 0 2 0 0 0 0 1 0 0 1 1 0 1 0 0 0 0 1 0 2 1 4 0 0 0 1 0 0 1 1 0 1 0 0 2 1 4 0 0 0 2 1 0 0 2 1 5 0 0 0 5 0 0 1 8 1 1 0 0 2 0 0 0 1 0 0 0 0 2 0 1 3 0 0 0 0 2 0 1 0 0 0 1 0 2 0 0 0 0 0 1 2 1 1 0 0 0 0 0 1 0 3 0 1 1 1 0 0 5 12 1 1 0 1 2 0 10 1 0 0 0 2 2 5 7 0 1 1 0 0 0 1 0 0 1 0 0 0 0 0 0 0 1 0 0 0 0 1 1 0 0 1 0 2 7 2 0 1 0 2 0 0 1 1 0 0 0 0 0 2 1 0 2 0 0 0 0 1 0 0 1 1 1 1 0 1 1 0 1 0 1 1 1 0 1 0 4 4 7 2 2 0 0 1 1 0 0 0 0 0 1 1 0 0 1 1 1 7 0 0 0 0 2 0 1 2 0 1 1 1 0 1 3 7 0 0 0 0 0 0 0 1 2 2 0 0 2 1 1 1 1 2 8 1 0 0 0 0 0 0 1 0 0 0 0 3 0 0 1 1 1 0 0 0 0 0 0 0 1 1 0 0 0 1 1 0 1 0 1 1 2 1 1 0 0 0 0 1 0 0 0 3 3 1 0 1 0 1 0 0 1 1 0 2 0 0 0 2 0 0 1 1 0 1 0 0 1 1 0 1 0 1 0 5 0 4 2 1 0 1 3 0 2 1 0 0 0 0 0 1 1 0 1 1 2 0 0 0 0 0 1 1 0 0 4 4 0 2 1 1 0 1 1 1 0 0 1 3 0 0 1 0 1 0 0 0 1 0 0 1 0 0 1 1 2 1 1 1 0 1 2 1 1 2 0 0 0 1 0 0 0 0 0 1 0 0 0 0 1 0 1 0 1 1 0 0 0 1 0 1 1 2 0 1 2 0 2 0 1 1 0 0 
0 0 0 1 1 0 0 4 2 1 1 2 1 1 0 0 0 1 0 2 1 1 2 0 1 0 0 0 1 0 5 7 1 2 1 1 1 1 0 0 0 2 0 0 0 1 0 1 1 0 0 1 2 0 0 2 0 1 1 0 0 3 0 3 0 0 1 3 1 0 0 0 2 9 1 1 1 1 4 0 0 5 0 0 1 0 2 0 0 0 1 1 0 0 0 2 0 0 0 0 0 0 2 0 1 0 1 1 0 0 0 0 5 0 0 0 1 0 0 0 1 0 1 1 0 0 0 0 1 0 0 0 0 2 1 2 1 0 2 0 1 0 1 0 1 0 0 0 0 0 0 0 1 1 1 0 0 1 0 3 1 0 0 1 0 0 1 0 0 0 1 0 0 0 0 1 0 1 0 1 0 1 0 0 1 0 0 0 0 0 1 7 1 1 0 8 1 1 1 0 1 1 1 0 0 0 0 3 5 0 1 0 0 2 0 2 0 0 0 0 0 0 0 2 1 0 0 4 1 1 1 0 1 0 0 0 1 0 0 0 2 0 0 8 2 4 0 0 0 0 0 1 0 0 0 2 0 0 1 1 0 0 0 0 1 0 0 0 0 0 0 0 0 2 2 0 1 0 0 0 2 1 0 0 3 0 0 0 1 0 1 0 0 4 0 1 0 0 1 0 0 0 0 0 0 0 1 0 0 0 1 0 0 1 0 8 1 4 0 0 2 0 1 7 4 1 1 1 6 0 1 1 0 0 0 0 1 0 1 0 1 0 0 0 0 0 1 1 1 0 3 0 2 0 1 0 0 1 0 1 2 1 1 1 0 1 1 0 1 1 1 1 0 1 0 0 0 0 0 0 0 0 1 0 3 1 1 0 0 0 1 0 0 0 1 1 0 1 1 0 0 3 9 0 2 1 6 1 0 0 0 1 1 0 0 0 0 0 0 1 4 0 0 0 0 2 1 0 1 7 1 8 3 5 0 0 0 0 1 0 1 0 0 1 0 0 1 0 0 3 1 0 1 0 1 1 0 0 1 2 0 0 0 0 0 1 0 1 0 6 0 0 1 2 3 3 2 0 0 0 0 0 0 1 1 0 1 0 0 4 0 1 0 0 0 2 3 0 0 0 0 0 2 1 0 0 0 1 2 0 0 0 1 0 3 2 0 2 0 2 0 0 0 3 0 1 1 0 5 1 1 0 0 1 0 0 1 1 1 0 0 0 0 1 0 1 0 0 2 1 0 0 0 0 1 0 0 0 0 0 7 0 1 0 0 0 2 2 0 1 0 0 0 0 0 0 0 0 1 1 0 0 0 0 0 1 0 0 1 0 0 0 3 0 0 0 0 1 0 1 0 0 0 0 0 0 0 1 0 0 1 1 1 1 0 2 4 0 0 0 1 1 1 0 0 0 0 3 1 0 0 1 1 1 0 0 0 0 0 0 
0 1 0 0 0 3 1 3 1 0 1 1 2 0 6 1 0 2 0 1 3 0 1 1 4 1 0 0 1 0 1 0 0 0 0 0 0 0 0 0 0 2 0 0 0 1 1 4 1 1 0 1 4 1 2 1 1 0 0 0 1 1 0 1 1 0 1 2 1 0 1 2 5 2 1 1 1 0 2 0 0 0 1 0 0 1 1 0 0 0 1 0 0 0 1 0 0 0 0 0 0 1 0 1 0 1 0 1 1 0 0 1 0 1 0 0 1 0 0 0 2 0 1 0 0 0 0 0 2 1 0 1 0 0 0 0 1 0 0 0 0 0 2 0 0 1 0 0 0 0 0 0 0 1 0 1 0 0 1 0 1 0 2 1 0 2 0 1 0 1 1 3 0 0 1 1 0 0 0 0 2 0 0 1 0 0 1 0 2 0 1 1 0 0 0 1 0 0 1 0 0 0 0 2 0 1 2 1 1 1 2 2 1 4 1 0 1 4 1 0 1 0 1 0 0 2 2 0 0 1 1 0 2 0 1 0 0 3 0 1 0 1 0 2 1 1 0 1 0 0 4 0 2 0 1 0 0 1 1 1 0 0 1 1 2 1 1 1 0 1 0 1 1 1 1 2 0 0 3 0 1 2 0 0 0 2 2 0 0 0 2 0 0 1 0 1 0 2 1 0 0 1 0 0 0 0 0 0 0 0 2 0 2 1 0 0 1 1 0 0 0 1 0 0 2 0 1 0 2 0 2 1 0 1 4 1 0 1 0 1 1 2 2 3 0 0 0 1 0 0 1 1 6 0 2 2 0 2 0 1 0 0 0 3 2 0 0 0 0 1 1 1 1 0 2 0 1 0 0 1 0 0 1 1 1 0 0 0 0 2 0 1 0 1 1 0 0 1 0 0 1 0 1 0 1 3 1 2 0 0 0 0 0 0 2 0 0 0 1 0 1 0 2 1 1 0 0 3 0 0 0 1 7 0 0 0 0 1 2 1 1 0 0 5 0 2 1 1 0 0 0 1 0 0 1 0 1 0 1 1 0 0 4 5 0 1 1 0 0 0 2 1 0 2 1 1 0 0 0 1 0 0 1 0 0 0 1 1 3 1 1 1 1 0 0 0 0 0 0 1 0 2 0 1 1 0 0 0 0 0 0 7 2 2 0 4 3 0 0 1 0 1 0 2 0 0 2 1 3 3 0 0 2 2 0 3 1 0 0 1 1 0 0 1 1 0 0 2 0 1 0 1 0 0 1 0 1 0 1 0 0 0 1 0 0 0 0 0 1 1 1 0 0 0 0 0 2 2 1 1 0 1 1 1 0 0 0 0 0 0 0 1 0 1 0 0 0 1 0 0 0 0 0 0 0 0 1 2 0 1 0 1 1 0 0 0 2 1 1 0 1 0 1 0 1 0 0 1 1 0 2 0 1 0 6 1 2 2 0 1 
0 0 1 0 0 0 1 3 0 1 0 1 1 0 1 0 0 1 0 0 1 0 0 1 0 1 0 0 1 0 0 0 0 1 0 1 0 1 1 1 1 1 0 0 0 1 2 0 2 1 4 0 0 0 3 1 1 1 1 0 1 0 0 1 2 0 0 0 0 2 1 0 2 1 0 1 0 0 1 0 1 1 0 1 0 0 0 0 2 0 1 0 2 1 0 0 0 0 0 0 2 2 0 0 0 0 1 1 1 1 2 0 0 0 2 1 1 1 1 0 0 0 0 4 0 0 3 0 1 0 1 0 1 0 0 1 0 1 0 1 1 1 1 0 0 0 2 0 1 0 0 0 0 8 8 1 0 0 0 0 1 2 0 1 3 2 0 0 0 0 1 0 0 1 1 2 0 1 0 0 1 1 0 1 0 0 0 0 2 0 1 1 0 0 1 0 0 1 0 0 0 0 0 0 1 0 0 0 0 1 1 0 0 0 1 0 0 0 1 0 0 0 0 2 4 1 1 0 0 0 1 0 0 0 0 0 1 0 0 1 0 5 4 0 2 0 1 0 1 1 0 1 6 0 0 0 2 0 0 0 2 1 0 1 0 0 1 1 1 0 0 0 1 0 1 0 0 0 0 0 1 0 2 9 0 1 1 2 1 0 0 2 1 3 1 0 5 1 1 2 3 1 1 0 0 0 0 1 0 1 0 2 0 0 0 1 0 0 1 1 3 1 2 0 1 0 0 0 1 0 0 1 0 0 0 1 0 0 2 0 0 0 1 0 1 0 1 1 5 1 0 0 0 1 1 1 1 2 1 0 1 0 0 0 0 1 0 0 1 6 1 0 0 0 0 0 0 0 0 6 1 0 0 1 0 3 1 0 1 0 1 0 1 0 1 0 1 0 0 0 0 1 0 1 0 0 0 0 0 1 3 0 1 0 0 2 0 2 1 1 1 0 0 1 0 1 1 1 1 0 3 3 1 0 0 1 1 2 1 1 0 0 1 2 1 3 1 1 3 0 0 1 1 1 1 0 0 0 1 1 0 1 0 0 1 0 2 0 0 0 0 1 1 0 1 2 0 3 1 2 6 0 1 0 1 0 0 0 0 0 1 3 0 2 0 0 1 0 0 0 1 5 0 0 5 0 0 1 1 0 1 1 1 0 1 2 0 1 0 0 0 0 2 1 4 1 0 0 0 0 0 2 1 0 0 0 0 1 1 1 0 1 0 0 0 0 0 2 0 1 0 0 0 0 0 0 2 1 0 0 0 0 0 1 1 0 0 0 0 5 0 1 1 0 0 2 1 0 1 0 0 1 0 0 1 1 3 1 2 0 0 0 0 1 0 0 0 0 0 1 2 1 1 0 0 0 1 1 0 0 1 1 2 0 0 1 0 0 1 0 0 1 1 0 0 1 0 1 0 1 1 1 0 0 1 0 1 6 8 2 
0 0 0 0 0 0 1 0 0 3 0 1 0 0 0 1 0 1 1 0 1 0 0 0 1 1 0 0 1 0 3 0 1 0 0 1 0 1 0 0 0 1 0 0 0 1 0 1 1 0 1 1 2 1 0 0 3 1 0 0 0 0 1 3 5 1 0 0 0 1 1 0 0 0 1 3 2 0 0 1 1 0 0 1 1 2 0 0 0 2 2 1 0 2 0 0 0 0 0 0 2 0 1 0 0 1 0 4 8 2 0 0 1 0 0 1 1 2 1 0 0 2 2 3 0 0 0 0 1 0 1 0 0 0 0 1 0 0 0 0 0 0 0 0 0 0 1 1 0 0 0 0 0 4 7 2 1 3 1 1 1 0 1 3 0 0 0 2 5 0 0 0 3 0 0 4 5 2 0 1 0 0 1 0 0 0 1 0 0 1 0 0 0 0 6 0 0 1 0 1 0 1 1 2 2 0 0 0 0 1 0 1 1 1 0 0 0 1 2 1 0 1 0 3 3 0 0 1 2 3 0 0 0 3 0 1 0 1 1 1 1 0 1 1 1 1 1 8 1 0 1 1 1 0 0 1 0 2 1 0 0 0 1 1 0 1 0 1 0 0 0 1 0 0 0 0 0 6 3 0 0 0 0 0 1 0 1 1 1 0 0 0 1 2 1 0 0 0 0 0 0 0 0 0 1 0 0 2 0 0 0 0 0 0 0 3 2 0 1 1 0 0 0 1 0 0 0 0 1 1 0 1 1 0 0 0 1 0 0 0 0 1 2 1 1 0 5 2 0 0 1 0 1 1 0 0 0 0 0 0 0 0 1 0 3 0 0 0 1 1 1 0 0 2 0 1 1 1 0 4 2 0 0 1 1 0 2 1 1 0 1 0 2 5 1 0 0 1 1 1 1 1 2 1 0 0 0 0 0 2 1 0 1 0 0 0 0 1 2 1 0 1 1 1 5 1 1 0 0 0 1 0 0 3 3 0 0 0 0 1 1 0 1 1 1 0 0 4 1 0 2 0 1 0 0 0 1 1 1 0 0 2 0 0 0 0 0 0 0 2 3 1 2 1 0 0 1 1 1 0 1 0 0 0 0 0 1 1 1 0 0 1 1 0 2 0 0 2 0 0 1 0 2 1 1 0 1 0 1 1 0 2 0 6 0 2 0 0 0 1 0 0 1 0 0 1 1 0 0 0 5 1 0 1 0 0 2 0 0 2 0 2 1 1 2 0 0 0 0 0 1 1 1 0 0 4 0 0 0 0 0 0 0 0 0 0 0 0 2 1 2 1 0 1 1 1 0 2 1 0 0 0 4 0 1 0 0 1 0 1 0 0 0 3 3 0 0 0 0 3 1 1 2 0 1 0 1 1 0 0 1 1 2 3 2 0 1 2 4 1 1 1 1 0 1 1 1 2 0 1 1 0 2 0 0 3 1 2 2 0 
1 2 1 1 7 3 0 0 0 0 0 0 0 2 1 0 1 0 0 0 1 0 0 5 1 0 1 1 0 1 1 1 1 0 0 1 0 1 0 1 1 1 2 0 0 0 0 0 0 0 2 1 0 2 2 0 1 0 0 2 1 0 0 7 0 0 0 0 0 1 0 1 7 1 1 1 6 0 2 0 0 0 1 1 0 0 1 0 1 1 1 1 0 0 0 0 0 1 0 0 1 0 0 2 0 1 2 1 1 0 0 1 0 0 1 0 0 0 1 0 0 1 0 0 1 2 0 0 0 1 1 0 3 2 0 1 0 2 0 0 0 0 0 0 1 2 2 1 1 0 0 0 0 4 2 1 0 1 2 10 0 3 6 1 0 1 1 1 0 1 1 0 0 0 0 1 0 1 0 0 0 1 0 0 1 0 0 2 2 0 1 0 1 1 1 1 1 0 0 2 1 0 0 0 1 1 0 0 0 0 0 1 2 0 0 0 2 1 0 0 0 1 0 1 0 1 1 1 9 1 0 0 0 1 0 0 1 0 1 1 0 0 1 2 0 2 0 5 1 0 1 1 0 2 0 0 1 1 0 1 0 0 1 0 1 0 1 0 1 0 1 1 0 0 0 1 0 0 0 0 0 0 0 0 0 1 0 0 0 2 0 2 2 0 0 0 1 0 5 0 1 1 1 0 1 0 0 0 2 2 5 1 0 1 0 1 2 1 0 1 1 1 1 0 2 0 0 0 2 0 0 1 0 1 0 0 0 1 1 4 1 1 0 0 1 0 0 0 0 0 0 5 2 0 0 0 0 0 2 0 0 0 0 1 0 0 0 1 0 1 0 1 0 0 0 0 2 1 1 0 0 1 0 0 1 0 0 0 0 1 0 0 0 0 0 1 1 1 1 0 0 1 0 1 0 1 0 3 0 1 1 0 0 0 0 1 1 0 2 1 1 0 1 1 0 0 0 1 6 1 0 0 1 1 0 2 1 0 0 0 1 0 1 0 0 1 4 4 0 0 0 1 2 3 2 1 1 4 2 0 0 0 1 0 1 0 0 1 0 0 0 0 0 0 0 0 0 2 1 1 0 2 0 0 0 0 0 3 0 1 0 0 0 1 0 1 0 0 3 1 1 1 0 0 2 0 0 2 0 0 0 0 0 0 0 1 0 0 0 1 0 2 6 2 1 0 0 0 3 3 8 1 0 0 0 0 0 4 0 2 0 0 0 0 4 0 1 0 1 1 0 0 0 0 0 0 0 0 0 0 0 0 0 1 2 2 0 1 0 0 2 0 0 0 0 0 0 1 2 1 1 1 1 3 0 0 0 1 1 0 0 1 0 1 1 2 0 1 3 1 1 9 10 1 0 0 0 3 0 2 0 1 1 1 1 0 1 0 0 0 0 1 0 0 4 0 1 0 0 3 0 0 2 0 0 0 0 0 1 0 
1 2 1 2 3 1 0 0 0 1 0 0 0 0 0 0 0 0 1 0 1 0 0 0 3 0 1 1 3 6 0 0 1 4 0 1 0 2 0 0 0 0 0 0 0 0 1 0 0 1 1 0 1 1 2 2 0 0 0 2 1 0 1 1 0 0 0 0 0 1 1 5 2 1 2 1 1 1 0 0 2 0 0 0 2 0 0 1 1 1 7 1 0 0 2 0 1 4 0 0 0 0 0 1 1 6 0 0 0 0 0 2 0 0 0 0 1 0 0 1 1 1 2 2 0 0 1 0 0 1 0 1 1 1 0 1 0 1 0 0 0 1 3 0 4 2 0 1 5 0 1 0 0 0 1 2 0 1 1 1 2 8 3 0 0 0 0 0 0 0 0 1 0 0 0 0 0 1 0 1 0 0 1 1 1 0 0 0 0 0 1 1 0 0 0 0 1 0 1 1 0 1 0 1 0 0 0 0 1 0 1 0 0 2 0 0 0 1 1 2 1 0 1 2 2 1 1 0 1 2 0 0 0 0 0 0 0 0 0 0 1 1 3 1 0 0 1 1 2 2 1 2 1 1 0 0 1 2 5 0 0 0 1 0 0 0 2 0 1 1 1 1 0 2 1 1 0 2 0 0 0 0 1 5 0 1 0 0 2 1 0 0 0 1 0 2 0 0 1 1 1 6 1 1 0 0 0 0 1 0 1 1 5 0 2 0 1 0 0 0 1 0 0 0 4 0 0 1 0 0 0 0 1 0 1 0 0 2 2 0 5 11 0 1 0 0 0 1 0 0 1 0 1 0 0 1 0 0 1 1 2 0 0 0 0 0 1 5 1 0 0 0 1 0 1 0 1 1 0 0 0 1 0 0 0 0 1 0 0 0 1 1 0 0 0 1 1 0 0 1 1 0 1 1 0 0 0 1 0 0 1 1 0 1 0 1 0 0 0 0 0 1 1 1 0 1 0 0 2 0 1 0 1 0 3 8 0 0 0 0 0 0 1 0 2 0 1 2 0 0 6 2 1 0 2 1 2 0 0 0 0 0 2 1 0 0 0 0 0 1 2 0 2 4 2 0 2 1 1 0 1 0 0 0 0 0 0 0 1 0 0 0 2 0 1 0 1 1 1 4 0 0 1 1 0 1 0 0 1 1 5 1 0 1 1 0 0 0 0 0 0 0 1 1 1 0 0 0 0 0 1 0 1 0 1 3 1 1 1 0 0 0 0 0 2 0 0 0 0 1 1 0 0 0 0 0 1 0 1 1 0 1 0 0 0 0 0 0 0 1 0 0 0 0 0 1 0 1 1 0 0 1 1 0 2 0 0 0 1 2 0 0 0 0 0 1 0 0 0 0 0 1 1 2 5 2 2 1 1 2 0 0 0 0 1 3 0 0 2 0 0 0 1 0 1 0 0 1 1 0 0 0 1 1 2 1 0 0 0 1 
0 1 2 1 0 0 0 0 1 0 0 1 0 0 0 0 0 0 1 1 0 1 1 1 1 0 1 1 2 1 0 2 0 1 0 0 0 0 0 1 2 0 2 1 0 2 5 0 1 2 2 0 1 0 1 2 0 1 0 1 1 0 1 0 1 0 0 0 0 0 0 1 0 0 2 0 0 1 0 0 0 0 0 0 2 1 0 1 1 2 1 0 1 0 1 1 2 1 6 0 0 0 1 0 0 1 0 0 0 0 1 0 1 0 0 1 0 2 0 2 1 2 6 0 1 1 0 1 0 0 0 1 1 0 0 0 0 7 1 1 1 0 2 0 7 0 1 0 0 0 0 0 0 0 0 2 0 0 0 3 0 1 1 1 1 0 0 0 0 1 0 1 0 1 1 0 0 0 1 0 0 0 0 0 0 0 0 0 1 1 0 2 1 1 2 0 1 0 1 2 0 0 0 0 0 0 0 0 0 1 1 0 0 1 0 1 1 0 0 1 0 0 0 3 2 1 0 1 1 1 0 1 0 0 0 0 0 1 0 2 0 2 6 6 0 1 4 1 0 1 1 0 0 0 0 1 0 0 1 1 1 0 1 0 0 0 1 0 1 2 0 1 1 0 0 0 1 0 0 1 1 1 1 4 1 0 0 0 2 1 0 2 0 0 0 5 0 0 0 1 3 0 1 2 1 1 0 2 1 1 0 1 1 0 0 1 0 0 0 2 1 1 0 0 1 0 2 1 0 1 0 1 0 0 0 0 1 0 0 1 1 0 0 1 1 0 1 1 0 0 1 1 5 2 5 3 0 1 0 4 0 0 1 0 1 0 2 1 0 0 0 1 4 1 0 1 0 0 0 0 0 0 0 0 0 0 2 5 6 1 0 0 0 2 0 1 1 0 1 1 2 3 0 2 0 0 0 0 0 0 0 3 5 0 1 0 0 0 0 0 2 0 2 0 0 0 0 0 0 0 0 0 0 0 1 5 1 1 0 0 0 0 1 0 0 0 0 0 2 1 1 1 0 0 1 4 0 0 0 0 0 4 0 0 2 1 0 0 0 2 1 0 2 1 1 0 1 0 1 1 0 3 0 0 0 0 1 0 0 0 0 0 0 0 0 1 1 0 1 1 0 0 0 1 1 1 0 1 0 0 3 0 0 0 1 0 0 0 4 1 1 1 0 1 0 0 0 1 1 1 0 1 1 1 0 0 1 2 0 1 0 0 0 1 1 0 2 7 1 4 0 0 1 0 0 0 1 0 0 0 1 1 3 1 0 0 0 0 2 6 0 1 0 2 2 0 3 0 1 0 1 0 1 0 0 1 0 0 0 0 0 2 0 0 0 1 1 1 0 0 0 1 0 0 1 0 0 0 0 0 1 2 1 1 0 0 0 0 1 0 0 0 1 0 2 0 2 0 0 0 0 0 1 1 1 0 0 1 4 2 
0 0 1 0 1 1 1 0 0 2 0 0 2 1 1 0 0 1 0 0 1 2 0 4 0 2 4 1 0 0 1 1 1 0 0 1 0 0 1 1 7 1 8 2 0 1 0 0 0 1 0 1 1 0 1 0 0 1 0 2 1 0 0 1 1 1 0 0 0 0 0 0 0 0 1 0 1 1 0 1 0 0 1 0 0 0 1 0 0 1 1 1 5 1 1 1 0 0 1 0 0 1 0 0 0 0 0 0 0 1 4 1 0 1 0 2 0 0 1 0 0 4 0 0 2 5 0 1 3 1 0 0 1 0 1 2 0 1 1 5 0 1 1 0 2 0 0 0 1 3 1 0 0 0 1 1 0 0 0 0 0 1 3 0 0 0 0 1 0 0 0 1 1 0 0 0 1 0 2 1 0 0 0 0 0 1 1 1 0 1 0 1 1 0 1 0 0 0 3 0 1 2 0 0 1 0 1 0 1 2 2 2 2 0 0 0 0 1 1 0 0 0 0 0 2 0 0 0 1 0 0 1 2 1 0 0 0 0 1 3 1 1 1 1 0 1 4 0 0 0 0 0 0 2 1 1 0 0 1 1 2 0 0 1 0 0 0 1 4 1 0 1 0 0 1 1 1 0 0 2 0 0 0 0 3 1 0 1 0 2 1 3 0 1 1 2 4 0 0 0 1 1 0 0 0 0 1 1 1 0 1 1 0 0 0 0 0 0 0 0 0 1 0 1 1 1 1 0 0 0 0 0 1 2 1 0 0 0 0 1 0 0 0 0 0 2 4 1 0 0 1 1 0 1 5 1 0 2 5 1 1 0 1 1 1 1 2 2 0 1 1 0 1 1 0 0 1 4 1 0 1 0 0 0 2 0 1 1 0 1 1 0 0 1 11 1 2 0 1 1 1 0 0 0 2 1 1 2 0 1 0 0 0 0 1 1 1 0 0 0 2 0 0 1 0 0 0 1 0 0 1 0 0 1 0 1 1 0 4 0 0 0 0 0 1 1 2 0 1 2 1 1 0 2 0 0 0 0 1 0 0 1 0 5 0 0 0 0 2 0 1 0 1 6 0 0 2 0 0 0 1 0 0 0 0 1 1 0 0 0 0 1 0 0 0 4 1 1 0 0 1 0 0 0 0 0 0 0 0 0 0 0 0 0 0 0 0 0 0 0 0 2 2 1 2 0 1 0 0 1 0 1 0 0 0 1 2 4 1 0 0 0 0 1 0 0 0 2 6 0 0 1 0 2 0 0 1 0 0 2 0 0 1 0 2 0 0 1 4 1 0 0 4 1 0 1 5 2 0 0 1 0 0 0 1 1 0 0 1 0 0 0 1 0 1 1 0 0 0 1 0 0 2 1 1 1 0 0 2 2 0 1 0 1 0 0 0 1 1 0 1 5 0 1 0 2 0 1 0 0 1 1 0 1 1 3 0 1 0 1 
0 0 0 0 0 0 0 0 0 1 2 5 1 1 0 0 1 1 1 1 0 0 1 0 0 0 1 1 0 0 0 1 0 0 1 0 3 0 1 3 7 9 0 2 1 0 1 0 0 0 0 1 0 2 1 1 1 11 2 0 0 0 0 0 1 0 0 2 0 0 1 1 1 2 4 0 0 0 0 1 0 0 0 2 1 0 0 0 0 4 1 0 0 0 2 1 0 1 0 0 0 0 0 1 0 0 0 0 0 1 1 2 0 1 0 0 0 0 0 0 5 1 2 2 0 1 0 5 0 0 1 0 0 0 0 0 0 0 0 1 1 0 1 0 1 1 9 1 0 0 0 1 0 0 0 1 1 2 0 1 5 0 1 2 1 1 1 0 0 1 0 4 1 0 2 0 1 0 0 1 1 1 1 0 1 2 0 0 0 2 0 0 1 1 0 2 1 1 0 2 0 1 2 1 0 0 2 5 1 0 1 0 0 1 1 0 0 0 0 0 0 0 0 0 1 2 1 1 1 1 0 2 0 2 0 0 0 0 0 0 0 1 0 0 1 0 0 0 1 1 1 0 1 2 1 0 0 1 1 1 0 0 0 0 0 0 0 0 1 0 2 0 1 2 2 1 0 1 0 0 2 0 0 0 1 0 1 1 0 0 0 0 1 0 0 0 1 2 2 0 0 1 0 0 0 1 1 1 2 0 0 0 0 0 0 0 0 1 0 0 0 1 1 0 0 1 1 1 1 1 1 0 2 0 0 1 1 0 1 0 0 0 0 0 1 0 0 0 0 0 0 1 0 0 0 0 0 1 0 0 1 0 1 0 0 0 0 0 1 1 0 1 0 1 0 0 0 3 0 1 0 0 0 1 0 6 2 1 0 0 0 0 1 0 1 1 0 0 1 0 0 0 0 2 1 0 1 2 0 2 1 1 0 0 1 1 0 0 0 0 5 0 0 0 0 1 0 0 0 0 0 0 0 1 0 0 1 0 1 2 0 0 0 0 1 0 0 0 0 1 1 0 7 0 0 1 4 5 6 0 0 0 0 0 0 1 2 0 0 0 0 1 0 0 0 1 0 0 0 0 2 0 0 1 0 2 0 0 0 1 1 0 0 0 1 3 1 1 0 1 0 0 0 0 1 0 0 1 0 0 1 3 1 0 0 0 0 1 2 1 1 0 1 1 0 0 0 0 3 1 0 1 0 0 0 1 0 4 2 0 1 0 0 0 0 0 0 0 0 3 0 3 0 0 0 0 0 4 1 0 1 1 0 0 2 0 2 3 1 1 1 0 0 0 0 2 1 2 1 1 0 0 0 0 0 1 0 0 1 0 0 1 0 0 0 1 0 1 1 1 0 0 1 0 1 0 0 0 1 2 1 0 0 1 0 1 0 2 1 0 1 0 0 0 1 0 0 0 0 0 1 6 1 1 1 1 0 0 1 3 
0 0 1 1 0 0 0 2 0 1 2 6 5 4 1 1 2 0 0 1 0 1 0 0 1 0 0 0 0 1 5 0 0 1 1 2 1 1 1 1 1 1 0 1 0 0 0 0 0 0 2 0 0 0 0 0 3 1 0 0 3 1 0 1 0 1 1 1 0 0 0 0 0 0 0 0 1 9 1 1 0 0 0 0 0 2 1 1 0 1 0 2 0 1 1 1 1 0 1 1 0 1 0 0 1 0 0 0 1 1 0 0 0 0 4 0 0 1 2 2 1 0 1 1 0 1 3 1 0 1 5 1 0 0 0 0 0 0 1 1 0 1 0 0 0 1 1 1 0 0 0 0 0 2 0 1 1 1 1 0 1 1 1 0 0 0 0 1 1 0 0 2 0 1 0 0 0 0 1 0 0 1 1 0 1 7 1 0 1 0 1 0 0 0 0 0 0 0 1 0 0 0 2 1 0 0 0 4 1 1 2 1 0 1 2 4 1 1 0 0 2 1 1 1 0 1 1 1 0 0 5 1 1 1 3 1 0 0 0 0 1 0 0 0 2 0 0 0 0 0 1 2 1 0 0 1 0 2 8 0 2 1 0 0 1 1 1 0 0 1 0 1 0 0 0 1 0 6 0 1 0 0 0 0 2 0 0 4 2 0 0 0 0 0 0 0 1 1 0 5 1 6 2 0 1 4 0 0 1 0 0 1 0 0 0 0 0 0 0 0 0 0 0 1 0 0 1 2 0 0 0 0 0 1 1 1 0 0 1 1 2 0 0 0 0 0 0 0 0 0 2 0 1 0 0 0 1 0 0 0 1 0 0 0 0 0 0 0 0 1 7 0 0 0 0 1 1 1 2 1 1 1 0 0 0 1 1 4 1 0 0 0 1 1 1 0 0 0 1 1 2 0 1 0 1 0 1 1 0 1 1 1 1 2 1 0 0 1 0 0 1 7 1 0 1 0 2 0 0 1 0 0 1 1 0 0 1 0 0 0 0 0 1 1 2 0 0 0 0 1 1 0 1 1 1 0 0 2 0 1 1 5 0 0 1 1 1 0 1 0 0 0 0 0 0 2 0 0 0 5 5 0 0 1 2 0 0 0 0 0 0 1 1 0 1 1 0 1 1 0 2 3 1 0 0 0 0 1 1 1 8 0 1 0 2 7 5 0 0 0 1 1 0 0 1 0 0 0 0 1 3 0 0 0 1 0 0 1 0 0 2 1 3 0 1 0 0 0 0 0 0 1 0 0 0 2 1 0 0 0 0 2 1 1 1 6 0 0 2 1 1 0 1 1 1 1 1 0 1 0 1 0 0 3 1 0 0 0 1 0 0 0 1 0 0 0 0 0 0 0 1 0 1 1 0 0 0 0 0 0 1 0 0 1 1 0 4 2 0 0 0 0 1 1 0 2 0 0 0 1 0 1 4 0 0 1 0 0 0 0 
1 1 0 1 1 1 1 3 5 1 1 0 0 0 1 1 0 2 0 0 0 0 0 1 1 0 0 1 1 0 1 0 0 0 0 0 1 0 0 0 0 0 1 0 0 0 1 1 1 0 0 0 0 0 0 1 1 1 0 0 0 1 1 5 0 0 0 1 0 0 1 1 0 1 6 0 6 1 0 0 0 0 0 0 1 1 2 1 1 0 0 0 0 1 0 0 0 1 3 0 1 2 0 0 0 0 0 0 0 0 0 1 1 0 2 0 0 2 2 1 0 0 1 0 0 2 1 1 1 1 1 1 0 1 1 0 0 4 0 1 0 2 1 0 0 2 0 1 0 2 1 0 1 0 1 1 0 2 0 0 0 0 1 0 0 0 1 0 1 0 0 0 1 0 0 0 0 0 0 0 0 0 2 3 9 6 1 0 0 0 1 0 1 0 1 0 0 1 2 1 0 0 0 1 1 1 1 1 0 1 1 0 1 1 0 5 1 1 1 0 0 0 0 1 0 1 0 1 1 3 0 2 2 1 1 0 2 1 1 1 0 0 0 0 0 0 1 0 0 0 1 1 1 1 0 0 1 1 0 3 0 0 1 0 0 1 0 1 6 1 1 0 0 2 0 0 0 0 1 0 0 0 0 0 0 0 1 1 0 0 0 0 0 3 0 0 0 0 1 1 1 1 0 0 0 0 0 1 1 2 0 1 1 0 1 0 2 1 1 0 0 1 0 1 0 0 2 0 0 1 0 0 0 0 1 2 0 1 4 0 1 1 1 1 0 0 0 1 0 0 0 0 1 0 4 1 1 4 1 0 0 1 0 1 0 0 0 1 0 0 0 1 0 0 0 0 1 6 1 0 1 1 0 1 0 2 0 0 3 1 1 1 0 0 0 0 0 1 1 0 0 0 0 1 0 0 1 0 0 1 1 0 1 0 0 1 0 1 1 0 1 0 0 0 0 0 0 0 0 1 0 0 0 0 0 0 1 3 0 1 1 0 1 2 0 0 0 0 1 1 0 1 0 0 2 2 0 0 1 1 0 4 0 1 0 0 4 3 1 0 0 1 0 1 1 0 1 2 0 0 0 0 0 1 5 0 1 0 0 0 0 0 2 2 0 3 0 0 1 2 1 0 0 0 0 1 0 1 1 0 0 0 1 1 0 2 0 0 1 0 0 1 2 2 3 1 1 0 0 0 1 0 0 0 1 0 0 1 0 2 2 0 1 1 2 1 0 1 0 1 0 1 0 0 2 1 2 0 1 0 1 2 1 3 1 1 0 3 0 1 0 1 0 0 0 3 0 1 1 1 0 1 2 0 0 0 0 0 2 0 1 0 0 1 1 0 0 1 1 0 1 1 0 0 2 0 0 1 0 1 6 1 1 0 0 1 0 3 1 0 1 1 0 3 0 0 0 5 1 3 0 0 1 1 1 0 0 2 1 0 
0 0 0 0 2 0 0 0 1 2 2 0 1 0 0 1 1 0 0 1 2 1 0 1 0 1 3 0 1 1 0 0 1 1 0 1 1 0 1 0 0 0 0 0 0 0 0 1 2 1 2 6 1 1 0 1 0 0 0 0 0 1 1 0 0 0 0 1 0 1 0 2 2 3 9 2 1 1 1 0 0 0 1 2 1 0 2 0 2 2 0 0 1 0 4 6 1 0 0 1 0 0 0 0 1 0 1 0 0 1 0 1 1 0 0 1 1 0 1 0 1 1 5 1 1 0 0 0 0 0 0 0 1 0 0 0 2 5 1 1 1 0 0 0 0 1 1 2 0 0 2 0 0 2 0 0 0 1 0 1 0 1 0 0 0 0 0 0 2 2 0 0 1 0 0 1 1 1 0 1 0 0 1 1 3 1 0 0 0 0 0 0 0 8 1 0 1 0 1 1 1 2 1 1 2 0 0 0 1 1 0 0 1 0 1 0 0 0 0 0 1 0 2 1 0 0 0 0 0 0 1 0 0 0 0 0 1 2 1 4 1 0 1 0 0 1 2 0 2 1 0 1 1 0 0 1 1 7 0 0 0 1 1 0 1 1 1 1 0 0 0 1 1 2 0 0 0 0 1 1 1 2 0 0 5 1 0 2 6 0 0 0 0 0 0 2 0 0 1 0 1 0 0 1 6 1 0 0 0 0 0 0 0 0 0 0 0 0 0 0 0 0 1 4 0 0 0 0 0 1 0 5 1 0 1 0 1 0 0 0 2 1 2 0 0 0 2 5 0 0 1 1 0 2 1 0 0 0 0 0 0 2 0 1 0 0 1 0 0 0 2 1 0 0 0 1 1 1 0 4 4 1 1 0 0 0 0 1 1 2 0 1 0 0 2 0 1 1 0 0 0 0 0 2 5 1 2 0 0 1 0 0 0 0 3 0 1 1 1 1 0 0 0 1 0 0 0 0 1 1 0 1 1 2 1 0 0 0 1 1 1 0 0 1 0 0 0 0 0 0 0 0 0 1 0 0 0 0 0 1 0 1 3 0 0 1 1 1 2 1 0 2 0 1 2 1 0 1 0 0 0 0 1 1 1 0 0 0 0 0 0 0 1 0 0 5 2 1 1 4 1 0 0 1 0 0 0 0 0 0 0 1 0 0 0 2 2 1 1 0 1 1 2 0 1 0 1 0 1 0 0 0 0 1 0 0 1 1 1 0 1 0 0 1 0 0 1 1 1 1 1 1 2 0 0 0 0 0 0 0 2 0 0 0 0 1 0 0 1 1 0 0 2 1 0 0 0 0 0 1 0 0 1 3 0 0 1 1 0 0 1 0 0 0 0 0 0 0 1 0 0 0 1 0 0 1 0 2 0 2 2 2 0 0 0 1 4 4 0 0 2 2 0 0 0 0 2 1 1 1 0 0 0 0 0 0 0 3 1 0 
0 0 0 0 1 0 1 0 0 0 0 4 0 0 0 0 2 1 0 1 3 0 0 1 1 1 0 2 0 1 0 1 6 0 1 0 0 1 0 1 0 0 0 0 0 1 1 0 0 1 0 1 0 1 4 1 0 0 1 2 0 0 0 0 0 0 0 0 0 1 2 2 0 0 1 2 1 9 6 7 0 2 0 0 0 0 0 0 0 1 2 2 0 0 0 0 1 0 0 3 0 0 0 0 0 1 0 0 1 0 1 0 1 2 0 0 1 0 0 1 0 0 2 1 1 0 0 1 1 0 0 0 1 1 0 0 1 2 8 1 0 0 2 0 1 0 0 1 1 1 0 0 0 0 1 0 0 0 0 1 0 0 0 0 0 2 1 1 0 1 0 0 0 3 1 0 0 1 0 0 3 0 0 1 0 0 0 0 0 1 0 0 0 0 0 0 0 1 0 0 0 0 0 0 0 0 1 0 1 0 1 0 0 0 2 0 1 0 3 2 0 1 0 1 0 0 0 0 0 1 1 0 0 1 0 0 1 0 0 2 1 1 0 5 0 0 1 1 0 1 0 0 0 0 0 1 4 2 1 0 0 1 0 0 7 0 1 0 0 0 0 0 0 0 0 2 0 1 0 4 5 0 0 5 0 0 0 0 0 0 2 3 1 0 0 2 2 0 1 0 1 0 0 0 2 8 0 0 1 1 0 0 0 0 0 1 1 2 2 1 0 0 2 0 1 0 4 1 1 6 0 0 1 0 3 0 0 1 1 3 6 1 2 0 2 0 4 0 1 0 0 0 1 0 0 0 1 0 0 0 0 0 0 0 0 0 0 1 1 2 0 3 0 0 1 0 0 0 0 0 0 0 1 0 0 1 1 1 2 0 0 0 0 0 1 1 0 0 0 0 0 0 0 0 1 0 0 6 0 1 0 1 0 0 0 0 1 0 0 1 2 1 2 0 0 0 0 7 9 0 0 1 1 1 3 0 1 4 0 0 1 0 0 1 2 0 0 0 0 0 1 1 1 0 1 1 0 0 0 1 1 1 0 2 2 0 7 2 0 0 3 0 0 1 1 0 0 0 1 1 0 0 0 7 0 6 3 0 0 0 0 2 0 0 1 0 1 1 1 4 0 0 0 0 1 0 0 0 0 0 0 1 0 0 0 1 0 0 0 1 1 0 0 0 0 2 1 1 0 1 0 0 2 0 2 0 0 0 0 5 4 0 0 0 2 1 3 0 2 1 1 1 1 1 0 0 0 1 1 0 1 0 0 2 3 0 5 4 2 1 0 3 0 1 0 0 0 0 1 0 0 0 1 1 0 1 1 0 0 1 0 1 3 1 0 0 0 3 0 1 0 0 0 0 0 1 1 1 1 1 0 1 0 0 0 0 0 0 1 1 0 2 0 0 1 0 1 0 1 0 0 0 0 1 1 1 1 1 0 0 
0 0 0 0 1 1 1 0 0 0 1 0 0 0 1 0 1 0 0 1 1 1 0 2 1 2 1 1 1 0 1 0 6 0 0 1 1 7 1 0 0 1 0 1 1 0 1 0 0 0 1 0 0 0 0 2 0 0 1 0 0 1 1 0 1 1 2 4 1 0 0 2 0 1 1 0 1 1 1 1 2 5 0 0 0 0 0 0 2 0 0 0 6 0 0 1 0 0 1 0 1 0 0 1 0 1 0 1 0 0 1 0 0 1 0 0 0 1 0 0 0 0 0 1 0 0 0 6 0 0 2 3 1 0 0 0 0 1 1 0 0 2 1 1 1 1 1 0 0 0 0 0 2 0 0 0 0 0 0 1 1 0 1 0 0 0 0 0 0 0 3 4 1 2 2 2 0 0 0 0 1 0 0 0 0 0 1 0 2 0 0 0 0 0 0 0 2 0 0 0 0 0 0 1 1 0 2 0 1 4 0 2 0 1 0 0 0 0 1 1 1 0 0 0 0 1 0 2 0 0 1 0 1 1 0 1 1 0 0 1 0 0 1 1 0 0 1 3 1 0 0 0 2 2 1 1 0 1 1 2 1 1 1 0 0 0 0 2 0 1 0 1 0 0 7 1 0 0 0 0 1 0 1 1 0 1 0 1 0 1 1 0 0 1 0 1 1 0 2 0 0 0 0 1 0 0 0 0 1 0 0 0 1 1 3 0 1 0 6 0 1 1 0 1 1 1 0 0 0 0 1 6 2 1 1 0 0 1 0 0 0 0 3 3 2 0 2 1 0 3 0 0 0 1 0 0 0 0 0 0 7 0 0 1 0 0 0 0 0 0 0 1 1 0 1 0 0 0 0 1 1 0 1 0 1 0 4 0 0 0 2 1 0 0 0 2 0 0 0 1 0 2 2 0 0 0 2 0 0 0 0 3 1 1 3 0 1 0 2 1 0 0 0 0 0 0 1 1 0 0 0 2 2 9 2 1 1 0 0 1 5 1 1 1 2 0 0 0 0 0 0 4 0 0 0 0 0 0 0 1 1 0 0 0 1 1 4 0 0 1 0 0 0 0 0 0 0 1 0 0 0 0 1 1 1 2 1 2 0 0 1 1 1 0 0 1 0 8 1 0 0 1 0 0 1 2 3 0 1 0 1 0 2 0 0 0 0 0 0 0 1 3 5 1 0 1 1 0 1 0 0 0 0 0 1 1 0 0 0 0 1 1 0 1 0 0 1 0 0 1 0 0 0 1 1 0 1 0 0 0 1 0 0 1 2 2 6 0 0 0 0 0 0 0 0 0 4 1 0 0 1 0 0 0 4 0 0 0 0 0 0 4 0 0 1 0 1 1 0 1 1 1 0 2 0 0 1 3 3 0 1 0 0 0 0 0 0 0 0 1 1 1 1 1 1 0 0 1 1 1 2 1 5 0 4 1 0 1 2 1 
0 2 0 0 0 0 1 1 0 0 0 0 0 1 1 0 0 0 1 5 2 0 0 0 2 0 0 2 0 0 1 0 0 1 1 0 0 1 1 1 0 0 1 0 0 0 1 0 1 1 0 0 1 0 0 0 0 0 0 0 0 0 1 0 1 1 2 4 0 1 1 0 0 0 1 0 0 0 1 0 1 1 1 0 0 0 0 1 1 2 0 0 0 1 0 1 0 0 0 0 0 0 0 1 2 1 0 0 0 3 1 2 1 0 0 0 0 0 0 2 1 1 0 1 1 1 1 1 0 2 0 0 0 4 2 1 1 0 3 0 0 0 0 0 4 1 0 1 2 0 1 1 0 1 0 1 1 3 1 0 1 1 0 0 1 1 0 1 0 1 1 1 1 1 2 1 0 0 1 0 1 1 1 0 0 0 2 1 0 1 1 1 0 1 0 1 0 1 0 0 0 0 1 0 2 0 0 0 0 0 2 0 0 2 3 2 0 0 1 5 1 2 1 0 0 1 0 0 2 0 1 1 0 0 1 0 0 0 2 0 0 4 3 2 2 1 0 1 0 0 1 0 1 1 0 1 1 0 1 1 0 0 0 1 0 0 1 1 1 2 3 1 0 0 0 1 1 0 0 0 0 0 1 1 0 1 2 1 7 0 0 0 1 1 1 1 4 0 0 2 1 0 1 0 2 0 0 1 10 0 7 2 0 1 0 1 1 8 0 0 1 0 1 5 0 2 1 0 0 0 0 3 0 0 1 2 1 0 0 1 0 0 0 0 0 0 0 0 2 0 1 0 1 0 0 1 0 0 0 0 1 2 0 1 0 1 0 0 0 0 0 0 0 0 1 0 0 0 0 1 0 0 2 1 1 0 2 0 2 4 11 1 1 0 1 1 0 0 0 1 1 0 1 3 1 1 0 0 0 0 1 5 0 1 2 0 0 0 0 1 1 0 0 1 1 1 1 0 0 0 1 1 1 0 1 0 3 1 0 0 0 2 1 2 0 0 0 0 0 1 6 0 0 0 0 0 0 0 1 0 1 0 1 1 0 0 0 1 0 4 4 0 0 0 0 0 0 0 1 0 0 2 0 0 0 1 2 2 1 1 9 7 2 0 0 0 0 0 0 0 0 1 0 0 1 0 0 0 3 1 0 1 0 0 0 1 0 0 0 0 0 1 0 0 0 0 1 0 0 0 0 0 2 0 0 1 1 1 0 1 0 0 0 2 0 0 0 1 0 0 0 1 0 0 0 0 0 0 0 0 1 1 3 6 3 0 0 1 1 0 0 0 0 1 0 0 1 1 0 0 0 1 1 1 0 2 0 0 0 1 0 2 1 3 1 0 1 0 2 1 1 1 0 1 1 1 0 6 1 0 0 1 0 0 0 0 0 0 4 5 0 1 0 0 1 0 0 1 1 2 2 2 1 1 0 0 0 0 0 0 
0 1 1 0 0 0 0 0 0 0 0 1 4 0 1 0 2 0 1 1 0 0 1 0 0 0 0 0 0 0 0 1 0 1 3 0 1 0 0 0 1 0 1 1 0 1 4 1 1 0 1 0 1 0 0 1 0 0 0 0 0 2 0 4 0 0 0 0 1 0 1 1 0 0 0 0 0 0 1 0 2 1 0 1 0 1 2 0 0 0 0 0 1 0 1 1 2 1 0 2 4 0 1 0 0 1 1 0 0 1 0 1 0 2 3 1 1 0 11 1 0 1 0 1 1 0 0 0 0 1 0 0 0 0 1 0 0 0 0 1 0 1 1 0 0 0 1 1 0 1 0 0 0 0 0 2 6 1 1 1 1 0 2 1 2 0 0 1 0 2 0 1 0 0 0 1 1 0 0 1 1 0 0 0 2 0 1 0 0 1 0 3 0 0 0 1 1 1 0 0 0 0 1 1 0 0 0 1 0 1 0 0 1 0 1 1 0 0 0 0 2 0 0 1 0 2 1 2 0 1 1 1 0 0 0 2 1 1 0 1 0 1 1 1 4 1 0 1 0 2 0 1 4 4 0 1 1 0 1 1 1 0 0 0 0 1 0 1 2 1 1 0 1 0 0 8 3 1 0 1 0 0 0 1 1 0 1 0 0 0 1 1 1 0 1 0 2 0 0 1 0 0 1 0 4 1 0 0 0 1 7 1 1 1 2 4 1 1 1 1 1 0 0 0 0 2 0 0 0 0 0 0 1 0 0 0 1 0 1 1 1 1 0 0 2 1 2 0 2 0 2 0 0 1 0 0 1 1 0 0 1 1 2 2 0 0 0 0 1 1 1 0 1 0 1 1 0 0 1 1 0 0 0 1 0 2 0 0 1 7 11 1 1 0 0 1 0 1 0 0 1 0 0 0 0 1 0 0 2 1 2 0 0 0 5 1 7 0 1 1 1 1 0 0 0 3 3 0 2 1 0 0 1 0 0 1 0 0 1 0 0 0 0 1 3 4 1 0 0 0 0 0 0 0 0 2 1 1 1 0 1 1 1 1 1 0 0 0 0 0 2 1 0 2 1 0 0 0 1 1 1 0 1 1 0 0 0 0 0 0 0 1 1 0 1 1 0 0 2 0 0 1 1 0 1 0 0 1 0 0 0 0 7 1 2 1 0 0 0 0 0 1 0 0 1 0 2 0 0 2 0 0 0 0 0 0 1 1 0 0 0 1 2 1 0 0 1 0 0 1 1 1 1 1 1 1 1 0 1 0 0 4 1 0 2 0 0 0 1 2 0 1 1 1 1 0 0 1 0 1 0 2 1 1 0 1 0 0 0 0 2 3 1 2 0 1 0 1 0 1 4 0 1 1 1 2 1 0 1 2 1 0 1 0 1 0 0 1 0 0 3 0 0 0 0 0 0 0 0 0 0 0 1 0 0 1 0 0 0 0 
0 0 1 0 1 0 0 1 0 0 0 0 0 1 0 0 1 0 1 0 0 2 0 0 1 1 0 0 2 0 0 0 0 0 1 0 0 1 0 2 0 0 0 1 0 1 0 1 1 0 0 0 0 0 0 1 2 1 0 0 0 0 0 2 0 0 1 1 4 4 3 0 0 0 1 0 1 0 0 1 0 1 1 1 1 0 1 1 0 0 0 1 0 1 0 1 0 0 1 1 0 2 1 0 6 0 2 0 0 1 0 0 0 0 2 1 1 1 1 0 0 1 0 1 1 1 3 1 1 0 1 2 1 0 1 0 0 0 0 0 0 6 3 1 0 1 0 0 0 0 1 0 1 1 0 0 0 2 6 6 0 1 1 0 1 1 2 1 0 1 0 1 0 0 0 0 1 0 0 2 1 1 1 1 0 2 2 1 0 1 0 1 0 0 0 3 1 0 0 0 0 1 1 0 1 0 1 0 3 1 0 0 0 2 1 1 3 6 0 0 0 0 0 1 1 4 1 11 7 0 4 5 1 1 0 0 0 1 0 1 0 0 0 0 2 0 1 0 0 1 0 0 3 1 1 3 0 0 5 1 1 0 4 6 2 0 1 1 0 0 1 1 0 2 0 1 1 1 3 1 1 2 0 2 0 0 0 0 0 1 0 0 1 2 1 0 5 1 1 0 0 0 0 1 1 0 0 2 1 2 1 1 2 4 5 0 0 2 1 1 0 0 1 1 0 0 2 0 0 1 0 0 1 0 1 1 1 1 0 0 1 1 1 0 0 0 0 1 0 1 2 1 0 1 0 1 0 0 0 1 1 0 0 0 1 1 0 0 0 1 1 0 1 0 0 1 0 2 0 1 0 0 1 1 1 0 0 0 0 0 0 0 1 1 2 0 0 0 0 0 7 0 0 2 0 2 0 2 2 0 0 0 0 0 1 1 1 1 0 0 6 0 0 1 1 0 0 0 0 0 0 2 1 0 0 0 0 0 1 0 0 0 1 2 0 1 2 1 0 1 1 0 0 0 1 1 0 1 0 0 0 0 0 1 0 0 0 0 1 0 1 0 0 2 0 1 2 0 1 0 0 1 1 3 0 0 0 0 0 0 0 1 1 1 0 2 0 0 0 2 0 1 1 1 3 0 0 0 1 1 0 0 0 1 1 6 0 0 0 0 1 1 0 0 0 1 1 0 0 0 0 0 0 0 0 1 0 0 1 0 0 6 0 4 2 1 1 0 0 0 1 0 1 0 0 0 0 0 3 0 1 3 0 1 0 1 1 0 0 0 1 0 0 0 5 1 0 0 1 1 1 0 1 1 0 0 2 0 0 0 3 1 5 0 1 2 0 1 0 0 0 0 1 0 1 0 0 1 1 2 1 0 0 0 0 0 0 0 0 0 0 0 0 4 0 1 1 0 0 0 1 2 1 0 0 0 0 0 0 0 
0 0 0 0 1 0 0 0 1 0 1 1 1 0 0 0 0 0 0 1 0 2 1 2 2 4 1 1 0 1 1 0 1 1 1 0 0 1 0 3 2 0 0 0 0 1 0 1 0 1 0 1 1 1 0 0 0 0 0 0 1 1 2 0 0 0 0 0 1 0 3 0 0 0 0 0 1 2 1 0 0 1 0 0 0 0 0 0 0 0 0 0 2 0 0 0 2 0 0 1 1 1 0 0 1 4 1 2 0 2 1 1 0 0 0 0 0 0 1 2 0 1 1 4 1 0 1 0 0 0 3 1 0 0 0 0 0 1 1 1 8 1 0 0 1 0 1 2 1 1 3 1 2 5 2 0 0 1 1 1 1 1 2 0 0 0 0 0 0 1 0 2 0 0 0 0 0 1 2 10 1 1 1 1 0 0 0 0 0 0 0 1 1 0 0 0 0 0 0 1 0 0 0 0 1 1 2 2 1 0 1 1 0 1 1 1 1 2 4 0 3 0 5 1 0 0 0 0 2 5 2 1 0 1 0 0 0 2 0 1 2 0 2 0 0 0 0 3 3 2 0 0 0 1 3 0 0 2 1 10 1 0 2 7 0 0 2 0 1 0 0 0 0 0 0 4 0 0 1 1 2 2 0 1 0 1 0 0 0 0 2 0 0 0 1 1 1 0 0 1 1 2 0 1 2 0 1 0 0 1 0 3 1 1 1 1 1 0 1 0 1 0 0 0 1 1 1 0 1 4 2 0 0 0 2 0 1 1 0 0 0 0 1 2 1 1 1 0 0 0 0 0 0 0 0 0 0 2 0 0 1 0 0 0 0 0 0 0 0 0 0 1 0 0 0 1 0 0 0 0 0 0 0 1 1 0 0 1 0 0 0 1 1 1 0 1 1 1 0 0 1 7 0 1 1 0 0 1 6 0 0 1 0 1 0 1 1 0 2 3 7 1 1 2 0 0 0 1 0 1 1 0 0 0 0 1 1 1 0 2 0 1 0 1 0 0 0 0 2 1 2 0 0 0 0 0 1 0 2 6 1 0 1 1 0 0 1 0 0 2 7 1 4 0 0 0 1 0 0 0 0 0 0 0 0 0 0 0 0 0 0 0 0 1 0 1 1 1 0 0 1 0 0 1 1 2 0 0 0 1 2 1 1 0 1 1 4 1 0 1 0 1 0 1 2 0 2 0 0 0 1 1 0 1 1 1 0 2 0 0 1 1 1 0 2 1 1 0 0 0 5 1 2 0 0 0 0 1 1 0 0 3 1 5 0 0 0 0 0 0 0 1 0 2 1 1 0 0 2 0 0 0 1 0 0 0 0 0 0 1 1 1 0 0 1 2 0 1 0 0 1 0 4 2 1 1 0 1 0 1 1 2 0 4 1 0 0 0 0 0 1 0 1 2 0 1 0 1 1 1 2 1 2 2 0 0 0 0 1 0 
0 2 1 0 0 0 0 0 3 0 2 0 0 0 0 1 0 0 0 2 2 1 1 0 2 1 1 1 0 2 0 0 2 1 0 1 0 0 1 1 4 0 0 0 1 0 1 2 1 1 0 0 0 0 0 1 0 0 0 5 1 1 1 0 0 0 0 1 1 1 0 0 1 1 0 0 0 0 0 0 0 0 0 1 2 0 0 0 1 2 1 2 0 3 0 0 0 0 0 0 2 1 0 2 1 4 1 5 1 4 0 1 5 0 0 0 0 0 0 0 0 0 0 0 0 1 0 0 0 1 0 1 1 2 0 0 0 0 2 0 1 0 0 1 0 1 0 0 0 0 11 0 0 0 0 1 1 0 0 0 0 0 0 0 2 3 1 1 0 1 1 0 1 0 1 0 0 1 0 1 0 2 0 0 0 1 0 2 0 1 0 1 1 0 1 0 0 0 0 0 1 2 1 1 0 1 0 1 0 1 1 0 2 1 1 1 1 0 1 0 7 0 0 0 1 0 1 1 0 0 0 0 0 1 0 3 1 0 1 0 1 2 0 1 2 0 0 0 0 0 0 1 1 1 0 0 1 1 1 1 0 5 0 0 0 0 1 0 1 0 0 1 0 0 1 1 1 0 1 2 1 1 2 0 1 0 0 0 1 0 1 1 0 1 1 2 0 1 0 0 1 0 0 0 0 1 1 0 1 1 0 1 0 0 1 1 1 0 0 0 1 0 1 1 1 0 0 0 3 0 0 0 1 1 0 1 0 0 0 0 0 0 0 1 1 1 0 0 1 0 1 1 0 1 1 1 1 2 1 0 1 2 0 0 0 0 2 0 0 0 0 0 1 0 0 0 2 1 0 1 0 1 3 6 0 1 0 1 0 0 0 2 1 0 2 0 1 0 0 0 2 2 0 0 0 2 1 1 1 0 1 0 2 1 0 0 0 0 0 0 1 0 0 0 0 0 0 1 0 1 0 0 0 0 2 1 0 0 1 2 1 2 1 0 0 0 1 1 0 5 10 3 0 6 0 0 0 0 2 1 0 1 2 1 0 1 2 0 0 1 0 10 1 1 1 0 1 2 0 0 1 0 1 0 0 0 0 0 0 1 0 0 1 0 0 0 0 0 0 1 0 0 9 2 1 0 0 1 0 0 5 0 0 0 1 1 6 2 1 0 0 1 1 2 0 6 0 1 0 1 0 0 2 0 1 0 2 0 1 1 1 0 0 6 0 1 1 0 0 0 2 1 0 3 0 1 0 0 0 0 0 1 0 0 0 1 0 0 0 0 2 4 0 0 0 1 0 1 0 1 1 1 1 1 0 0 2 6 1 0 0 1 1 0 0 0 0 1 1 0 0 1 0 0 1 0 0 4 0 0 0 1 6 1 1 1 0 0 1 0 0 0 1 0 0 2 0 0 0 0 1 1 2 0 1 1 0 1 1 0 
0 0 0 1 1 0 0 0 0 0 0 2 0 1 0 0 0 0 0 0 0 1 1 4 1 0 1 2 0 1 3 1 1 5 2 0 0 0 1 1 1 0 2 0 1 2 1 0 0 0 1 0 1 0 0 0 0 0 1 0 0 0 0 0 0 0 0 0 1 0 0 1 1 0 0 4 0 0 0 1 0 0 0 2 5 2 1 0 0 0 0 2 2 1 1 0 0 2 2 0 0 1 1 0 0 0 1 3 1 1 1 0 1 1 1 6 1 0 0 1 1 0 0 1 1 1 0 0 0 0 2 0 0 1 0 0 1 0 0 0 5 1 1 3 1 2 1 1 0 0 0 0 0 0 0 0 0 0 0 0 3 0 0 0 0 0 1 0 0 0 1 1 0 1 0 0 0 0 1 1 0 1 0 1 1 1 0 1 0 0 1 0 0 0 0 1 1 1 0 1 0 1 0 0 0 0 1 0 0 0 0 1 1 1 0 1 0 2 0 0 0 1 1 4 0 0 1 0 1 0 0 1 0 0 0 0 0 0 0 0 0 2 1 0 1 2 1 0 1 1 0 0 0 2 0 0 1 0 0 2 1 1 0 0 0 2 1 1 1 1 0 0 0 1 1 1 0 1 0 0 0 0 5 2 0 0 0 0 0 0 0 0 1 3 1 2 4 0 0 0 0 1 0 0 2 0 0 0 1 0 1 0 2 1 0 2 0 1 0 0 2 2 0 0 1 1 1 2 0 1 0 0 0 1 1 1 0 1 1 0 0 1 0 0 1 0 0 2 2 2 0 0 0 1 1 0 1 0 0 0 0 1 6 1 0 0 0 0 0 1 0 1 1 2 0 0 0 2 1 0 7 2 1 1 0 2 0 0 0 0 1 0 0 1 0 0 2 2 0 1 3 2 1 0 0 0 1 1 3 1 0 1 1 0 1 0 0 2 1 4 0 1 0 0 1 0 0 1 1 0 0 0 0 1 2 0 2 6 1 0 0 2 0 1 1 0 1 7 2 0 1 1 7 2 6 0 1 0 3 0 1 0 0 0 0 3 0 1 0 0 0 0 1 1 1 0 1 0 1 0 0 0 0 1 1 1 0 2 0 0 0 2 1 2 0 0 1 1 3 1 1 0 1 2 0 0 1 3 0 0 1 1 7 1 0 1 2 0 0 0 1 1 0 2 1 1 1 0 0 0 0 0 2 0 1 0 0 2 4 1 1 1 3 0 0 0 0 0 0 1 0 1 0 1 0 0 0 0 2 0 0 1 0 3 1 0 0 0 0 2 0 0 0 1 1 0 1 1 0 0 0 0 1 0 0 0 0 1 2 0 1 0 0 1 1 0 1 0 1 0 1 0 0 0 0 0 0 0 0 5 1 8 1 1 0 0 0 2 1 1 0 3 1 0 0 1 0 0 0 0 0 0 0 0 1 0 0 0 0 0 
0 2 0 1 1 0 0 0 1 1 1 0 0 1 1 0 0 2 0 1 0 0 2 1 0 1 1 4 1 1 0 0 0 1 0 1 0 1 0 1 0 1 0 0 0 0 2 0 0 1 1 2 0 1 2 0 0 2 0 0 0 0 0 0 0 0 0 1 0 0 0 0 1 2 1 0 0 2 0 0 1 1 1 1 1 9 0 0 0 0 1 0 1 0 1 0 1 1 0 0 0 1 1 0 0 0 0 1 0 0 0 0 2 0 6 7 0 1 0 0 0 1 0 0 0 0 1 2 0 0 1 1 1 0 0 0 1 2 0 1 0 1 0 0 1 0 1 1 0 0 0 1 0 1 1 0 0 1 1 2 0 0 0 1 1 0 0 0 0 0 0 0 0 6 0 0 0 0 1 0 0 0 0 0 0 0 2 2 1 2 0 1 0 0 0 0 1 1 0 3 1 0 0 0 0 1 1 0 0 2 0 0 1 1 0 0 2 0 0 0 0 0 1 1 1 2 6 1 1 1 2 1 1 0 1 0 0 1 1 1 0 0 0 1 0 1 0 0 1 2 1 1 0 1 0 0 0 1 1 0 1 0 0 0 0 2 0 0 0 1 0 0 1 0 0 1 0 1 1 1 1 0 1 1 0 1 0 0 0 1 1 1 0 1 0 1 0 1 1 0 1 1 1 0 0 2 3 0 0 3 1 0 0 0 0 0 0 1 0 1 0 0 0 0 1 1 1 1 0 1 0 1 0 1 0 6 1 1 0 0 0 0 0 0 0 0 1 1 0 1 1 0 1 0 2 0 1 0 0 0 1 0 1 0 1 1 0 0 0 1 4 0 0 1 0 1 0 4 0 0 0 0 0 0 0 0 0 1 0 0 0 1 0 0 0 1 0 0 1 0 1 1 0 2 1 1 0 1 8 2 0 1 1 0 1 2 1 1 0 3 1 0 0 0 1 0 0 0 0 0 4 0 0 0 1 0 1 0 0 0 0 0 0 1 1 1 1 2 1 0 0 0 0 0 0 0 0 1 1 0 1 1 1 1 1 1 1 2 3 0 1 0 1 0 0 0 1 0 0 0 0 2 0 1 4 4 6 0 0 0 1 0 0 0 0 0 0 4 0 0 1 2 0 0 2 1 0 0 0 0 0 0 2 0 0 0 0 0 0 0 0 2 0 0 1 4 0 0 0 0 2 0 4 0 0 0 0 2 0 0 0 1 0 0 0 1 0 2 1 0 0 0 1 0 0 0 3 1 0 0 0 0 1 0 0 0 1 0 1 0 1 0 0 1 0 4 2 1 0 1 0 0 0 0 0 2 0 2 0 1 0 0 1 1 1 0 0 0 0 2 0 0 1 0 0 0 0 0 1 0 0 1 1 0 2 3 0 1 1 0 0 1 2 0 0 0 0 0 0 2 1 0 0 2 0 2 0 1 1 1 
1 0 1 2 1 0 0 1 2 0 0 0 1 0 0 1 1 0 1 0 1 0 1 1 0 1 0 0 1 0 0 0 1 2 0 0 0 1 0 0 0 1 0 0 1 0 2 0 3 0 1 1 2 0 1 1 0 1 0 1 1 0 0 1 0 1 1 5 0 1 3 1 0 0 0 0 1 1 1 1 0 2 1 0 0 1 9 0 0 1 1 0 0 0 0 1 0 1 0 0 1 0 0 0 1 0 2 4 0 2 0 2 1 0 1 0 0 1 0 0 1 0 0 0 0 0 0 0 0 0 0 1 0 0 0 0 0 0 0 0 0 0 1 1 0 1 0 0 0 0 0 1 0 1 1 0 0 1 1 0 0 0 1 1 3 2 0 1 0 0 0 0 3 1 1 1 0 1 2 0 1 0 0 0 0 1 0 0 1 0 0 3 1 0 0 0 0 0 0 1 1 0 0 0 0 1 1 2 1 1 0 0 1 1 1 0 0 0 1 0 1 1 0 0 2 2 1 0 0 0 0 0 0 1 0 0 1 0 0 0 2 1 1 0 0 0 1 1 1 0 1 0 0 1 1 0 6 1 0 0 0 0 0 1 0 0 0 2 7 4 2 2 0 0 1 0 1 0 3 1 0 0 0 1 0 0 0 2 1 0 0 0 0 0 2 1 1 0 0 1 2 0 1 1 0 1 0 1 0 0 0 0 1 0 1 1 1 1 1 1 0 0 0 0 0 0 8 2 0 1 0 0 1 0 0 1 0 1 0 1 1 0 0 0 0 0 1 0 0 1 2 0 1 1 6 1 1 0 0 1 1 0 2 0 1 0 1 0 0 0 0 0 1 1 1 0 0 0 0 0 1 0 0 0 1 0 0 0 0 0 2 0 0 2 0 0 0 0 1 0 3 0 0 0 0 0 1 3 0 0 0 0 0 1 0 0 0 1 0 0 0 0 2 0 0 0 0 0 0 0 0 0 0 1 0 0 1 0 0 1 0 1 1 0 0 2 1 0 0 0 4 0 0 0 0 0 0 0 0 1 1 0 0 0 1 0 0 0 0 0 3 0 0 1 0 1 0 0 0 0 1 0 2 2 1 1 1 2 0 4 0 1 2 3 0 1 0 1 1 4 1 0 0 0 0 0 0 0 1 1 0 0 0 0 0 0 1 2 0 2 0 2 1 0 0 0 0 0 0 1 0 0 0 0 0 2 0 3 4 1 0 1 1 0 0 1 0 1 1 2 0 0 0 1 0 2 0 6 0 0 0 0 2 0 0 1 0 1 0 1 1 0 1 0 2 9 0 1 1 1 0 0 0 1 1 1 0 1 2 4 1 1 0 1 0 1 0 2 0 0 1 0 1 1 1 2 1 0 0 0 0 0 1 1 0 1 0 0 0 1 2 3 1 0 1 0 1 1 0 0 0 0 0 0 1 1 0 0 0 0 
2 0 0 0 0 0 1 1 0 2 0 1 0 0 0 7 0 1 1 2 1 1 0 2 1 1 0 1 6 1 1 1 0 0 1 0 1 2 1 2 3 4 1 0 0 1 1 1 0 0 0 0 0 0 1 0 1 1 0 0 0 1 0 1 1 0 0 1 0 0 0 1 1 0 0 0 2 0 1 2 0 1 2 2 2 1 2 7 1 5 0 0 2 1 0 6 2 0 1 0 1 0 0 1 1 0 0 0 1 0 1 0 0 1 0 0 0 2 0 0 0 0 1 0 0 5 0 4 0 0 0 0 0 0 1 0 1 0 2 0 0 1 0 0 2 1 2 1 2 0 0 0 0 1 0 0 1 1 0 0 1 0 0 0 1 1 0 0 1 1 1 1 0 1 1 2 2 0 4 1 0 0 0 1 1 0 0 0 0 1 1 2 1 0 2 1 0 0 2 0 0 3 2 2 4 1 1 0 1 0 1 7 1 0 0 0 0 0 3 1 0 0 0 0 1 1 1 0 0 1 0 3 0 1 0 0 1 0 4 2 2 0 3 2 0 0 0 0 0 1 1 0 1 0 1 0 0 0 2 1 0 0 1 0 1 1 2 0 1 1 1 1 0 0 0 0 3 1 0 0 0 2 0 1 0 0 0 2 1 0 1 1 0 0 3 2 1 0 1 1 1 0 1 2 0 1 1 1 1 0 1 1 0 1 0 0 1 2 0 0 1 0 0 2 2 0 1 0 2 1 2 0 1 0 3 1 0 1 0 0 0 1 0 0 0 0 0 3 1 0 0 1 1 0 2 8 0 0 0 0 0 1 1 1 0 1 1 2 1 0 1 0 5 6 1 0 0 1 2 0 0 0 1 1 1 2 0 0 0 0 1 1 0 1 1 0 0 2 0 0 0 0 1 0 0 4 0 0 0 0 0 0 2 0 1 0 0 0 0 0 1 0 0 0 0 0 0 0 0 1 1 1 0 0 1 0 0 0 0 0 0 0 1 0 1 0 1 0 0 0 1 1 0 1 1 6 1 0 2 0 0 0 0 0 1 7 1 0 1 1 1 0 0 1 0 1 2 0 1 2 0 0 0 0 2 0 0 1 0 1 2 0 4 1 0 1 0 0 2 0 0 0 1 1 2 0 0 0 0 1 2 0 0 0 1 0 0 1 3 1 0 1 1 0 0 0 1 0 0 0 2 0 0 0 0 0 0 0 0 1 0 2 0 1 0 0 0 0 1 1 1 1 1 1 0 3 1 0 1 0 0 1 5 0 0 1 0 1 1 0 0 0 7 2 1 1 0 0 0 0 1 0 0 1 0 0 1 3 1 0 1 0 0 0 0 1 0 0 1 0 2 1 0 2 0 0 0 0 3 3 1 0 2 0 1 0 0 0 0 0 2 3 1 0 0 0 1 0 1 0 2 0 0 0 0 2 1 1 0 0 
1 1 0 0 0 0 1 0 0 1 1 2 1 1 1 1 1 2 1 0 0 0 0 1 1 0 0 0 1 0 2 1 1 1 1 0 0 1 3 1 1 1 0 1 1 0 1 0 1 1 0 0 0 1 1 1 2 0 3 1 0 0 1 0 0 0 0 1 0 0 0 0 0 0 0 1 0 0 0 2 0 1 1 0 0 0 1 0 2 4 1 0 1 0 0 0 0 1 0 0 1 2 2 0 0 1 0 0 0 0 0 0 0 0 1 0 0 1 1 0 0 1 1 2 1 0 1 0 2 0 0 0 1 0 2 1 1 6 0 0 2 1 0 1 1 1 1 0 2 1 0 1 0 1 0 0 0 1 0 0 0 0 0 0 0 0 0 2 6 2 0 0 0 1 0 1 0 0 0 0 1 0 0 0 1 1 1 0 0 0 0 1 2 8 1 1 1 0 0 0 1 0 0 1 0 0 2 0 1 2 2 0 0 0 0 1 0 1 1 1 0 0 0 1 1 1 0 0 0 1 2 0 2 0 0 1 1 1 0 1 0 1 1 1 0 0 0 0 0 0 0 1 0 0 0 2 1 1 1 0 0 0 0 0 2 0 0 0 0 0 0 1 0 0 1 1 0 1 2 0 1 1 0 0 0 0 1 1 0 0 1 1 1 0 1 0 0 0 1 0 2 2 0 2 6 2 1 6 0 0 1 1 2 0 0 0 0 0 1 1 4 1 0 2 3 1 1 0 1 1 0 0 0 1 0 0 1 0 2 0 0 0 0 0 3 1 1 3 0 0 2 0 0 1 1 7 1 0 0 1 0 0 0 1 0 1 0 1 0 1 0 1 2 0 0 5 1 1 0 0 2 1 2 0 0 1 0 0 1 0 0 0 1 2 0 0 2 8 0 1 1 0 1 1 1 0 0 1 1 1 0 0 1 0 0 0 0 0 1 1 1 0 1 0 0 1 0 0 1 1 0 1 1 1 0 0 1 0 0 0 1 2 0 0 0 0 0 1 3 1 0 1 1 1 0 1 1 0 1 1 0 0 0 0 1 1 1 1 2 1 1 0 2 0 0 1 0 1 0 1 0 1 0 0 0 1 0 1 0 2 1 0 0 1 2 0 0 0 1 1 0 0 0 0 1 6 1 0 0 1 0 1 1 0 0 0 1 0 1 0 1 1 0 0 0 0 1 0 0 2 1 1 0 0 0 1 0 1 0 2 1 0 0 1 0 0 0 0 0 1 0 0 1 1 0 0 0 2 0 0 1 1 6 0 0 1 0 1 2 0 1 1 1 2 1 0 0 0 1 0 0 1 1 0 0 0 1 1 2 1 2 0 1 1 0 0 0 0 0 1 0 2 1 1 1 0 0 1 1 1 0 0 1 0 0 0 1 1 0 3 1 1 0 1 0 0 0 0 0 1 0 1 1 0 1 0 1 1 2 2 
1 2 5 1 0 0 1 0 5 1 0 0 2 0 1 2 0 0 0 3 0 2 1 0 0 0 0 1 2 5 1 0 0 0 0 1 1 0 1 1 0 0 5 0 1 0 1 0 0 1 0 0 0 0 0 0 0 0 0 0 1 0 0 1 0 0 0 0 0 1 0 0 4 0 0 2 0 0 0 0 1 0 1 0 0 2 0 1 1 2 2 2 1 1 6 0 3 0 0 7 0 0 6 1 0 1 0 1 2 0 2 2 2 7 0 0 0 0 1 1 0 0 1 0 0 3 0 1 7 0 0 0 0 0 0 0 1 1 0 0 0 0 0 0 0 0 0 1 0 0 0 0 0 1 0 0 1 0 0 0 1 0 0 0 0 0 1 0 1 1 1 0 0 1 0 0 0 0 1 1 1 0 2 0 1 0 0 0 0 2 1 0 0 0 0 3 0 0 0 1 0 0 0 0 1 1 0 0 0 1 0 0 0 0 1 0 0 1 0 1 0 0 0 0 0 0 0 0 0 0 0 0 0 1 0 1 0 0 1 1 1 1 0 8 0 0 0 1 0 0 0 2 2 1 0 0 0 2 3 0 0 0 0 0 0 1 4 1 0 0 1 1 1 0 1 1 0 0 0 0 1 2 0 0 1 0 0 0 0 0 0 0 0 3 0 1 0 1 1 1 1 2 0 2 4 2 1 1 0 0 0 0 0 1 2 0 0 0 2 1 1 0 1 0 1 1 7 0 0 0 0 0 2 0 0 1 1 0 0 0 0 0 1 2 1 0 0 0 0 0 1 0 0 0 0 1 0 0 0 0 0 0 0 2 0 0 0 0 0 0 0 0 1 1 0 0 1 0 0 1 0 0 0 1 0 0 3 1 0 1 0 0 0 0 1 1 0 1 0 3 0 1 2 0 1 0 0 1 1 0 0 0 1 1 0 0 0 0 0 1 3 0 0 0 1 0 2 0 1 1 0 2 0 0 0 0 0 0 2 0 0 0 0 0 1 0 0 0 1 0 0 0 0 0 0 0 1 1 1 1 0 0 5 1 1 1 0 1 1 0 0 2 2 0 0 0 2 1 0 0 0 0 1 0 0 0 0 5 1 1 4 1 0 0 0 1 0 1 1 0 0 0 0 0 0 2 1 0 0 1 1 0 0 0 0 0 0 0 0 0 1 1 0 1 1 0 0 0 0 0 0 0 1 0 0 1 1 0 1 0 0 1 0 0 1 0 1 1 1 0 0 0 1 1 1 0 0 1 2 1 0 0 0 0 0 0 0 1 0 1 0 0 3 0 1 0 0 1 0 0 1 0 3 0 0 1 0 1 0 1 0 1 0 1 0 1 3 1 0 1 0 0 1 0 1 0 0 1 0 1 0 0 0 0 0 0 0 0 0 0 0 0 0 0 0 1 0 2 1 1 0 1 1 0 0 1 6 0 12 3 
0 1 1 2 1 2 0 1 0 1 0 0 3 1 2 1 0 0 1 0 0 1 0 0 1 0 0 1 1 2 1 0 1 0 1 1 0 1 1 0 2 3 0 0 1 9 1 1 0 0 2 1 2 0 2 1 1 0 1 0 1 0 0 0 0 0 0 0 0 0 0 1 1 0 1 0 1 1 0 0 0 0 0 1 0 0 0 0 0 0 0 6 1 2 2 4 1 0 0 1 0 0 0 0 0 3 1 0 4 0 0 1 2 2 2 0 0 0 1 1 0 0 0 1 1 0 1 0 0 0 0 0 0 0 1 0 0 0 1 0 0 1 0 1 2 1 2 1 0 0 1 0 0 0 0 2 2 0 2 0 1 0 0 0 0 0 0 2 1 1 2 0 0 3 1 0 0 1 1 0 0 0 0 0 1 0 1 0 0 0 0 0 1 0 0 0 0 1 0 0 1 1 0 0 0 0 1 1 0 1 0 1 1 1 1 1 11 2 0 1 1 1 1 0 2 0 0 1 0 0 1 0 1 0 2 0 1 1 0 0 0 0 1 1 1 2 2 1 0 0 0 1 0 0 1 2 0 0 0 0 0 0 1 1 0 1 2 1 0 2 0 0 0 1 0 0 0 0 0 2 1 0 1 3 1 2 0 0 0 2 1 0 1 1 1 0 0 1 0 0 0 2 2 0 0 1 1 1 1 0 0 1 0 1 0 1 1 1 0 0 0 1 1 0 1 1 1 3 1 4 1 1 0 1 2 0 1 0 1 0 0 0 1 0 0 0 0 0 1 1 1 3 0 0 1 0 0 0 0 0 2 1 0 0 0 0 0 0 1 1 0 0 0 0 0 0 1 1 0 0 0 0 0 1 2 0 1 0 0 0 0 0 0 0 0 1 0 1 0 0 1 2 0 1 0 1 0 0 0 0 0 0 0 0 1 1 0 0 0 0 1 2 1 1 0 1 1 2 0 0 0 0 0 2 1 1 1 0 0 0 0 0 1 1 4 2 1 0 0 0 0 0 1 1 1 2 0 0 1 0 1 0 2 0 1 0 1 1 0 1 3 6 1 3 0 0 0 0 0 2 1 1 0 0 0 1 1 3 1 2 5 1 1 1 0 0 0 0 1 0 10 0 1 0 1 4 1 1 1 1 0 0 5 0 1 2 0 1 0 0 1 0 1 1 0 1 0 4 0 0 1 0 1 0 1 0 0 0 1 0 0 2 0 1 2 6 0 0 2 1 0 0 1 0 0 1 0 1 0 0 0 0 0 1 0 0 2 2 1 2 0 0 0 1 1 1 0 0 1 0 0 2 0 4 1 3 1 1 0 0 1 8 0 1 1 0 1 0 0 0 0 5 1 0 1 0 0 0 1 1 0 0 0 0 1 3 3 0 0 1 1 1 0 1 2 1 0 1 3 1 0 0 1 0 1 2 0 1 2 1 
0 0 1 5 0 0 1 0 0 0 0 1 0 0 0 0 0 1 1 3 1 1 0 1 1 1 0 0 0 0 0 0 0 1 0 0 1 0 2 0 1 0 0 1 0 2 0 2 0 0 0 3 1 0 0 1 0 0 1 1 0 0 1 2 0 0 0 0 0 0 1 0 2 0 1 0 0 1 0 1 1 0 2 1 0 0 0 0 0 0 1 4 1 0 0 0 5 1 1 0 0 0 0 0 0 1 0 0 1 0 2 4 0 2 2 1 1 1 2 1 2 0 1 0 0 0 1 2 1 1 0 0 0 0 1 0 0 2 0 0 1 0 0 1 0 1 1 0 0 1 0 0 1 0 1 4 2 1 1 4 1 0 1 0 1 0 0 1 5 1 0 1 0 2 2 0 0 1 1 1 0 0 0 1 0 1 0 0 0 0 1 0 1 0 0 0 0 0 0 0 0 0 1 0 0 1 0 0 0 2 2 4 0 2 0 1 2 0 1 0 1 0 0 1 1 0 0 0 0 0 0 0 3 0 0 2 0 1 0 0 1 0 0 0 0 0 0 0 0 1 1 0 0 1 0 0 2 0 1 1 0 0 0 0 0 0 0 1 0 11 0 0 0 0 1 1 2 0 0 5 0 0 0 1 2 1 0 0 1 1 0 0 0 4 0 0 2 0 0 1 1 0 0 1 1 0 0 1 1 0 0 1 0 1 0 0 0 1 3 1 0 1 0 1 0 0 0 1 0 1 1 7 0 0 0 0 0 1 1 0 1 1 1 1 0 1 1 1 2 0 0 1 1 1 0 1 3 0 0 1 0 0 2 3 3 0 1 0 0 1 1 0 0 0 0 0 0 0 0 0 0 1 0 0 0 0 0 0 0 0 0 0 1 0 1 0 0 1 1 1 3 0 1 1 2 1 0 0 0 0 1 0 0 0 0 0 0 0 0 0 1 1 1 0 1 0 0 1 0 2 1 1 5 0 2 0 0 0 0 1 1 1 0 0 0 0 0 0 1 0 1 0 0 0 2 3 1 0 0 0 0 1 0 0 0 0 0 1 1 1 4 10 2 1 1 0 0 1 0 0 0 1 3 1 0 0 3 2 2 1 0 6 0 0 1 0 0 1 1 3 0 1 1 1 0 0 0 0 3 2 1 0 1 0 0 0 0 1 0 0 0 0 2 0 0 1 1 1 2 4 8 0 0 0 6 0 0 0 0 1 1 0 1 1 0 0 0 0 1 1 0 0 1 0 1 0 1 1 0 5 0 0 0 0 0 1 0 0 0 1 0 0 7 1 0 0 0 0 1 1 0 1 1 6 5 0 0 1 1 2 0 1 0 1 0 0 0 0 2 0 0 1 5 0 0 0 0 0 0 0 0 0 0 1 0 0 0 0 1 1 0 0 2 0 0 0 2 0 5 0 0 0 0 2 0 0 0 1 1 0 
0 0 1 1 0 0 0 1 1 1 0 2 0 2 0 4 0 1 1 2 0 1 1 1 0 0 1 1 0 1 0 0 0 0 0 1 0 1 1 0 0 0 0 2 0 1 0 0 1 0 1 0 1 0 1 2 1 1 0 0 0 0 1 2 1 0 0 0 0 0 0 0 0 0 0 0 0 0 1 1 4 1 1 0 1 1 0 1 1 2 0 2 1 0 1 0 1 0 1 0 0 0 0 0 1 0 0 5 1 1 0 2 3 2 1 0 2 0 2 3 4 1 0 0 1 1 0 0 1 1 0 0 1 0 1 1 1 0 0 0 0 0 0 0 5 0 0 1 0 2 0 1 1 1 0 0 0 1 3 5 1 0 0 2 7 2 0 4 2 2 4 0 0 0 1 0 0 1 1 0 1 1 0 0 0 0 0 0 0 0 1 1 1 0 1 0 0 1 1 2 0 0 0 1 0 0 1 0 1 0 0 0 1 1 0 0 0 1 1 0 1 0 0 0 0 1 0 0 1 1 0 1 0 1 1 1 0 1 2 0 0 0 0 0 0 0 0 1 0 4 1 0 1 0 0 0 0 1 0 6 0 0 2 1 0 0 3 0 0 1 0 0 0 0 1 1 1 0 0 0 0 0 0 0 0 0 0 0 1 0 0 0 0 0 0 1 0 2 1 1 0 1 3 0 0 0 0 2 7 2 1 2 0 0 0 0 1 1 0 1 5 1 2 6 1 0 0 0 1 1 1 0 1 0 0 0 0 1 0 0 0 0 0 0 1 2 0 0 8 1 1 2 1 0 0 1 1 1 0 0 2 0 1 1 0 0 0 0 0 0 0 0 2 0 0 0 0 0 2 0 1 0 1 0 1 0 1 0 0 0 1 1 0 1 0 0 1 1 1 2 0 0 0 0 0 0 1 0 0 0 1 1 1 1 1 0 0 0 1 1 0 0 0 0 3 0 0 0 1 0 0 0 1 1 2 1 0 0 0 1 1 0 2 0 1 0 0 3 1 2 0 0 0 0 2 5 0 0 0 0 2 4 3 5 0 0 0 1 0 1 1 1 0 0 0 0 0 0 0 1 0 0 3 1 2 2 0 1 0 0 2 2 1 0 1 0 1 1 0 0 0 1 1 1 0 0 1 0 0 2 0 1 0 1 2 0 0 1 1 0 0 1 0 0 1 1 1 0 1 1 2 1 3 1 0 0 0 0 1 0 0 1 0 0 0 1 1 0 0 1 1 0 0 3 0 2 2 1 0 1 6 0 0 0 0 1 1 0 1 0 3 0 3 4 1 1 4 1 1 1 1 1 0 1 0 0 1 0 1 1 1 0 1 1 0 1 2 0 1 1 0 0 1 2 1 1 0 0 1 1 0 1 0 0 1 0 0 1 2 0 1 0 0 2 0 0 0 1 4 2 2 3 1 1 0 1 3 1 1 1 
0 2 1 0 0 1 1 0 5 0 1 0 1 1 1 1 0 0 1 1 0 0 0 0 0 1 0 2 2 0 1 2 1 0 0 0 0 0 0 0 0 0 2 4 5 0 0 1 0 0 0 1 0 1 1 0 3 0 1 1 0 1 0 0 0 1 1 0 0 0 0 0 0 1 2 1 0 0 0 6 1 0 0 0 0 2 2 0 1 3 0 0 0 0 1 1 2 0 0 1 1 2 1 2 0 1 0 0 1 5 0 1 0 0 0 0 0 1 1 1 0 1 1 1 1 0 0 1 9 1 1 0 1 1 1 0 1 0 0 0 1 0 0 1 0 0 0 1 1 1 0 1 1 1 1 3 0 0 5 0 2 1 0 0 3 4 1 1 0 1 1 0 0 0 2 0 1 0 1 0 0 0 0 2 0 0 0 0 1 0 1 2 0 0 1 0 0 2 0 1 0 0 0 1 0 1 0 0 1 2 0 0 1 2 0 2 0 0 1 2 3 2 1 1 1 1 0 0 0 0 0 1 0 0 0 1 0 0 1 0 5 0 1 0 1 0 1 1 2 0 1 1 0 0 0 0 0 1 0 2 0 0 2 0 0 0 0 0 0 0 1 0 2 0 0 0 1 0 1 0 0 0 3 0 0 1 1 0 0 0 0 0 0 0 1 0 0 2 0 0 1 1 4 1 0 0 0 0 1 0 1 1 1 0 1 0 1 0 0 1 2 1 3 3 3 1 4 1 0 1 0 0 0 0 0 0 0 1 0 0 0 3 0 1 0 1 1 0 2 0 1 1 1 0 1 1 0 1 0 1 1 1 1 0 0 2 2 0 0 0 1 1 5 1 0 0 0 0 0 0 0 0 1 1 0 0 1 0 0 1 2 0 0 0 0 1 6 0 1 0 0 0 0 0 0 0 0 0 1 0 1 5 0 0 0 1 1 1 4 2 1 1 0 2 0 2 0 1 1 0 4 1 0 1 1 1 0 0 1 0 1 0 1 0 1 1 0 1 1 0 2 1 0 2 1 0 1 1 1 1 0 1 0 1 1 6 1 1 0 2 0 1 0 0 1 0 0 0 0 0 0 0 0 1 1 1 0 2 1 1 1 0 0 1 0 1 1 1 1 0 1 0 0 0 0 1 0 0 0 0 0 1 1 0 1 0 1 1 0 1 0 0 0 1 0 0 2 0 0 1 0 0 0 0 0 0 0 4 0 1 0 0 1 2 1 0 0 2 0 0 0 0 3 0 0 1 1 0 1 1 0 4 0 0 0 0 0 1 1 0 0 1 0 0 1 0 1 6 1 4 1 0 1 2 1 1 0 0 0 0 2 0 0 1 0 2 1 0 1 0 0 0 0 0 1 1 0 0 0 0 0 1 2 0 2 0 2 1 1 0 0 0 1 0 3 1 1 2 1 1 0 1 0 1 1 0 1 0 1 1 
5 0 0 1 1 4 1 0 1 0 1 0 0 0 0 1 0 1 0 0 0 1 1 0 1 1 0 0 1 1 0 1 0 0 0 2 1 0 0 0 0 0 0 0 1 1 1 0 0 0 0 0 0 0 1 1 1 1 0 1 0 0 1 0 1 0 2 0 1 2 0 2 0 1 0 3 0 0 0 1 2 1 2 2 0 0 0 4 0 0 0 0 0 1 0 3 0 0 1 0 0 0 0 0 1 2 0 1 2 0 0 0 0 1 0 5 1 0 0 0 0 0 0 1 0 2 1 2 0 1 1 1 2 0 1 0 1 1 1 0 1 0 0 0 0 0 0 1 1 0 1 3 1 1 1 1 0 1 2 0 1 0 0 1 1 0 1 1 0 1 1 1 0 0 0 1 0 2 0 2 0 0 1 1 0 1 0 0 1 1 3 0 1 1 2 0 0 0 0 0 1 1 0 2 1 0 0 0 1 1 1 0 1 0 0 0 1 1 2 2 1 0 0 1 2 0 0 0 0 1 0 0 0 3 1 0 0 1 1 5 5 0 0 0 1 1 0 3 2 3 0 1 1 0 2 1 0 0 0 5 0 0 0 0 0 0 0 1 6 0 0 0 0 1 0 1 3 1 0 2 3 0 0 0 1 6 2 1 0 2 0 0 1 0 2 1 0 0 4 0 0 1 0 1 0 1 0 1 1 1 1 0 1 0 0 1 1 0 1 1 2 0 0 0 2 0 1 1 0 0 0 0 0 0 0 1 0 0 1 1 1 0 1 0 0 1 1 0 0 0 1 0 1 1 3 2 0 9 4 2 0 1 0 0 1 2 1 1 0 1 0 1 6 0 2 0 1 1 0 1 1 2 2 0 0 0 1 0 1 0 0 0 1 5 1 4 5 1 1 0 1 1 0 0 1 0 0 0 3 0 1 0 0 1 1 0 1 0 1 0 1 0 0 1 1 0 0 0 0 0 0 0 0 1 0 0 2 0 0 1 0 0 1 1 0 0 2 0 1 0 0 1 12 3 2 1 7 3 1 1 1 0 0 0 2 1 0 0 0 1 0 0 2 1 6 0 1 1 1 1 0 0 0 2 1 1 0 0 0 0 1 0 1 0 0 2 0 0 2 0 3 0 0 0 0 0 0 0 2 4 1 0 0 1 1 0 3 0 0 2 5 0 1 0 0 1 0 0 0 1 0 0 0 0 2 1 1 2 5 1 0 0 0 0 0 0 0 0 0 1 1 0 2 4 0 0 0 1 0 0 0 0 5 1 3 1 0 0 0 1 0 0 1 0 0 1 0 1 0 4 0 1 0 0 2 0 1 1 7 1 0 1 0 0 2 0 0 0 0 1 0 1 0 0 3 0 0 1 0 0 0 1 0 1 1 0 0 1 0 0 0 0 0 0 1 0 1 2 0 1 0 1 1 1 0 0 0 0 2 0 
0 1 0 1 0 1 0 1 8 1 1 1 0 0 0 1 2 4 0 0 0 4 0 3 0 1 0 0 1 0 0 0 0 1 0 1 1 0 0 1 1 0 1 0 0 0 0 0 0 1 0 0 0 0 0 1 0 0 0 0 0 1 2 0 0 0 2 0 0 0 0 0 1 0 2 1 0 0 0 1 2 1 2 3 2 0 0 0 1 0 0 0 0 0 0 1 0 0 1 0 0 0 0 0 0 0 1 2 0 1 0 1 1 0 0 1 0 0 0 1 1 0 0 1 0 1 1 2 0 0 0 0 0 2 0 2 1 0 0 1 1 0 1 0 1 0 1 2 0 0 0 1 0 0 1 6 0 4 0 0 0 1 1 0 1 1 1 0 1 1 0 1 0 1 0 1 1 0 1 1 0 0 0 1 0 0 1 0 0 2 0 0 0 0 2 1 0 0 1 1 0 1 0 7 0 0 1 0 1 1 0 1 0 0 1 0 1 1 0 1 0 1 1 1 1 0 1 0 0 1 1 1 0 1 0 0 0 0 0 5 8 1 1 2 0 0 0 0 1 0 0 0 2 0 1 0 1 0 2 0 0 5 0 0 0 2 0 1 2 1 0 0 0 1 0 0 1 0 1 6 1 1 2 0 1 1 0 1 0 2 0 1 0 1 0 5 1 0 1 0 0 2 0 0 0 0 0 0 0 0 1 0 0 1 0 2 0 0 0 0 0 0 0 0 1 0 1 1 0 1 0 7 0 1 1 0 1 0 1 0 0 0 1 1 1 5 1 0 0 1 0 2 1 1 0 1 1 5 0 0 0 1 0 0 1 0 0 2 2 10 0 3 1 2 2 1 0 1 0 0 1 0 1 4 0 1 2 1 0 0 1 1 4 1 0 1 1 3 1 0 1 0 0 0 1 0 0 0 0 2 0 1 3 1 0 2 1 0 1 1 0 1 0 1 0 1 1 0 0 0 0 0 0 0 0 0 0 0 1 2 0 0 0 0 2 0 0 0 0 0 0 1 0 8 1 2 1 2 0 0 0 0 2 0 0 0 0 0 1 1 1 1 0 1 1 1 0 0 1 1 0 0 1 0 5 6 0 1 1 2 2 1 0 2 0 0 3 0 1 0 1 0 0 0 0 0 0 0 0 0 1 0 0 0 0 0 0 0 0 1 1 1 0 0 0 0 0 0 2 0 0 1 0 4 0 0 1 2 6 0 0 0 2 0 0 1 0 1 2 1 0 0 0 1 2 0 0 0 1 1 1 0 1 1 1 1 0 0 2 1 1 0 1 0 1 0 0 0 0 0 0 0 3 1 0 0 0 0 1 0 0 0 1 0 0 1 1 0 0 1 2 1 0 1 0 1 1 2 0 0 0 1 1 3 2 2 1 1 1 1 0 1 0 0 0 1 0 0 1 0 0 0 0 0 0 0 4 4 1 1 
3 0 3 0 5 2 0 0 0 0 3 5 0 0 0 0 1 6 1 0 0 4 1 0 0 4 1 1 1 0 0 1 0 0 1 0 0 0 2 0 0 0 1 1 1 4 0 0 0 0 1 2 1 0 2 0 1 1 1 1 1 1 1 0 0 2 0 2 2 1 5 0 6 4 1 0 2 1 3 1 0 0 1 1 0 1 0 0 0 1 0 1 1 0 0 0 0 0 0 1 1 0 0 0 0 0 1 2 0 1 0 0 0 0 0 0 0 2 1 1 1 0 0 0 0 2 0 0 2 0 0 1 1 0 1 1 1 0 1 0 0 1 1 0 2 0 0 1 0 1 0 0 0 0 0 0 2 0 4 0 0 1 1 1 0 0 0 0 0 2 6 1 7 0 0 1 0 1 0 0 1 1 1 0 1 1 2 3 0 2 0 0 0 0 0 0 0 1 0 0 0 0 0 2 0 0 1 1 0 0 1 0 1 1 0 0 1 0 0 0 1 1 1 1 1 0 0 1 0 0 4 0 3 1 0 1 0 0 0 0 1 0 0 0 1 1 2 0 0 1 0 0 1 0 2 0 0 0 1 2 0 0 0 0 0 0 0 0 1 0 0 0 0 1 1 1 5 1 1 2 0 0 1 1 0 0 1 1 0 0 1 0 0 0 1 0 1 0 0 1 1 0 1 0 0 1 0 0 0 2 0 0 0 0 1 1 0 0 0 1 0 1 0 0 1 1 0 11 2 3 1 1 0 5 0 1 8 1 0 0 0 0 0 0 0 4 1 0 0 0 0 1 2 1 0 1 0 0 0 0 1 0 1 1 1 1 1 1 1 8 2 1 1 1 0 1 0 1 0 1 0 0 0 0 1 0 1 0 0 1 0 0 0 2 1 0 0 0 0 0 1 1 0 0 0 0 0 1 1 0 2 1 0 0 1 1 1 0 0 1 0 0 0 0 2 2 0 0 0 0 0 0 0 0 0 0 0 0 1 0 1 0 1 1 0 0 0 2 1 2 1 4 0 0 2 1 1 0 0 0 1 4 1 1 1 2 2 0 0 0 0 1 2 1 0 1 0 0 1 0 1 0 0 0 1 1 1 0 2 1 1 1 2 2 4 1 0 1 1 0 0 1 2 0 0 1 0 0 0 1 0 1 2 0 0 0 4 0 0 0 1 0 0 0 0 0 0 0 0 1 1 2 2 0 1 1 0 1 1 1 0 1 2 0 0 0 2 1 1 1 0 0 0 2 1 0 0 0 1 0 1 0 1 0 2 1 1 1 0 0 0 0 0 0 0 0 0 0 1 0 0 0 0 1 2 0 2 1 0 0 1 1 0 1 1 0 1 0 1 0 0 2 0 0 0 0 1 1 0 0 0 0 0 1 1 0 1 1 1 4 2 0 4 0 2 0 1 1 2 1 1 0 1 6 1 1 0 3 0 0 
0 0 1 2 0 0 0 3 1 4 1 0 1 1 0 0 4 0 1 0 0 1 1 0 0 0 1 1 1 1 0 0 0 1 1 0 0 1 4 1 0 0 3 0 0 0 0 1 1 0 0 5 2 1 1 2 1 0 1 1 0 0 0 0 0 1 0 0 0 1 2 1 0 1 0 0 3 0 4 1 0 1 0 0 1 0 0 0 1 0 2 0 0 0 0 0 0 4 2 0 0 1 1 0 0 1 1 1 1 1 0 0 0 1 0 0 1 1 0 0 4 1 1 0 1 0 0 1 0 4 2 2 3 1 0 0 1 0 0 0 0 2 2 0 0 0 0 0 0 1 2 0 2 2 0 0 1 1 0 1 1 2 2 2 0 1 2 0 0 0 0 1 0 0 0 3 1 2 1 0 0 0 0 0 1 2 0 1 1 1 1 1 0 0 0 0 1 0 0 1 0 0 1 5 0 1 0 0 0 0 1 1 0 1 0 0 0 1 0 2 1 0 1 1 5 1 0 1 2 0 1 0 0 0 1 2 0 0 1 0 0 0 1 0 0 0 1 2 1 0 2 0 0 0 1 0 1 4 1 1 0 0 0 1 0 0 0 1 1 1 0 1 2 1 0 2 10 2 0 1 0 0 1 2 1 0 0 1 0 0 0 0 1 1 1 0 1 0 0 0 1 0 0 1 0 0 0 1 2 0 3 0 0 0 0 0 0 1 1 0 0 0 2 1 0 2 0 1 0 0 1 0 1 1 4 0 7 0 0 2 4 1 0 1 0 1 1 1 0 1 1 0 1 0 0 1 0 0 0 1 0 1 2 1 0 0 0 0 0 1 0 0 1 0 1 0 0 0 0 1 1 2 0 1 0 0 1 0 0 0 0 0 1 1 1 1 0 0 0 1 1 1 4 0 1 0 0 0 0 0 0 0 1 1 1 1 0 0 0 0 1 0 0 1 1 0 1 2 1 1 0 1 1 1 1 0 1 0 0 0 0 0 0 1 0 0 0 0 1 1 1 2 1 0 0 0 0 0 2 0 0 1 0 0 1 2 1 0 1 0 1 1 2 0 0 0 1 2 2 0 1 2 0 0 0 0 1 0 0 0 0 0 1 1 1 4 3 1 4 1 0 1 1 0 1 1 0 0 0 0 0 1 1 3 4 1 0 0 0 0 2 1 0 0 0 0 0 7 1 1 1 0 0 0 0 0 0 0 1 0 0 1 1 0 0 0 0 0 0 0 1 0 4 0 0 0 0 1 1 1 1 0 2 0 0 0 1 0 0 0 0 0 0 1 0 1 0 0 0 2 0 1 0 1 0 0 2 4 1 0 0 0 0 1 4 1 1 1 0 0 0 1 1 1 1 0 0 1 0 1 2 1 0 0 0 1 0 1 0 2 0 3 0 1 0 0 1 1 0 0 1 1 2 3 0 0 0 0 2 0 
0 1 4 1 1 1 0 1 0 1 1 0 2 2 0 1 0 1 0 0 0 2 0 0 1 5 1 1 1 3 1 1 2 1 1 4 0 2 1 1 0 0 1 0 2 3 1 4 0 0 0 1 1 2 0 0 0 0 0 0 0 0 0 0 0 0 1 1 0 2 1 1 0 0 0 0 0 0 0 0 0 0 2 0 0 1 0 0 1 1 2 1 0 0 0 0 1 2 1 1 0 0 1 3 2 0 2 0 2 0 1 6 1 1 0 0 0 0 0 1 1 0 1 0 2 0 0 1 0 0 0 0 0 1 0 2 0 0 0 2 1 1 0 0 1 2 0 0 0 1 0 0 0 0 1 1 1 1 1 1 0 1 0 0 0 1 2 1 2 0 0 0 0 0 1 5 1 0 0 0 0 0 0 0 1 1 1 0 1 0 0 0 2 1 0 2 2 1 0 1 1 9 6 0 0 0 0 0 0 0 0 0 0 1 1 0 0 0 1 0 0 1 0 0 1 0 0 0 0 1 0 0 1 1 0 0 6 3 2 5 1 0 2 0 2 6 2 1 1 1 1 1 0 2 0 0 1 3 0 0 0 0 0 0 0 0 1 1 0 0 0 1 4 0 0 2 7 1 0 1 1 0 2 0 2 1 1 5 1 0 0 1 0 3 0 1 2 0 0 0 1 0 0 1 1 0 0 0 0 1 0 0 0 1 1 0 0 0 0 1 0 0 8 1 2 1 0 1 0 0 1 7 6 2 1 0 2 0 1 0 1 0 0 0 0 2 1 0 1 1 0 1 0 0 1 0 0 1 1 1 0 1 0 0 0 0 0 0 0 0 0 0 0 0 1 0 0 0 0 0 1 3 1 5 1 0 0 1 0 2 0 1 0 0 0 0 0 0 2 1 0 2 1 2 0 5 0 1 0 1 0 0 0 1 0 1 1 0 1 0 0 0 0 0 0 0 0 5 1 0 1 1 0 1 0 0 1 1 1 1 0 0 0 0 0 0 1 2 0 0 2 1 0 0 0 0 2 0 0 1 0 1 1 0 0 0 2 1 1 3 0 0 1 0 3 6 8 1 0 0 1 0 0 0 0 0 0 1 1 1 0 1 1 2 0 2 1 1 0 3 0 0 2 1 3 0 1 0 0 1 0 1 2 0 0 1 1 0 0 0 0 1 1 1 1 1 1 1 0 0 0 0 0 1 0 0 0 1 0 0 0 2 1 0 1 0 1 0 0 0 0 1 1 0 0 2 1 0 1 0 0 0 1 1 0 0 0 2 1 0 1 1 0 2 1 1 1 0 0 0 0 1 0 2 0 1 2 7 2 2 0 1 2 0 1 0 1 1 0 1 1 0 0 0 0 0 4 1 1 0 2 1 1 1 0 0 1 1 1 0 2 1 0 1 0 1 1 0 0 0 0 3 0 1 0 0 0 0 0 0 
1 0 1 0 1 1 1 1 0 2 1 0 0 0 1 3 1 1 1 0 1 0 3 2 0 0 5 0 0 1 0 1 0 1 1 0 0 1 0 0 0 1 0 0 1 0 2 1 0 0 1 1 1 0 1 0 0 1 0 1 1 0 2 1 1 0 0 0 0 1 0 1 0 0 2 0 0 0 1 0 1 1 0 2 1 2 0 1 1 1 0 1 1 0 0 1 1 1 0 4 0 0 0 0 2 0 1 0 0 0 1 0 1 0 1 0 4 0 0 1 0 1 0 0 0 0 1 0 1 1 0 0 0 1 0 0 5 0 1 0 0 1 0 3 0 1 0 0 3 0 1 1 0 1 1 1 0 1 0 0 0 0 0 0 0 0 0 2 1 2 0 6 0 0 2 2 0 0 0 2 1 0 0 1 1 0 1 0 1 0 2 5 1 1 0 0 0 0 0 1 2 1 1 1 0 0 0 2 0 1 1 0 0 1 0 0 0 0 0 0 0 0 0 1 0 0 0 1 1 0 2 1 0 2 1 0 1 0 0 0 1 0 1 3 1 0 1 8 0 0 0 2 0 0 0 1 0 2 1 0 0 2 0 0 0 0 6 1 0 1 0 2 0 0 0 0 0 0 2 1 0 1 1 1 5 0 1 2 1 0 0 0 1 0 1 1 0 0 0 1 0 0 0 0 1 4 0 1 0 0 1 0 0 1 0 0 0 0 0 0 0 0 1 1 1 0 0 1 0 0 0 0 0 0 0 1 0 0 0 0 1 1 2 3 2 0 1 0 1 0 0 0 0 0 0 0 0 6 0 0 0 0 0 0 1 0 0 5 0 1 1 1 1 0 1 2 1 0 0 0 0 1 0 0 2 1 1 0 0 0 0 0 0 0 2 0 1 0 4 0 2 0 0 0 1 2 1 1 0 2 2 1 0 1 0 2 0 3 0 0 0 0 0 0 0 5 2 0 1 1 1 1 0 0 0 1 1 1 1 1 1 3 0 1 1 0 0 1 0 1 0 0 1 1 1 1 1 0 0 0 0 0 0 0 0 1 1 1 1 0 2 1 1 0 1 6 1 2 1 0 4 1 0 1 0 1 0 0 2 0 0 1 1 1 1 0 0 0 0 0 1 0 1 0 1 0 2 1 1 0 1 0 1 1 0 1 0 0 0 0 0 1 0 3 0 0 0 0 0 0 0 0 0 1 5 1 0 0 0 1 1 2 1 1 1 1 0 0 0 0 0 0 0 0 0 2 0 0 2 1 0 0 2 8 2 0 1 3 0 1 0 0 1 3 0 0 8 1 0 0 1 1 1 0 0 1 6 0 0 0 1 1 0 0 1 0 0 0 1 1 1 0 0 0 0 1 1 1 1 0 1 0 1 1 0 0 1 1 0 0 3 3 0 2 1 1 0 0 2 2 3 0 0 2 1 4 0 0 0 0 
1 1 1 0 0 0 0 0 1 1 1 0 1 2 4 4 0 0 0 1 1 0 1 2 6 1 0 2 1 0 1 2 1 1 0 2 1 1 0 0 0 0 1 1 0 0 1 2 1 0 1 1 1 1 2 0 2 1 1 0 1 1 0 0 0 1 0 0 1 2 1 0 0 0 0 0 0 1 1 0 1 0 1 0 0 1 1 0 0 0 0 0 1 0 0 0 0 0 1 2 0 0 0 0 0 2 0 1 1 0 3 1 0 1 0 2 0 1 0 1 0 0 3 0 0 0 0 0 2 0 8 0 1 2 0 0 0 1 0 0 0 0 0 1 0 2 2 4 0 0 0 5 0 0 1 1 0 1 0 0 0 0 0 0 0 0 0 0 1 0 1 1 0 1 1 2 0 0 0 0 1 1 0 0 1 1 1 0 0 1 0 1 0 0 0 0 0 1 0 0 2 0 0 0 1 2 1 0 0 0 0 0 0 1 0 0 0 0 1 1 0 0 0 1 0 0 2 3 0 1 1 0 1 0 0 1 0 1 1 0 1 6 1 4 1 0 0 1 0 3 2 0 0 1 1 0 1 0 0 1 1 2 0 0 0 0 0 1 1 0 0 0 0 1 0 0 1 1 0 2 1 0 0 0 0 0 1 0 1 1 1 0 0 0 0 0 0 0 1 0 1 2 0 0 1 1 2 0 1 0 1 1 0 0 0 1 0 0 1 1 1 1 0 0 0 1 0 2 5 1 7 0 0 0 0 0 0 0 2 1 0 1 1 0 1 0 1 1 0 0 0 0 1 1 1 0 0 0 0 0 0 0 0 1 0 1 0 0 0 0 0 0 0 0 1 1 1 0 1 1 0 0 0 0 0 0 0 0 0 0 0 0 1 3 0 2 1 2 0 4 1 0 1 1 0 0 0 0 1 9 0 0 0 0 0 1 1 3 0 2 0 0 0 0 1 1 0 0 1 0 0 0 0 0 0 0 0 0 3 1 1 1 0 0 1 1 0 0 5 3 0 0 0 0 1 1 1 2 0 1 0 0 0 0 0 1 7 1 0 0 0 1 0 0 1 1 1 0 0 0 0 0 1 0 2 0 0 0 2 1 1 1 0 0 1 0 0 2 2 1 0 0 0 1 2 1 0 0 1 1 0 0 0 0 0 0 1 0 3 1 1 0 0 0 4 0 1 0 0 0 0 1 0 1 2 1 0 1 0 2 0 1 2 0 1 0 0 0 0 1 2 0 0 0 1 1 0 0 0 0 0 1 2 2 0 1 1 1 2 2 1 0 0 0 0 0 2 0 3 1 0 0 0 1 2 0 0 0 1 0 1 0 0 0 0 2 5 1 1 0 1 0 0 1 0 0 1 1 0 0 0 2 1 0 4 0 1 1 0 0 2 2 0 0 3 1 1 5 3 0 1 0 0 1 2 0 0 0 1 0 
2 1 0 0 0 0 1 0 0 1 2 0 0 0 3 1 0 1 0 1 0 0 0 0 7 0 0 0 1 1 3 0 1 1 1 0 0 0 1 0 1 0 1 0 0 1 2 0 0 1 0 0 0 1 1 0 0 0 0 1 0 2 0 0 0 1 2 0 0 0 0 0 0 0 0 0 1 0 0 0 0 0 1 0 0 1 1 1 2 1 1 1 0 0 1 1 0 0 1 2 1 0 0 0 2 1 1 0 0 0 0 1 0 0 0 0 0 2 0 1 2 0 0 1 2 0 1 0 0 1 0 2 0 2 0 0 0 0 0 0 0 1 0 1 8 6 0 0 0 0 1 1 0 2 0 0 1 3 0 1 0 1 0 0 0 1 1 0 0 0 0 0 1 1 0 0 0 1 1 0 0 2 0 0 0 2 6 1 0 1 0 0 2 1 0 0 1 1 0 0 0 1 4 0 1 1 0 1 0 0 0 0 0 0 0 1 1 1 0 1 1 1 1 1 0 0 0 0 0 0 0 1 0 0 0 0 0 0 2 1 0 0 0 0 2 2 0 0 0 3 4 3 2 0 0 0 0 1 2 1 0 1 0 0 0 2 1 1 1 0 0 0 0 1 0 1 0 1 1 5 1 2 0 2 0 0 5 0 0 0 0 0 0 1 0 0 1 0 1 3 9 0 1 1 0 1 1 1 2 1 1 0 0 1 1 0 0 0 0 0 4 1 2 0 1 0 1 1 2 0 0 1 2 1 0 1 0 1 1 0 6 0 0 1 0 0 0 0 0 2 0 0 0 0 0 2 1 0 0 0 0 0 0 0 0 1 0 0 1 0 1 0 0 0 0 0 0 1 0 1 1 0 0 3 1 1 2 0 1 1 0 0 2 0 0 0 1 1 1 0 0 2 0 0 1 0 1 0 3 2 6 0 1 0 1 2 0 0 1 1 1 1 0 0 2 0 2 0 1 0 0 0 1 0 1 0 1 0 6 0 2 0 0 0 2 3 2 0 6 2 1 1 0 0 0 2 0 0 0 0 2 2 0 0 2 0 1 2 0 0 0 0 1 1 0 0 1 0 1 0 1 0 1 2 4 0 0 1 1 1 1 0 0 1 0 1 1 0 1 3 1 1 1 1 1 0 0 6 0 0 0 0 0 0 1 1 1 1 1 1 1 1 2 1 1 1 1 1 0 0 0 0 5 0 1 3 1 0 0 0 1 0 0 0 0 4 0 1 0 1 1 0 2 0 0 1 1 0 0 0 0 0 0 1 3 1 0 0 1 0 0 0 1 1 2 1 1 0 0 1 1 0 1 0 1 0 0 0 1 1 0 1 2 0 0 1 0 0 1 1 0 0 0 1 1 1 5 0 1 1 0 0 1 1 0 1 1 1 0 0 0 0 0 0 0 0 0 1 2 0 0 1 1 0 1 1 1 0 0 1 
0 1 0 1 3 1 3 0 1 0 0 0 1 0 1 1 0 1 0 1 0 0 1 1 1 0 4 4 0 0 1 0 1 0 0 1 0 0 1 0 1 1 1 11 0 1 0 0 1 1 4 1 2 0 0 0 0 0 1 2 1 1 0 1 0 0 1 3 1 0 0 1 1 1 0 0 1 1 0 0 1 0 0 0 0 0 0 1 1 0 1 0 0 1 0 1 1 1 0 1 0 6 0 0 0 0 1 0 0 0 1 1 0 0 1 1 0 1 0 1 0 1 1 0 0 2 1 1 0 0 0 0 0 0 0 0 1 1 4 2 1 1 1 0 1 1 0 1 0 1 0 1 0 0 0 7 8 0 1 0 0 0 0 0 0 0 0 2 0 1 1 0 0 0 0 0 0 1 0 1 1 0 0 1 0 1 0 0 0 0 0 0 0 0 1 0 0 0 0 1 1 0 2 0 0 0 3 0 2 1 0 0 1 0 1 0 0 0 0 0 1 1 0 0 1 2 1 4 0 1 0 2 0 1 0 1 1 1 0 2 1 3 1 0 1 1 1 0 0 1 6 2 1 0 1 0 0 0 1 0 1 2 0 1 0 2 1 1 0 1 5 0 0 0 1 1 0 0 0 1 1 1 0 0 0 1 7 2 2 0 0 0 0 1 0 1 0 2 1 5 0 1 0 2 4 1 1 0 1 0 0 0 1 0 0 0 0 1 0 1 1 1 0 2 1 0 0 1 1 2 0 0 0 1 1 0 0 0 0 2 0 1 1 1 0 1 2 2 4 1 1 1 1 0 1 0 1 0 1 0 1 0 0 0 1 3 0 0 0 2 1 0 0 1 0 0 0 1 0 1 0 0 0 0 0 1 1 1 0 0 2 0 0 0 2 0 0 2 0 0 1 0 1 1 0 0 0 1 1 1 1 0 2 0 1 0 0 1 0 2 0 2 2 0 4 1 2 0 2 8 1 1 1 0 1 4 2 1 5 0 1 0 0 1 3 0 1 3 0 0 0 1 0 1 1 1 5 1 0 2 0 0 0 1 0 0 0 1 0 0 1 1 0 1 1 0 1 0 0 0 0 1 5 0 0 1 1 0 0 1 1 0 0 1 0 0 1 2 0 1 0 1 0 0 0 0 2 0 0 1 1 0 0 0 1 0 0 0 0 1 1 0 0 0 0 0 1 0 0 0 1 1 1 0 1 0 0 0 0 1 0 0 1 1 1 6 5 1 0 0 1 2 0 0 1 2 1 0 0 1 0 0 0 1 0 0 0 1 0 0 0 1 1 0 0 1 1 2 0 0 1 0 1 0 1 1 0 0 0 2 1 0 1 0 2 1 0 4 2 0 1 2 0 0 0 0 0 1 2 1 1 1 1 0 1 0 0 1 0 1 0 1 2 2 0 0 0 0 0 1 0 0 1 0 1 1 1 0 0 1 
0 1 0 0 1 0 1 0 0 0 1 1 2 6 1 1 0 2 1 0 0 0 1 1 6 2 0 0 0 0 1 1 0 0 0 0 0 1 0 1 0 0 1 1 1 1 0 0 0 0 1 0 0 0 1 0 0 0 4 0 0 4 0 0 0 1 8 1 0 5 5 2 1 1 0 3 0 1 1 0 0 0 0 0 2 1 0 0 0 0 1 2 2 0 2 1 2 2 1 0 1 1 0 1 2 0 1 0 1 1 2 1 0 0 0 0 0 1 1 1 1 0 0 0 1 0 0 0 0 0 0 1 0 0 0 0 0 0 0 2 0 0 2 2 1 0 0 0 1 1 0 0 0 0 0 0 1 2 2 6 0 1 2 0 1 0 0 0 1 0 0 0 0 1 2 0 0 1 0 0 0 0 0 0 0 0 2 1 0 0 0 1 1 2 0 0 0 0 1 1 2 1 0 0 1 0 0 0 0 0 1 2 0 0 2 0 0 0 0 0 0 0 2 0 0 0 0 0 1 1 0 2 1 0 0 0 1 0 1 1 11 2 1 1 0 2 0 0 0 1 1 0 0 0 1 0 0 0 1 2 3 0 2 0 0 1 1 0 0 0 0 1 0 1 1 0 0 1 0 0 3 1 1 1 1 1 2 1 1 1 1 1 2 9 1 0 1 0 1 0 0 1 0 1 0 0 0 0 0 1 1 1 0 3 0 0 0 0 0 0 7 0 1 1 1 0 0 0 0 0 1 0 0 1 0 0 0 0 1 0 0 1 2 1 2 0 1 0 5 2 0 0 1 0 0 1 2 1 1 3 0 0 0 1 0 0 0 1 0 1 2 0 0 2 1 1 2 0 0 0 0 0 0 0 2 1 1 1 2 0 0 1 2 0 1 2 0 0 0 0 0 1 2 1 2 1 1 0 0 0 0 0 2 0 0 1 6 1 1 1 0 1 0 0 1 2 0 0 0 1 0 0 2 0 1 0 0 5 3 1 0 1 1 2 1 7 1 1 0 0 1 1 0 1 1 1 0 1 1 0 0 3 1 1 0 1 1 1 3 0 1 1 0 0 0 0 0 0 1 0 0 1 0 1 1 0 0 0 0 0 1 1 0 0 0 0 0 1 1 2 1 1 1 1 0 1 0 0 0 1 0 1 0 0 0 0 0 0 1 2 0 0 0 1 1 0 1 1 2 0 2 0 0 1 0 0 3 1 0 4 1 0 0 1 0 2 0 6 4 0 0 1 1 0 1 0 0 0 1 0 1 1 1 0 0 0 1 1 1 1 0 1 0 1 0 0 0 0 0 0 1 0 0 0 0 0 0 0 2 0 0 0 0 1 1 8 4 0 1 0 1 1 0 2 0 0 0 0 0 2 1 0 0 0 1 0 0 0 0 1 0 0 1 1 0 1 1 0 0 1 1 0 0 3 2 0 0 0 3 1 
0 0 0 1 0 0 0 0 0 2 0 1 3 6 0 0 1 1 0 0 0 1 1 1 0 0 0 0 0 0 0 1 1 0 0 2 0 0 0 0 0 0 3 0 1 0 0 0 1 0 0 0 0 1 1 0 1 0 0 0 1 0 0 0 0 0 0 4 1 1 2 0 0 2 1 1 1 1 0 0 0 0 1 1 1 1 0 1 0 0 1 0 0 0 1 0 2 0 1 0 0 0 0 0 0 0 0 0 0 0 2 2 2 1 0 0 0 1 2 1 1 0 0 0 1 0 0 1 1 2 2 1 2 0 0 0 1 1 0 1 1 0 0 2 5 0 0 0 0 0 1 1 0 1 0 0 0 1 0 1 1 0 0 0 1 0 1 1 1 1 0 0 0 0 1 1 0 0 0 1 0 2 0 0 1 0 0 0 0 1 0 1 0 0 0 0 1 2 0 0 0 1 0 0 0 0 1 0 1 1 1 0 0 0 0 0 1 0 0 0 1 1 1 0 0 1 0 0 1 1 0 0 0 1 1 0 0 0 0 0 5 0 0 1 0 0 0 0 1 0 0 0 0 1 1 0 0 1 1 0 1 1 0 1 0 1 0 0 0 1 0 0 0 0 0 0 0 0 0 1 1 1 0 0 0 1 0 0 2 0 1 0 2 1 0 1 0 0 0 1 0 1 1 0 2 0 1 1 0 0 1 1 1 1 1 0 1 1 2 1 0 1 0 0 1 1 1 1 0 1 0 0 0 0 0 1 1 1 0 0 0 1 1 0 1 0 0 0 1 0 0 1 0 0 0 0 0 1 1 2 0 0 1 0 0 0 0 2 0 1 3 0 2 0 0 0 0 1 0 0 0 4 1 2 1 0 0 1 0 0 1 2 1 1 0 1 0 0 0 0 0 0 0 1 6 0 0 1 0 1 0 0 0 0 0 8 7 7 5 2 0 0 0 0 0 0 3 1 0 0 0 0 0 1 0 1 1 2 0 1 1 1 1 1 1 0 0 0 0 1 0 1 0 0 1 1 1 1 1 0 1 1 3 0 0 1 0 1 1 0 2 0 0 0 1 0 0 1 1 0 1 1 1 0 0 1 3 1 0 0 1 0 0 0 0 0 0 1 1 0 1 3 0 1 0 1 0 1 1 1 0 0 0 1 1 0 2 1 0 0 1 0 0 2 1 0 0 1 0 3 0 0 0 0 0 2 1 0 0 1 1 0 0 0 0 0 1 1 1 2 1 0 0 4 1 1 4 2 1 2 2 1 1 0 0 0 0 0 0 0 0 1 0 1 1 0 0 0 1 0 1 0 0 1 2 1 1 0 1 0 2 0 0 1 0 2 0 6 1 1 2 7 1 0 1 1 1 4 1 0 0 2 1 0 0 1 1 0 0 0 0 0 0 0 0 1 1 1 2 0 1 0 1 0 0 1 1 3 0 0 
1 1 0 0 0 1 0 1 1 0 1 0 2 1 1 3 0 0 0 0 1 0 0 0 0 1 1 1 0 1 0 1 0 0 2 2 1 0 2 0 0 2 0 0 2 0 0 0 0 0 0 2 1 0 2 0 0 1 0 1 1 0 1 0 1 0 6 0 1 1 0 1 0 0 1 1 0 0 2 1 0 0 2 1 0 1 2 6 0 0 0 0 1 0 0 4 0 1 0 2 1 0 0 0 1 2 2 0 1 1 2 4 2 0 1 4 1 1 1 1 0 1 0 1 0 1 2 7 0 0 0 0 1 3 1 1 0 0 1 0 0 1 1 1 3 2 0 0 0 0 0 2 0 1 0 0 5 0 0 0 0 1 0 0 1 1 1 1 2 0 1 0 0 0 1 0 1 1 1 0 2 0 0 0 0 1 0 1 0 0 0 0 0 1 0 0 2 1 0 0 2 1 1 1 0 0 0 0 0 0 0 0 7 2 1 0 1 1 0 0 0 1 0 1 0 0 0 1 0 0 0 0 0 1 0 0 1 1 0 0 0 0 0 4 0 1 1 0 0 0 0 0 0 1 0 1 0 0 1 1 1 0 0 1 0 0 1 0 0 0 3 0 0 0 1 1 1 0 1 0 0 1 0 0 1 0 1 0 3 0 0 1 0 1 0 0 0 1 1 0 0 0 7 1 0 2 1 7 2 2 0 0 1 1 0 0 0 0 1 0 0 1 1 0 1 0 0 0 2 1 0 1 1 1 0 1 0 1 0 0 0 0 1 0 1 0 2 5 0 1 1 6 2 0 0 1 1 0 0 1 1 0 0 1 0 0 0 0 0 0 1 1 1 0 1 0 0 1 0 3 4 0 0 1 1 8 1 1 0 1 0 0 0 1 0 0 0 1 0 1 1 0 1 0 1 0 0 0 0 1 0 1 2 1 1 0 1 0 1 1 1 1 0 0 0 1 0 4 1 1 2 0 1 0 3 1 0 1 1 1 4 3 1 2 3 0 1 1 1 2 4 0 0 0 0 0 1 0 1 2 0 1 0 0 3 0 0 0 3 0 1 1 1 0 0 0 0 0 1 1 2 1 0 0 0 1 0 0 0 0 0 0 0 0 1 0 1 1 0 1 5 4 1 0 0 0 1 0 0 2 1 1 0 4 0 0 0 0 0 1 0 0 1 1 0 0 0 0 0 0 0 1 0 0 1 1 0 0 0 1 1 2 0 0 0 0 1 1 3 0 2 0 0 1 1 5 1 0 0 5 4 0 1 0 1 1 0 0 0 0 0 1 0 0 0 1 1 1 1 1 0 0 0 0 0 1 0 0 1 0 0 0 0 1 0 1 0 1 2 0 1 6 0 0 0 0 0 1 0 0 3 0 0 0 1 1 1 1 0 0 0 0 0 0 0 0 1 1 0 0 0 0 0 1 0 1 0 1 0 0 
1 0 0 0 0 0 1 1 0 2 1 1 2 0 0 3 0 1 4 1 0 2 1 1 1 0 1 1 1 0 0 0 0 0 0 0 0 0 1 1 0 0 1 1 0 0 5 0 0 0 0 1 0 0 0 1 1 0 0 1 2 0 0 0 0 2 0 0 0 0 0 0 1 0 0 0 2 0 0 2 0 1 0 0 1 2 0 0 1 1 0 0 2 1 0 1 0 1 1 1 6 0 0 0 3 1 1 4 0 3 2 1 2 1 0 1 2 0 6 2 0 0 1 0 0 0 1 1 1 0 0 3 0 0 0 0 1 1 1 0 0 0 1 0 0 0 1 1 0 1 1 1 0 0 1 1 0 1 0 0 3 12 0 2 0 2 0 2 1 1 1 5 0 0 3 0 1 0 0 0 0 1 1 0 1 0 0 1 1 0 0 0 0 1 0 0 0 0 0 1 0 4 1 3 1 7 4 1 0 0 0 1 1 1 1 2 6 1 2 0 1 0 1 0 0 0 0 0 1 7 0 2 0 1 0 2 1 0 0 1 0 0 1 1 5 0 1 4 0 0 1 2 0 1 8 2 0 1 3 0 0 0 0 0 0 0 0 0 0 0 0 0 1 1 0 1 1 5 1 1 0 0 1 0 2 1 0 1 0 1 1 2 1 1 1 0 0 0 0 0 0 0 1 0 1 0 0 0 1 1 1 0 0 0 0 7 1 0 0 0 5 0 0 0 1 0 0 1 2 0 0 0 0 0 0 0 0 2 0 0 0 0 1 0 0 0 0 1 0 0 0 0 1 0 0 1 1 2 1 5 3 0 1 0 4 0 0 0 1 0 0 0 1 1 0 2 0 0 0 0 0 2 0 0 1 1 1 0 8 2 1 1 0 0 0 2 0 6 0 2 4 0 0 1 0 2 0 0 5 3 0 0 0 0 0 0 0 0 0 0 0 1 0 0 0 0 0 0 0 1 0 0 1 1 4 0 1 0 1 1 1 1 0 0 0 0 1 0 10 9 7 1 2 0 1 0 1 0 2 1 1 0 2 1 0 0 0 1 1 0 1 0 0 2 0 1 1 0 0 0 1 0 2 0 0 0 0 0 0 0 0 1 0 0 0 1 2 0 3 1 1 1 1 2 0 0 0 2 1 0 1 0 0 0 1 0 2 0 1 1 1 1 0 1 1 0 0 0 0 1 0 0 1 0 1 0 0 1 2 0 0 0 4 1 4 0 1 0 0 0 1 0 1 1 0 2 1 0 1 2 0 0 1 0 0 0 1 0 0 0 0 3 0 1 0 0 0 0 0 0 0 0 0 0 1 0 0 1 0 0 1 1 0 0 0 0 1 1 4 0 2 0 1 0 0 0 0 0 0 0 0 0 0 0 1 2 0 0 0 1 0 0 0 1 0 2 0 1 0 0 0 0 0 6 0 0 2 1 2 0 
1 0 0 0 1 1 7 0 1 3 1 0 0 1 0 1 0 0 1 0 0 1 1 1 2 0 0 3 1 0 1 0 2 2 4 1 1 2 1 1 0 0 1 0 1 1 0 0 1 0 0 0 0 1 0 0 0 1 1 0 0 1 0 0 6 1 0 0 0 1 0 1 0 0 0 1 0 1 1 0 2 1 0 0 0 1 0 0 0 0 0 0 0 1 1 1 1 1 1 0 2 3 0 0 0 0 1 0 1 0 0 3 0 1 0 3 1 0 0 0 0 0 0 0 0 0 1 0 5 2 1 0 0 0 1 1 0 1 0 1 0 1 1 1 0 1 0 0 0 0 1 0 0 0 0 0 7 0 0 0 1 1 0 0 2 1 0 1 0 3 0 0 1 0 0 2 0 1 0 0 1 1 0 4 0 2 0 0 1 0 0 0 0 0 1 0 0 2 0 4 0 1 0 0 0 5 1 0 0 0 0 0 0 1 1 2 6 2 2 0 2 0 1 1 0 0 1 1 0 0 1 1 0 1 0 1 0 0 1 2 0 1 0 0 1 1 1 1 0 0 1 0 0 0 4 0 2 0 0 0 0 1 1 0 0 0 1 1 0 0 0 0 0 2 3 0 3 0 1 0 1 0 1 0 1 0 0 0 4 2 0 0 0 1 0 0 5 2 1 1 0 0 2 0 0 0 0 1 0 0 7 1 0 1 0 0 1 0 1 2 0 0 0 7 1 0 1 3 1 0 1 0 0 0 0 0 0 0 0 1 2 1 0 0 0 0 0 0 0 0 0 0 2 0 1 0 1 2 1 0 3 1 0 0 1 1 6 1 8 1 0 1 1 5 5 2 2 1 0 0 1 0 1 0 1 0 0 0 0 1 0 0 0 0 0 2 0 0 1 1 4 1 3 1 1 1 0 1 0 1 1 1 0 2 2 1 1 1 0 1 0 1 1 0 1 0 0 1 0 0 1 1 0 0 0 0 0 0 0 0 5 1 0 0 1 3 0 1 1 7 2 0 0 1 1 1 1 0 0 1 0 1 1 0 0 1 1 0 1 0 0 0 0 0 4 1 3 1 2 1 10 3 0 0 1 0 0 2 1 0 0 1 1 1 0 0 0 0 0 0 0 1 0 1 2 0 1 1 1 1 5 2 0 0 2 1 1 1 1 0 3 1 0 0 0 0 1 2 0 0 1 2 2 0 0 0 0 1 0 0 0 0 0 1 1 0 1 0 3 3 2 1 1 0 0 0 4 7 9 7 1 1 2 0 1 0 0 0 2 0 1 0 0 1 0 2 0 0 0 0 0 0 0 1 0 4 0 0 0 0 1 0 1 0 0 0 1 1 1 1 1 1 1 0 0 0 1 1 7 1 0 1 1 0 1 1 0 0 0 0 1 1 0 1 0 1 1 1 1 0 0 0 0 1 1 0 0 1 2 1 
2 1 0 0 0 2 0 1 1 1 0 0 0 0 0 0 0 0 0 1 0 0 0 1 1 1 0 4 0 5 10 2 0 0 0 0 1 2 0 0 0 0 0 0 0 1 0 0 1 1 0 0 0 0 0 0 0 3 0 0 0 2 0 0 1 0 0 0 0 0 0 0 0 0 0 1 0 1 0 0 0 0 0 0 0 1 0 1 1 0 0 0 0 0 0 1 0 0 0 0 1 1 1 1 0 1 0 1 0 1 2 0 0 1 0 2 1 0 2 0 1 1 0 1 4 1 1 2 0 1 0 0 0 0 1 0 0 0 0 0 1 0 2 3 0 2 2 0 2 1 0 0 1 2 1 0 1 1 1 0 1 1 1 0 0 2 0 1 6 0 0 1 0 1 2 2 0 1 1 1 0 1 0 1 1 0 0 0 1 1 0 2 1 0 0 0 0 3 1 1 1 0 0 0 0 1 1 0 1 0 0 0 1 0 1 0 0 1 0 0 0 0 1 0 1 0 0 0 0 1 1 1 1 2 0 0 1 1 0 0 0 0 1 1 2 1 0 0 0 1 1 0 1 0 1 0 0 0 1 3 0 1 0 1 0 0 0 1 0 1 1 1 7 1 1 0 0 0 0 1 0 0 0 0 0 0 0 0 0 0 0 1 2 0 6 1 1 0 0 0 1 1 0 1 2 0 0 1 0 1 0 0 1 0 1 1 2 1 1 0 5 0 1 9 1 1 1 1 1 0 0 0 1 1 1 0 0 0 0 1 0 0 1 0 1 1 0 1 2 0 1 0 0 1 0 0 1 8 1 1 1 0 2 1 0 1 1 6 2 0 1 1 1 2 0 0 0 0 1 2 0 0 0 1 1 0 0 0 0 1 0 0 5 0 0 1 0 3 1 1 0 0 0 1 1 1 0 0 1 1 0 1 0 0 2 2 0 1 1 0 0 0 0 0 2 0 0 6 0 2 1 0 0 1 0 1 0 0 0 0 1 1 2 0 1 3 0 2 2 1 2 0 0 2 0 1 0 0 0 0 0 0 0 3 5 0 0 2 0 2 0 1 2 1 0 0 1 0 2 0 0 1 1 1 0 0 4 0 1 0 2 2 0 1 0 1 0 1 0 1 0 0 0 1 2 1 0 1 0 0 0 0 1 0 1 0 1 0 0 0 0 1 0 8 2 1 1 0 1 1 0 1 9 0 0 1 0 0 0 1 0 6 0 0 0 0 0 1 0 1 0 1 0 0 1 1 1 9 2 2 0 1 1 1 1 0 0 0 0 1 0 1 0 0 2 0 0 1 0 0 1 0 1 0 0 0 1 4 2 1 1 2 0 1 1 1 0 2 1 0 1 0 0 1 0 0 1 0 1 1 0 12 1 0 0 1 0 0 0 0 0 0 1 0 1 0 0 0 2 0 1 1 0 1 1 1 0 0 1 0 
1 0 0 0 0 1 3 1 0 0 0 0 0 0 0 0 0 0 1 1 0 0 1 0 0 0 1 0 0 1 1 1 0 1 1 0 1 0 0 2 1 0 0 1 0 0 0 1 0 1 0 0 0 1 0 1 1 0 0 0 1 0 4 0 1 0 0 1 0 0 1 0 0 1 1 1 0 0 0 0 0 1 0 0 0 0 2 1 0 0 0 1 0 0 0 0 0 0 0 0 2 1 1 0 1 0 0 4 2 1 1 1 0 0 10 1 1 0 0 1 0 1 0 1 0 0 1 0 0 0 1 1 1 0 1 0 0 1 0 1 1 0 0 0 0 2 2 0 1 1 1 0 0 2 4 0 0 1 1 0 2 10 9 2 6 2 0 1 0 0 0 0 0 0 1 1 0 0 1 1 0 0 0 1 2 6 0 1 1 1 0 0 0 0 0 0 0 0 1 0 0 0 1 3 0 0 0 1 0 1 0 5 5 1 1 0 1 0 0 0 0 0 0 0 2 0 0 3 0 2 0 1 0 0 0 0 0 1 0 0 0 0 2 1 2 0 0 1 1 1 0 0 1 1 2 1 0 0 0 0 0 1 2 0 0 0 0 0 0 0 1 0 1 1 1 0 2 0 1 0 0 0 2 0 1 0 0 0 0 0 1 1 0 0 0 0 1 0 0 2 0 0 4 1 0 1 1 0 0 0 1 2 0 0 0 0 1 0 0 0 0 1 9 7 3 1 8 1 1 0 0 0 1 2 1 1 0 0 1 1 0 1 1 0 1 0 1 1 1 0 1 0 0 0 0 1 0 1 0 0 1 1 1 0 0 0 1 0 5 2 2 1 0 2 0 0 1 1 1 0 0 2 0 0 1 4 0 0 1 0 0 0 1 1 4 0 0 1 0 0 8 2 1 6 1 0 0 0 0 0 0 4 0 0 0 0 1 1 1 1 0 0 0 0 1 2 1 2 0 2 0 0 0 1 0 0 0 0 0 0 0 0 1 2 1 0 2 6 1 0 2 1 1 3 0 0 0 1 0 0 0 1 1 1 2 0 0 0 1 0 0 3 1 0 0 0 0 0 0 1 0 0 0 1 0 0 0 0 0 1 1 2 0 0 1 0 0 1 1 1 2 0 0 1 1 2 1 0 1 0 0 0 0 2 1 2 0 1 1 0 2 2 0 0 0 1 4 1 0 1 0 0 0 2 1 0 3 0 0 1 1 1 1 1 0 1 1 0 0 0 0 1 1 1 0 0 0 1 0 0 0 2 0 8 0 1 1 0 0 1 0 1 2 0 2 0 0 0 0 0 1 1 2 1 0 0 1 1 0 1 5 2 0 0 0 1 1 0 1 1 0 0 0 1 0 0 0 0 0 1 0 0 0 2 1 1 0 0 1 1 0 2 2 0 1 0 0 1 1 2 1 2 0 0 0 0 0 0 0 0 
0 2 0 0 0 0 1 1 0 0 0 5 1 0 0 1 1 0 0 0 1 1 0 0 0 0 0 1 1 1 0 0 1 0 2 0 1 0 0 0 0 1 0 0 0 1 1 0 1 1 0 0 1 0 0 0 1 2 0 0 0 1 2 0 0 1 0 0 0 0 0 0 1 1 0 0 0 1 0 0 1 0 0 0 0 1 1 0 1 1 1 0 0 1 1 0 0 1 2 0 1 0 0 0 1 1 0 0 1 0 2 1 0 1 1 0 0 0 2 3 0 0 0 1 0 0 1 0 0 0 0 0 0 0 0 3 3 0 0 0 1 0 1 0 1 0 0 0 3 0 0 0 1 0 0 1 0 1 0 1 1 2 7 1 2 0 0 1 2 1 0 1 0 1 0 0 1 1 0 0 0 1 0 0 0 1 0 1 3 0 0 1 0 0 0 1 0 0 1 0 1 0 0 2 1 0 0 1 0 1 2 2 1 1 0 1 1 0 2 2 2 0 0 0 0 0 0 1 1 1 2 0 0 0 0 0 0 0 0 0 0 1 2 1 0 1 0 0 0 0 1 0 0 0 0 1 1 0 1 0 0 5 1 0 0 0 1 0 0 1 0 1 1 1 1 0 0 0 1 2 0 1 2 1 2 2 0 0 0 0 1 10 0 0 0 1 0 0 0 1 0 2 0 2 0 1 2 1 0 0 0 0 2 2 1 0 1 0 0 0 0 0 1 0 6 1 1 2 11 2 0 1 0 0 0 0 2 1 1 0 0 1 1 7 3 0 2 1 0 0 0 1 0 0 0 0 0 2 0 1 1 4 7 0 1 0 6 1 0 2 0 0 5 0 0 1 1 0 1 0 0 0 0 2 0 1 0 0 1 1 2 0 0 0 0 1 1 0 0 0 1 1 0 2 1 8 1 0 0 3 0 0 2 1 0 1 3 0 1 1 0 0 0 1 0 0 2 0 1 0 2 0 0 1 0 0 1 0 0 0 0 0 1 1 0 0 0 0 0 0 0 1 0 0 1 0 0 1 0 5 0 1 0 2 1 0 0 0 0 0 0 0 0 1 0 2 0 1 0 1 0 1 0 7 1 0 0 0 2 0 0 0 0 1 1 2 1 1 0 0 2 3 1 1 2 1 0 0 0 1 0 1 0 0 2 1 1 1 1 1 1 0 0 0 1 1 0 0 2 1 0 0 0 1 0 0 0 1 0 1 0 0 1 0 0 0 2 7 0 0 0 0 0 1 0 0 1 0 0 0 1 1 2 1 1 1 1 3 1 3 0 1 1 5 1 1 0 1 1 2 1 1 1 0 0 0 0 0 1 0 0 0 0 1 1 0 0 1 0 0 2 1 0 2 1 0 1 0 0 0 0 0 0 0 0 1 0 0 0 2 2 1 1 0 1 1 0 1 0 1 0 0 1 1 0 2 0 0 1 1 
2 0 0 0 0 1 0 1 1 0 1 0 0 0 0 0 0 0 0 0 0 1 1 1 0 2 0 1 3 1 2 1 1 0 0 1 0 6 3 0 0 0 1 1 1 0 0 1 0 1 1 0 0 4 0 0 0 1 0 0 0 1 0 1 0 0 3 0 0 0 1 0 1 0 5 0 0 1 0 1 1 1 0 1 0 1 1 1 1 1 0 0 1 0 0 1 0 2 0 4 0 0 0 2 5 9 1 1 1 1 0 1 0 1 0 0 2 0 5 1 0 0 1 0 2 0 1 1 0 0 1 0 1 0 0 1 1 0 0 1 0 1 0 1 0 1 1 0 4 1 0 0 1 0 0 0 0 1 4 1 1 0 1 1 0 2 0 0 0 1 1 0 1 1 1 1 2 5 0 7 0 0 1 0 0 1 0 3 0 2 0 0 1 0 0 0 0 2 0 0 0 1 0 1 1 1 0 0 1 1 0 4 3 0 1 1 0 0 0 1 2 0 0 1 0 0 0 0 0 0 0 0 0 1 0 1 1 0 0 0 0 0 2 1 0 1 0 1 1 0 0 0 0 1 2 0 1 1 1 0 0 1 1 1 0 0 1 0 0 0 0 1 1 1 0 1 0 1 1 0 0 0 0 0 0 0 0 0 1 1 0 0 0 1 2 1 0 0 1 2 1 0 1 0 0 0 0 0 0 0 0 0 1 1 0 0 0 1 0 0 0 2 0 0 2 1 1 0 0 2 2 1 2 1 0 0 0 0 1 1 0 2 1 3 1 0 2 0 1 0 1 1 1 0 0 0 0 0 1 0 0 2 1 1 0 1 1 1 0 0 0 0 2 1 0 0 0 1 0 1 0 1 0 0 1 1 0 1 0 1 1 0 0 1 1 0 0 1 0 0 2 0 1 1 4 0 0 1 0 2 0 0 0 0 0 1 0 0 1 1 0 1 1 0 1 2 0 0 1 2 1 0 0 0 1 0 0 2 0 0 0 0 0 1 0 1 1 0 2 0 0 1 0 2 0 1 1 0 1 0 2 0 0 0 0 1 0 1 0 1 1 1 5 1 1 0 0 0 1 1 2 2 0 0 0 1 1 0 0 1 1 0 1 1 0 1 0 1 0 1 2 0 1 7 1 0 0 0 0 0 0 1 3 1 0 1 0 1 4 1 0 0 1 0 0 0 0 0 4 0 0 6 1 1 0 0 0 0 0 1 0 1 0 0 2 0 0 1 1 0 0 1 1 1 0 0 1 0 0 0 0 1 0 0 0 2 1 0 0 0 0 1 0 0 0 0 1 1 0 0 1 0 0 0 0 0 0 1 0 0 0 0 0 1 0 1 1 0 1 1 1 0 1 1 1 2 0 0 0 0 0 1 0 1 1 0 0 0 1 0 3 1 0 2 1 0 2 3 0 1 0 0 1 0 0 0 2 0 4 1 
1 1 0 0 0 0 1 1 2 1 1 0 1 0 0 0 0 0 1 1 0 0 0 0 0 0 1 0 0 1 1 0 1 2 0 0 2 1 0 0 0 1 1 1 2 1 0 0 1 0 1 0 0 0 0 0 2 1 0 1 1 5 0 1 1 5 0 0 1 0 0 0 0 0 5 1 0 0 0 0 0 0 1 0 0 0 0 0 0 0 1 0 0 1 0 1 1 0 0 0 0 0 0 2 5 1 5 3 0 0 1 0 0 0 2 0 2 1 4 1 2 0 6 4 0 1 0 1 0 0 0 1 1 0 0 0 0 0 0 1 0 1 1 1 0 1 0 0 15 6 1 0 2 0 0 1 3 1 0 0 1 0 0 0 0 0 0 0 0 1 0 1 0 1 0 1 0 0 0 1 1 0 0 0 0 0 1 1 1 0 1 0 1 0 0 1 0 1 1 1 1 0 0 0 2 3 0 0 1 1 1 0 0 0 0 0 0 1 0 0 1 0 0 0 0 0 1 0 0 5 4 1 0 0 1 0 0 1 1 1 1 0 3 2 2 1 1 1 2 0 1 0 0 1 0 0 6 10 2 0 0 0 1 0 0 1 1 0 0 1 1 5 1 4 2 6 1 0 1 1 0 0 0 1 0 0 0 0 1 0 1 1 1 0 0 1 1 1 1 1 0 0 0 1 0 1 0 0 0 0 0 0 1 0 1 0 0 1 1 6 1 1 0 1 0 1 0 1 0 0 0 4 1 0 1 0 0 0 0 1 2 2 0 0 1 0 0 0 0 1 1 1 0 0 0 0 0 1 0 1 0 1 1 1 0 0 0 1 0 1 0 0 10 0 0 6 0 0 0 2 0 0 0 0 1 0 1 1 0 0 1 1 0 2 0 3 0 1 2 1 0 0 0 0 0 1 0 0 1 0 2 0 0 0 0 1 1 1 0 0 0 0 0 3 1 1 2 1 1 0 0 2 0 2 0 0 0 2 0 0 0 0 2 1 0 0 1 2 1 2 0 0 0 0 0 1 0 0 3 1 0 0 2 2 0 1 5 1 0 0 0 1 0 0 0 0 0 0 0 1 0 0 0 1 0 1 0 0 0 1 1 0 1 1 0 0 0 1 0 1 1 1 1 1 0 1 0 1 0 0 1 1 0 0 1 0 1 0 0 4 2 1 0 0 5 0 1 0 2 1 0 2 0 1 0 3 0 0 2 1 0 1 0 1 0 1 2 0 1 0 0 1 2 0 2 0 1 0 0 2 0 0 0 0 1 0 1 2 0 1 0 0 1 1 3 1 0 0 1 0 0 1 0 0 0 0 2 1 0 0 1 1 0 0 1 0 0 0 0 2 0 0 1 1 1 1 0 0 0 0 0 1 0 0 0 0 0 2 0 2 1 1 2 1 0 0 1 5 3 1 1 1 1 0 0 0 0 0 0 1 
0 0 0 0 1 1 0 1 0 0 0 0 0 0 0 0 0 2 1 2 0 1 1 0 1 0 0 0 1 1 0 1 6 0 0 0 3 0 2 1 0 0 0 0 1 0 0 0 1 0 0 0 0 1 1 0 1 0 0 1 0 0 0 1 1 1 0 0 0 0 0 0 0 0 1 0 0 0 0 0 0 1 1 2 1 1 0 0 0 1 7 0 1 0 1 0 0 0 0 0 0 0 1 0 1 9 5 3 0 0 0 0 0 0 0 0 1 0 0 0 1 1 1 4 1 2 1 2 1 1 0 0 0 0 1 0 1 0 0 0 0 1 0 1 1 1 1 1 1 4 0 2 1 0 2 1 1 0 0 1 0 0 0 3 0 3 0 1 1 0 0 1 0 0 0 1 0 0 1 0 4 1 2 0 0 0 1 1 0 0 2 0 1 1 1 1 1 1 0 0 1 0 0 1 1 0 0 0 5 1 1 1 1 0 0 0 0 0 1 1 0 2 2 0 1 1 1 0 0 0 0 0 0 0 0 1 0 1 1 0 1 0 0 1 1 0 0 0 3 1 0 0 0 0 0 0 1 5 2 1 1 2 0 1 0 0 0 1 0 1 0 1 6 1 0 1 1 5 1 1 0 0 0 1 0 0 2 1 1 1 1 1 0 0 0 0 1 1 1 2 1 2 2 1 2 2 0 0 0 1 0 0 1 0 1 0 0 0 0 0 0 0 0 1 0 0 0 0 2 4 4 0 0 1 2 0 3 1 1 1 0 0 0 1 0 0 0 0 0 0 0 0 1 0 0 1 0 0 0 1 0 1 1 1 1 2 0 1 0 1 0 1 2 1 0 2 0 0 0 0 4 0 1 2 5 1 1 0 0 3 0 1 1 1 1 1 0 0 0 0 0 1 1 0 0 0 0 0 1 0 0 0 1 1 0 2 0 1 0 1 1 1 1 0 1 0 0 0 0 0 1 1 0 0 0 0 2 0 0 0 0 0 2 0 4 1 0 1 0 2 7 1 1 2 0 0 0 2 0 1 0 0 1 1 0 2 1 0 0 1 0 0 0 0 3 0 0 0 1 1 0 1 2 0 0 2 0 0 1 0 4 1 0 0 0 0 1 1 2 1 1 0 2 0 0 0 1 1 0 0 0 4 0 0 1 0 2 0 0 0 1 2 0 1 0 0 0 0 0 0 0 1 0 5 0 2 0 0 0 2 0 0 1 0 1 1 1 1 0 0 0 1 1 2 0 1 2 1 0 0 2 1 0 0 0 0 0 1 0 0 0 0 0 0 1 1 0 0 0 0 1 0 0 0 0 0 1 1 0 0 0 0 1 0 0 0 0 2 0 1 0 2 1 1 1 1 0 0 2 1 1 1 0 3 0 0 1 0 0 1 1 0 0 0 2 1 0 0 2 0 5 2 0 1 0 0 1 0 0 1 
0 0 1 1 0 0 0 0 0 1 0 1 1 0 1 1 3 0 1 1 2 1 0 1 2 1 1 2 0 1 1 1 4 0 0 0 0 0 0 0 1 0 0 1 2 0 0 2 1 0 0 0 2 1 0 1 1 1 1 0 0 0 0 0 0 0 1 0 0 1 1 0 1 1 2 1 1 0 0 0 0 1 0 0 0 0 1 0 1 1 0 1 4 1 1 2 0 0 0 0 2 1 1 0 1 0 1 1 1 1 0 1 6 0 1 0 0 1 0 1 2 0 0 1 4 0 0 0 0 2 5 0 0 1 1 6 0 0 0 0 0 0 1 2 0 0 0 0 0 1 0 1 10 0 0 1 0 1 0 1 0 0 0 1 1 0 0 1 0 1 0 2 0 4 1 0 1 0 1 5 1 3 0 0 1 2 0 0 0 1 0 0 3 0 0 1 1 0 0 0 0 0 0 1 1 0 0 0 1 0 0 0 0 0 1 0 1 0 2 0 1 0 0 9 0 1 1 1 0 0 0 2 0 1 0 1 1 2 0 0 0 0 2 7 7 2 0 0 0 2 0 1 5 5 0 0 0 1 0 0 0 0 1 1 0 0 0 1 0 0 0 1 1 1 1 0 0 0 0 0 3 0 1 2 0 1 0 2 2 1 1 0 0 4 1 5 1 0 0 0 1 1 1 1 0 0 0 0 1 2 1 0 0 1 1 1 0 2 1 2 1 1 0 0 0 0 1 0 1 1 0 2 7 3 1 1 0 0 0 1 3 0 1 0 1 0 1 1 2 1 0 1 1 1 1 0 0 2 5 1 1 1 1 4 10 1 0 1 1 0 0 0 0 0 0 1 0 0 1 0 1 0 0 0 1 3 0 0 0 0 0 2 1 0 0 0 0 2 0 0 1 1 1 1 2 1 1 0 0 1 0 0 1 1 0 1 0 0 0 0 0 1 1 1 0 3 2 0 0 0 0 0 1 0 1 0 0 0 0 0 0 0 0 0 0 0 1 1 1 5 0 2 0 0 1 0 1 1 0 3 6 0 1 0 0 0 0 0 0 1 0 0 0 0 0 0 1 0 0 0 0 0 1 0 0 0 0 0 0 0 1 0 0 1 1 0 1 1 1 0 0 3 0 1 4 0 5 0 1 0 0 0 2 0 0 2 0 2 1 0 0 0 0 0 0 2 5 0 0 0 1 0 0 2 0 0 0 0 0 0 0 1 0 1 0 0 0 0 1 0 1 1 0 0 0 3 2 1 1 0 1 0 0 0 0 0 1 0 1 1 0 0 0 0 0 0 0 1 0 0 0 1 1 0 1 1 0 0 0 0 0 0 0 0 0 0 0 0 1 2 1 0 0 1 0 1 0 0 0 1 0 0 0 1 1 0 2 1 5 1 3 1 0 0 1 2 0 1 4 0 0 1 0 2 0 0 1 2 0 0 
2 0 1 4 0 0 0 0 1 0 0 0 3 0 1 0 2 0 0 0 0 1 1 0 1 1 1 1 0 0 0 0 1 0 2 1 0 0 2 0 0 0 0 1 1 0 0 0 2 0 0 0 1 0 1 4 2 0 0 1 1 0 0 0 4 1 1 2 0 0 0 0 1 0 4 2 1 0 0 1 0 1 0 1 0 1 1 0 0 0 2 0 7 1 1 0 0 0 0 0 0 0 0 0 0 0 1 0 1 1 0 0 2 0 1 0 1 1 0 0 0 0 0 1 1 0 1 0 2 0 1 1 1 1 1 11 0 0 0 0 0 0 0 0 1 0 0 2 0 1 1 1 0 1 0 0 0 2 1 1 4 0 0 0 1 0 0 1 3 2 1 2 2 0 0 0 0 0 0 3 1 0 1 1 0 0 0 0 0 1 0 1 0 0 1 0 0 0 4 5 1 0 1 1 1 0 0 0 4 1 2 0 1 1 1 2 0 1 0 0 0 4 0 0 0 0 0 1 0 0 0 0 0 0 0 0 2 0 0 0 1 0 0 0 1 0 1 0 0 1 0 1 1 0 0 1 0 0 0 1 0 0 1 0 1 1 0 1 1 1 1 2 0 0 0 0 0 1 0 2 0 1 1 0 0 1 0 0 0 1 4 0 0 0 1 7 4 0 1 0 1 0 0 1 1 0 0 5 1 2 0 2 1 0 1 0 1 6 1 7 0 0 1 0 0 1 1 1 1 1 1 1 0 2 1 1 0 2 4 1 1 0 1 1 1 0 0 0 0 0 1 0 2 0 0 0 1 2 0 0 0 1 0 0 1 0 0 1 0 0 0 0 1 1 1 0 1 0 0 0 1 0 1 1 2 1 0 0 0 0 1 4 0 0 1 0 1 1 1 0 8 2 1 0 0 2 0 1 0 0 2 0 1 0 0 0 1 1 0 0 1 1 2 0 0 1 2 0 0 0 0 0 2 0 1 0 1 0 1 1 0 0 1 0 1 0 0 0 1 0 0 0 1 1 0 1 0 0 0 1 0 1 0 0 0 0 1 1 0 2 0 1 1 0 0 1 2 0 0 0 0 0 1 0 5 0 1 0 0 1 0 0 0 1 0 0 0 1 0 1 0 1 0 0 1 0 1 1 1 1 0 0 0 0 0 6 0 0 1 0 0 0 1 2 0 1 1 0 1 0 2 1 0 0 0 7 0 0 1 0 1 0 1 0 1 3 1 1 0 1 1 1 1 0 2 1 1 0 0 0 0 0 0 0 0 1 0 0 0 0 0 0 0 2 0 0 1 1 0 1 0 0 0 0 1 0 0 1 1 1 1 1 0 0 0 0 1 0 0 1 1 0 0 1 0 0 0 0 0 0 0 0 0 1 0 0 0 1 0 2 1 0 1 1 1 2 0 0 0 0 0 1 0 0 0 0 4 1 0 0 
1 1 1 1 0 0 1 1 0 0 0 0 0 2 0 0 0 0 0 0 0 1 0 0 0 0 0 0 1 2 0 0 0 0 2 1 0 1 2 1 0 0 0 0 0 2 0 0 1 0 0 0 2 0 0 2 1 0 1 0 5 1 1 0 0 0 1 0 3 1 1 0 0 0 0 0 1 0 1 0 0 0 4 0 2 0 0 3 0 0 0 0 4 8 1 0 2 1 0 0 0 0 1 1 0 0 0 1 2 3 0 1 0 0 1 0 2 1 1 0 0 0 0 0 0 0 1 1 1 2 1 2 0 0 0 1 0 1 2 1 0 0 1 0 0 2 0 0 0 2 0 0 0 0 0 0 1 0 0 1 1 0 1 0 0 4 2 0 1 1 1 0 1 0 0 1 0 0 0 1 0 1 0 0 1 1 1 0 4 0 0 0 0 1 0 1 0 2 1 2 0 2 0 0 1 0 0 1 0 0 0 3 6 0 0 1 0 0 0 0 1 0 0 0 1 1 2 1 1 0 0 0 1 1 6 1 3 7 1 1 0 0 1 2 1 0 0 0 1 0 0 1 1 0 4 1 0 0 0 0 1 1 0 1 0 1 2 0 1 0 1 0 0 1 0 0 0 2 1 0 0 0 1 0 0 2 0 0 4 0 0 0 0 0 1 0 1 0 0 0 1 0 1 1 2 1 0 0 0 1 2 0 0 1 1 1 1 0 0 1 1 0 0 1 1 1 1 0 0 0 0 1 2 1 0 1 0 0 0 0 0 1 0 0 0 0 3 0 3 1 1 0 4 0 0 1 0 0 0 0 0 0 1 0 0 1 2 0 0 0 0 1 1 1 1 0 1 1 1 1 0 1 1 1 1 0 0 1 1 0 5 8 1 0 0 2 2 0 0 0 1 0 0 0 1 0 0 0 2 1 0 0 0 0 1 1 1 0 0 1 1 0 0 0 1 0 1 1 0 0 0 1 4 0 0 2 9 0 0 0 0 1 1 0 4 1 0 0 1 0 0 0 0 0 1 0 1 0 1 1 1 1 0 1 1 1 1 3 0 1 1 5 0 0 1 0 0 1 1 1 0 0 1 0 0 0 1 1 1 5 0 2 0 1 2 0 0 0 0 1 0 2 1 0 0 0 0 0 1 0 0 0 2 0 0 4 0 1 1 0 0 1 2 1 0 1 0 2 1 0 1 0 0 2 0 0 2 1 1 1 0 2 0 1 0 0 0 0 1 3 2 0 0 0 0 0 1 0 0 1 0 1 0 0 0 3 0 1 2 1 1 2 0 1 2 1 0 1 0 1 0 1 0 1 0 0 0 1 3 0 3 2 0 0 0 0 1 1 0 1 0 0 0 1 0 0 1 0 2 0 0 0 0 0 0 1 1 1 0 1 0 2 0 0 1 0 0 0 0 2 0 2 0 0 1 0 1 1 7 0 
0 0 1 0 0 3 2 1 0 1 2 0 0 0 0 0 1 1 1 0 0 1 1 0 0 0 0 0 2 0 0 0 0 2 5 2 0 1 0 0 1 2 0 0 0 2 1 0 0 2 1 1 1 0 0 0 1 1 1 1 2 3 2 1 0 0 2 0 1 0 1 1 0 1 0 0 1 0 0 0 1 0 1 1 0 0 0 0 1 0 0 0 6 5 2 0 1 2 2 1 0 0 0 2 0 1 5 0 1 1 5 0 0 1 1 0 2 2 1 1 0 3 2 0 0 0 0 1 2 0 0 1 0 0 1 0 1 1 0 0 1 1 1 0 0 0 1 1 0 0 0 0 1 1 1 1 0 0 0 0 0 1 2 0 4 1 0 7 0 0 0 0 1 0 0 1 0 1 1 0 1 0 0 0 1 0 5 0 0 0 1 1 0 1 0 0 0 1 0 0 0 0 0 1 0 0 4 0 0 0 0 2 3 1 1 1 0 0 0 0 1 0 0 2 0 0 1 0 0 1 2 0 0 1 6 3 0 0 0 0 0 2 1 1 0 0 0 0 1 1 2 0 1 0 0 1 1 0 2 2 0 1 0 0 0 0 0 0 0 1 0 1 3 0 0 0 3 1 2 0 0 0 1 0 1 1 0 0 2 0 1 0 1 1 0 0 1 0 0 0 0 0 1 1 1 1 0 7 1 0 2 2 1 3 3 0 0 0 1 1 0 2 1 1 2 4 0 1 1 7 2 0 1 1 1 0 0 2 0 1 0 1 1 0 0 1 0 4 1 1 0 3 3 0 0 0 0 0 0 1 0 0 0 0 4 1 0 1 0 1 1 0 1 0 0 0 1 0 0 0 0 0 0 0 0 1 0 1 1 2 0 1 0 0 0 1 1 1 0 1 0 0 3 1 1 1 0 1 0 1 1 1 0 0 0 1 1 1 0 3 1 1 2 0 0 3 0 0 1 0 0 0 0 1 1 0 0 1 1 1 1 0 0 0 1 0 0 0 1 0 1 2 0 0 0 0 0 1 1 0 1 1 0 0 0 0 1 0 0 0 0 2 1 0 0 0 0 0 0 1 2 1 1 0 0 0 2 1 0 1 0 1 2 1 1 0 0 0 1 1 0 4 2 0 0 0 0 1 1 1 0 1 1 0 2 1 0 0 2 1 0 1 0 0 1 1 1 0 0 0 0 0 0 0 0 1 1 1 8 1 0 1 0 1 0 0 1 1 1 0 0 2 2 0 0 0 0 0 0 0 2 1 0 2 0 2 1 2 0 0 2 1 0 2 0 1 0 0 0 0 1 0 0 2 0 1 1 0 1 1 4 0 0 0 5 0 1 1 2 1 1 0 0 0 1 1 1 0 1 2 1 0 0 0 0 0 0 0 0 0 1 0 0 0 0 0 0 0 0 1 2 1 1 0 0 1 3 2 2 1 
1 1 1 2 0 1 0 0 0 7 2 0 0 0 0 1 0 1 1 1 0 0 0 0 0 4 0 0 0 0 0 0 1 0 1 0 1 0 0 1 2 0 0 1 1 0 1 0 0 0 1 1 1 0 2 0 0 1 0 1 0 0 0 0 0 1 0 0 0 1 0 1 1 0 0 0 3 1 1 1 0 1 0 0 1 0 0 0 2 1 2 1 0 1 0 0 0 0 0 0 0 0 3 0 1 0 0 1 1 0 7 2 0 4 1 0 0 1 0 1 1 0 3 1 2 0 0 4 2 1 0 1 0 1 5 1 1 3 1 0 0 2 1 1 1 1 0 0 3 1 0 1 1 5 1 0 0 1 0 1 0 0 2 0 0 1 2 1 1 0 1 0 1 1 2 0 0 1 0 0 0 0 0 0 1 1 1 7 1 5 0 0 0 1 1 0 1 1 0 0 0 1 0 1 1 0 1 0 1 1 0 1 1 0 2 4 0 0 0 0 1 1 0 0 2 0 0 0 0 2 0 0 0 0 1 1 0 0 0 1 5 2 1 1 0 1 1 0 0 0 1 1 1 0 0 1 0 1 0 0 1 1 0 0 1 0 0 5 1 1 0 0 0 3 0 1 0 0 0 0 0 1 0 0 0 1 2 2 3 1 1 1 0 0 1 0 0 0 0 0 1 0 0 0 1 5 1 0 0 0 1 0 0 1 0 0 0 1 2 0 0 0 0 0 2 0 0 1 0 0 0 0 1 0 1 2 0 0 0 0 0 1 0 0 0 2 1 3 1 0 1 1 2 0 0 1 0 1 1 0 2 0 2 0 0 0 1 1 2 1 0 0 6 0 1 0 0 0 1 0 6 1 4 0 1 0 2 0 0 2 2 1 2 1 1 0 0 0 1 1 4 5 1 0 0 1 0 0 0 5 0 0 0 0 0 0 0 4 0 0 1 1 1 1 1 1 2 1 0 1 0 0 1 0 1 0 0 0 2 0 0 0 2 1 2 0 0 2 5 0 0 1 1 0 0 0 1 1 0 0 1 1 1 0 0 0 1 1 1 1 1 1 0 0 0 0 0 0 1 1 1 0 1 5 1 0 0 0 0 0 1 0 1 0 0 0 1 0 4 2 0 0 0 2 1 0 1 0 1 0 0 1 1 1 0 0 1 1 0 0 0 0 0 0 0 0 0 0 0 1 1 0 0 0 0 1 1 1 0 0 0 0 2 1 1 2 0 1 0 1 0 5 5 1 0 0 1 0 1 1 0 1 0 0 0 0 3 0 1 1 2 1 0 1 1 0 0 1 0 0 0 0 0 1 1 1 0 1 0 0 2 4 1 1 1 0 0 1 0 0 1 0 1 0 0 3 0 0 1 1 1 5 0 1 1 0 0 1 0 1 0 0 0 0 0 0 0 0 0 0 0 0 0 0 1 3 1 0 0 0 
0 0 1 0 0 0 0 0 0 0 0 1 0 0 0 1 0 1 0 2 0 0 0 0 1 0 1 0 0 0 0 0 0 0 0 1 0 0 0 1 0 2 0 3 0 0 5 1 0 0 0 0 1 0 0 0 0 0 0 0 2 0 1 0 1 5 1 0 1 0 1 0 1 0 0 0 3 1 0 0 0 1 0 1 0 1 0 0 1 3 2 0 0 2 1 1 0 1 1 0 0 0 1 0 0 0 0 3 0 0 1 0 0 1 0 1 1 1 0 1 1 1 1 1 1 1 1 0 1 0 1 1 0 1 0 0 1 0 2 0 0 7 1 1 0 0 1 0 1 0 1 1 0 0 1 0 0 6 1 0 0 0 0 1 0 0 0 1 0 0 0 0 3 1 1 1 1 2 0 2 1 1 2 0 1 7 1 0 1 1 3 1 1 2 0 0 0 1 2 0 0 1 8 1 1 1 0 0 1 2 0 0 1 0 1 2 1 1 1 1 0 1 0 1 0 0 0 1 0 0 0 0 0 0 0 1 0 1 0 1 1 0 0 1 1 0 1 2 0 0 0 2 1 0 1 1 8 1 0 0 1 1 0 0 0 0 1 1 0 0 1 0 0 0 0 1 0 0 0 0 0 0 0 0 0 1 0 3 0 6 0 4 1 1 1 3 3 1 0 0 0 0 0 1 0 1 0 0 0 0 0 0 0 1 1 0 1 0 0 1 0 1 0 1 1 0 0 0 1 0 0 1 1 0 1 0 0 1 0 0 3 1 0 1 1 1 0 0 0 1 0 0 0 1 0 1 0 0 0 0 0 0 1 0 0 1 0 0 0 1 0 6 3 1 1 6 0 2 1 3 1 1 1 0 1 1 0 0 0 1 1 5 0 0 1 0 1 1 1 0 1 0 0 0 0 0 1 1 1 0 1 1 0 0 0 0 0 2 1 0 0 0 0 0 0 0 1 1 0 0 0 0 0 0 1 0 1 0 1 0 1 1 0 4 1 1 1 0 1 0 2 1 0 0 0 0 2 1 1 1 1 0 0 0 0 1 1 0 0 1 1 0 0 0 1 1 1 0 0 3 0 1 1 0 0 0 0 0 2 1 1 0 1 1 0 1 0 1 2 3 2 1 0 0 2 1 0 0 0 0 1 2 1 0 2 1 1 0 1 1 0 0 0 1 0 0 0 1 1 0 1 1 0 0 2 1 1 1 0 0 0 1 1 0 1 0 1 0 1 0 7 2 1 0 0 0 1 0 0 1 0 1 0 1 1 1 0 1 4 2 5 0 0 1 0 1 0 2 1 0 0 0 1 1 0 1 0 0 1 0 0 1 3 1 0 3 1 0 1 0 1 1 1 0 0 0 0 2 0 0 1 1 1 1 0 0 1 0 4 0 0 1 0 0 0 1 1 0 0 0 0 0 0 4 1 1 0 0 0 0 
0 0 0 2 0 0 0 0 0 2 0 1 0 0 0 0 0 2 0 2 1 1 0 1 0 0 0 0 1 0 0 0 0 1 1 0 0 0 0 1 1 1 0 0 0 1 0 1 5 0 0 0 2 0 0 1 1 0 0 1 0 0 1 0 1 0 0 0 0 0 0 0 0 1 5 1 0 0 0 1 0 0 2 0 0 0 0 0 0 0 3 1 0 0 0 0 0 0 2 2 0 0 0 1 0 1 5 1 0 0 0 0 0 2 1 6 1 0 1 0 0 0 0 0 0 0 1 1 1 0 1 0 0 1 1 2 0 0 0 0 0 0 0 1 0 0 0 0 0 0 0 0 7 1 0 0 2 0 0 0 1 0 1 3 0 1 0 0 0 0 1 0 0 1 2 1 1 0 1 1 0 1 0 1 0 1 0 0 1 0 0 2 0 0 1 0 0 0 2 0 1 1 0 2 0 0 0 0 0 0 1 0 0 0 2 0 0 0 1 1 1 2 0 1 6 1 2 5 0 0 1 1 2 3 1 1 0 1 0 0 1 1 1 4 1 0 0 1 0 0 1 1 3 4 5 2 2 0 1 0 0 1 1 0 0 0 0 1 0 0 0 0 0 0 0 1 0 0 1 0 0 0 0 1 0 0 0 1 3 1 1 0 1 1 0 0 0 0 0 1 4 0 1 2 0 0 1 1 0 0 0 0 2 1 0 0 0 0 1 0 0 0 0 0 1 1 0 0 0 0 0 0 1 0 1 0 1 0 0 2 0 1 2 0 1 0 0 0 1 0 0 1 0 0 0 0 0 0 1 0 0 1 3 1 1 2 1 0 0 0 1 0 1 1 0 0 1 1 1 0 0 0 0 0 0 2 1 0 0 0 0 1 0 0 0 0 2 1 7 1 1 0 1 0 0 1 1 0 0 0 0 0 2 0 0 0 0 5 0 0 0 0 0 0 0 2 1 0 1 0 0 2 1 0 1 0 0 0 0 0 0 0 1 1 5 1 1 0 0 0 0 1 1 2 4 1 1 0 0 1 0 1 0 1 1 2 3 4 0 0 0 0 0 0 0 0 0 0 0 0 0 0 0 0 1 1 1 0 0 1 1 1 1 0 0 0 0 2 1 0 1 1 0 0 1 1 1 0 1 0 0 0 0 0 0 5 1 3 0 0 0 0 1 1 0 1 0 1 0 3 7 0 2 1 0 0 0 1 0 0 0 0 0 0 0 0 1 0 0 0 1 0 0 3 1 0 0 0 2 1 0 1 0 0 0 1 0 2 1 0 1 1 0 1 1 1 0 1 0 0 1 0 0 0 0 0 1 1 1 1 2 1 1 0 1 1 7 7 1 0 0 0 0 0 0 1 2 0 0 0 2 4 1 0 1 1 0 1 0 0 0 0 0 1 2 3 1 0 0 0 0 0 1 0 1 0 2 4 0 1 
1 0 1 1 0 0 0 1 1 0 3 1 1 1 1 0 0 1 1 0 0 1 1 0 0 1 1 1 0 0 1 0 0 0 0 1 0 1 0 1 0 1 0 0 0 0 0 1 1 1 0 1 1 1 1 0 0 1 1 2 0 0 1 1 0 1 1 1 0 1 1 2 1 1 1 0 1 0 0 1 0 1 5 0 2 0 2 0 0 0 2 1 1 0 0 0 1 0 0 0 0 0 1 1 0 0 0 2 1 2 1 0 0 0 0 1 1 3 1 0 0 0 1 0 0 1 0 2 1 1 0 0 0 3 2 0 0 0 1 0 0 0 0 0 3 0 1 2 0 0 0 1 0 0 1 1 0 0 0 0 0 0 1 0 1 0 0 1 1 1 1 0 0 0 0 1 0 0 0 1 1 0 0 0 0 0 0 1 1 1 0 0 0 0 0 0 1 0 1 0 1 0 0 0 1 1 1 1 0 0 0 0 0 0 0 0 0 0 0 0 0 0 1 1 10 1 1 0 0 1 0 1 0 0 1 1 3 0 0 0 0 0 1 0 0 1 0 0 2 0 1 8 2 2 6 0 1 1 4 0 0 0 0 0 0 0 1 0 0 0 1 1 1 1 0 0 1 0 0 1 1 0 0 0 0 0 0 0 0 1 0 0 0 1 0 1 0 0 0 0 1 1 1 1 1 0 0 0 3 3 0 1 2 0 0 2 1 0 0 0 1 0 0 0 0 1 2 0 1 0 0 0 1 0 0 0 0 0 0 0 1 0 0 1 0 0 1 7 0 0 2 2 1 1 0 1 2 0 0 1 9 2 0 1 0 0 1 0 1 1 0 0 1 0 0 0 0 0 0 2 1 2 0 0 2 0 0 2 1 2 1 5 2 0 0 0 1 3 1 3 1 1 0 0 0 1 1 0 1 1 1 1 1 1 0 1 0 0 1 0 1 0 6 0 0 1 0 2 1 2 0 1 0 0 0 0 0 0 1 1 3 0 0 1 1 4 0 0 0 1 0 2 1 0 1 1 0 0 0 0 1 1 0 0 2 1 6 0 0 0 1 2 0 0 0 1 0 1 1 0 0 1 0 1 6 0 1 1 0 1 0 0 1 0 0 0 0 0 0 1 0 0 0 0 0 1 4 0 1 1 0 2 0 0 1 0 1 1 7 2 1 1 1 0 0 0 0 1 0 0 0 0 0 0 0 0 1 1 1 1 0 0 1 1 0 1 0 0 1 0 1 0 0 4 0 0 0 0 0 0 1 6 0 0 0 1 0 1 0 1 0 0 1 0 1 1 0 0 0 0 1 0 0 1 0 0 1 2 0 1 1 0 1 0 0 0 0 1 0 0 1 1 0 0 0 1 1 1 0 0 0 2 1 0 5 1 2 1 0 1 1 2 1 0 1 0 0 0 0 0 1 0 0 0 0 0 0 1 0 0 
1 1 0 0 4 1 2 0 1 0 0 0 1 0 0 0 1 1 0 1 1 0 1 1 0 0 0 0 0 1 0 0 1 0 1 0 1 2 1 0 1 1 1 1 4 0 1 1 0 0 1 0 0 1 1 1 0 0 0 0 0 0 0 1 0 0 0 0 0 0 2 2 0 1 0 0 0 0 1 0 0 0 1 0 0 1 0 0 1 0 0 0 0 1 2 0 0 1 1 0 0 1 0 0 0 1 0 1 0 0 3 0 2 1 0 1 0 0 0 1 0 1 1 1 1 1 1 3 0 3 0 0 0 0 1 0 1 0 1 0 1 0 0 0 1 0 0 0 1 0 0 0 0 1 1 0 1 0 0 0 0 2 0 0 1 0 0 2 1 0 0 0 0 0 0 0 0 0 0 0 0 0 0 1 0 0 1 3 2 0 0 1 0 1 0 0 1 0 0 2 0 0 1 0 1 3 1 1 1 2 0 1 0 1 1 0 1 1 0 2 0 0 3 1 4 3 7 1 1 0 0 0 0 0 0 0 1 1 5 0 0 0 0 0 0 0 0 1 0 1 0 1 2 3 0 1 0 1 6 0 1 1 1 0 0 0 0 1 1 2 0 0 1 2 0 0 0 2 1 0 0 1 0 1 0 1 0 1 0 0 1 1 0 0 1 0 0 0 1 3 0 1 1 2 0 0 0 0 1 0 0 1 10 1 1 2 1 0 2 0 0 1 1 0 0 0 1 1 0 0 0 1 1 0 1 1 1 1 1 0 1 1 0 0 0 0 1 1 0 2 0 0 0 1 3 0 0 0 0 1 0 0 1 0 0 0 0 6 0 1 1 0 0 0 0 0 0 0 0 1 0 0 0 0 0 2 0 1 0 0 5 1 1 1 0 0 0 1 2 3 0 3 0 0 4 5 1 0 1 0 0 0 0 0 0 0 0 0 0 0 0 0 1 0 0 0 0 0 0 0 0 0 0 1 0 0 0 0 0 0 0 1 1 3 1 0 0 1 1 2 0 1 1 1 1 5 0 0 0 1 1 0 0 0 2 0 0 2 1 0 0 0 1 0 0 0 3 0 2 0 0 0 1 0 2 0 0 2 0 1 1 1 0 0 1 1 1 1 0 0 0 5 1 0 0 1 1 0 1 0 0 1 0 0 0 1 1 0 0 0 1 0 2 0 0 2 0 0 0 0 0 1 0 0 0 1 0 0 1 0 1 2 0 0 1 0 1 1 0 2 0 0 0 1 1 0 0 1 1 0 1 0 1 1 1 1 0 0 0 0 4 2 1 2 0 0 1 2 1 0 0 0 0 0 0 0 0 0 0 2 1 1 1 0 1 0 0 1 1 5 0 0 0 0 3 0 0 0 0 1 2 0 0 0 1 1 0 1 0 4 0 0 1 0 2 1 1 0 1 0 1 1 0 0 0 0 1 0 1 0 
0 1 0 2 1 0 1 3 1 0 0 0 4 1 0 0 0 0 0 1 0 0 1 0 0 0 0 0 0 2 1 0 2 1 0 1 0 0 1 0 0 0 0 1 1 0 5 4 1 1 2 1 0 0 1 0 1 1 1 1 0 0 0 0 0 1 0 1 0 1 1 0 0 6 0 1 0 1 0 0 1 1 0 1 0 2 4 2 0 0 1 2 0 0 0 1 2 0 1 0 1 1 0 1 0 0 1 0 0 0 1 0 1 2 5 0 0 0 5 2 0 0 1 0 2 0 0 0 6 0 0 0 2 1 1 5 0 1 0 0 0 0 1 1 1 0 1 1 0 0 1 0 0 0 0 0 0 1 0 0 1 0 0 0 2 1 0 1 0 1 1 0 0 1 0 1 0 1 0 1 1 5 0 0 1 0 0 1 0 1 0 0 0 0 1 0 0 1 0 0 0 1 0 0 1 0 1 3 0 0 0 0 1 0 0 0 0 0 0 0 1 1 1 1 0 2 0 0 1 0 1 0 1 0 0 0 1 1 0 2 1 1 2 0 0 0 1 0 0 0 2 0 0 2 0 0 0 1 1 0 1 0 1 0 0 0 0 0 1 0 1 3 0 1 3 0 0 0 0 0 0 0 0 0 0 1 0 1 1 0 1 2 0 0 0 0 2 1 1 0 0 0 1 0 0 0 0 1 0 0 0 0 0 0 0 0 0 0 0 1 1 0 0 2 1 0 0 0 1 1 2 0 2 0 2 0 0 1 0 0 1 1 1 0 0 1 0 1 0 0 1 1 0 1 1 1 0 1 2 0 0 0 0 0 0 0 1 0 1 0 1 0 1 0 1 1 2 1 1 0 0 0 0 2 0 0 1 1 1 0 1 0 0 2 0 1 0 1 3 2 1 0 0 1 0 0 0 0 0 1 0 2 2 2 0 0 0 0 0 1 0 0 0 0 0 0 1 0 0 0 0 0 0 1 0 1 1 0 0 0 1 1 1 0 0 0 1 0 0 0 2 1 0 0 1 0 0 0 1 1 2 0 0 0 0 1 1 2 1 0 0 0 0 0 4 1 0 0 1 1 0 1 0 0 0 3 0 0 0 1 0 2 0 1 1 0 0 1 0 1 0 0 1 0 0 0 1 0 0 0 0 0 0 1 0 0 1 0 0 0 0 0 0 0 0 0 0 0 0 0 0 0 1 1 1 0 0 0 0 0 1 1 0 0 0 1 0 0 1 0 0 0 2 0 0 0 2 0 1 0 0 0 1 1 1 2 1 1 1 1 0 0 0 2 0 0 1 0 1 1 0 0 5 0 1 0 0 0 2 1 1 1 4 7 0 1 0 1 2 0 0 1 0 1 1 0 1 2 1 1 0 0 1 1 1 1 0 0 0 0 2 1 1 0 0 1 1 1 1 0 0 1 1 1 0 0 0 4 0 0 
1 1 0 3 2 0 1 1 0 1 0 1 1 2 3 0 1 0 0 1 0 0 0 1 0 0 0 0 0 0 2 2 2 1 2 0 4 0 0 1 1 0 0 0 0 0 0 1 0 0 0 1 0 1 0 0 0 0 0 1 0 0 0 4 2 1 0 0 2 0 3 2 0 0 1 0 0 0 0 0 0 1 0 1 0 0 0 1 0 1 1 0 0 0 0 1 5 3 0 0 0 0 0 0 0 1 1 0 4 0 0 1 0 0 0 0 1 1 0 1 1 0 0 0 0 2 1 1 1 0 2 2 0 3 0 2 0 1 0 1 1 0 0 1 1 4 1 3 1 1 1 1 0 0 0 0 0 0 0 1 1 0 1 2 0 5 3 0 0 0 1 0 5 3 1 0 1 0 0 0 8 1 0 0 0 0 1 1 0 1 0 0 0 0 1 0 0 0 0 0 1 5 0 0 1 0 0 1 0 0 1 0 0 0 0 0 1 0 0 0 0 0 0 0 2 1 1 0 0 0 1 0 1 0 0 0 1 0 0 7 8 0 1 0 1 0 0 0 1 0 0 0 1 1 3 0 0 1 2 0 0 0 0 1 0 0 0 0 1 0 0 1 0 1 1 0 0 0 0 2 0 1 1 1 1 0 2 0 1 1 1 0 1 2 1 1 0 0 0 0 2 1 0 0 1 2 0 0 1 0 0 0 0 0 0 3 1 1 0 0 0 0 0 0 0 1 0 1 0 1 1 0 0 1 0 0 0 0 0 0 2 0 1 0 0 0 0 0 1 0 0 0 0 1 1 0 1 0 0 0 0 0 0 0 0 1 1 1 1 10 8 6 2 0 0 1 2 0 1 1 2 1 1 1 0 0 0 1 1 2 0 0 0 0 1 0 0 2 0 0 0 2 1 0 0 0 0 0 0 1 0 1 1 1 0 0 0 0 0 0 0 0 0 0 0 0 0 1 1 0 0 2 1 4 1 1 0 0 0 0 1 0 0 0 0 0 2 0 1 0 3 0 2 0 3 1 1 3 2 2 0 0 0 0 0 0 1 1 0 1 0 0 0 0 0 1 0 0 0 1 0 0 1 0 0 0 3 3 1 0 0 5 1 0 1 1 1 0 1 0 0 0 2 0 0 1 0 0 1 0 0 1 0 1 3 0 0 0 0 1 3 1 0 1 0 0 0 1 1 1 1 1 1 1 1 0 1 1 1 1 0 1 3 0 1 1 0 3 1 0 0 0 6 1 0 0 0 0 0 0 0 0 0 4 1 6 1 1 0 0 1 1 1 0 2 1 1 0 1 0 0 0 2 1 0 2 0 1 1 0 0 1 0 0 0 1 0 0 0 1 0 0 0 0 0 1 0 0 2 0 2 0 8 2 1 0 1 1 0 0 0 1 0 0 0 0 0 0 0 2 2 0 0 0 2 1 1 0 2 3 
1 4 4 0 0 0 1 1 6 1 1 0 0 0 1 0 0 0 0 0 1 0 0 0 3 0 0 1 1 0 0 0 3 2 0 1 1 0 0 0 0 0 1 0 0 1 1 1 2 0 0 0 1 0 0 0 1 0 1 1 0 0 0 5 1 0 0 0 1 0 0 2 0 0 1 0 2 1 0 0 1 0 0 1 0 0 0 0 1 2 1 4 6 1 0 8 5 1 0 0 1 0 1 0 0 2 0 0 0 1 1 2 2 2 1 0 0 0 0 1 1 2 2 1 0 1 0 0 0 1 0 1 1 1 0 1 1 0 1 1 1 0 1 2 0 0 0 2 0 0 1 1 1 0 0 1 3 0 0 1 0 2 0 1 1 0 0 0 1 1 2 0 5 0 2 0 1 0 1 0 0 0 0 0 0 0 0 0 1 1 0 0 0 0 1 1 1 2 0 0 3 0 0 0 1 0 1 0 2 0 0 1 0 0 7 0 0 1 0 1 0 2 1 1 0 1 1 4 0 0 0 1 0 0 0 0 1 0 0 0 1 1 7 1 0 0 1 0 0 0 1 1 0 2 1 0 0 1 1 0 0 0 3 1 0 0 1 0 0 0 1 0 0 0 0 1 0 0 1 4 0 0 1 0 0 1 0 1 0 1 0 0 0 2 6 7 0 0 0 0 0 0 0 0 3 0 1 0 0 1 5 0 1 1 0 0 1 1 1 0 0 0 1 0 0 1 0 0 0 1 1 1 0 0 0 0 0 1 0 0 0 0 0 0 0 0 1 1 0 0 0 2 1 0 2 1 2 6 1 2 5 2 0 4 1 1 0 1 1 0 1 1 0 0 1 1 1 5 0 0 0 0 1 0 0 0 1 0 0 1 1 0 1 0 1 0 0 1 0 0 2 1 2 0 0 0 0 0 0 0 0 0 0 7 7 0 1 0 0 0 0 1 0 0 0 1 1 0 1 0 0 1 0 0 0 0 0 1 0 0 0 0 0 0 2 1 1 0 1 6 0 1 0 1 0 0 0 0 1 0 1 0 0 0 1 1 2 0 0 1 0 5 5 2 2 0 0 2 0 0 0 0 0 0 0 0 1 1 2 0 0 0 1 1 1 0 0 1 2 0 2 0 0 0 0 0 0 0 1 0 0 1 0 2 4 1 1 1 0 0 2 3 1 0 0 1 2 1 1 0 1 0 1 1 1 0 5 0 1 2 1 1 0 1 0 0 1 0 1 0 0 0 1 1 0 1 0 1 3 1 1 1 1 0 1 1 4 1 3 0 1 1 0 0 1 2 0 0 0 1 2 0 1 4 0 0 0 0 1 1 1 1 0 1 0 1 0 0 1 4 1 0 0 0 0 0 1 0 1 1 1 1 0 0 0 4 1 0 1 0 2 0 1 1 0 1 0 0 0 0 1 0 1 0 0 0 0 0 0 1 
0 0 0 0 1 0 1 2 1 2 2 0 0 0 1 1 0 1 0 1 0 0 0 0 1 0 1 1 1 0 1 1 0 1 2 0 0 0 0 1 0 1 1 0 2 0 1 0 0 0 2 0 0 0 1 4 0 1 1 1 0 0 1 1 1 1 0 0 2 1 0 0 0 1 4 1 0 1 0 0 0 2 0 0 0 1 0 0 0 0 1 1 1 0 1 0 0 1 0 1 2 1 1 0 1 0 0 1 1 3 2 0 0 1 1 1 2 1 0 0 1 0 2 6 1 0 0 0 0 1 0 1 1 1 0 1 0 1 1 0 2 1 0 1 0 1 0 1 2 2 2 0 0 0 1 2 0 0 1 0 0 2 0 0 1 0 0 1 0 2 0 0 1 0 0 1 1 0 0 0 1 1 0 0 1 0 1 1 0 0 3 9 4 2 1 0 0 1 2 1 0 1 0 0 4 1 2 0 1 3 0 1 0 2 4 0 0 0 1 1 1 0 2 2 6 5 1 0 1 0 1 1 1 0 0 1 1 0 1 1 1 1 1 0 0 0 0 0 0 1 0 0 1 1 1 1 0 0 0 1 0 2 0 1 1 0 1 2 0 2 2 0 1 0 0 2 0 1 1 0 0 1 1 0 1 1 4 1 0 0 0 1 1 0 4 1 0 0 0 0 2 3 1 1 1 0 0 0 1 0 1 0 0 1 1 2 1 0 1 0 1 0 0 5 0 0 0 4 0 2 6 1 1 2 0 0 0 1 1 1 1 0 2 0 0 0 1 0 1 1 0 0 0 1 1 1 0 0 0 1 1 1 1 2 2 1 1 1 1 1 0 0 0 0 0 0 0 0 3 0 0 0 1 0 1 0 1 0 0 0 0 0 0 1 0 0 0 1 0 0 8 0 0 0 0 0 1 2 1 1 0 1 1 1 1 1 1 2 1 1 0 4 4 1 0 1 0 0 2 0 1 1 0 1 0 0 1 0 1 0 0 1 2 0 1 0 4 0 1 0 1 3 0 2 0 0 0 0 0 0 1 0 1 0 0 1 0 0 0 2 0 0 2 0 1 1 0 1 1 0 1 2 0 1 0 2 1 0 0 0 3 0 1 0 0 0 0 1 1 1 2 0 0 1 1 0 1 0 1 0 1 3 0 1 1 0 1 3 0 1 1 0 0 0 0 0 2 1 0 0 0 2 1 1 2 1 1 0 0 1 1 0 1 0 0 0 0 1 1 1 2 0 0 0 1 1 1 2 0 0 1 1 2 0 0 0 3 6 0 0 0 0 0 0 0 0 0 2 0 0 1 1 0 1 3 0 0 1 0 0 1 0 3 1 0 1 1 0 0 0 1 1 0 2 3 1 0 0 0 1 1 0 0 0 1 2 1 1 1 0 0 0 0 1 0 0 0 0 1 0 1 4 0 0 0 1 0 1 1 9 
0 0 0 0 3 0 2 1 0 0 2 1 0 0 0 1 0 0 0 0 1 1 1 0 1 0 1 0 0 0 7 2 1 2 1 1 0 0 0 1 0 0 0 0 1 1 0 2 2 0 0 0 0 0 2 0 1 0 0 1 2 0 2 0 1 1 1 1 0 0 0 1 2 0 1 0 1 0 0 2 0 0 0 0 1 2 1 1 0 5 1 1 0 0 1 0 0 0 1 1 2 0 0 0 1 1 1 1 0 0 1 2 0 0 1 0 6 4 4 1 0 0 0 0 0 0 1 0 0 1 0 2 1 3 1 0 1 1 0 0 0 0 0 0 0 0 0 0 0 5 7 0 0 2 1 1 0 0 1 0 0 1 1 0 2 0 1 0 0 0 1 0 0 1 0 1 0 1 1 1 0 1 0 0 1 0 1 0 0 1 1 2 5 4 0 1 0 0 1 1 0 1 1 0 0 0 0 3 1 1 1 1 1 1 1 1 1 0 0 0 1 0 0 0 0 1 1 1 0 1 0 0 1 0 0 0 8 2 0 1 0 0 0 0 0 1 1 1 6 1 0 0 0 0 0 0 0 0 3 2 1 0 0 0 1 0 0 1 0 0 0 0 0 0 0 0 0 2 0 0 1 1 1 0 0 1 0 0 1 1 1 1 0 1 1 0 0 2 0 0 1 3 5 0 1 1 1 1 1 0 0 0 0 0 0 0 0 0 0 1 1 1 0 2 0 1 1 0 1 1 1 1 2 1 0 0 1 0 1 1 0 0 0 1 0 0 0 0 2 0 2 1 1 1 0 0 0 0 0 1 1 3 1 0 0 0 1 1 0 1 1 0 1 2 1 0 1 0 7 0 1 0 0 0 0 0 0 0 0 0 0 1 1 6 1 0 1 0 3 0 0 0 0 0 1 1 1 1 0 0 0 2 1 1 0 1 0 1 0 1 1 0 1 0 0 9 1 0 3 4 0 0 0 1 1 0 1 0 3 1 0 1 1 1 2 0 0 1 0 0 1 0 0 1 0 0 0 1 1 1 0 0 0 0 0 0 0 0 1 1 2 1 1 1 0 1 0 0 0 0 0 1 1 0 1 1 1 2 1 0 1 0 2 1 0 0 0 0 1 0 2 1 0 0 0 0 0 0 0 6 0 1 2 0 1 0 1 1 0 0 0 0 0 0 1 1 0 1 0 0 0 0 2 1 0 1 1 1 1 5 7 1 1 0 0 0 0 2 0 0 0 0 0 0 0 0 0 0 0 1 1 0 0 0 0 1 1 2 0 0 0 0 0 0 1 0 0 1 0 0 0 1 0 0 0 2 1 1 1 1 2 3 6 0 2 0 0 0 0 0 1 1 1 1 1 1 0 3 0 0 0 0 1 1 1 2 1 0 2 1 0 2 1 0 1 2 1 1 1 0 0 0 1 1 3 1 3 2 4 0 
0 2 1 1 0 0 1 1 0 1 0 1 2 0 0 1 0 0 0 0 0 1 1 0 0 2 1 4 1 3 0 0 2 0 1 1 0 1 0 0 1 2 0 4 0 0 0 0 0 0 1 1 1 1 1 0 1 0 0 0 0 0 0 0 1 1 0 2 0 1 1 0 1 0 0 2 1 1 0 0 0 0 0 0 0 2 0 0 0 1 0 0 0 1 0 0 0 2 0 0 2 1 0 0 0 0 0 0 0 0 1 1 0 0 0 0 0 0 0 0 0 1 0 0 1 0 0 1 1 0 2 0 0 1 1 2 0 0 1 0 0 0 1 2 0 0 4 5 3 0 2 0 0 0 0 0 1 1 1 0 1 0 0 1 0 1 0 1 0 0 2 0 1 0 2 0 0 0 0 1 1 0 1 0 0 0 0 0 1 0 2 1 0 1 1 0 1 0 0 0 0 1 0 1 0 1 0 0 0 0 1 0 0 0 2 1 0 3 0 0 0 0 2 2 0 0 0 1 1 0 0 0 2 1 0 0 1 0 4 2 0 1 1 0 0 0 0 1 0 0 3 3 0 0 0 0 2 0 0 0 0 0 0 0 0 0 0 0 0 0 0 0 0 0 1 0 0 0 0 1 2 0 1 0 0 0 1 0 1 0 2 2 2 0 0 1 0 1 0 1 0 1 0 0 0 2 0 0 0 0 0 1 1 1 0 0 0 1 0 1 0 0 1 0 1 0 0 0 0 1 3 2 1 0 0 0 0 0 0 0 4 0 0 0 1 0 0 1 0 1 0 1 0 0 0 0 0 1 1 2 1 1 0 0 1 0 0 1 0 0 0 1 0 0 0 1 1 0 1 1 0 1 1 2 0 0 0 0 0 0 0 1 1 6 7 1 1 1 1 0 0 1 0 0 1 0 0 0 0 1 1 0 0 1 1 0 2 0 0 0 0 0 0 0 2 0 1 2 0 0 2 0 0 0 0 1 0 0 0 1 1 0 1 0 0 0 1 1 0 0 2 0 1 0 0 0 0 1 1 1 0 0 0 0 0 1 0 0 0 1 1 0 2 0 0 0 0 1 0 1 1 0 0 1 0 0 0 1 0 4 0 0 0 0 0 0 0 0 1 0 1 2 0 1 0 0 1 1 7 3 1 1 0 0 1 0 0 0 0 1 1 0 1 0 2 0 3 1 1 0 3 1 0 2 1 1 0 2 6 1 1 0 1 0 0 0 0 1 1 0 1 0 0 0 0 1 1 0 0 1 0 0 0 0 1 2 0 1 0 1 0 0 1 0 0 1 0 1 0 1 0 4 0 4 1 0 4 1 0 0 0 0 1 1 3 1 0 0 0 1 0 0 1 0 0 0 0 1 1 0 2 1 1 1 1 1 1 0 1 1 4 0 0 0 1 1 0 2 1 0 0 0 1 4 2 1 1 1 0 0 
0 0 1 0 1 0 2 0 0 0 1 2 1 3 4 0 1 2 0 0 0 0 1 0 1 1 0 1 0 4 0 0 1 2 0 0 0 0 0 0 1 1 2 1 1 0 0 0 0 0 1 1 1 0 1 1 1 2 0 0 0 1 0 0 0 1 0 1 2 1 0 1 0 0 0 1 0 2 1 0 1 1 0 1 0 0 0 0 0 0 2 1 0 1 1 0 1 0 0 0 0 0 0 0 2 0 0 0 1 0 0 0 1 0 0 0 0 0 0 1 0 0 1 3 2 0 0 3 1 0 1 0 2 3 0 0 2 0 1 1 0 1 0 0 3 1 9 1 1 4 0 0 1 1 3 0 0 0 0 0 1 0 0 1 0 1 0 1 0 0 0 6 2 0 0 0 0 0 0 0 0 0 1 2 1 1 1 0 0 0 0 0 2 0 1 1 0 1 0 0 0 0 0 7 0 1 1 1 2 0 0 0 3 0 1 2 0 0 1 0 1 0 0 0 2 1 1 0 0 1 1 2 1 1 0 0 1 1 1 1 0 1 0 1 0 1 0 0 3 1 0 1 0 4 1 0 0 1 1 2 1 0 0 0 0 0 0 0 0 0 1 1 0 1 2 2 0 1 0 6 1 0 2 0 1 0 0 0 0 0 1 0 0 1 1 0 1 0 1 0 2 2 1 0 0 0 2 0 0 0 1 0 0 0 0 0 1 1 3 0 1 0 3 2 3 1 1 1 1 1 0 1 0 0 2 0 0 0 0 3 1 0 0 0 0 1 0 1 0 0 0 6 1 0 0 0 1 0 1 2 1 1 0 0 0 0 1 0 1 0 2 0 1 1 4 1 1 0 6 1 0 0 0 0 1 1 1 0 0 0 1 0 0 2 4 0 0 1 0 0 0 0 0 0 1 1 0 0 0 0 0 0 0 3 1 1 0 0 0 2 0 0 0 0 0 1 1 1 2 1 0 0 0 0 0 0 0 0 1 1 0 1 0 1 1 0 1 0 0 1 1 1 1 0 0 0 0 0 1 1 0 0 0 0 0 0 0 1 1 0 1 1 0 2 0 1 1 0 1 1 0 1 1 1 0 0 3 6 2 0 0 1 0 0 1 1 1 0 1 1 1 0 1 0 0 0 0 0 1 1 0 1 1 1 0 1 0 0 5 0 2 0 2 0 1 2 0 1 2 0 1 0 0 0 0 0 2 0 1 0 0 0 2 0 0 0 0 0 1 1 1 0 2 0 1 0 0 0 0 1 1 7 0 0 0 0 1 1 0 0 1 0 1 0 0 0 0 2 1 1 0 2 0 1 0 1 1 1 0 0 0 0 1 1 1 0 1 0 0 1 1 0 1 1 0 0 0 0 0 0 0 0 1 1 1 1 0 0 0 1 0 2 0 0 1 0 0 0 1 1 1 1 1 1 0 0 1 2 0 1 
1 2 4 1 0 1 1 1 0 1 1 1 2 0 1 0 0 1 0 0 0 0 0 1 1 3 0 0 1 0 0 0 0 5 0 1 0 0 2 0 0 1 5 1 0 1 1 0 0 1 2 0 0 0 2 0 1 1 0 0 1 1 0 1 0 0 1 1 1 0 0 0 0 1 1 1 0 4 0 0 0 0 0 1 1 0 0 2 0 0 0 1 0 1 3 0 0 0 0 0 1 1 0 0 1 1 1 1 0 1 0 1 0 1 0 1 0 1 0 0 0 1 1 0 0 0 1 1 0 2 0 0 1 1 2 1 1 0 1 1 0 0 1 0 0 1 4 4 0 1 0 0 1 0 0 1 0 1 1 0 0 0 4 0 0 1 5 2 0 1 1 2 1 0 1 0 1 1 0 0 0 0 0 10 0 1 1 0 0 0 0 0 0 0 0 2 0 0 1 0 2 0 1 0 1 0 1 0 2 2 0 1 0 1 0 0 1 0 1 0 0 0 2 1 0 0 1 1 0 0 0 1 0 0 0 2 4 0 0 1 0 0 0 0 1 0 0 1 2 0 1 1 0 1 1 1 0 1 1 0 2 0 0 0 1 0 0 1 0 0 0 0 4 0 1 1 0 0 0 1 1 2 5 0 0 0 1 0 0 0 0 0 7 1 0 1 0 1 1 0 0 0 0 0 1 1 6 1 0 0 1 0 0 0 0 1 1 0 0 1 1 2 0 1 0 1 1 0 0 0 2 1 1 0 0 1 0 0 0 1 0 1 0 0 0 0 0 0 1 0 1 0 1 0 0 2 1 1 1 0 0 0 0 2 1 2 1 0 1 0 0 2 0 1 1 2 0 1 1 0 0 1 0 0 1 0 0 0 0 0 0 1 0 1 0 0 1 1 0 0 2 0 0 0 1 2 1 1 0 0 0 0 0 3 0 1 0 2 1 2 1 0 1 1 0 1 1 1 0 0 0 2 0 2 0 0 0 2 1 2 1 0 0 0 1 0 1 1 1 0 1 1 0 0 0 0 2 0 1 1 0 0 0 1 1 0 0 0 0 0 0 1 0 1 2 2 1 0 0 0 0 0 0 0 1 5 1 5 1 1 2 0 1 0 0 0 0 0 0 1 0 0 0 2 1 0 1 0 1 0 1 0 1 0 0 1 1 1 0 0 0 5 1 1 0 0 1 2 1 0 0 0 1 1 0 0 0 2 0 0 3 0 0 0 1 1 1 0 1 6 0 1 0 0 3 0 2 2 0 0 1 0 0 0 1 0 0 0 4 1 1 1 0 0 0 0 0 1 7 1 0 0 2 0 1 0 0 0 5 3 0 0 1 0 1 0 0 1 0 0 0 1 0 1 0 1 2 1 0 2 1 0 1 0 0 1 1 0 1 1 0 0 0 2 0 1 0 0 0 0 1 0 0 0 0 0 1 1 0 0 
1 0 2 5 0 0 0 1 1 1 1 0 1 0 0 0 1 2 4 7 2 0 0 0 1 0 1 1 2 0 1 1 0 0 0 1 1 2 0 1 3 0 0 0 0 1 1 2 1 0 0 0 0 0 0 2 0 1 0 0 1 0 1 0 1 5 5 3 0 0 0 1 2 0 0 0 0 1 2 0 0 1 0 9 0 1 0 0 0 1 1 1 1 1 1 0 1 0 0 0 2 0 0 1 0 0 0 1 1 1 1 0 1 0 0 0 1 1 1 1 1 3 1 0 0 0 0 0 0 2 2 0 2 0 2 1 1 1 1 0 0 0 0 0 0 0 0 0 1 2 0 0 1 1 1 1 1 0 0 0 1 0 0 1 0 1 3 1 1 2 1 1 1 0 0 1 3 0 0 0 0 0 0 1 0 3 0 0 1 0 0 1 1 0 1 0 0 1 0 0 0 1 0 1 0 0 0 0 1 1 0 0 5 0 1 7 0 1 1 2 1 0 0 0 2 0 0 1 0 1 1 0 0 1 0 2 2 0 0 1 1 0 0 1 0 1 0 1 1 0 0 0 3 1 1 0 7 1 0 0 1 0 0 0 1 0 2 1 1 0 0 1 1 2 0 0 3 0 1 0 0 0 0 0 1 2 1 2 1 1 3 1 1 0 0 0 0 1 2 2 2 0 0 0 0 1 0 0 0 2 0 0 0 0 0 0 0 0 1 1 2 1 0 0 2 1 0 0 1 1 0 0 0 0 0 0 1 6 2 1 0 1 2 2 6 3 0 1 1 0 0 1 0 1 1 0 1 0 8 0 3 1 0 0 1 0 0 0 0 1 1 3 0 1 1 1 0 0 1 2 0 0 0 0 0 0 0 0 0 1 0 1 2 0 0 0 0 4 1 0 0 0 0 0 0 3 0 0 1 1 1 0 0 0 1 1 0 1 1 1 1 0 1 1 0 0 1 1 1 0 0 0 2 0 0 4 2 1 0 1 3 0 1 1 1 1 1 0 0 1 0 2 0 1 0 5 1 0 0 1 0 2 1 0 0 0 1 1 1 0 0 1 0 0 0 0 0 2 0 1 1 0 1 3 6 1 0 1 1 0 1 0 0 1 2 0 0 2 1 1 1 0 1 0 1 0 0 1 0 1 1 2 1 1 0 0 0 0 0 0 1 0 1 8 4 1 0 0 0 0 0 1 0 1 0 0 0 0 0 0 0 0 0 0 0 0 1 0 1 2 2 0 0 0 1 2 0 1 0 0 0 0 0 2 0 0 0 0 0 0 0 1 1 1 0 0 2 0 0 1 1 1 1 2 0 0 0 3 1 0 0 1 1 0 1 1 4 0 0 0 4 1 0 0 0 0 1 1 2 1 0 0 1 0 0 1 0 0 1 2 0 0 0 1 0 1 0 5 0 1 0 4 1 0 0 0 1 3 0 1 
0 1 1 6 1 0 0 2 0 1 0 7 0 4 4 0 0 0 1 0 1 3 0 0 1 0 0 0 0 0 1 1 0 0 0 1 7 0 0 0 1 5 1 0 0 0 1 4 5 1 0 2 0 0 0 0 0 1 0 0 0 1 0 0 0 0 0 0 0 0 1 1 0 2 1 1 0 0 3 2 0 0 0 1 1 1 1 0 0 2 1 2 2 0 1 1 0 0 0 0 1 0 0 0 1 0 0 0 0 0 0 0 1 1 0 0 0 0 1 0 1 0 0 0 0 0 0 1 1 0 1 0 0 0 0 0 0 0 0 1 0 0 0 1 0 0 0 1 0 0 0 0 0 1 1 0 1 0 0 0 0 0 0 1 0 0 1 1 1 0 1 1 0 0 0 1 1 0 2 0 0 0 0 0 0 0 1 0 0 0 2 1 0 1 2 0 0 1 0 3 0 0 1 0 2 0 1 0 0 1 0 5 1 1 1 0 0 1 0 0 1 0 1 2 1 0 0 0 1 0 0 1 0 0 1 0 0 0 1 1 1 1 0 0 2 0 0 2 1 0 0 0 2 0 0 2 0 2 0 1 0 1 0 0 0 0 1 0 1 0 7 2 2 0 2 1 1 3 1 0 1 0 0 0 0 1 1 0 1 0 1 1 0 0 0 0 0 0 0 0 0 1 0 0 1 2 1 2 1 0 0 0 0 0 0 1 0 0 0 0 1 0 0 1 1 0 0 2 3 1 0 0 1 1 1 0 2 0 0 0 0 1 0 2 1 1 4 0 0 0 0 1 1 0 1 0 0 3 1 0 1 1 0 0 0 0 1 0 0 0 5 0 0 0 0 1 1 0 0 0 0 0 0 1 1 0 2 1 0 0 0 0 2 0 0 1 0 1 2 0 2 1 0 1 0 0 1 0 0 1 0 0 1 0 0 1 1 1 0 1 1 1 1 0 0 0 1 0 1 0 0 3 1 0 1 0 0 1 0 1 1 0 0 0 0 0 0 0 0 1 1 0 1 1 1 2 1 1 2 0 1 2 0 0 1 1 0 0 0 0 0 0 0 0 1 0 2 1 0 1 0 0 0 7 0 1 0 0 0 2 1 0 0 1 1 0 0 2 0 1 0 0 1 1 2 0 3 1 0 0 1 1 1 1 0 1 0 0 2 1 1 0 0 1 0 1 1 1 0 1 1 1 0 1 1 0 1 0 1 1 0 1 0 0 0 0 1 0 1 0 1 4 0 1 0 0 0 0 1 1 0 0 4 2 0 0 0 0 1 0 0 2 1 0 2 0 0 0 1 1 1 0 0 0 1 0 0 0 0 2 0 1 0 1 1 1 0 0 1 2 1 3 4 0 0 0 0 4 0 0 0 0 0 0 1 0 0 1 1 1 1 0 2 0 0 0 1 0 1 0 0 1 1 1 1 1 0 1 0 0 
0 0 2 1 0 2 0 1 0 0 0 1 0 0 1 1 0 0 0 1 0 1 0 0 1 0 0 2 0 1 0 4 1 0 2 2 2 0 0 1 2 2 0 3 1 0 1 2 3 0 0 0 0 5 0 0 2 0 0 1 0 0 0 0 0 1 0 0 0 1 0 1 0 1 1 6 3 4 1 0 0 0 0 1 1 0 3 0 1 1 1 0 1 0 0 0 2 0 0 0 0 1 4 1 0 0 0 0 0 0 0 1 0 0 0 1 4 0 0 0 0 0 3 1 1 1 0 0 0 1 1 0 1 0 0 0 1 0 0 0 0 0 0 0 1 1 1 1 2 0 0 1 0 1 0 0 0 2 0 0 0 2 1 1 0 0 0 0 0 1 1 0 1 0 1 0 2 1 1 0 0 1 2 0 1 0 1 0 1 0 1 0 1 0 0 0 0 2 1 1 0 1 0 1 1 1 0 1 1 0 1 1 1 1 3 2 1 1 1 1 1 0 0 0 0 2 1 0 1 0 0 0 3 1 0 0 0 1 1 0 0 0 1 2 0 1 0 0 0 0 0 2 1 1 1 0 1 1 1 2 0 0 0 4 0 0 0 0 0 0 0 2 0 0 0 0 0 0 0 1 2 0 1 0 0 1 0 4 0 1 2 0 1 1 0 1 0 1 0 0 0 1 1 0 1 0 0 0 1 0 2 1 0 0 0 1 6 2 0 1 0 0 0 0 1 0 0 0 1 0 2 0 0 0 1 1 0 1 2 0 0 0 0 1 0 1 1 1 0 1 0 3 2 0 1 1 1 2 2 1 2 4 1 0 1 0 1 1 0 0 1 0 1 1 0 1 1 0 0 0 0 0 0 0 0 0 0 1 1 0 1 0 1 0 2 1 0 1 1 0 0 0 0 2 0 1 0 0 3 1 4 2 1 0 1 1 1 2 4 2 1 0 1 1 0 2 0 0 0 1 1 0 1 0 1 0 0 0 0 0 1 0 2 0 0 0 2 1 1 1 0 0 0 0 1 0 0 1 1 0 5 0 0 0 0 1 0 0 0 0 0 1 0 0 0 0 1 1 0 1 0 4 1 0 1 0 0 0 0 2 1 0 0 1 0 0 0 0 1 0 0 1 0 0 3 1 0 5 1 0 0 1 0 2 0 1 0 0 0 0 0 1 1 0 0 0 0 0 1 0 0 0 0 1 1 1 4 1 1 0 0 0 0 2 1 0 2 0 0 1 0 0 4 0 0 0 1 1 3 0 0 0 1 1 0 1 0 0 0 0 0 0 0 0 1 0 1 0 1 1 0 0 0 0 0 0 1 0 1 0 1 0 0 2 0 1 0 2 0 0 0 0 1 1 0 1 0 0 0 1 3 1 1 1 0 1 1 1 0 0 0 1 0 0 4 2 0 0 7 2 0 0 1 0 4 0 0 1 1 0 
1 0 1 0 4 1 1 0 0 2 0 0 0 0 0 0 4 1 0 1 1 2 2 7 1 0 0 1 4 1 0 2 1 0 0 1 3 1 0 0 5 3 0 1 0 0 0 0 2 0 1 1 1 1 2 2 0 0 2 1 2 0 1 5 2 0 0 0 0 1 1 0 1 0 1 1 0 0 0 0 0 1 0 1 1 1 2 0 1 2 1 1 0 1 1 0 0 0 0 0 1 1 2 1 1 0 0 0 0 0 0 0 0 1 0 0 0 0 0 0 1 2 0 1 0 1 0 0 0 0 0 0 2 4 2 0 0 1 0 0 0 0 0 0 1 1 5 3 1 0 1 0 0 0 3 0 0 0 1 1 0 1 0 0 3 0 0 1 1 0 0 0 0 1 0 0 0 0 1 1 0 2 0 0 1 0 1 4 1 0 1 0 0 0 0 0 1 0 1 2 0 0 0 0 0 0 1 0 1 1 1 0 0 0 0 0 0 1 0 1 0 1 0 1 2 1 1 1 0 0 0 0 0 2 4 1 1 0 0 0 0 0 1 1 0 0 2 0 0 1 1 2 0 1 5 0 1 0 0 0 1 0 1 0 0 1 2 1 0 1 2 0 0 0 0 0 0 1 0 0 0 1 1 1 0 1 0 1 5 8 7 0 0 1 1 0 1 1 1 1 0 0 1 0 0 0 0 0 1 0 3 1 0 1 1 1 1 0 2 0 2 1 0 1 3 1 0 0 0 0 0 1 2 1 2 3 1 0 1 0 0 3 0 4 0 0 6 1 1 4 2 0 0 1 0 1 0 0 0 0 1 1 0 0 0 1 1 0 0 2 0 0 0 1 1 0 0 2 1 1 1 1 1 1 0 0 0 1 4 0 2 1 1 1 1 2 1 0 0 0 1 0 0 0 0 1 0 0 1 0 2 1 0 2 0 0 1 5 1 0 0 0 1 3 1 0 0 0 0 1 1 0 0 0 0 1 1 0 1 1 0 1 1 1 0 1 0 0 0 0 2 1 1 1 1 1 1 0 1 0 1 0 0 0 0 0 0 1 0 0 1 0 1 0 1 0 0 1 0 0 0 0 1 0 0 0 1 0 0 1 1 0 2 0 1 1 4 0 1 0 9 2 1 2 0 1 0 8 1 0 1 1 3 0 0 1 1 0 0 1 2 0 0 0 0 0 0 1 0 1 0 0 1 0 0 1 6 3 0 0 0 0 1 3 1 1 0 0 2 1 2 2 0 1 2 0 0 0 1 0 1 0 1 0 0 0 1 1 0 0 0 1 0 0 0 0 1 1 1 0 1 2 1 0 1 0 0 0 2 0 1 1 1 0 0 0 0 0 0 0 0 1 0 0 1 1 1 1 3 1 3 1 0 1 0 1 4 0 0 1 1 0 0 0 0 0 0 1 0 0 0 0 1 0 1 1 1 0 0 0 
7 0 0 0 1 1 0 2 1 1 0 1 0 0 1 0 0 1 6 1 0 1 0 6 2 0 1 0 0 1 0 1 0 0 1 1 0 0 0 1 1 2 0 1 0 0 0 0 1 0 1 1 0 1 1 1 0 1 4 1 0 0 2 2 0 0 0 0 1 0 0 1 0 0 0 1 1 1 0 0 0 5 1 1 5 0 1 1 1 1 1 0 1 0 0 0 1 0 0 0 2 1 3 0 0 1 1 0 0 5 1 0 1 0 0 1 0 0 0 0 0 0 1 0 3 0 0 0 0 0 0 0 1 3 0 0 0 0 0 0 0 0 1 0 0 0 1 1 0 0 0 0 1 1 2 1 0 0 0 0 0 1 0 0 1 1 1 0 1 2 1 0 0 1 0 1 0 0 0 0 1 1 2 4 3 1 0 3 1 1 1 1 2 4 0 0 0 0 2 1 0 0 0 2 0 0 1 1 0 0 1 0 1 0 0 2 0 0 1 2 0 1 2 0 1 0 1 2 1 0 0 0 1 1 0 1 2 1 0 1 0 1 0 2 0 1 0 0 1 2 0 0 0 1 2 1 0 0 1 0 1 1 0 1 1 0 1 0 0 1 0 1 1 0 0 1 0 0 0 1 0 0 1 1 1 1 0 1 0 1 0 1 0 2 0 0 3 2 0 0 0 0 0 0 0 0 0 0 1 2 0 0 1 0 0 0 0 0 0 1 1 0 0 0 1 0 0 0 0 6 1 0 0 0 0 0 1 1 0 1 5 0 0 1 0 0 1 1 0 0 0 1 1 1 1 0 0 1 0 0 1 1 0 0 2 1 2 2 1 0 1 0 0 0 0 2 0 0 0 0 0 1 1 1 0 0 0 0 0 0 0 0 0 0 0 3 1 0 0 1 2 0 0 1 0 6 0 1 1 0 0 0 0 0 1 1 1 1 0 0 1 0 1 2 0 0 1 3 1 1 0 2 0 0 1 0 1 1 0 1 2 0 1 0 0 1 0 0 2 4 1 1 0 1 0 0 3 1 0 0 1 1 0 2 0 0 0 0 0 1 2 3 0 1 0 1 0 0 1 0 0 0 0 0 1 0 0 0 0 0 0 0 0 0 0 0 2 0 1 1 1 0 0 1 1 0 0 0 1 0 2 2 1 0 1 0 0 0 2 0 0 1 0 0 0 0 0 1 0 0 0 0 0 0 0 0 1 0 0 0 0 0 0 2 1 1 0 2 0 1 0 0 1 0 0 0 1 1 0 1 0 1 2 0 1 0 0 0 1 3 1 0 0 0 2 3 1 1 2 0 1 1 0 0 1 1 0 0 1 0 1 1 0 1 0 1 1 0 2 1 1 2 1 0 0 0 0 1 1 0 0 2 0 0 0 0 1 0 2 2 1 0 0 0 1 0 0 0 1 0 0 0 0 0 0 0 0 0 0 1 
1 0 1 0 0 1 0 0 0 1 0 0 2 1 0 0 0 1 0 1 0 1 1 0 1 0 1 1 0 0 0 0 0 0 0 0 0 0 0 1 0 0 2 2 1 0 0 1 0 0 1 0 2 3 2 0 0 1 0 4 0 2 1 0 0 1 0 0 1 1 0 2 0 0 1 7 6 6 1 3 0 1 1 1 1 1 1 5 0 1 0 0 1 1 1 0 0 0 0 0 1 0 2 1 1 0 0 0 0 0 1 1 0 0 1 1 1 1 1 0 1 1 2 0 0 3 0 0 0 0 1 0 0 0 0 0 0 0 0 2 0 1 1 0 1 1 1 1 0 0 1 0 0 0 1 1 0 0 0 0 0 5 1 0 0 4 1 0 1 1 2 1 1 0 0 0 0 0 1 1 0 1 2 1 0 2 0 0 1 1 0 1 1 0 3 0 1 0 0 0 1 0 1 0 0 0 1 1 0 1 1 1 1 0 0 5 1 2 0 1 0 0 0 1 2 0 0 2 0 1 1 4 2 0 1 0 0 0 1 2 0 0 2 1 0 0 0 0 0 0 0 0 0 4 2 0 1 0 1 0 0 0 1 1 1 1 1 0 0 1 0 0 0 0 1 0 0 1 0 0 0 0 1 0 1 0 1 0 0 1 2 0 0 0 1 1 1 0 0 0 1 2 0 0 0 0 1 1 1 1 0 1 0 2 0 0 0 0 1 0 0 0 1 1 1 1 1 2 0 0 1 0 1 1 0 0 0 0 1 2 2 1 0 1 0 0 0 3 1 1 0 0 0 1 0 0 4 7 2 1 0 0 1 1 0 1 1 1 0 0 1 0 1 1 1 0 2 0 0 1 0 0 0 0 2 0 2 1 3 1 0 0 0 0 0 1 5 1 2 1 1 0 0 1 1 0 2 0 0 0 0 1 0 0 1 0 0 0 1 0 1 0 1 1 0 0 0 1 4 0 0 0 0 1 0 1 1 0 0 0 2 1 1 0 1 1 0 0 1 5 1 0 0 1 1 1 0 0 0 0 0 0 0 0 1 0 0 0 0 0 0 2 1 1 0 1 5 5 0 0 1 0 0 1 0 2 0 1 0 0 0 0 0 0 1 0 0 1 1 2 1 0 0 0 0 2 0 0 0 0 0 1 2 2 0 0 1 0 1 0 2 1 0 0 0 0 0 1 0 1 1 0 1 3 0 0 1 6 1 1 0 1 1 0 0 0 1 1 0 0 3 0 1 1 0 1 0 1 0 1 0 5 0 0 0 0 1 0 2 0 0 1 0 1 0 0 0 0 0 0 0 1 1 0 1 1 0 0 0 1 0 0 1 0 0 0 0 0 0 1 0 0 1 0 1 3 0 0 1 2 1 0 0 1 0 6 1 1 2 1 0 0 0 1 0 1 0 1 0 0 0 0 0 1 0 0 0 0 1 0 
0 0 0 0 3 0 0 1 0 1 2 0 2 0 0 0 0 1 0 0 1 3 0 1 0 0 0 0 2 1 0 0 0 2 0 1 0 0 0 0 0 0 0 0 1 0 1 1 0 1 0 1 0 0 0 1 0 1 0 0 1 0 0 2 2 0 2 0 2 1 1 1 3 2 8 2 7 0 4 0 1 0 0 0 0 1 1 0 1 0 0 0 0 1 1 1 0 1 1 0 0 2 0 0 0 1 0 0 0 1 6 1 0 0 0 1 1 0 0 0 2 1 3 1 0 2 0 0 0 0 2 0 0 0 0 0 0 0 1 0 1 0 1 0 1 0 0 0 0 0 1 1 7 6 1 1 1 0 0 0 1 0 1 0 0 0 1 0 0 0 0 0 1 0 0 2 0 0 0 0 1 0 7 8 4 1 2 2 0 0 0 0 0 0 0 0 1 1 1 1 0 1 1 1 1 0 0 1 0 0 0 0 1 0 1 0 3 0 0 1 0 0 0 0 4 1 0 1 1 1 0 0 5 2 1 0 1 1 0 0 2 0 0 0 0 0 4 1 1 0 0 0 0 1 0 6 0 1 1 0 0 0 0 0 1 0 0 2 3 1 1 0 1 3 2 1 0 0 0 0 1 0 1 0 3 0 1 0 0 0 0 0 2 0 0 0 0 0 1 0 1 0 0 0 0 0 1 0 1 0 0 0 4 1 0 0 0 0 0 0 1 1 9 1 0 0 4 2 0 1 0 0 1 0 0 0 1 1 0 0 0 0 1 0 0 1 1 0 6 0 1 0 0 0 0 0 0 2 1 1 1 0 1 0 0 0 1 1 1 1 0 0 0 0 1 6 8 0 1 2 0 2 0 1 0 1 7 0 0 0 5 1 1 0 0 0 0 0 2 0 1 0 0 1 0 0 0 0 0 0 1 1 0 0 1 1 1 1 0 0 0 0 1 0 0 1 0 0 0 0 0 0 0 0 3 0 0 0 0 0 0 0 0 1 0 1 1 1 0 1 1 0 0 1 1 0 1 0 0 0 0 2 0 1 1 1 2 0 0 3 2 0 0 0 0 2 5 0 1 0 2 0 0 1 1 1 0 0 0 0 1 0 0 0 1 1 0 0 2 1 1 0 1 0 1 0 0 0 0 0 1 1 0 0 0 0 2 1 4 7 0 0 2 1 1 3 0 0 1 3 0 0 0 1 8 4 0 0 0 1 0 0 1 0 0 1 5 1 0 1 1 0 1 0 0 0 0 0 0 0 2 0 0 0 0 0 0 0 1 1 1 1 1 1 0 0 2 2 1 1 1 0 0 1 0 1 0 1 0 1 0 0 1 0 1 0 0 0 0 0 0 0 1 0 0 0 1 0 1 0 0 0 0 1 0 0 3 1 1 2 0 0 0 0 1 0 0 0 2 0 0 0 0 0 1 0 0 0 1 0 
