P2
640 480
255
36 36 34 34 35 37 36 34 34 33 31 29 27 25 25 25 25 26 27 25 23 22 23 23 24 22 22 24 23 23 21 23 24 23 23 22 24 22 23 25 28 28 32 33 31 29 30 29 32 33 33 35 34 35 36 37 36 32 30 25 23 25 23 20 20 22 23 24 23 21 22 20 19 17 18 18 19 18 15 16 19 16 13 12 13 12 10 9 7 5 4 2 1 0 0 0 0 0 0 0 0 2 1 0 0 0 0 0 0 0 0 0 0 0 0 0 0 0 0 0 0 0 0 0 0 0 0 0 0 0 0 0 0 0 0 0 0 0 0 0 0 0 0 0 0 0 0 0 0 0 0 0 0 0 0 0 0 0 0 0 0 0 0 0 0 0 0 0 0 0 0 0 0 0 0 0 0 0 0 0 0 0 0 0 0 0 0 0 0 0 0 0 0 0 0 0 0 0 0 0 0 0 0 0 0 0 0 0 0 0 0 0 0 0 0 0 0 0 0 0 0 0 0 0 0 0 0 0 0 0 0 0 0 0 0 0 0 0 0 0 0 0 0 0 0 0 0 0 0 0 0 0 0 0 0 0 0 0 0 0 0 0 0 0 0 0 0 0 0 0 0 0 0 0 0 0 0 0 0 0 0 0 0 0 0 0 0 0 0 0 0 0 0 0 0 0 0 0 0 0 0 0 0 0 0 0 0 0 0 0 0 0 0 0 0 0 0 0 0 0 0 0 0 0 0 0 0 0 0 0 0 0 0 0 0 0 0 0 0 0 0 0 0 0 0 0 0 0 0 0 0 0 0 0 0 0 0 0 0 0 0 0 0 0 0 0 0 0 0 0 0 0 0 0 0 0 0 0 0 0 0 0 0 0 0 0 0 0 0 0 0 0 0 0 0 0 0 0 0 0 0 0 0 0 0 0 0 0 0 0 0 0 0 0 0 0 0 0 0 0 0 0 0 0 0 0 0 0 0 0 0 0 0 0 0 0 0 0 0 0 0 0 0 0 0 0 0 0 0 0 0 0 0 0 0 0 0 0 0 0 0 0 0 0 0 0 0 0 0 0 0 0 0 0 0 0 0 1 0 0 0 0 0 0 0 0 0 0 0 0 0 0 0 0 0 0 0 1 2 1 1 1 1 3 1 2 0 1 2 3 3 3 5 8 9 11 12 15 15 16 15 15 16 16 16 14 15 14 13 12 13 12 13 13 14 13 14 13 12 13 14 14 16 17 20 22 21 19 17 17 16 16 15 16 18 18 20 21 25 26 25 22 21 19 20 20 19 19 20 23 25 24 23 21 22 26 27 28 27 25 26 29 29 27 24 23 25 24 25 26 29 28 26 27 31 30 29 27 27 29 31 30 28 26 26 26 25 28 28 29 31 32 33 33 32 31 30 29 28 26 26 27 28 32 33 34 35 35 34 35 34 34 34 34 36 36 38 37 36 36 
37 37 37 36 37 37 35 33 33 32 28 27 26 24 25 24 23 24 25 23 21 20 20 23 24 20 19 21 23 23 23 24 25 23 23 21 22 21 23 24 27 28 33 33 31 29 30 30 31 34 36 35 35 37 38 39 36 34 31 26 24 24 22 20 21 23 24 25 23 24 23 24 22 20 18 18 19 19 19 18 18 17 14 12 12 13 10 8 7 6 3 2 0 0 0 0 0 0 0 0 1 2 2 0 0 0 0 0 0 0 0 0 0 0 0 0 0 0 0 0 0 1 1 0 0 0 0 0 0 0 0 0 0 0 0 0 0 0 0 0 0 0 0 0 0 0 0 0 0 0 0 0 0 0 0 0 0 0 0 0 0 0 0 0 0 0 0 0 0 0 0 0 0 0 0 0 0 0 0 0 0 0 0 0 0 0 0 0 0 0 0 0 0 0 0 0 0 0 0 0 0 0 0 0 0 0 0 0 0 0 0 0 0 0 0 0 0 0 0 0 0 0 0 0 0 0 0 0 0 0 0 0 0 0 0 0 0 0 0 0 0 0 0 0 0 0 0 0 0 0 0 0 0 0 0 0 0 0 0 0 0 0 0 0 0 0 0 0 0 0 0 0 0 0 0 0 0 0 0 0 0 0 0 0 0 0 0 0 0 0 0 0 0 0 0 0 0 0 0 0 0 0 0 0 0 0 0 0 0 0 0 0 0 0 0 0 0 0 0 0 0 0 0 0 0 0 0 0 0 0 0 0 0 0 0 0 0 0 0 0 0 0 0 0 0 0 0 0 0 0 0 0 0 0 0 0 0 0 0 0 0 0 0 0 0 0 0 0 0 0 0 0 0 0 0 0 0 0 0 0 0 0 0 0 0 0 0 0 0 0 0 0 0 0 0 0 0 0 0 0 0 0 0 0 0 0 0 0 0 0 0 0 0 0 0 0 0 0 0 0 0 0 0 0 0 0 0 0 0 0 0 0 0 0 0 0 0 0 0 0 0 0 0 0 0 0 0 0 0 0 0 0 0 0 0 0 0 0 0 0 0 0 0 0 0 0 0 0 0 0 0 0 0 0 0 0 0 1 0 1 0 0 0 0 0 0 0 0 0 2 1 0 0 0 0 0 0 0 1 1 1 1 3 3 3 2 1 0 0 1 2 3 4 7 9 10 12 14 16 17 15 14 14 14 15 13 11 11 13 11 10 12 12 12 14 14 16 14 14 15 15 15 15 16 20 22 20 18 18 16 16 16 14 14 14 15 17 19 23 26 25 24 22 20 18 18 19 19 22 24 27 25 25 24 23 26 27 27 28 25 26 28 28 26 24 24 23 24 25 26 26 26 25 26 29 30 27 27 27 29 30 28 27 26 26 27 28 29 29 30 31 30 31 32 30 30 30 30 29 28 29 29 30 33 35 35 37 36 35 33 33 34 34 34 36 36 38 37 35 35 
37 37 35 35 37 35 33 32 32 30 28 26 26 24 25 24 23 23 23 23 21 20 21 23 23 21 19 21 23 22 23 22 22 22 22 22 21 22 24 25 27 27 30 30 30 29 31 32 32 34 36 35 36 40 39 39 38 35 31 26 24 23 23 23 23 23 26 26 25 25 24 24 22 21 19 18 19 20 21 19 18 17 14 13 14 14 11 9 6 6 4 1 0 0 0 0 0 0 0 0 1 1 0 0 1 1 0 0 0 0 0 1 0 0 0 0 0 0 0 0 0 0 1 0 0 0 0 0 0 0 0 0 0 0 0 0 0 0 0 0 0 0 0 0 0 0 0 0 0 0 0 0 0 0 0 0 0 0 0 0 0 0 0 0 0 0 0 0 0 0 0 0 0 0 0 0 0 0 0 0 0 0 0 0 0 0 0 0 0 0 0 0 0 0 0 0 0 0 0 0 0 0 0 0 0 0 0 0 0 0 0 0 0 0 0 0 0 0 0 0 0 0 0 0 0 0 0 0 0 0 0 0 0 0 0 0 0 0 0 0 0 0 0 0 0 0 0 0 0 0 0 0 0 0 0 0 0 0 0 0 0 0 0 0 0 0 0 0 0 0 0 0 0 0 0 0 0 0 0 0 0 0 0 0 0 0 0 0 0 0 0 0 0 0 0 0 0 0 0 0 0 0 0 0 0 0 0 0 0 0 0 0 0 0 0 0 0 0 0 0 0 0 0 0 0 0 0 0 0 0 0 0 0 0 0 0 0 0 0 0 0 0 0 0 0 0 0 0 0 0 0 0 0 0 0 0 0 0 0 0 0 0 0 0 0 0 0 0 0 0 0 0 0 0 0 0 0 0 0 0 0 0 0 0 0 0 0 0 0 0 0 0 0 0 0 0 0 0 0 0 0 0 0 0 0 0 0 0 0 0 0 0 0 0 0 0 0 0 0 0 0 0 0 0 0 0 0 0 0 0 0 0 0 0 0 0 0 0 0 0 0 0 0 0 0 0 0 0 0 0 0 0 0 0 0 0 0 0 0 0 0 0 0 0 0 0 0 0 0 0 0 0 0 0 0 0 0 0 0 0 0 0 0 0 0 0 0 0 1 2 0 0 0 0 0 0 0 0 0 0 1 3 4 4 5 2 1 1 0 0 1 2 4 6 9 12 13 15 18 16 15 14 12 13 13 11 10 9 10 10 8 9 11 11 13 14 16 16 15 16 17 16 15 15 16 18 18 18 17 17 15 15 14 13 14 13 14 18 20 23 25 24 22 19 17 17 21 21 21 23 24 24 25 26 25 26 28 28 27 25 26 27 26 25 25 25 24 24 26 26 25 25 24 25 28 27 26 26 28 30 31 29 27 27 26 27 29 31 30 31 30 30 30 30 30 30 31 32 32 32 30 31 32 32 32 34 35 35 33 33 33 34 35 35 35 36 35 34 33 35 
35 35 34 35 36 35 33 32 31 31 28 26 25 25 25 25 26 24 22 22 21 23 22 22 23 23 22 21 22 21 21 20 20 20 22 23 22 20 22 24 24 26 28 30 29 30 30 32 34 35 36 36 38 40 39 39 38 37 34 28 25 25 24 24 24 26 26 25 25 25 23 22 21 19 18 18 20 21 22 20 19 17 15 13 14 13 12 10 7 6 6 2 0 0 0 0 0 0 1 0 0 1 2 2 2 2 1 1 0 1 1 1 0 0 0 0 0 0 0 0 0 0 0 0 0 0 0 0 0 0 0 0 0 0 0 0 0 0 0 0 0 0 0 0 0 0 0 0 0 0 0 0 0 0 0 0 0 0 0 0 0 0 0 0 0 0 0 0 0 0 0 0 0 0 0 0 0 0 0 0 0 0 0 0 0 0 0 0 0 0 0 0 0 0 0 0 0 0 0 0 0 0 0 0 0 0 0 0 0 0 0 0 0 0 0 0 0 0 0 0 0 0 0 0 0 0 0 0 0 0 0 0 0 0 0 0 0 0 0 0 0 0 0 0 0 0 0 0 0 0 0 0 0 0 0 0 0 0 0 0 0 0 0 0 0 0 0 0 0 0 0 0 0 0 0 0 0 0 0 0 0 0 0 0 0 0 0 0 0 0 0 0 0 0 0 0 0 0 0 0 0 0 0 0 0 0 0 0 0 0 0 0 0 0 0 0 0 0 0 0 0 0 0 0 0 0 0 0 0 0 0 0 0 0 0 0 0 0 0 0 0 0 0 0 0 0 0 0 0 0 0 0 0 0 0 0 0 0 0 0 0 0 0 0 0 0 0 0 0 0 0 0 0 0 0 0 0 0 0 0 0 0 0 0 0 0 0 0 0 0 0 0 0 0 0 0 0 0 0 0 0 0 0 0 0 0 0 0 0 0 0 0 0 0 0 0 0 0 0 0 0 0 0 0 0 0 0 0 0 0 0 0 0 0 0 0 0 0 0 0 0 0 0 0 0 0 0 0 0 0 0 0 0 0 0 0 0 0 0 0 0 0 0 0 0 0 0 0 0 0 0 0 0 0 0 0 0 0 0 0 0 0 0 0 0 0 0 0 0 0 0 0 0 0 0 0 0 0 0 2 4 4 6 7 5 2 0 0 0 0 1 2 4 8 10 12 13 14 16 15 16 13 10 10 11 11 10 9 9 7 7 8 11 12 13 16 15 14 15 15 16 14 13 12 13 15 18 17 17 15 14 14 15 14 16 14 13 17 18 21 24 22 21 19 17 18 19 19 20 23 25 25 24 26 25 26 28 26 25 25 26 26 27 27 26 26 25 24 25 25 25 23 23 24 26 26 24 25 26 28 29 28 28 27 28 28 30 30 30 30 30 29 29 29 30 29 30 32 32 31 30 32 32 34 31 31 34 34 33 33 33 34 34 35 35 34 34 33 31 34 
32 32 33 33 34 35 34 34 33 31 28 28 27 26 23 25 24 22 20 21 21 23 23 21 22 23 23 23 21 20 18 18 20 19 21 23 21 21 23 23 25 27 27 29 29 31 31 33 35 36 36 36 38 39 39 39 38 36 35 30 28 26 26 25 26 27 27 27 25 24 22 20 22 19 19 19 20 21 22 22 19 15 12 11 12 11 9 8 8 6 5 3 1 0 0 0 0 1 2 2 2 3 2 2 2 3 2 1 0 0 1 0 0 0 0 0 0 0 0 0 0 0 0 0 0 0 0 0 0 0 0 0 0 0 0 0 0 0 0 0 0 0 0 0 0 0 0 0 0 0 0 0 0 0 0 0 0 0 0 0 0 0 0 0 0 0 0 0 0 0 0 0 0 0 0 0 0 0 0 0 0 0 0 0 0 0 0 0 0 0 0 0 0 0 0 0 0 0 0 0 0 0 0 0 0 0 0 0 0 0 0 0 0 0 0 0 0 0 0 0 0 0 0 0 0 0 0 0 0 0 0 0 0 0 0 0 0 0 0 0 0 0 0 0 0 0 0 0 0 0 0 0 0 0 0 0 0 0 0 0 0 0 0 0 0 0 0 0 0 0 0 0 0 0 0 0 0 0 0 0 0 0 0 0 0 0 0 0 0 0 0 0 0 0 0 0 0 0 0 0 0 0 0 0 0 0 0 0 0 0 0 0 0 0 0 0 0 0 0 0 0 0 0 0 0 0 0 0 0 0 0 0 0 0 0 0 0 0 0 0 0 0 0 0 0 0 0 0 0 0 0 0 0 0 0 0 0 0 0 0 0 0 0 0 0 0 0 0 0 0 0 0 0 0 0 0 0 0 0 0 0 0 0 0 0 0 0 0 0 0 0 0 0 0 0 0 0 0 0 0 0 0 0 0 0 0 0 0 0 0 0 0 0 0 0 0 0 0 0 0 0 0 0 0 0 0 0 0 0 0 0 0 0 0 0 0 0 0 0 0 0 0 0 0 0 0 0 0 0 0 0 0 0 0 0 0 0 0 0 0 0 0 0 0 0 0 0 0 0 0 0 0 0 0 0 0 0 0 0 0 0 0 0 0 0 0 0 0 0 0 0 0 0 0 0 0 0 0 2 4 4 4 5 5 3 2 0 1 2 0 2 2 4 7 8 11 12 13 15 14 14 13 11 11 11 11 11 11 9 9 9 11 12 12 14 15 15 14 14 15 15 13 13 13 13 14 15 16 15 15 15 15 15 15 16 16 14 15 17 19 21 21 20 19 18 18 21 22 22 23 25 24 24 25 25 25 27 27 25 25 26 28 29 28 28 26 24 23 25 26 24 23 23 24 24 24 24 25 26 27 29 28 25 25 27 27 28 28 28 29 28 30 31 31 31 30 31 32 33 30 30 30 33 31 30 30 33 34 34 33 33 32 32 33 34 32 31 30 29 30 
29 31 30 32 34 35 36 37 35 33 29 28 28 25 23 23 23 21 20 20 20 20 21 19 20 22 21 21 21 17 18 18 19 20 20 21 21 23 23 24 24 25 26 28 27 29 32 32 33 35 36 37 37 38 38 37 36 36 34 31 27 25 25 25 27 27 27 25 24 22 20 20 21 19 20 22 23 23 22 22 18 14 10 9 9 9 9 9 8 8 8 6 6 2 1 1 1 4 4 3 2 4 4 2 1 2 1 1 0 0 0 0 0 0 0 0 0 0 0 0 0 0 0 0 0 0 0 1 0 0 0 0 0 0 0 0 0 0 0 0 0 0 0 0 0 0 0 0 0 0 0 0 0 0 0 0 0 0 0 0 0 0 0 0 0 0 0 0 0 0 0 0 0 0 0 0 0 0 0 0 0 0 0 0 0 0 0 0 0 0 0 0 0 0 0 0 0 0 0 0 0 0 0 0 0 0 0 0 0 0 0 0 0 0 0 0 0 0 0 0 0 0 0 0 0 0 0 0 0 0 0 0 0 0 0 0 0 0 0 0 0 0 0 0 0 0 0 0 0 0 0 0 0 0 0 0 0 0 0 0 0 0 0 0 0 0 0 0 0 0 0 0 0 0 0 0 0 0 0 0 0 0 0 0 0 0 0 0 0 0 0 0 0 0 0 0 0 0 0 0 0 0 0 0 0 0 0 0 0 0 0 0 0 0 0 0 0 0 0 0 0 0 0 0 0 0 0 0 0 0 0 0 0 0 0 0 0 0 0 0 0 0 0 0 0 0 0 0 0 0 0 0 0 0 0 0 0 0 0 0 0 0 0 0 0 0 0 0 0 0 0 0 0 0 0 0 0 0 0 0 0 0 0 0 0 0 0 0 0 0 0 0 0 0 0 0 0 0 0 0 0 0 0 0 0 0 0 0 0 0 0 0 0 0 0 0 0 0 0 0 0 0 0 0 0 0 0 0 0 0 0 0 0 0 0 0 0 0 0 0 0 0 0 0 0 0 0 0 0 0 0 0 0 0 0 0 0 0 0 0 0 0 0 0 0 0 0 0 0 0 0 0 0 0 0 0 0 0 0 0 0 0 0 0 0 0 0 0 0 0 0 0 0 0 0 0 0 1 5 5 7 5 5 4 4 4 2 2 3 2 3 3 4 6 8 10 11 13 13 13 13 13 12 12 12 13 13 12 11 10 11 11 12 12 14 14 15 17 14 12 13 13 14 13 12 14 15 16 15 16 15 15 17 15 15 14 15 15 17 18 21 22 21 21 22 22 22 24 24 24 25 25 23 25 27 28 29 29 27 26 26 26 28 29 28 27 24 24 25 25 24 24 24 24 24 24 23 24 26 28 27 27 26 24 24 25 26 27 30 30 31 32 32 31 31 30 31 32 31 29 29 31 30 29 29 31 33 35 34 34 33 33 33 35 33 33 32 29 28 28 
30 30 31 33 35 37 38 37 36 34 30 30 28 25 21 22 22 21 21 20 18 19 19 20 19 20 18 18 18 17 17 18 18 19 21 21 21 23 22 23 24 24 26 26 27 29 31 31 32 34 36 38 38 37 37 35 35 34 33 30 27 27 26 27 28 27 26 25 22 21 21 21 20 21 21 21 23 23 23 21 17 13 10 10 11 11 11 10 11 11 12 10 9 5 4 3 4 3 4 5 3 4 3 3 3 3 2 2 1 0 0 0 0 0 0 0 0 1 2 1 0 0 0 0 0 0 0 0 0 0 0 0 0 0 0 0 0 0 0 0 0 0 0 0 0 2 1 1 0 0 0 0 0 0 0 0 0 0 0 0 0 0 0 0 0 0 0 0 0 0 0 0 0 0 0 0 0 0 0 0 0 0 0 0 0 0 0 0 0 0 0 0 0 0 0 0 0 0 0 0 0 0 0 0 0 0 0 0 0 0 0 0 0 0 0 0 0 0 0 0 0 0 0 0 0 0 0 0 0 0 0 0 0 0 0 0 0 0 0 0 0 0 0 0 0 0 0 0 0 0 0 0 0 0 0 0 0 0 0 0 0 0 0 0 0 0 0 0 0 0 0 0 0 0 0 0 0 0 0 0 0 0 0 0 0 0 0 0 0 0 0 0 0 0 0 0 0 0 0 0 0 0 0 0 0 0 0 0 0 0 0 0 0 0 0 0 0 0 0 0 0 0 0 0 0 0 0 0 0 0 0 0 0 0 0 0 0 0 0 0 0 0 0 0 0 0 0 0 0 0 0 0 0 0 0 0 0 0 0 0 0 0 0 0 0 0 0 0 0 0 0 0 0 0 0 0 0 0 0 0 0 0 0 0 0 0 0 0 0 0 0 0 0 0 0 0 0 0 0 0 0 0 0 0 0 0 0 0 0 0 0 0 0 0 0 0 0 0 0 0 0 0 0 0 0 0 0 0 0 0 0 0 0 0 0 0 0 0 0 0 0 0 0 0 0 0 0 0 0 0 0 0 0 0 0 0 0 0 0 0 0 0 0 0 0 0 0 0 0 0 0 0 0 0 0 0 0 0 0 0 0 0 0 0 0 0 0 0 0 0 0 0 0 0 0 2 1 3 6 5 6 5 5 6 7 5 4 3 3 3 6 5 7 7 10 11 11 13 13 13 13 15 15 15 13 13 15 14 13 10 11 12 12 12 13 12 14 14 13 13 14 15 14 15 13 13 15 14 14 15 16 16 17 16 15 16 17 17 18 19 21 23 23 23 24 24 24 26 28 27 26 25 23 25 27 28 28 30 27 27 27 26 25 27 27 26 25 24 24 23 23 23 24 23 24 24 24 25 26 27 28 28 26 25 25 25 26 28 29 31 31 33 34 32 33 31 31 31 31 31 32 32 32 30 30 30 33 33 34 35 35 34 34 35 34 33 31 29 28 28 
29 31 32 33 35 36 38 36 35 33 31 31 29 26 24 23 22 21 21 19 18 18 18 18 17 18 17 18 19 18 17 19 17 18 19 21 21 21 24 26 26 25 25 26 28 29 29 30 32 36 38 38 37 36 35 33 33 31 31 30 30 27 25 27 28 27 27 25 23 23 21 20 21 22 23 23 23 23 21 19 18 14 11 11 12 13 13 14 15 14 14 13 10 8 7 6 5 5 4 4 3 3 2 4 5 5 3 5 4 1 1 0 1 2 2 2 1 4 4 2 0 0 0 0 0 0 0 0 0 0 0 0 0 0 0 0 0 0 0 0 0 0 0 0 0 0 0 0 0 0 0 0 0 0 0 0 0 0 0 0 0 0 0 0 0 0 0 0 0 0 0 0 0 0 0 0 0 0 0 0 0 0 0 0 0 0 0 0 0 0 0 0 0 0 0 0 0 0 0 0 0 0 0 0 0 0 0 0 0 0 0 0 0 0 0 0 0 0 0 0 0 0 0 0 0 0 0 0 0 0 0 0 0 0 0 0 0 0 0 0 0 0 0 0 0 0 0 0 0 0 0 0 0 0 0 0 0 0 0 0 0 0 0 0 0 0 0 0 0 0 0 0 0 0 0 0 0 0 0 0 0 0 0 0 0 0 0 0 0 0 0 0 0 0 0 0 0 0 0 0 0 0 0 0 0 0 0 0 0 0 0 0 0 0 0 0 0 0 0 0 0 0 0 0 0 0 0 0 0 0 0 0 0 0 0 0 0 0 0 0 0 0 0 0 0 0 0 0 0 0 0 0 0 0 0 0 0 0 0 0 0 0 0 0 0 0 0 0 0 0 0 0 0 0 0 0 0 0 0 0 0 0 0 0 0 0 0 0 0 0 0 0 0 0 0 0 0 0 0 0 0 0 0 0 0 0 0 0 0 0 0 0 0 0 0 0 0 0 0 0 0 0 0 0 0 0 0 0 0 0 0 0 0 0 0 0 0 0 0 0 0 0 0 0 0 0 0 0 0 0 0 0 0 0 0 0 0 0 0 0 0 0 0 0 0 0 0 0 0 0 0 0 0 0 0 0 0 0 0 0 0 0 0 0 0 0 0 0 0 0 0 0 0 0 3 4 3 4 6 5 5 5 5 5 5 5 5 3 3 5 7 8 9 10 10 10 11 12 12 15 17 18 18 17 17 16 17 15 13 10 10 12 10 11 10 10 12 12 11 14 15 17 16 15 14 13 15 15 15 15 16 16 17 17 18 19 18 18 19 20 22 23 24 25 26 28 26 28 28 27 24 23 22 23 25 25 28 30 28 26 27 27 26 27 26 25 24 25 23 23 22 22 23 24 25 25 24 24 25 26 27 28 28 26 26 25 26 28 29 30 31 33 35 34 34 35 33 33 32 33 33 33 34 34 34 32 32 33 34 34 32 34 34 34 35 33 30 29 28 27 
27 30 31 31 34 36 37 36 35 32 33 31 29 26 25 24 21 20 20 19 19 19 19 18 18 19 21 21 20 19 17 17 16 16 17 19 21 21 25 26 26 25 25 25 27 28 29 31 32 36 39 39 38 35 34 33 31 33 32 31 29 27 27 27 26 26 26 25 24 23 21 20 22 23 23 22 22 24 23 23 18 17 15 15 14 15 18 17 17 17 17 15 14 11 8 8 7 7 5 5 6 4 4 6 8 5 5 6 6 6 5 4 6 7 5 4 3 3 3 3 1 0 0 0 0 0 0 0 0 0 0 0 0 0 0 0 0 0 0 0 0 0 0 0 0 0 0 0 0 0 0 0 0 0 0 0 0 0 0 0 0 0 0 0 0 0 0 0 0 0 0 0 0 0 0 0 0 0 0 0 0 0 0 0 0 0 0 0 0 0 0 0 0 0 0 0 0 0 0 0 0 0 0 0 0 0 0 0 0 0 0 0 0 0 0 0 0 0 0 0 0 0 0 0 0 0 0 0 0 0 0 0 0 0 0 0 0 0 0 0 0 0 0 0 0 0 0 0 0 0 0 0 0 0 0 0 0 0 0 0 0 0 0 0 0 0 0 0 0 0 0 0 0 0 0 0 0 0 0 0 0 0 0 0 0 0 0 0 0 0 0 0 0 0 0 0 0 0 0 0 0 0 0 0 0 0 0 0 0 0 0 0 0 0 0 0 0 0 0 0 0 0 0 0 0 0 0 0 0 0 0 0 0 0 0 0 0 0 0 0 0 0 0 0 0 0 0 0 0 0 0 0 0 0 0 0 0 0 0 0 0 0 0 0 0 0 0 0 0 0 0 0 0 0 0 0 0 0 0 0 0 0 0 0 0 0 0 0 0 0 0 0 0 0 0 0 0 0 0 0 0 0 0 0 0 0 0 0 0 0 0 0 0 0 0 0 0 0 0 0 0 0 0 0 0 0 0 0 0 0 0 0 0 0 0 0 0 0 0 0 0 0 0 0 0 0 0 0 0 0 0 0 0 0 0 0 0 0 0 0 0 0 0 0 0 0 0 0 0 0 0 0 0 0 0 0 0 0 0 0 0 0 0 0 0 0 0 0 0 0 0 0 1 2 5 6 5 4 6 6 6 8 7 6 6 6 6 4 4 5 7 9 10 10 10 11 12 12 13 16 20 19 20 17 18 18 18 16 13 10 9 8 8 10 10 9 10 11 11 13 17 16 16 16 14 15 14 14 15 15 15 15 16 18 19 19 20 19 19 22 23 23 25 26 28 27 26 26 26 25 23 23 25 25 25 25 27 29 29 28 26 26 26 27 26 25 26 26 24 24 25 26 24 24 23 24 25 24 25 26 27 27 28 27 27 26 27 27 31 31 32 34 35 35 36 36 35 34 34 36 35 34 35 36 38 36 34 33 34 33 32 31 32 31 31 30 30 30 29 27 
26 28 29 30 32 34 34 35 35 32 31 30 28 26 24 20 18 18 20 18 18 20 18 17 17 20 22 22 21 20 18 16 15 16 16 18 20 21 24 25 26 27 27 24 28 29 30 32 33 36 36 37 35 35 32 31 31 32 30 30 29 27 27 27 27 26 26 25 23 21 21 21 22 23 22 22 22 25 27 25 21 18 16 16 16 18 20 19 20 22 20 18 15 13 11 9 10 9 7 6 7 8 7 9 8 7 7 7 10 11 9 8 8 8 7 6 3 2 3 3 1 0 0 0 0 0 0 0 0 0 0 0 0 0 0 0 0 0 0 0 0 0 0 0 0 0 0 0 0 0 0 0 0 0 0 0 0 0 0 0 0 0 0 0 0 0 0 0 0 0 0 0 0 0 0 0 0 0 0 0 0 0 0 0 0 0 0 0 0 0 0 0 0 0 0 0 0 0 0 0 0 0 0 0 0 0 0 0 0 0 0 0 0 0 0 0 0 0 0 0 0 0 0 0 0 0 0 0 0 0 0 0 0 0 0 0 0 0 0 0 0 0 0 0 0 0 0 0 0 0 0 0 0 0 0 0 0 0 0 0 0 0 0 0 0 0 0 0 0 0 0 0 0 0 0 0 0 0 0 0 0 0 0 0 0 0 0 0 0 0 0 0 0 0 0 0 0 0 0 0 0 0 0 0 0 0 0 0 0 0 0 0 0 0 0 0 0 0 0 0 0 0 0 0 0 0 0 0 0 0 0 0 0 0 0 0 0 0 0 0 0 0 0 0 0 0 0 0 0 0 0 0 0 0 0 0 0 0 0 0 0 0 0 0 0 0 0 0 0 0 0 0 0 0 0 0 0 0 0 0 0 0 0 0 0 0 0 0 0 0 0 0 0 0 0 0 0 0 0 0 0 0 0 0 0 0 0 0 0 0 0 0 0 0 0 0 0 0 0 0 0 0 0 0 0 0 0 0 0 0 0 0 0 0 0 0 0 0 0 0 0 0 0 0 0 0 0 0 0 0 0 0 0 0 0 0 0 0 0 0 0 0 0 0 0 0 0 0 0 0 0 0 0 0 0 0 0 0 0 0 0 0 0 0 0 0 0 0 0 0 0 0 2 3 3 4 4 4 4 6 7 7 7 8 7 8 7 5 5 5 6 8 9 10 11 11 13 15 15 18 20 20 19 18 18 17 17 15 12 12 9 8 8 9 10 9 10 11 11 14 15 15 15 13 14 15 16 16 16 16 15 15 17 16 19 19 20 18 19 23 22 24 26 26 28 27 25 25 25 23 23 25 26 26 27 27 28 29 29 28 26 26 28 28 28 27 26 26 24 25 26 27 24 22 22 23 24 23 25 26 27 28 28 26 27 26 26 26 29 30 32 33 35 35 37 36 36 34 35 34 34 34 33 36 38 37 33 33 35 34 32 31 32 30 29 31 32 30 30 27 
26 25 26 30 30 32 32 34 31 32 32 30 26 24 22 19 18 18 19 19 16 18 17 17 19 20 22 22 20 20 18 15 14 16 16 18 19 20 23 25 26 27 28 26 27 29 29 30 31 34 33 33 33 32 30 30 30 30 32 30 31 29 30 28 27 26 24 22 21 20 20 20 21 21 21 22 23 26 28 26 21 19 17 18 18 18 20 21 22 23 21 19 18 16 12 11 11 11 10 9 9 10 9 10 10 11 9 10 10 12 11 9 9 9 8 6 5 4 4 3 2 1 0 0 0 0 0 0 0 0 0 0 0 0 0 0 0 0 0 0 0 0 0 0 0 0 0 0 0 0 0 0 0 0 0 0 0 0 0 0 0 0 0 0 0 0 0 0 0 0 0 0 0 0 0 0 0 0 0 0 0 0 0 0 0 0 0 0 0 0 0 0 0 0 0 0 0 0 0 0 0 0 0 0 0 0 0 0 0 0 0 0 0 0 0 0 0 0 0 0 0 0 0 0 0 0 0 0 0 0 0 0 0 0 0 0 0 0 0 0 0 0 0 0 0 0 0 0 0 0 0 0 0 0 0 0 0 0 0 0 0 0 0 0 0 0 0 0 0 0 0 0 0 0 0 0 0 0 0 0 0 0 0 0 0 0 0 0 0 0 0 0 0 0 0 0 0 0 0 0 0 0 0 0 0 0 0 0 0 0 0 0 0 0 0 0 0 0 0 0 0 0 0 0 0 0 0 0 0 0 0 0 0 0 0 0 0 0 0 0 0 0 0 0 0 0 0 0 0 0 0 0 0 0 0 0 0 0 0 0 0 0 0 0 0 0 0 0 0 0 0 0 0 0 0 0 0 0 0 0 0 0 0 0 0 0 0 0 0 0 0 0 0 0 0 0 0 0 0 0 0 0 0 0 0 0 0 0 0 0 0 0 0 0 0 0 0 0 0 0 0 0 0 0 0 0 0 0 0 0 0 0 0 0 0 0 0 0 0 0 0 0 0 0 0 0 0 0 0 0 0 0 0 0 0 0 0 0 0 0 0 0 0 0 0 0 0 0 0 0 0 0 0 0 0 0 0 0 0 0 0 0 0 0 0 0 0 0 0 0 0 1 1 2 0 0 0 0 2 5 5 6 7 7 7 6 8 7 5 4 6 8 10 11 10 11 13 16 16 18 18 17 15 16 15 16 15 14 14 12 12 11 11 11 11 9 11 13 13 14 14 13 13 12 15 15 16 17 17 17 16 17 18 18 19 19 18 18 19 21 20 23 25 27 28 27 25 24 25 24 23 26 26 26 26 25 27 29 28 26 26 27 29 30 29 28 28 28 26 26 25 25 25 22 22 25 24 23 24 28 30 30 27 28 28 27 26 25 26 28 31 33 34 36 38 38 35 34 34 33 32 32 34 35 35 33 32 33 35 34 32 30 30 31 31 31 32 31 31 28 
26 26 28 30 31 32 32 32 32 32 31 30 28 26 23 20 18 18 19 18 17 16 16 18 20 20 21 20 19 18 17 15 14 16 15 15 16 19 21 24 24 26 26 25 26 26 27 27 30 31 30 30 31 29 30 29 29 30 33 33 32 31 28 27 24 23 21 21 21 21 21 22 21 21 21 22 23 24 26 24 20 19 17 18 19 20 19 20 21 22 21 20 19 19 16 12 13 14 13 12 11 13 12 14 14 13 13 12 11 11 12 9 8 8 8 6 5 6 3 2 2 2 1 1 3 2 1 0 0 0 0 0 0 0 0 0 0 0 0 0 0 0 0 0 0 0 0 0 0 0 0 0 0 0 0 0 0 0 0 0 0 0 0 0 0 0 0 0 0 0 0 0 0 0 0 0 0 0 0 0 0 0 0 0 0 0 0 0 0 0 0 0 0 0 0 0 0 0 0 0 0 0 0 0 0 0 0 0 0 0 0 0 0 0 0 0 0 0 0 0 0 0 0 0 0 0 0 0 0 0 0 0 0 0 0 0 0 0 0 0 0 0 0 0 0 0 0 0 0 0 0 0 0 0 0 0 0 0 0 0 0 0 0 0 0 0 0 0 0 0 0 0 0 0 0 0 0 0 0 0 0 0 0 0 0 0 0 0 0 0 0 0 0 0 0 0 0 0 0 0 0 0 0 0 0 0 0 0 0 0 0 0 0 0 0 0 0 0 0 0 0 0 0 0 0 0 0 0 0 0 0 0 0 0 0 0 0 0 0 0 0 0 0 0 0 0 0 0 0 0 0 0 0 0 0 0 0 0 0 0 0 0 0 0 0 0 0 0 0 0 0 0 0 0 0 0 0 0 0 0 0 0 0 0 0 0 0 0 0 0 0 0 0 0 0 0 0 0 0 0 0 0 0 0 0 0 0 0 0 0 0 0 0 0 0 0 0 0 0 0 0 0 0 0 0 0 0 0 0 0 0 0 0 0 0 0 0 0 0 0 0 0 0 0 0 0 0 0 0 0 0 0 0 0 0 0 0 0 0 0 0 0 0 0 0 0 0 0 0 0 0 0 0 0 0 0 0 0 0 0 0 0 0 0 0 0 0 0 0 0 0 0 0 0 0 0 0 0 2 4 5 6 7 5 7 9 9 10 6 5 6 8 10 10 10 12 13 15 16 17 16 14 13 14 13 15 15 15 17 16 15 13 13 11 10 12 12 12 13 13 14 13 13 12 13 14 16 17 17 18 20 19 21 20 19 19 18 19 19 21 21 21 24 25 25 25 26 24 25 24 24 26 27 27 26 26 27 28 28 27 26 27 30 30 27 28 30 29 27 27 27 26 26 24 23 27 26 25 25 29 31 31 30 28 28 25 24 23 24 27 29 31 32 37 38 36 34 32 32 31 30 29 31 32 31 31 31 32 32 32 32 31 32 32 33 31 32 30 29 27 
28 27 29 31 33 33 32 32 32 33 33 31 28 26 26 22 21 21 21 20 19 18 18 18 19 19 18 18 18 18 16 15 15 15 13 13 15 17 18 20 22 23 22 23 25 26 25 26 28 29 28 27 27 28 28 28 31 32 33 33 31 31 27 25 23 21 22 22 22 22 22 22 20 20 21 21 22 23 24 21 21 19 17 18 18 20 19 20 21 21 22 22 22 20 17 14 14 16 14 14 14 15 15 16 17 15 15 13 12 12 12 8 7 7 7 5 6 6 2 2 3 3 5 6 5 5 4 1 0 0 0 0 0 0 0 0 0 1 0 0 0 0 0 0 0 0 0 0 0 0 0 0 0 0 0 0 0 0 0 0 0 0 0 0 0 0 0 0 0 0 0 0 0 0 0 0 0 0 0 0 0 0 0 0 0 0 0 0 0 0 0 0 0 0 0 0 0 0 0 0 0 0 0 0 0 0 0 0 0 0 0 0 0 0 0 0 0 0 0 0 0 0 0 0 0 0 0 0 0 0 0 0 0 0 0 0 0 0 0 0 0 0 0 0 0 0 0 0 0 0 0 0 0 0 0 0 0 0 0 0 0 0 0 0 0 0 0 0 0 0 0 0 0 0 0 0 0 0 0 0 0 0 0 0 0 0 0 0 0 0 0 0 0 0 0 0 0 0 0 0 0 0 0 0 0 0 0 0 0 0 0 0 0 0 0 0 0 0 0 0 0 0 0 0 0 0 0 0 0 0 0 0 0 0 0 0 0 0 0 0 0 0 0 0 0 0 0 0 0 0 0 0 0 0 0 0 0 0 0 0 0 0 0 0 0 0 0 0 0 0 0 0 0 0 0 0 0 0 0 0 0 0 0 0 0 0 0 0 0 0 0 0 0 0 0 0 0 0 0 0 0 0 0 0 0 0 0 0 0 0 0 0 0 0 0 0 0 0 0 0 0 0 0 0 0 0 0 0 0 0 0 0 0 0 0 0 0 0 0 0 0 0 0 0 0 0 0 0 0 0 0 0 0 0 0 0 0 0 0 0 0 0 0 0 0 0 0 0 0 0 0 0 0 0 0 0 0 0 0 0 0 0 0 0 0 0 0 0 0 0 0 0 0 0 0 0 0 0 0 3 6 6 7 5 7 9 11 10 8 5 6 7 8 9 10 11 11 14 14 15 13 13 11 13 15 16 17 18 19 17 15 13 11 10 12 15 14 12 12 15 15 14 13 12 14 14 17 18 18 21 20 21 23 20 19 19 18 18 19 20 20 21 25 24 24 22 23 25 27 25 26 27 28 28 27 28 28 27 29 28 29 30 30 28 28 30 31 29 29 27 27 28 28 27 27 28 27 26 27 30 31 30 28 27 24 25 23 21 23 26 29 29 33 35 36 34 32 31 29 29 28 27 27 29 29 31 30 30 31 32 32 31 32 31 31 31 30 29 29 28 
27 29 31 32 33 33 33 31 30 32 33 33 30 27 27 26 23 22 22 23 23 22 21 19 18 16 16 17 17 16 15 13 13 15 15 13 14 14 16 18 20 21 22 22 24 25 23 22 25 28 26 25 26 29 29 29 30 30 29 30 28 29 25 24 22 23 23 23 23 22 21 20 18 18 18 19 20 21 21 20 21 20 19 18 18 20 19 20 20 20 21 23 21 21 16 13 14 14 14 14 15 14 17 18 18 18 19 15 12 13 11 10 8 6 5 6 6 6 4 6 6 5 6 6 7 5 4 5 3 0 0 0 0 0 0 0 0 0 0 0 0 0 0 0 0 0 0 0 0 0 0 0 0 0 0 0 0 0 0 0 0 0 0 0 0 0 0 0 0 0 0 0 0 0 0 0 0 0 0 0 0 0 0 0 0 0 0 0 0 0 0 0 0 0 0 0 0 0 0 0 0 0 0 0 0 0 0 0 0 0 0 0 0 0 0 0 0 0 0 0 0 0 0 0 0 0 0 0 0 0 0 0 0 0 0 0 0 0 0 0 0 0 0 0 0 0 0 0 0 0 0 0 0 0 0 0 0 0 0 0 0 0 0 0 0 0 0 0 0 0 0 0 0 0 0 0 0 0 0 0 0 0 0 0 0 0 0 0 0 0 0 0 0 0 0 0 0 0 0 0 0 0 0 0 0 0 0 0 0 0 0 0 0 0 0 0 0 0 0 0 0 0 0 0 0 0 0 0 0 0 0 0 0 0 0 0 0 0 0 0 0 0 0 0 0 0 0 0 0 0 0 0 0 0 0 0 0 0 0 0 0 0 0 0 0 0 0 0 0 0 0 0 0 0 0 0 0 0 0 0 0 0 0 0 0 0 0 0 0 0 0 0 0 0 0 0 0 0 0 0 0 0 0 0 0 0 0 0 0 0 0 0 0 0 0 0 0 0 0 0 0 0 0 0 0 0 0 0 0 0 0 0 0 0 0 0 0 0 0 0 0 0 0 0 0 0 0 0 0 0 0 0 0 0 0 0 0 0 0 0 0 0 0 0 0 0 0 0 0 0 0 0 0 0 0 0 0 0 0 0 0 0 0 0 0 0 0 0 0 0 0 0 0 0 0 0 0 0 0 3 6 6 7 7 9 9 9 9 7 8 7 7 8 8 9 11 11 13 14 15 17 15 14 15 16 17 18 20 20 17 14 12 11 11 13 15 17 13 12 15 16 15 15 15 16 17 18 20 20 21 22 22 22 21 20 21 22 22 21 20 21 23 24 24 24 25 26 27 28 27 27 27 29 29 28 29 29 29 29 32 33 33 31 31 30 32 31 30 31 29 28 29 30 28 30 30 27 27 29 31 30 29 27 26 25 26 24 22 24 26 29 29 32 34 34 33 32 31 30 29 27 26 27 28 28 29 30 31 30 32 32 32 32 29 30 29 29 29 29 29 
28 30 31 32 32 33 31 28 28 31 35 35 32 28 29 29 26 26 26 25 25 24 23 21 18 17 16 16 16 14 14 15 15 17 15 15 13 14 15 19 21 20 19 21 22 23 20 20 22 24 25 24 28 27 27 26 27 26 27 27 25 25 25 24 24 23 22 23 23 21 22 21 18 17 16 16 16 19 20 22 22 19 20 19 21 22 21 21 21 22 21 21 21 19 18 15 14 15 14 12 15 17 17 20 20 19 18 16 14 13 12 10 8 9 7 8 7 6 7 7 7 8 7 5 6 5 4 4 2 0 0 0 0 0 0 0 0 0 0 0 0 0 0 0 0 0 0 0 0 0 0 0 0 0 0 0 0 0 0 0 0 0 0 0 0 0 0 0 0 0 0 0 0 0 0 0 0 0 0 0 0 0 0 0 0 0 0 0 0 0 0 0 0 0 0 0 0 0 0 0 0 0 0 0 0 0 0 0 0 0 0 0 0 0 0 0 0 0 0 0 0 0 0 0 0 0 0 0 0 0 0 0 0 0 0 0 0 0 0 0 0 0 0 0 0 0 0 0 0 0 0 0 0 0 0 0 0 0 0 0 0 0 0 0 0 0 0 0 0 0 0 0 0 0 0 0 0 0 0 0 0 0 0 0 0 0 0 0 0 0 0 0 0 0 0 0 0 0 0 0 0 0 0 0 0 0 0 0 0 0 0 0 0 0 0 0 0 0 0 0 0 0 0 0 0 0 0 0 0 0 0 0 0 0 0 0 0 0 0 0 0 0 0 0 0 0 0 0 0 0 0 0 0 0 0 0 0 0 0 0 0 0 0 0 0 0 0 0 0 0 0 0 0 0 0 0 0 0 0 0 0 0 0 0 0 0 0 0 0 0 0 0 0 0 0 0 0 0 0 0 0 0 0 0 0 0 0 0 0 0 0 0 0 0 0 0 0 0 0 0 0 0 0 0 0 0 0 0 0 0 0 0 0 0 0 0 0 0 0 0 0 0 0 0 0 0 0 0 0 0 0 0 0 0 0 0 0 0 0 0 0 0 0 0 0 0 0 0 0 0 0 0 0 0 0 0 0 0 0 0 0 0 0 0 0 0 0 0 1 2 1 0 0 0 0 0 0 0 1 4 6 7 7 7 6 8 7 8 9 8 5 6 6 7 8 10 11 12 15 18 17 17 16 17 17 20 19 18 18 17 15 12 10 10 13 16 18 17 15 17 17 17 17 15 16 17 19 20 20 22 23 23 23 21 22 23 23 22 22 22 22 23 25 25 26 26 26 29 30 30 28 29 28 29 29 29 29 29 30 32 33 33 33 33 31 31 33 31 32 29 29 29 29 29 30 30 27 28 29 31 30 29 26 27 25 25 25 27 27 30 31 31 32 34 35 33 32 31 31 31 29 28 28 27 27 29 32 32 30 32 32 31 30 28 28 28 29 30 30 28 
32 32 32 32 32 32 29 30 29 33 36 34 32 31 31 30 29 29 28 28 26 25 24 23 19 17 17 16 15 15 14 16 16 17 17 14 13 13 16 19 19 19 17 18 21 22 19 19 20 22 23 25 26 24 25 24 24 24 23 23 23 25 26 24 25 23 22 21 23 22 23 20 17 14 14 15 15 16 19 21 23 23 22 22 21 23 23 21 21 21 20 20 20 19 17 15 14 15 13 14 18 20 21 22 22 20 17 17 15 15 14 13 13 10 9 10 9 9 7 7 7 5 5 5 7 7 5 4 2 0 1 0 0 0 0 0 0 0 0 0 0 0 0 0 0 1 1 2 3 3 1 0 0 0 0 0 0 0 0 0 0 0 0 0 0 0 0 0 0 0 0 0 0 0 0 0 0 0 0 0 0 0 0 0 0 0 0 0 0 0 0 0 0 0 0 0 0 0 0 0 0 0 0 0 0 0 0 0 0 0 0 0 0 0 0 0 0 0 0 0 0 0 0 0 0 0 0 0 0 0 0 0 0 0 0 0 0 0 0 0 0 0 0 0 0 0 0 0 0 0 0 0 0 0 0 0 0 0 0 0 0 0 0 0 0 0 0 0 0 0 0 0 0 0 0 0 0 0 0 0 0 0 0 0 0 0 0 0 0 0 0 0 0 0 0 0 0 0 0 0 0 0 0 0 0 0 0 0 0 0 0 0 0 0 0 0 0 0 0 0 0 0 0 0 0 0 0 0 0 0 0 0 0 0 0 0 0 0 0 0 0 0 0 0 0 0 0 0 0 0 0 0 0 0 0 0 0 0 0 0 0 0 0 0 0 0 0 0 0 0 0 0 0 0 0 0 0 0 0 0 0 0 0 0 0 0 0 0 0 0 0 0 0 0 0 0 0 0 0 0 0 0 0 0 0 0 0 0 0 0 0 0 0 0 0 0 0 0 0 0 0 0 0 0 0 0 0 0 0 0 0 0 0 0 0 0 0 0 0 0 0 0 0 0 0 0 0 0 0 0 0 0 0 0 0 0 0 0 0 0 0 0 0 0 0 0 0 0 0 0 0 0 0 0 0 0 0 0 0 0 0 0 0 0 0 0 0 0 0 2 2 2 0 1 1 0 0 0 1 2 5 7 6 6 6 7 9 7 6 6 4 5 6 8 8 9 11 12 16 19 19 18 17 18 19 20 20 17 18 18 16 14 13 13 14 17 18 18 17 16 17 18 19 17 17 19 20 19 20 22 24 24 23 22 23 24 24 23 23 22 22 23 25 26 28 28 28 30 32 35 33 31 30 30 31 32 31 29 31 31 31 31 33 33 33 32 33 34 34 31 30 28 28 29 29 29 27 29 30 31 29 29 28 29 27 28 28 28 29 30 32 33 33 36 34 33 33 34 33 34 31 29 28 28 26 29 31 31 30 30 30 29 28 27 25 26 28 29 29 29 
33 33 32 33 32 31 30 30 31 33 34 34 32 32 31 30 30 29 30 28 26 26 27 26 23 18 16 15 16 17 15 15 16 17 15 13 13 15 16 19 18 18 19 18 21 21 19 18 19 20 21 21 21 22 22 23 23 22 21 21 22 26 25 24 22 22 22 20 21 23 22 21 17 16 13 15 15 18 18 23 25 24 24 25 24 24 22 20 19 19 18 18 19 19 16 16 16 17 17 17 20 23 24 23 21 20 20 20 19 17 16 16 16 15 13 13 14 11 9 7 6 5 4 4 5 6 5 5 3 4 3 1 0 0 0 0 0 1 0 0 0 0 0 0 0 1 3 4 4 3 3 1 0 0 0 0 0 0 0 0 0 0 0 0 0 0 0 0 0 0 0 0 0 0 0 0 0 0 0 0 0 0 0 0 0 0 0 0 0 0 0 0 0 0 0 0 0 0 0 0 0 0 0 0 0 0 0 0 0 0 0 0 0 0 0 0 0 0 0 0 0 0 0 0 0 0 0 0 0 0 0 0 0 0 0 0 0 0 0 0 0 0 0 0 0 0 0 0 0 0 0 0 0 0 0 0 0 0 0 0 0 0 0 0 0 0 0 0 0 0 0 0 0 0 0 0 0 0 0 0 0 0 0 0 0 0 0 0 0 0 0 0 0 0 0 0 0 0 0 0 0 0 0 0 0 0 0 0 0 0 0 0 0 0 0 0 0 0 0 0 0 0 0 0 0 0 0 0 0 0 0 0 0 0 0 0 0 0 0 0 0 0 0 0 0 0 0 0 0 0 0 0 0 0 0 0 0 0 0 0 0 0 0 0 0 0 0 0 0 0 0 0 0 0 0 0 0 0 0 0 0 0 0 0 0 0 0 0 0 0 0 0 0 0 0 0 0 0 0 0 0 0 0 0 0 0 0 0 0 0 0 0 0 0 0 0 0 0 0 0 0 0 0 0 0 0 0 0 0 0 0 0 0 0 0 0 0 0 0 0 0 0 0 0 0 0 0 0 0 0 0 0 0 0 0 0 0 0 0 0 0 0 0 0 0 0 0 0 0 0 0 0 0 0 0 0 0 0 0 0 0 0 0 0 0 0 0 0 0 3 3 4 3 1 1 1 1 0 0 2 4 6 7 8 7 8 9 8 8 6 6 7 8 8 8 11 12 13 15 17 17 17 19 19 20 21 20 20 19 17 15 14 14 14 15 17 18 20 19 18 18 18 18 16 17 18 19 18 22 23 25 24 24 23 23 23 23 23 24 22 23 25 28 28 28 28 30 31 33 36 37 33 32 31 31 30 30 30 32 32 32 31 32 33 32 32 31 34 33 30 30 28 29 28 28 27 28 28 30 29 32 30 30 31 29 28 28 29 29 30 31 32 33 34 34 34 33 35 34 34 34 32 28 27 26 28 29 30 28 27 26 27 25 25 25 25 27 29 30 32 
32 32 32 34 32 31 30 29 30 32 33 33 32 33 33 31 29 27 27 26 26 26 27 26 22 18 16 15 16 16 16 16 18 18 15 14 15 17 17 19 18 17 17 18 19 22 21 18 18 20 19 18 18 19 20 21 19 18 19 20 22 24 24 22 22 21 19 19 19 20 20 19 19 18 15 16 19 18 21 22 23 23 23 24 23 23 21 19 19 18 18 18 20 17 16 18 19 19 19 20 21 23 25 24 23 21 22 22 21 20 19 20 19 19 17 16 16 13 10 9 7 6 6 7 6 6 8 5 5 5 3 3 2 0 0 0 2 2 2 1 0 1 1 0 0 1 3 1 1 3 2 1 0 0 0 0 0 0 0 0 0 0 0 1 0 0 0 0 0 0 0 0 0 0 0 0 0 0 0 0 0 0 0 0 0 0 0 0 0 0 0 0 0 0 0 0 0 0 0 0 0 0 0 0 0 0 0 0 0 0 0 0 0 0 0 0 0 0 0 0 0 0 0 0 0 0 0 0 0 0 0 0 0 0 0 0 0 0 0 0 0 0 0 0 0 0 0 0 0 0 0 0 0 0 0 0 0 0 0 0 0 0 0 0 0 0 0 0 0 0 0 0 0 0 0 0 0 0 0 0 0 0 0 0 0 0 0 0 0 0 0 0 0 0 0 0 0 0 0 0 0 0 0 0 0 0 0 0 0 0 0 0 0 0 0 0 0 0 0 0 0 0 0 0 0 0 0 0 0 0 0 0 0 0 0 0 0 0 0 0 0 0 0 0 0 0 0 0 0 0 0 0 0 0 0 0 0 0 0 0 0 0 0 0 0 0 0 0 0 0 0 0 0 0 0 0 0 0 0 0 0 0 0 0 0 0 0 0 0 0 0 0 0 0 0 0 0 0 0 0 0 0 0 0 0 0 0 0 0 0 0 0 0 0 0 0 0 0 0 0 0 0 0 0 0 0 0 0 0 0 0 0 0 0 0 0 0 0 0 0 0 0 0 0 0 0 0 0 0 0 0 0 0 0 0 0 0 0 0 0 0 0 0 0 0 0 0 0 0 0 0 0 0 0 0 0 0 0 0 0 0 0 0 0 0 0 0 0 0 3 4 3 3 2 1 1 0 0 0 2 3 5 7 8 7 7 6 8 9 9 9 9 11 10 10 12 12 12 14 14 16 18 17 17 18 18 18 18 18 18 15 14 14 15 15 16 19 21 21 19 16 17 17 15 15 17 19 19 22 24 23 22 22 23 22 23 22 23 24 24 25 28 29 28 29 30 33 33 35 36 36 34 33 34 33 31 33 32 34 35 34 32 34 35 33 32 34 35 34 32 32 31 29 28 29 28 30 31 32 32 34 32 30 29 27 27 28 28 29 29 28 31 31 33 34 34 33 34 34 35 34 31 29 26 25 26 26 27 26 25 26 24 24 24 25 25 26 29 30 31 
31 32 31 31 31 31 30 29 28 30 30 30 32 32 32 29 27 26 24 24 25 26 25 23 21 19 16 15 16 16 16 16 16 16 17 15 15 17 19 18 17 17 17 16 20 20 20 18 18 18 17 18 16 17 19 18 18 19 19 19 19 21 21 21 19 19 17 17 16 18 20 21 21 19 18 19 19 20 21 22 24 24 23 22 22 22 21 20 20 19 19 20 21 17 18 21 23 22 22 22 20 23 26 25 24 23 23 21 19 20 21 21 20 21 18 15 16 13 12 10 10 7 6 9 9 11 10 6 5 6 4 4 4 3 0 1 1 2 2 3 1 2 2 2 0 2 2 2 2 2 2 2 1 0 0 0 0 0 0 2 2 0 0 0 0 0 0 0 0 0 0 0 0 0 0 0 0 0 0 0 0 0 0 0 0 0 0 0 0 0 0 0 0 0 0 0 0 0 0 0 0 0 0 0 0 0 0 0 0 0 0 0 0 0 0 0 0 0 0 0 0 0 0 0 0 0 0 0 0 0 0 0 0 0 0 0 0 0 0 0 0 0 0 0 0 0 0 0 0 0 0 0 0 0 0 0 0 0 0 0 0 0 0 0 0 0 0 0 0 0 0 0 0 0 0 0 0 0 0 0 0 0 0 0 0 0 0 0 0 0 0 0 0 0 0 0 0 0 0 0 0 0 0 0 0 0 0 0 0 0 0 0 0 0 0 0 0 0 0 0 0 0 0 0 0 0 0 0 0 0 0 0 0 0 0 0 0 0 0 0 0 0 0 0 0 0 0 0 0 0 0 0 0 0 0 0 0 0 0 0 0 0 0 0 0 0 0 0 0 0 0 0 0 0 0 0 0 0 0 0 0 0 0 0 0 0 0 0 0 0 0 0 0 0 0 0 0 0 0 0 0 0 0 0 0 0 0 0 0 0 0 0 0 0 0 0 0 0 0 0 0 0 0 0 0 0 0 0 0 0 0 0 0 0 0 0 0 0 0 0 0 0 0 0 0 0 0 0 0 0 0 0 0 0 0 0 0 0 0 0 0 0 0 0 0 0 0 0 0 0 0 0 0 0 0 0 0 0 0 0 0 0 0 0 0 0 0 0 0 2 1 1 1 4 4 3 2 2 1 3 3 5 7 7 6 6 7 10 12 12 11 11 12 12 11 11 11 10 11 13 15 15 15 15 16 17 17 17 17 16 15 14 14 14 14 17 19 19 19 17 17 17 15 15 16 17 19 20 23 23 21 19 21 22 21 21 23 23 24 26 28 30 29 31 32 33 35 33 34 36 36 35 34 36 35 34 35 38 37 36 34 32 34 35 36 34 34 34 33 32 31 30 30 30 30 32 33 33 34 35 34 31 31 29 28 27 28 27 27 28 28 30 30 32 33 33 32 33 32 35 33 31 27 26 24 25 26 27 25 25 25 24 23 24 25 25 26 27 30 31 
28 29 29 28 28 29 29 28 25 26 26 27 29 30 28 27 25 23 23 23 24 25 24 23 20 17 15 14 15 15 14 15 15 16 16 15 15 18 20 18 16 15 14 15 18 19 19 16 17 16 17 18 18 19 19 18 18 17 17 17 18 19 18 18 17 18 17 15 15 17 19 21 23 22 22 21 19 20 21 22 23 24 24 22 22 21 20 20 21 21 19 20 21 19 19 22 23 23 23 22 22 23 26 25 24 22 21 20 19 20 21 21 20 19 17 16 15 15 13 11 10 9 9 9 11 14 13 11 9 10 7 6 6 4 2 1 1 2 2 3 3 3 3 2 1 1 2 3 1 2 2 2 0 0 0 0 0 0 0 1 1 1 0 0 0 0 0 0 0 0 0 0 0 0 0 0 0 0 0 0 0 0 0 0 0 0 0 0 0 0 0 0 0 0 0 0 0 0 0 0 0 0 0 0 0 0 0 0 0 0 0 0 0 0 0 0 0 0 0 0 0 0 0 0 0 0 0 0 0 0 0 0 0 0 0 0 0 0 0 0 0 0 0 0 0 0 0 0 0 0 0 0 0 0 0 0 0 0 0 0 0 0 0 0 0 0 0 0 0 0 0 0 0 0 0 0 0 0 0 0 0 0 0 0 0 0 0 0 0 0 0 0 0 0 0 0 0 0 0 0 0 0 0 0 0 0 0 0 0 0 0 0 0 0 0 0 0 0 0 0 0 0 0 0 0 0 0 0 0 0 0 0 0 0 0 0 0 0 0 0 0 0 0 0 0 0 0 0 0 0 0 0 0 0 0 0 0 0 0 0 0 0 0 0 0 0 0 0 0 0 0 0 0 0 0 0 0 0 0 0 0 0 0 0 0 0 0 0 0 0 0 0 0 0 0 0 0 0 0 0 0 0 0 0 0 0 0 0 0 0 0 0 0 0 0 0 0 0 0 0 0 0 0 0 0 0 0 0 0 0 0 0 0 0 0 0 0 0 0 0 0 0 0 0 0 0 0 0 0 0 0 0 0 0 0 0 0 0 0 0 0 0 0 0 0 0 0 0 0 0 0 0 0 0 0 0 0 0 0 0 0 0 0 0 0 0 0 0 0 0 0 0 2 5 5 3 3 4 3 2 2 5 8 7 7 8 11 13 14 13 11 11 11 10 11 10 11 10 10 11 13 14 13 14 13 15 17 17 18 18 16 15 14 15 15 16 19 20 20 19 17 17 17 16 16 18 19 19 19 20 20 19 21 21 21 22 24 25 26 27 29 31 32 34 33 33 33 34 35 37 36 34 35 34 34 36 37 40 40 37 35 33 35 36 37 36 36 34 33 33 31 31 32 29 31 32 35 37 35 35 32 30 29 30 28 27 28 26 28 27 28 30 30 30 32 32 32 33 33 34 34 32 29 27 27 26 26 25 25 24 25 24 24 23 25 26 26 26 27 29 
27 27 28 26 26 29 28 26 24 25 25 25 25 25 26 24 24 21 21 23 24 24 24 23 20 17 15 14 14 15 15 14 14 14 17 16 18 20 20 17 13 12 12 15 15 16 16 16 15 15 17 18 20 19 18 19 18 15 15 15 18 18 17 16 16 18 17 16 15 16 19 21 22 23 23 22 22 21 22 22 22 22 22 24 21 21 22 21 21 21 20 21 21 20 20 21 22 23 21 19 20 21 24 24 23 22 21 20 20 21 22 23 22 21 17 15 15 16 14 12 11 11 11 12 14 14 13 10 10 10 10 8 9 7 5 3 2 2 3 2 2 2 1 0 2 1 2 1 1 3 3 3 2 1 1 0 0 0 0 0 1 0 0 0 0 0 0 0 0 0 0 0 0 0 0 0 0 0 0 0 0 0 0 0 0 0 0 0 0 0 0 0 0 0 0 0 0 0 0 0 0 0 0 0 0 0 0 0 0 0 0 0 0 0 0 0 0 0 0 0 0 0 0 0 0 0 0 0 0 0 0 0 0 0 0 0 0 0 0 0 0 0 0 0 0 0 0 0 0 0 0 0 0 0 0 0 0 0 0 0 0 0 0 0 0 0 0 0 0 0 0 0 0 0 0 0 0 0 0 0 0 0 0 0 0 0 0 0 0 0 0 0 0 0 0 0 0 0 0 0 0 0 0 0 0 0 0 0 0 0 0 0 0 0 0 0 0 0 0 0 0 0 0 0 0 0 0 0 0 0 0 0 0 0 0 0 0 0 0 0 0 0 0 0 0 0 0 0 0 0 0 0 0 0 0 0 0 0 0 0 0 0 0 0 0 0 0 0 0 0 0 0 0 0 0 0 0 0 0 0 0 0 0 0 0 0 0 0 0 0 0 0 0 0 0 0 0 0 0 0 0 0 0 0 0 0 0 0 0 0 0 0 0 0 0 0 0 0 0 0 0 0 0 0 0 0 0 0 0 0 0 0 0 0 0 0 0 0 0 0 0 0 0 0 0 0 0 0 0 0 0 0 0 0 0 0 0 0 0 0 0 0 0 0 0 0 0 0 0 0 0 0 0 0 0 0 0 0 0 0 0 0 0 0 0 0 0 0 0 0 0 1 2 4 5 6 5 5 4 4 4 7 9 9 10 10 10 10 12 12 10 11 9 10 9 10 11 9 10 11 10 11 12 13 15 16 18 19 19 18 17 17 16 16 17 17 18 20 21 19 19 19 18 18 17 19 20 20 19 20 20 19 21 21 22 24 25 24 26 29 30 32 33 34 35 34 33 33 35 35 35 34 34 36 36 36 38 41 40 37 36 35 36 38 38 36 35 35 35 35 34 33 32 29 31 32 34 35 33 32 32 32 29 28 26 25 25 24 25 26 27 29 30 31 32 32 30 31 32 33 33 33 32 31 30 28 27 26 24 24 23 23 24 23 24 25 26 26 26 26 
25 24 25 25 25 27 28 26 24 24 23 24 23 23 22 23 24 23 22 21 22 24 24 22 20 18 16 15 16 17 17 15 15 16 17 16 17 20 19 15 12 12 11 13 13 15 15 15 15 18 19 21 21 20 18 17 16 16 16 15 16 17 17 17 16 16 16 14 15 15 17 18 20 24 24 21 21 21 22 22 22 21 24 24 22 21 20 20 21 22 22 23 23 23 21 20 21 21 21 20 18 20 21 23 22 22 22 21 22 22 23 23 20 19 16 14 16 14 15 13 12 14 15 15 14 13 12 11 11 11 11 10 10 9 8 5 5 4 4 3 2 0 1 0 1 2 2 2 0 3 4 5 5 3 1 0 0 0 0 0 0 0 0 0 0 0 0 0 0 0 0 0 0 0 0 0 0 0 0 0 0 0 0 0 0 0 0 0 0 0 0 0 0 0 0 0 0 0 0 0 0 0 0 0 0 0 0 0 0 0 0 0 0 0 0 0 0 0 0 0 0 0 0 0 0 0 0 0 0 0 0 0 0 0 0 0 0 0 0 0 0 0 0 0 0 0 0 0 0 0 0 0 0 0 0 0 0 0 0 0 0 0 0 0 0 0 0 0 0 0 0 0 0 0 0 0 0 0 0 0 0 0 0 0 0 0 0 0 0 0 0 0 0 0 0 0 0 0 0 0 0 0 0 0 0 0 0 0 0 0 0 0 0 0 0 0 0 0 0 0 0 0 0 0 0 0 0 0 0 0 0 0 0 0 0 0 0 0 0 0 0 0 0 0 0 0 0 0 0 0 0 0 0 0 0 0 0 0 0 0 0 0 0 0 0 0 0 0 0 0 0 0 0 0 0 0 0 0 0 0 0 0 0 0 0 0 0 0 0 0 0 0 0 0 0 0 0 0 0 0 0 0 0 0 0 0 0 0 0 0 0 0 0 0 0 0 0 0 0 0 0 0 0 0 0 0 0 0 0 0 0 0 0 0 0 0 0 0 0 0 0 0 0 0 0 0 0 0 0 0 0 0 0 0 0 0 0 0 0 0 0 0 0 0 0 0 0 0 0 0 0 0 0 0 0 0 0 0 0 0 0 0 0 0 0 0 0 0 0 0 0 0 1 4 6 7 6 6 7 6 4 6 8 9 8 8 8 8 10 10 9 9 10 11 11 10 10 9 9 8 8 9 12 14 15 17 19 19 18 18 16 16 16 16 18 18 19 21 21 19 19 19 19 20 21 21 21 20 20 20 20 21 22 23 25 25 25 26 27 30 31 34 34 35 36 36 34 35 35 36 36 35 34 35 37 36 40 41 39 37 36 36 36 37 37 36 36 36 36 37 36 35 34 32 32 33 34 33 33 32 32 29 27 26 27 26 24 24 26 27 29 28 30 31 31 30 31 31 32 32 33 33 34 33 32 30 29 27 24 23 23 24 24 23 25 24 26 27 26 26 
26 26 24 24 24 26 25 25 24 24 23 23 22 22 23 24 25 24 22 22 22 25 25 23 22 20 18 17 17 17 18 18 16 17 18 17 14 16 16 13 11 12 11 13 14 14 14 16 17 18 21 22 22 21 21 17 15 14 16 14 15 14 16 18 17 17 16 15 16 14 15 17 20 21 21 20 18 20 18 21 21 24 25 26 23 21 22 21 23 23 24 23 23 23 23 21 21 23 24 22 19 20 21 22 23 22 22 22 24 24 25 23 21 20 17 16 16 16 15 13 13 16 17 16 16 14 13 12 12 13 13 11 11 11 9 9 8 7 6 3 2 1 0 0 1 3 4 2 2 3 3 6 4 2 0 0 0 0 0 0 0 0 0 0 0 0 0 0 0 0 0 0 0 0 0 0 0 0 0 0 0 0 0 0 0 0 0 0 0 0 0 0 0 0 0 0 0 0 0 0 0 0 0 0 0 0 0 0 0 0 0 0 0 0 0 0 0 0 0 0 0 0 0 0 0 0 0 0 0 0 0 0 0 0 0 0 0 0 0 0 0 0 0 0 0 0 0 0 0 0 0 0 0 0 0 0 0 0 0 0 0 0 0 0 0 0 0 0 0 0 0 0 0 0 0 0 0 0 0 0 0 0 0 0 0 0 0 0 0 0 0 0 0 0 0 0 0 0 0 0 0 0 0 0 0 0 0 0 0 0 0 0 0 0 0 0 0 0 0 0 0 0 0 0 0 0 0 0 0 0 0 0 0 0 0 0 0 0 0 0 0 0 0 0 0 0 0 0 0 0 0 0 0 0 0 0 0 0 0 0 0 0 0 0 0 0 0 0 0 0 0 0 0 0 0 0 0 0 0 0 0 0 0 0 0 0 0 0 0 0 0 0 0 0 0 0 0 0 0 0 0 0 0 0 0 0 0 0 0 0 0 0 0 0 0 0 0 0 0 0 0 0 0 0 0 0 0 0 0 0 0 0 0 0 0 0 0 0 0 0 0 0 0 0 0 0 0 0 0 0 0 0 0 0 0 0 0 0 0 0 0 0 0 0 0 0 0 0 0 0 0 0 0 0 0 0 0 0 0 0 0 0 0 0 0 0 0 0 0 0 0 0 1 4 6 8 6 5 6 5 4 4 6 7 7 8 7 7 9 8 7 9 11 11 11 12 11 10 10 11 10 11 14 15 15 15 16 19 19 17 18 18 17 18 19 18 18 20 20 19 18 19 19 19 22 23 22 20 20 20 21 23 24 25 25 26 26 29 29 27 29 33 35 34 36 37 35 36 36 36 37 37 36 37 38 39 40 42 40 38 36 36 37 37 36 36 37 39 39 39 38 36 34 33 34 34 34 33 33 32 30 28 27 27 28 27 25 26 27 27 29 30 29 30 30 30 32 33 32 32 32 34 34 35 36 32 30 27 23 21 21 23 24 24 24 25 26 26 25 25 
28 27 26 24 25 26 26 25 24 24 24 24 23 24 25 25 24 24 22 24 23 25 26 24 21 20 20 19 19 18 17 18 18 18 16 16 13 13 12 12 11 12 12 12 15 16 18 17 18 19 20 22 22 23 22 18 15 16 15 15 15 14 14 17 15 16 15 14 14 15 15 17 17 18 19 16 16 16 17 19 23 24 25 25 25 23 24 24 23 22 24 23 22 20 21 21 23 25 26 26 24 22 22 24 24 23 23 25 24 26 25 23 23 20 18 18 18 18 16 15 15 16 18 17 16 16 14 13 14 14 14 13 11 11 11 9 9 8 5 3 2 0 0 1 2 4 5 4 3 4 5 6 4 2 2 0 0 0 0 0 0 0 0 0 0 0 0 0 1 0 0 0 0 1 2 1 0 0 0 0 0 0 0 0 0 0 0 0 0 0 0 0 0 0 0 0 0 0 0 0 0 0 0 0 0 0 0 0 0 0 0 0 0 0 0 0 0 0 0 0 0 0 0 0 0 0 0 0 0 0 0 0 0 0 0 0 0 0 0 0 0 0 0 0 0 0 0 0 0 0 0 0 0 0 0 0 0 0 0 0 0 0 0 0 0 0 0 0 0 0 0 0 0 0 0 0 0 0 0 0 0 0 0 0 0 0 0 0 0 0 0 0 0 0 0 0 0 0 0 0 0 0 0 0 0 0 0 0 0 0 0 0 0 0 0 0 0 0 0 0 0 0 0 0 0 0 0 0 0 0 0 0 0 0 0 0 0 0 0 0 0 0 0 0 0 0 0 0 0 0 0 0 0 0 0 0 0 0 0 0 0 0 0 0 0 0 0 0 0 0 0 0 0 0 0 0 0 0 0 0 0 0 0 0 0 0 0 0 0 0 0 0 0 0 0 0 0 0 0 0 0 0 0 0 0 0 0 0 0 0 0 0 0 0 0 0 0 0 0 0 0 0 0 0 0 0 0 0 0 0 0 0 0 0 0 0 0 0 0 0 0 0 0 0 0 0 0 0 0 0 0 0 0 0 0 0 0 0 0 0 0 0 0 0 0 0 0 0 0 0 0 0 0 0 0 0 0 0 0 0 0 0 0 0 0 0 0 0 0 0 0 0 1 3 5 5 4 3 3 5 3 4 4 4 4 6 8 8 9 9 7 7 10 11 13 13 13 13 12 13 13 14 16 16 16 16 17 18 18 18 19 17 17 18 20 19 18 18 21 19 17 19 17 19 21 21 22 20 22 24 24 24 25 25 24 26 28 30 31 28 29 31 34 33 35 37 35 37 36 36 37 39 39 38 38 38 40 41 39 38 36 37 36 37 36 36 39 41 40 41 39 37 36 35 36 36 36 36 33 30 28 27 27 28 29 29 27 27 28 29 30 31 32 32 32 32 33 34 34 34 34 35 36 35 35 32 28 25 24 22 23 23 25 24 24 25 26 27 26 26 
29 29 25 25 26 26 26 24 26 25 25 25 25 26 25 25 24 23 22 24 25 25 26 24 22 21 20 19 19 19 20 19 19 18 14 13 12 11 12 13 12 11 11 13 15 18 18 19 17 19 20 22 23 23 21 19 16 15 16 15 15 15 14 16 15 15 15 15 14 15 13 15 16 17 15 15 14 15 17 19 21 22 24 26 25 25 24 25 23 24 24 22 20 21 21 22 24 25 27 29 26 25 24 27 27 27 27 27 25 26 27 24 24 22 21 21 20 18 16 16 16 16 17 18 18 17 15 14 15 15 13 11 12 10 9 11 11 8 4 2 2 1 0 0 3 3 4 3 2 4 7 7 6 3 2 0 0 0 0 0 0 0 0 0 0 0 0 0 1 1 1 1 2 3 2 1 0 0 0 0 0 0 0 0 0 0 0 0 0 0 0 0 0 0 0 0 0 0 0 0 0 0 0 0 0 0 0 0 0 0 0 0 0 0 0 0 0 0 0 0 0 0 0 0 0 0 0 0 0 0 0 0 0 0 0 0 0 0 0 0 0 0 0 0 0 0 0 0 0 0 0 0 0 0 0 0 0 0 0 0 0 0 0 0 0 0 0 0 0 0 0 0 0 0 0 0 0 0 0 0 0 0 0 0 0 0 0 0 0 0 0 0 0 0 0 0 0 0 0 0 0 0 0 0 0 0 0 0 0 0 0 0 0 0 0 0 0 0 0 0 0 0 0 0 0 0 0 0 0 0 0 0 0 0 0 0 0 0 0 0 0 0 0 0 0 0 0 0 0 0 0 0 0 0 0 0 0 0 0 0 0 0 0 0 0 0 0 0 0 0 0 0 0 0 0 0 0 0 0 0 0 0 0 0 0 0 0 0 0 0 0 0 0 0 0 0 0 0 0 0 0 0 0 0 0 0 0 0 0 0 0 0 0 0 0 0 0 0 0 0 0 0 0 0 0 0 0 0 0 0 0 0 0 0 0 0 0 0 0 0 0 0 0 0 0 0 0 0 0 0 0 0 0 0 0 0 0 0 0 0 0 0 0 0 0 0 0 0 0 0 0 0 0 0 0 0 0 0 0 0 0 0 0 0 0 0 0 0 0 0 0 0 0 1 3 2 2 3 2 5 3 2 3 4 4 5 6 5 5 5 6 7 10 12 13 14 15 14 14 13 15 17 16 16 15 16 19 19 19 20 19 18 18 18 19 19 18 18 19 18 19 20 17 19 20 21 22 21 23 24 25 25 24 24 24 26 29 31 32 30 31 32 34 35 35 36 35 35 35 34 37 39 39 39 37 37 38 37 36 38 36 35 35 36 38 38 38 40 40 39 38 36 37 37 37 38 36 33 32 28 27 27 26 28 28 28 27 27 28 30 32 33 36 37 36 35 35 35 33 33 34 35 35 34 35 34 28 25 24 23 22 23 25 26 27 27 27 26 27 27 
29 29 29 28 27 27 27 27 26 24 24 25 24 26 27 27 26 24 22 25 26 25 24 22 21 20 20 19 19 17 18 18 19 18 14 14 13 13 13 15 14 13 14 13 15 18 20 20 19 19 21 22 23 22 21 18 16 17 17 16 15 15 14 15 14 13 15 13 12 11 11 13 13 15 15 13 13 12 14 17 18 21 23 24 23 24 22 21 23 23 23 23 21 20 21 22 24 26 26 27 29 28 29 29 29 29 27 29 29 28 28 27 26 24 24 22 20 18 16 16 17 18 18 18 18 17 17 16 16 15 12 12 11 9 10 12 11 7 3 3 1 0 0 0 1 2 2 3 3 5 8 8 6 3 1 1 0 0 0 0 0 0 0 0 0 0 1 2 1 3 2 3 3 2 1 0 0 0 0 0 0 0 0 0 0 0 0 0 0 0 0 0 0 0 0 0 0 0 0 0 0 0 0 0 0 0 0 0 0 0 0 0 0 0 0 0 0 0 0 0 0 0 0 0 0 0 0 0 0 0 0 0 0 0 0 0 0 0 0 0 0 0 0 0 0 0 0 0 0 0 0 0 0 0 0 0 0 0 0 0 0 0 0 0 0 0 0 0 0 0 0 0 0 0 0 0 0 0 0 0 0 0 0 0 0 0 0 0 0 0 0 0 0 0 0 0 0 0 0 0 0 0 0 0 0 0 0 0 0 0 0 0 0 0 0 0 0 0 0 0 0 0 0 0 0 0 0 0 0 0 0 0 0 0 0 0 0 0 0 0 0 0 0 0 0 0 0 0 0 0 0 0 0 0 0 0 0 0 0 0 0 0 0 0 0 0 0 0 0 0 0 0 0 0 0 0 0 0 0 0 0 0 0 0 0 0 0 0 0 0 0 0 0 0 0 0 0 0 0 0 0 0 0 0 0 0 0 0 0 0 0 0 0 0 0 0 0 0 0 0 0 0 0 0 0 0 0 0 0 0 0 0 0 0 0 0 0 0 0 0 0 0 0 0 0 0 0 0 0 0 0 0 0 0 0 0 0 0 0 0 0 0 0 0 0 0 0 0 0 0 0 0 0 0 0 0 0 0 0 0 0 0 0 0 0 0 0 0 0 0 0 0 0 0 0 2 1 2 3 3 3 1 1 1 3 3 4 4 4 4 5 9 11 12 12 14 15 16 15 16 17 16 16 17 15 19 20 20 20 21 21 18 17 19 18 20 18 19 20 19 21 20 19 20 21 21 22 23 25 23 23 23 24 24 24 27 29 32 33 33 33 35 35 35 35 35 35 34 33 34 36 37 39 39 39 36 35 35 35 35 36 35 34 35 37 37 38 39 40 40 37 37 36 36 36 37 36 33 31 28 28 28 28 29 28 27 26 25 27 29 32 35 35 37 36 35 36 35 35 34 36 35 35 34 33 32 29 26 26 24 23 23 25 25 27 28 28 28 28 28 
29 29 30 27 28 28 28 28 28 25 26 25 25 26 27 28 28 25 24 24 26 25 24 22 21 19 18 17 18 18 18 17 18 18 15 16 15 14 13 13 14 14 15 16 19 20 20 22 21 19 20 20 20 20 20 19 17 16 16 17 16 17 16 16 15 13 12 11 9 10 12 13 12 14 15 13 13 13 13 16 16 17 21 22 19 18 19 20 21 21 22 25 22 19 21 22 22 24 26 28 30 32 32 30 30 30 30 30 29 29 27 26 25 26 25 24 21 19 17 16 16 18 17 17 19 18 19 17 16 13 11 11 11 11 11 11 10 8 3 2 0 0 0 0 0 2 3 4 6 8 8 7 6 5 2 0 0 1 0 0 0 0 0 0 0 0 1 1 2 3 5 4 5 3 0 0 0 0 0 0 0 0 0 0 0 0 0 0 0 0 0 0 0 0 0 0 0 0 0 0 0 0 0 0 0 0 0 0 0 0 0 0 0 0 0 0 0 0 0 0 0 0 0 0 0 0 0 0 0 0 0 0 0 0 0 0 0 0 0 0 0 0 0 0 0 0 0 0 0 0 0 0 0 0 0 0 0 0 0 0 0 0 0 0 0 0 0 0 0 0 0 0 0 0 0 0 0 0 0 0 0 0 0 0 0 0 0 0 0 0 0 0 0 0 0 0 0 0 0 0 0 0 0 0 0 0 0 0 0 0 0 0 0 0 0 0 0 0 0 0 0 0 0 0 0 0 0 0 0 0 0 0 0 0 0 0 0 0 0 0 0 0 0 0 0 0 0 0 0 0 0 0 0 0 0 0 0 0 0 0 0 0 0 0 0 0 0 0 0 0 0 0 0 0 0 0 0 0 0 0 0 0 0 0 0 0 0 0 0 0 0 0 0 0 0 0 0 0 0 0 0 0 0 0 0 0 0 0 0 0 0 0 0 0 0 0 0 0 0 0 0 0 0 0 0 0 0 0 0 0 0 0 0 0 0 0 0 0 0 0 0 0 0 0 0 0 0 0 0 0 0 0 0 0 0 0 0 0 0 0 0 0 0 0 0 0 0 0 0 0 0 0 0 0 0 0 0 0 0 0 0 0 0 0 0 0 0 0 0 0 0 0 0 0 0 1 2 0 0 1 2 0 0 1 4 4 5 4 3 6 6 9 11 12 15 16 17 16 15 17 18 17 16 17 17 19 20 20 21 21 21 20 20 18 18 19 18 18 19 19 19 19 19 19 21 23 25 25 26 24 23 23 22 24 25 26 28 31 33 34 35 36 36 36 35 36 36 34 32 32 34 37 36 37 38 35 34 36 36 35 35 35 34 35 34 37 38 37 39 38 36 36 35 36 37 36 35 34 32 30 31 31 30 29 29 28 26 25 26 29 32 33 34 35 35 36 36 35 35 34 37 37 34 34 34 34 32 28 27 25 24 24 26 26 27 30 30 29 28 28 
29 30 28 28 28 27 27 27 28 27 28 27 27 26 24 23 24 22 20 21 24 23 26 23 21 19 18 18 19 18 19 18 18 19 18 17 16 15 14 14 15 16 16 19 20 20 22 22 21 19 19 20 19 18 18 19 19 17 16 16 15 16 16 15 13 12 12 12 11 10 10 12 11 12 12 12 12 13 13 14 16 19 19 19 17 15 16 18 19 20 23 24 21 21 20 21 22 24 25 27 30 33 34 32 32 31 30 28 29 27 26 25 25 26 25 23 21 19 18 17 16 16 18 19 19 20 19 18 16 13 11 11 11 11 12 12 10 6 5 2 0 0 0 0 2 2 5 8 7 9 8 7 7 5 3 0 0 0 1 0 0 0 0 0 0 0 1 1 2 1 4 4 4 3 0 0 0 0 0 1 0 0 0 0 0 0 0 0 0 0 0 0 0 0 0 0 0 0 0 0 0 0 0 0 0 0 0 0 0 0 0 0 0 0 0 0 0 0 0 0 0 0 0 0 0 0 0 0 0 0 0 0 0 0 0 0 0 0 0 0 0 0 0 0 0 0 0 0 0 0 0 0 0 0 0 0 0 0 0 0 0 0 0 0 0 0 0 0 0 0 0 0 0 0 0 0 0 0 0 0 0 0 0 0 0 0 0 0 0 0 0 0 0 0 0 0 0 0 0 0 0 0 0 0 0 0 0 0 0 0 0 0 0 0 0 0 0 0 0 0 0 0 0 0 0 0 0 0 0 0 0 0 0 0 0 0 0 0 0 0 0 0 0 0 0 0 0 0 0 0 0 0 0 0 0 0 0 0 0 0 0 0 0 0 0 0 0 0 0 0 0 0 0 0 0 0 0 0 0 0 0 0 0 0 0 0 0 0 0 0 0 0 0 0 0 0 0 0 0 0 0 0 0 0 0 0 0 0 0 0 0 0 0 0 0 0 0 0 0 0 0 0 0 0 0 0 0 0 0 0 0 0 0 0 0 0 0 0 0 0 0 0 0 0 0 0 0 0 0 0 0 0 0 0 0 0 0 0 0 0 0 0 0 0 0 0 0 0 0 0 0 0 0 0 0 0 0 0 0 0 0 0 0 0 0 0 0 0 0 0 0 0 0 0 0 1 2 0 0 0 1 0 1 2 3 4 5 5 4 6 7 10 12 12 14 18 17 18 17 18 19 18 19 19 19 20 21 21 20 20 22 21 20 18 18 18 17 16 16 17 17 17 20 21 24 25 26 27 28 25 24 22 21 23 25 25 28 30 32 35 36 37 37 35 36 36 38 36 33 31 33 34 34 36 36 34 33 35 37 37 36 35 34 34 35 36 37 36 36 34 33 34 35 36 36 35 37 36 34 32 31 31 30 29 28 26 26 26 27 28 29 31 33 33 32 35 35 35 34 34 36 37 36 36 36 35 31 28 27 26 24 26 27 27 27 29 29 29 27 28 
28 29 30 29 27 27 26 26 26 29 29 27 25 22 21 21 21 21 20 19 22 22 24 23 22 20 19 20 21 20 20 18 16 17 18 18 16 16 14 16 16 16 16 17 17 19 20 21 22 21 19 18 16 15 15 18 16 15 15 15 15 14 14 14 12 10 10 9 10 11 11 13 13 12 12 10 11 12 14 15 16 17 16 16 14 15 15 16 19 22 23 23 22 22 21 21 22 25 24 26 30 33 33 31 30 30 29 28 28 27 25 24 23 24 25 24 23 21 20 18 16 16 17 17 17 18 17 16 15 14 12 10 8 9 11 12 8 7 5 3 2 1 1 1 0 1 5 6 7 7 7 7 8 6 2 0 0 0 0 0 0 0 0 0 0 0 2 4 3 3 3 4 5 3 1 0 0 0 1 2 3 2 0 0 0 0 1 0 0 0 0 0 0 0 0 0 0 0 0 0 0 0 0 0 0 0 0 0 0 0 0 0 0 0 0 0 0 0 0 0 0 0 0 0 0 0 0 0 0 0 0 0 0 0 0 0 0 0 0 0 0 0 0 0 0 0 0 0 0 0 0 0 0 0 0 0 0 0 0 0 0 0 0 0 0 0 0 0 0 0 0 0 0 0 0 0 0 0 0 0 0 0 0 0 0 0 0 0 0 0 0 0 0 0 0 0 0 0 0 0 0 0 0 0 0 0 0 0 0 0 0 0 0 0 0 0 0 0 0 0 0 0 0 0 0 0 0 0 0 0 0 0 0 0 0 0 0 0 0 0 0 0 0 0 0 0 0 0 0 0 0 0 0 0 0 0 0 0 0 0 0 0 0 0 0 0 0 0 0 0 0 0 0 0 0 0 0 0 0 0 0 0 0 0 0 0 0 0 0 0 0 0 0 0 0 0 0 0 0 0 0 0 0 0 0 0 0 0 0 0 0 0 0 0 0 0 0 0 0 0 0 0 0 0 0 0 0 0 0 0 0 0 0 0 0 0 0 0 0 0 0 0 0 0 0 0 0 0 0 0 0 0 0 0 0 0 0 0 0 0 0 0 0 0 0 0 0 0 0 0 0 0 0 0 0 0 0 0 0 0 0 0 0 0 0 0 0 0 0 0 0 0 0 0 0 0 2 2 1 2 3 1 1 0 2 3 4 4 4 7 8 11 12 13 17 18 18 18 18 17 18 19 20 20 20 21 22 22 22 22 22 22 20 18 18 16 14 15 16 16 16 19 23 24 25 27 27 29 30 28 24 23 22 23 25 26 29 33 34 36 37 37 38 36 36 38 38 36 33 31 32 32 34 35 34 34 34 34 36 37 36 37 36 34 34 36 37 36 35 32 32 34 35 34 35 35 36 35 33 32 31 32 31 29 28 27 28 28 27 28 28 30 31 31 32 35 34 34 35 34 37 37 39 38 37 36 33 29 27 27 27 27 28 27 28 29 30 29 27 28 
27 30 31 30 27 26 26 27 27 28 28 25 23 21 21 20 19 20 20 21 22 22 23 23 22 20 20 20 20 22 20 18 18 17 20 18 16 17 16 18 17 16 16 17 17 15 18 21 21 20 18 19 16 14 15 16 15 14 15 16 13 12 14 13 12 10 9 8 9 10 11 14 14 13 13 12 13 13 14 16 15 15 14 15 15 14 14 15 18 21 23 23 23 22 21 21 24 26 26 26 29 30 31 31 30 29 29 27 28 25 24 24 23 23 25 24 23 22 21 19 18 17 17 16 16 16 15 14 14 14 12 11 9 9 10 11 7 6 6 6 4 4 2 1 2 3 4 4 5 7 5 5 5 4 2 0 0 0 0 0 0 2 3 1 0 0 3 3 4 5 5 5 5 4 3 1 1 3 4 2 3 4 2 0 1 0 1 0 0 0 0 0 0 0 0 0 0 0 0 0 0 0 0 0 0 0 0 0 0 0 0 0 0 0 0 0 0 0 0 0 0 0 0 0 0 0 0 0 0 0 0 0 0 0 0 0 0 0 0 0 0 0 0 0 0 0 0 0 0 0 0 0 0 0 0 0 0 0 0 0 0 0 0 0 0 0 0 0 0 0 0 0 0 0 0 0 0 0 0 0 0 0 0 0 0 0 0 0 0 0 0 0 0 0 0 0 0 0 0 0 0 0 0 0 0 0 0 0 0 0 0 0 0 0 0 0 0 0 0 0 0 0 0 0 0 0 0 0 0 0 0 0 0 0 0 0 0 0 0 0 0 0 0 0 0 0 0 0 0 0 0 0 0 0 0 0 0 0 0 0 0 0 0 0 0 0 0 0 0 0 0 0 0 0 0 0 0 0 0 0 0 0 0 0 0 0 0 0 0 0 0 0 0 0 0 0 0 0 0 0 0 0 0 0 0 0 0 0 0 0 0 0 0 0 0 0 0 0 0 0 0 0 0 0 0 0 0 0 0 0 0 0 0 0 0 0 0 0 0 0 0 0 0 0 0 0 0 0 0 0 0 0 0 0 0 0 0 0 0 0 0 0 0 0 0 0 0 0 0 0 0 0 0 0 0 0 0 0 0 0 0 0 0 0 0 0 0 0 0 0 0 0 0 0 0 0 2 2 2 3 4 4 2 1 2 3 4 5 5 7 9 10 12 14 16 19 17 17 17 18 20 20 20 20 19 20 21 22 23 21 21 20 20 20 18 15 13 13 15 18 19 21 24 26 27 27 29 30 30 29 25 24 25 25 27 28 31 34 36 36 36 36 37 35 36 39 37 34 33 31 31 30 32 33 33 33 32 34 35 36 35 35 34 35 34 35 36 35 34 32 32 33 32 32 34 34 35 36 34 31 31 31 30 29 28 28 27 26 26 27 29 31 31 32 34 34 34 34 33 34 36 38 38 38 38 37 33 30 29 30 29 30 29 27 27 29 29 27 26 26 
28 31 30 29 27 26 26 28 28 27 25 24 21 20 20 19 21 22 21 23 22 22 22 23 22 20 22 21 21 21 19 19 19 19 20 18 17 17 17 18 17 15 15 16 15 16 18 20 21 20 19 19 17 16 16 17 15 16 15 15 13 10 12 13 13 10 10 10 11 11 11 14 14 13 13 14 15 14 15 16 14 12 13 14 13 14 15 16 18 19 21 22 23 22 22 21 23 26 27 27 29 30 31 30 30 29 28 26 26 24 23 23 23 21 23 25 25 24 22 22 20 21 20 17 15 14 13 12 13 13 13 11 10 10 11 11 9 8 8 7 6 5 5 2 2 2 4 3 4 5 4 3 2 1 1 0 0 0 0 0 0 3 3 2 0 1 2 4 5 6 6 8 7 7 5 3 3 3 3 3 5 5 4 1 0 0 0 0 0 0 0 0 0 0 0 0 0 0 0 0 0 0 0 0 0 0 0 0 0 0 0 0 0 0 0 0 0 0 0 0 0 0 0 0 0 0 0 0 0 0 0 0 0 0 0 0 0 0 0 0 0 0 0 0 0 0 0 0 0 0 0 0 0 0 0 0 0 0 0 0 0 0 0 0 0 0 0 0 0 0 0 0 0 0 0 0 0 0 0 0 0 0 0 0 0 0 0 0 0 0 0 0 0 0 0 0 0 0 0 0 0 0 0 0 0 0 0 0 0 0 0 0 0 0 0 0 0 0 0 0 0 0 0 0 0 0 0 0 0 0 0 0 0 0 0 0 0 0 0 0 0 0 0 0 0 0 0 0 0 0 0 0 0 0 0 0 0 0 0 0 0 0 0 0 0 0 0 0 0 0 0 0 0 0 0 0 0 0 0 0 0 0 0 0 0 0 0 0 0 0 0 0 0 0 0 0 0 0 0 0 0 0 0 0 0 0 0 0 0 0 0 0 0 0 0 0 0 0 0 0 0 0 0 0 0 0 0 0 0 0 0 0 0 0 0 0 0 0 0 0 0 0 0 0 0 0 0 0 0 0 0 0 0 0 0 0 0 0 0 0 0 0 0 0 0 0 0 0 0 0 0 0 0 0 0 0 0 0 0 0 0 0 0 0 0 0 0 0 0 0 0 0 0 0 0 0 0 1 2 4 6 5 3 2 4 4 5 7 8 8 9 11 12 13 15 18 17 15 18 18 21 20 19 19 19 20 22 21 22 20 19 19 19 18 17 14 13 14 16 20 22 24 25 26 30 29 30 32 31 30 28 27 27 27 29 31 34 34 36 37 35 36 36 36 35 35 34 33 32 30 30 32 31 33 34 33 34 34 35 36 35 33 33 34 35 36 34 35 34 33 31 30 30 32 31 33 35 35 32 30 31 32 32 29 28 28 27 26 26 25 27 30 32 33 31 31 32 32 33 35 36 36 37 36 37 35 34 31 32 30 30 29 29 28 27 29 29 28 26 27 
27 29 28 27 28 27 27 28 27 28 25 22 21 20 20 21 24 23 21 22 22 21 22 23 22 21 21 19 20 20 19 20 20 20 21 20 18 17 19 19 17 15 16 17 16 17 18 19 20 22 20 20 19 17 17 18 16 16 14 13 12 10 10 14 14 12 14 13 13 12 12 13 13 13 13 14 14 15 15 16 15 13 13 14 14 15 14 14 15 16 19 20 20 21 20 20 21 24 25 26 27 29 29 31 30 30 26 25 25 24 23 23 22 20 22 27 26 25 24 24 22 23 21 19 16 14 12 12 12 12 11 10 8 9 11 11 10 12 11 10 7 6 4 2 2 2 4 3 5 4 3 2 1 0 0 0 0 0 0 1 2 4 5 3 2 2 4 5 4 5 5 8 9 8 7 6 5 4 4 3 5 4 1 1 0 0 1 1 0 0 0 0 0 0 0 0 0 0 0 0 0 0 0 0 0 0 0 0 0 0 0 0 0 0 0 0 0 0 0 0 0 0 0 0 0 0 0 0 0 0 0 0 0 0 0 0 0 0 0 0 0 0 0 0 0 0 0 0 0 0 0 0 0 0 0 0 0 0 0 0 0 0 0 0 0 0 0 0 0 0 0 0 0 0 0 0 0 0 0 0 0 0 0 0 0 0 0 0 0 0 0 0 0 0 0 0 0 0 0 0 0 0 0 0 0 0 0 0 0 0 0 0 0 0 0 0 0 0 0 0 0 0 0 0 0 0 0 0 0 0 0 0 0 0 0 0 0 0 0 0 0 0 0 0 0 0 0 0 0 0 0 0 0 0 0 0 0 0 0 0 0 0 0 0 0 0 0 0 0 0 0 0 0 0 0 0 0 0 0 0 0 0 0 0 0 0 0 0 0 0 0 0 0 0 0 0 0 0 0 0 0 0 0 0 0 0 0 0 0 0 0 0 0 0 0 0 0 0 0 0 0 0 0 0 0 0 0 0 0 0 0 0 0 0 0 0 0 0 0 0 0 0 0 0 0 0 0 0 0 0 0 0 0 0 0 0 0 0 0 0 0 0 0 0 0 0 0 0 0 0 0 0 0 0 0 0 0 0 0 0 0 0 0 0 0 0 0 0 0 0 0 0 0 0 0 0 0 1 1 4 5 5 4 3 4 5 6 9 10 10 12 12 11 14 15 16 16 15 17 17 20 19 20 19 19 20 22 21 21 20 18 18 19 17 16 14 12 14 18 20 24 25 27 31 32 34 32 31 30 30 28 27 27 27 28 31 33 35 37 37 37 36 34 34 34 33 32 32 32 32 31 32 32 33 34 35 36 36 37 37 36 33 33 34 35 36 35 35 34 34 31 30 30 29 30 30 32 32 31 30 31 33 32 31 30 28 28 27 27 27 28 30 33 33 30 30 32 34 33 33 34 36 37 36 36 35 34 32 31 31 31 30 30 29 28 30 29 27 26 26 
27 28 27 27 26 26 27 28 28 26 23 21 21 20 19 21 23 21 20 22 21 22 21 23 22 20 18 16 16 18 19 19 21 21 22 20 17 16 17 19 18 17 17 18 18 19 18 19 20 21 22 21 19 18 18 19 18 16 15 13 13 13 12 15 16 15 15 16 15 12 11 10 13 12 13 14 15 15 16 16 15 16 14 13 12 12 12 11 12 13 16 18 19 19 18 18 21 23 26 26 26 28 27 29 30 28 26 25 24 24 23 23 22 23 23 27 27 27 26 26 24 22 22 19 16 16 13 13 12 12 10 10 8 9 11 12 12 14 14 12 8 5 2 3 3 4 4 4 4 4 4 2 0 0 0 0 2 2 2 3 3 6 6 5 4 4 6 6 5 5 6 9 9 9 7 5 6 5 4 3 3 2 2 0 0 0 0 0 0 0 0 0 0 0 0 0 0 0 0 0 0 0 0 0 0 0 0 0 0 0 0 0 0 0 0 0 0 0 0 0 0 0 0 0 0 0 0 0 0 0 0 0 0 0 0 0 0 0 0 0 0 0 0 0 0 0 0 0 0 0 0 0 0 0 0 0 0 0 0 0 0 0 0 0 0 0 0 0 0 0 0 0 0 0 0 0 0 0 0 0 0 0 0 0 0 0 0 0 0 0 0 0 0 0 0 0 0 0 0 0 0 0 0 0 0 0 0 0 0 0 0 0 0 0 0 0 0 0 0 0 0 0 0 0 0 0 0 0 0 0 0 0 0 0 0 0 0 0 0 0 0 0 0 0 0 0 0 0 0 0 0 0 0 0 0 0 0 0 0 0 0 0 0 0 0 0 0 0 0 0 0 0 0 0 0 0 0 0 0 0 0 0 0 0 0 0 0 0 0 0 0 0 0 0 0 0 0 0 0 0 0 0 0 0 0 0 0 0 0 0 0 0 0 0 0 0 0 0 0 0 0 0 0 0 0 0 0 0 0 0 0 0 0 0 0 0 0 0 0 0 0 0 0 0 0 0 0 0 0 0 0 0 0 0 0 0 0 0 0 0 0 0 0 0 0 0 0 0 0 0 0 0 0 0 0 0 0 0 0 0 0 0 0 0 0 0 0 0 0 0 0 0 0 0 0 0 0 1 2 4 6 5 5 4 4 6 7 10 12 11 11 11 11 11 15 15 14 15 15 16 18 17 17 18 20 20 21 19 19 20 19 19 18 17 14 13 12 15 17 19 23 25 28 31 33 35 33 32 31 31 29 28 27 28 29 31 32 34 36 36 35 36 34 35 33 32 32 34 35 33 31 30 31 34 35 37 36 35 37 38 38 35 34 34 34 33 34 33 32 32 29 29 29 29 28 29 31 32 30 28 31 33 33 31 30 29 30 29 28 27 29 30 31 31 31 32 34 33 34 35 33 36 38 37 34 35 33 30 30 30 31 30 31 28 27 28 28 28 27 26 
27 26 25 26 26 27 27 27 27 25 23 20 19 20 19 20 20 20 19 20 21 22 23 22 21 17 15 15 15 16 18 19 20 20 21 20 19 18 18 18 19 19 19 20 20 21 21 20 21 21 22 20 18 17 19 20 20 17 16 15 16 16 15 14 15 15 14 16 17 13 13 11 12 12 14 15 15 16 15 15 15 14 14 12 11 10 12 12 12 13 14 17 18 19 19 18 20 23 25 27 25 27 26 27 29 27 25 25 24 24 24 26 25 24 26 27 27 27 25 24 22 20 21 19 17 16 15 13 12 12 11 12 12 12 13 11 11 14 14 12 8 6 5 4 4 4 2 4 6 5 4 3 3 3 3 2 2 4 3 4 5 6 8 7 6 6 6 5 5 6 7 9 10 8 7 6 4 4 4 2 3 2 3 1 0 0 0 0 0 0 0 0 0 0 0 0 0 0 0 0 0 0 0 0 0 0 0 0 0 0 0 0 0 0 0 0 0 0 0 0 0 0 0 0 0 0 0 0 0 0 0 0 0 0 0 0 0 0 0 0 0 0 0 0 0 0 0 0 0 0 0 0 0 0 0 0 0 0 0 0 0 0 0 0 0 0 0 0 0 0 0 0 0 0 0 0 0 0 0 0 0 0 0 0 0 0 0 0 0 0 0 0 0 0 0 0 0 0 0 0 0 0 0 0 0 0 0 0 0 0 0 0 0 0 0 0 0 0 0 0 0 0 0 0 0 0 0 0 0 0 0 0 0 0 0 0 0 0 0 0 0 0 0 0 0 0 0 0 0 0 0 0 0 0 0 0 0 0 0 0 0 0 0 0 0 0 0 0 0 0 0 0 0 0 0 0 0 0 0 0 0 0 0 0 0 0 0 0 0 0 0 0 0 0 0 0 0 0 0 0 0 0 0 0 0 0 0 0 0 0 0 0 0 0 0 0 0 0 0 0 0 0 0 0 0 0 0 0 0 0 0 0 0 0 0 0 0 0 0 0 0 0 0 0 0 0 0 0 0 0 0 0 0 0 0 0 0 0 0 0 0 0 0 0 0 0 0 0 0 0 0 0 0 0 0 0 0 0 0 0 0 0 0 0 0 0 0 0 0 0 0 0 0 0 0 0 0 1 2 2 5 5 4 6 5 6 8 11 12 10 10 9 8 9 11 14 15 15 15 15 15 18 19 19 21 20 20 18 18 18 19 20 19 16 15 14 15 16 17 20 23 24 29 32 33 36 33 32 32 33 32 31 29 29 29 31 31 31 33 35 33 33 35 33 34 32 33 35 35 33 31 30 33 34 34 35 34 35 37 39 38 36 35 33 30 32 32 30 32 30 29 29 29 30 31 32 33 33 31 29 29 32 32 30 30 30 31 30 29 29 29 29 29 30 31 33 34 33 33 34 34 36 37 37 34 33 32 30 31 29 29 31 30 28 27 26 28 26 26 26 
24 25 25 26 26 26 25 25 26 25 21 19 21 19 18 18 21 21 20 21 21 23 22 22 19 16 16 16 15 15 16 17 18 19 19 21 21 20 20 19 20 20 18 20 21 21 22 22 21 21 21 18 18 18 19 21 20 17 18 17 17 16 16 15 15 15 13 16 16 14 12 12 12 13 16 17 15 15 16 15 13 14 13 13 12 11 12 12 13 16 17 19 20 20 19 20 21 24 25 25 24 26 26 26 27 25 24 23 23 24 25 28 26 26 28 28 29 27 23 21 21 21 21 20 19 17 16 15 14 13 13 13 14 13 14 11 12 12 13 12 9 6 6 5 3 3 3 5 4 4 3 2 4 5 3 2 3 3 5 6 7 7 7 7 8 6 5 5 6 8 8 9 9 8 8 7 3 4 3 3 2 2 4 4 0 0 0 0 0 0 0 0 0 0 0 0 0 0 0 0 0 0 0 0 0 0 0 0 0 0 0 0 0 0 0 0 0 0 0 0 0 0 0 0 0 0 0 0 0 0 0 0 0 0 0 0 0 0 0 0 0 0 0 0 0 0 0 0 0 0 0 0 0 0 0 0 0 0 0 0 0 0 0 0 0 0 0 0 0 0 0 0 0 0 0 0 0 0 0 0 0 0 0 0 0 0 0 0 0 0 0 0 0 0 0 0 0 0 0 0 0 0 0 0 0 0 0 0 0 0 0 0 0 0 0 0 0 0 0 0 0 0 0 0 0 0 0 0 0 0 0 0 0 0 0 0 0 0 0 0 0 0 0 0 0 0 0 0 0 0 0 0 0 0 0 0 0 0 0 0 0 0 0 0 0 0 0 0 0 0 0 0 0 0 0 0 0 0 0 0 0 0 0 0 0 0 0 0 0 0 0 0 0 0 0 0 0 0 0 0 0 0 0 0 0 0 0 0 0 0 0 0 0 0 0 0 0 0 0 0 0 0 0 0 0 0 0 0 0 0 0 0 0 0 0 0 0 0 0 0 0 0 0 0 0 0 0 0 0 0 0 0 0 0 0 0 0 0 0 0 0 0 0 0 0 0 0 0 0 0 0 0 0 0 0 0 0 0 0 0 0 0 0 0 0 0 0 0 0 0 0 0 0 1 1 0 1 0 0 2 3 5 7 8 6 6 9 10 11 10 10 8 8 9 13 15 17 16 15 14 16 18 19 19 21 21 20 18 19 18 19 19 17 15 14 15 15 17 19 20 23 25 28 31 31 34 35 34 35 34 31 30 30 28 29 30 30 29 31 33 33 31 34 34 33 34 33 35 35 33 31 33 36 37 35 33 32 34 34 36 37 34 34 33 30 31 31 31 32 31 31 31 31 33 33 33 33 33 30 28 28 29 30 28 28 29 32 31 29 27 27 27 28 31 31 31 32 31 32 34 34 34 34 34 32 31 31 30 29 27 30 30 28 26 24 24 24 24 24 24 
22 23 26 25 25 25 24 24 23 23 19 19 19 18 18 18 21 23 21 21 21 20 20 20 19 17 18 18 18 18 17 19 18 18 20 20 21 21 21 19 20 19 20 21 23 23 23 22 20 21 19 16 15 16 18 20 19 20 19 19 18 16 15 14 15 16 14 16 15 15 13 13 12 13 15 17 18 16 17 14 14 14 14 12 12 12 13 14 16 17 18 19 20 21 19 20 21 21 22 24 23 24 26 26 26 25 23 22 22 24 28 28 28 28 30 30 29 26 23 23 21 22 23 22 18 16 17 16 15 12 11 11 13 14 12 11 11 12 12 12 8 5 5 4 2 1 2 5 6 7 3 2 4 4 3 1 2 4 5 6 7 6 5 5 5 6 6 5 6 8 9 9 10 10 10 8 3 2 3 3 2 3 3 3 0 0 0 0 0 0 0 0 0 0 0 0 0 0 0 0 0 0 0 0 0 0 0 0 0 0 0 0 0 0 0 0 0 0 0 0 0 0 0 0 0 0 0 0 0 0 0 0 0 0 0 0 0 0 0 0 0 0 0 0 0 0 0 0 0 0 0 0 0 0 0 0 0 0 0 0 0 0 0 0 0 0 0 0 0 0 0 0 0 0 0 0 0 0 0 0 0 0 0 0 0 0 0 0 0 0 0 0 0 0 0 0 0 0 0 0 0 0 0 0 0 0 0 0 0 0 0 0 0 0 0 0 0 0 0 0 0 0 0 0 0 0 0 0 0 0 0 0 0 0 0 0 0 0 0 0 0 0 0 0 0 0 0 0 0 0 0 0 0 0 0 0 0 0 0 0 0 0 0 0 0 0 0 0 0 0 0 0 0 0 0 0 0 0 0 0 0 0 0 0 0 0 0 0 0 0 0 0 0 0 0 0 0 0 0 0 0 0 0 0 0 0 0 0 0 0 0 0 0 0 0 0 0 0 0 0 0 0 0 0 0 0 0 0 0 0 0 0 0 0 0 0 0 0 0 0 0 0 0 0 0 0 0 0 0 0 0 0 0 0 0 0 0 0 0 0 0 0 0 0 0 0 0 0 0 0 0 0 0 0 0 0 0 0 0 0 0 0 0 0 0 0 0 0 0 0 0 0 1 3 4 3 1 1 0 2 3 4 6 8 9 8 9 10 12 11 10 9 9 12 14 17 18 18 15 16 17 18 18 19 21 22 19 17 18 18 17 17 15 13 13 13 15 17 19 22 25 26 28 30 31 33 33 33 34 33 31 31 31 31 30 30 30 30 33 33 32 33 34 34 32 32 32 33 34 32 34 36 37 37 35 33 30 31 33 34 34 32 32 31 30 30 31 31 31 31 33 33 34 33 34 32 32 33 31 29 27 26 27 26 26 28 31 30 30 29 27 26 27 29 29 29 29 31 33 31 32 32 30 31 31 29 30 28 26 26 28 28 27 25 24 21 22 22 20 21 
21 22 23 23 22 21 22 23 22 21 21 19 18 17 18 17 19 21 21 21 21 20 19 19 21 19 19 19 18 17 17 18 16 17 19 19 21 21 20 20 20 20 20 21 22 23 24 22 21 20 20 16 15 15 17 18 18 18 18 18 17 16 15 14 15 15 16 14 16 14 13 14 15 16 17 18 18 16 16 15 15 15 13 12 14 13 14 13 15 18 19 18 19 18 18 19 18 18 19 21 23 25 26 26 25 24 22 21 23 27 29 29 28 30 30 29 28 27 26 23 21 20 21 21 16 15 14 13 13 11 12 10 10 12 12 11 8 9 12 10 9 7 6 3 3 3 3 4 6 6 6 3 4 4 2 1 3 3 5 6 8 6 4 3 4 5 5 6 5 6 8 8 8 10 10 8 5 3 2 2 1 0 0 0 0 0 0 0 0 0 0 0 0 0 0 0 0 0 0 0 0 0 0 0 0 0 0 0 0 0 0 0 0 0 0 0 0 0 0 0 0 0 0 0 0 0 0 0 0 0 0 0 0 0 0 0 0 0 0 0 0 0 0 0 0 0 0 0 0 0 0 0 0 0 0 0 0 0 0 0 0 0 0 0 0 0 0 0 0 0 0 0 0 0 0 0 0 0 0 0 0 0 0 0 0 0 0 0 0 0 0 0 0 0 0 0 0 0 0 0 0 0 0 0 0 0 0 0 0 0 0 0 0 0 0 0 0 0 0 0 0 0 0 0 0 0 0 0 0 0 0 0 0 0 0 0 0 0 0 0 0 0 0 0 0 0 0 0 0 0 0 0 0 0 0 0 0 0 0 0 0 0 0 0 0 0 0 0 0 0 0 0 0 0 0 0 0 0 0 0 0 0 0 0 0 0 0 0 0 0 0 0 0 0 0 0 0 0 0 0 0 0 0 0 0 0 0 0 0 0 0 0 0 0 0 0 0 0 0 0 0 0 0 0 0 0 0 0 0 0 0 0 0 0 0 0 0 0 0 0 0 0 0 0 0 0 0 0 0 0 0 0 0 0 0 0 0 0 0 0 0 0 0 0 0 0 0 0 0 0 0 0 0 0 0 0 0 0 0 0 0 0 0 0 0 0 0 0 0 0 0 0 2 5 4 5 3 2 2 4 4 6 9 9 10 10 9 11 12 11 11 11 10 11 15 17 18 17 16 15 18 19 19 18 20 21 18 16 16 16 16 14 13 11 12 15 16 18 20 22 24 28 29 30 30 31 31 31 32 32 31 33 33 33 33 30 30 31 31 33 33 33 33 34 34 34 31 31 32 32 32 34 35 37 36 35 32 31 31 31 32 28 28 29 30 29 31 31 32 33 35 34 33 34 33 32 31 31 29 28 24 24 24 24 25 26 29 30 29 27 26 26 27 29 29 28 29 32 32 31 29 29 31 32 32 31 29 27 25 26 27 27 25 25 21 21 20 22 21 22 
19 20 18 19 19 17 20 20 21 20 18 18 19 16 16 18 21 23 22 21 20 20 21 21 21 22 22 21 19 18 17 16 15 17 19 19 18 20 20 19 20 20 21 20 21 22 24 22 22 21 20 18 16 16 17 18 17 16 16 17 17 16 15 15 15 16 16 16 16 16 15 15 15 18 18 19 19 18 18 16 15 15 14 14 14 13 14 15 14 17 17 17 16 17 16 18 18 17 17 19 22 23 23 24 25 25 25 26 27 28 30 31 29 30 29 28 27 27 26 25 21 19 18 18 14 13 14 12 12 12 11 8 9 11 13 10 8 10 11 8 9 8 6 6 4 4 4 5 6 5 5 4 4 3 2 1 4 4 6 8 8 5 4 3 4 6 4 5 5 6 8 8 7 8 7 6 5 4 1 2 2 0 0 0 0 0 0 0 0 0 0 0 0 0 0 0 0 0 0 0 0 0 0 0 0 0 0 0 0 0 0 0 0 0 0 0 0 0 0 0 0 0 0 0 0 0 0 0 0 0 0 0 0 0 0 0 0 0 0 0 0 0 0 0 0 0 0 0 0 0 0 0 0 0 0 0 0 0 0 0 0 0 0 0 0 0 0 0 0 0 0 0 0 0 0 0 0 0 0 0 0 0 0 0 0 0 0 0 0 0 0 0 0 0 0 0 0 0 0 0 0 0 0 0 0 0 0 0 0 0 0 0 0 0 0 0 0 0 0 0 0 0 0 0 0 0 0 0 0 0 0 0 0 0 0 0 0 0 0 0 0 0 0 0 0 0 0 0 0 0 0 0 0 0 0 0 0 0 0 0 0 0 0 0 0 0 0 0 0 0 0 0 0 0 0 0 0 0 0 0 0 0 0 0 0 0 0 0 0 0 0 0 0 0 0 0 0 0 0 0 0 0 0 0 0 0 0 0 0 0 0 0 0 0 0 0 0 0 0 0 0 0 0 0 0 0 0 0 0 0 0 0 0 0 0 0 0 0 0 0 0 0 0 0 0 0 0 0 0 0 0 0 0 0 0 0 0 0 0 0 0 0 0 0 0 0 0 2 0 0 0 0 0 0 0 0 0 0 0 0 0 0 0 0 0 0 0 0 0 0 0 0 3 4 3 4 3 3 2 3 4 7 8 9 10 9 10 12 13 11 12 12 11 11 13 17 16 15 15 15 17 20 18 18 19 20 19 15 16 17 15 14 12 11 12 14 18 21 22 23 26 28 28 29 29 30 28 29 28 29 30 32 33 33 33 31 30 30 31 31 32 33 32 32 32 31 31 30 29 27 28 31 33 36 35 34 34 33 32 30 30 29 28 28 29 29 29 31 33 33 34 34 33 34 34 32 29 29 29 28 25 23 23 23 23 25 29 31 30 28 27 27 29 28 28 29 29 32 31 31 28 28 31 32 34 33 30 28 27 27 27 27 26 24 22 20 20 22 21 21 
18 15 15 15 16 17 17 19 20 18 17 19 18 19 17 20 23 24 24 22 20 22 22 21 21 25 24 23 22 19 17 16 16 18 18 18 19 17 17 19 20 20 21 22 22 23 24 24 24 23 23 20 17 17 17 17 16 16 16 16 17 17 14 13 14 16 17 17 16 15 16 16 16 17 19 20 20 18 18 16 15 14 13 14 14 14 14 13 12 12 14 16 16 16 18 17 18 19 19 21 22 23 22 23 25 26 28 28 28 28 28 28 28 30 29 28 28 27 27 24 19 17 15 16 13 12 13 13 13 13 10 8 10 11 11 12 10 12 11 10 9 8 7 6 6 5 7 6 6 5 5 4 4 2 1 4 6 6 7 7 8 6 5 3 3 3 4 3 4 8 9 7 5 5 7 6 5 1 0 0 1 0 0 0 0 0 0 0 0 0 0 0 0 0 0 0 0 0 0 0 0 0 0 0 0 0 0 0 0 0 0 0 0 0 0 0 0 0 0 0 0 0 0 0 0 0 0 0 0 0 0 0 0 0 0 0 0 0 0 0 0 0 0 0 0 0 0 0 0 0 0 0 0 0 0 0 0 0 0 0 0 0 0 0 0 0 0 0 0 0 0 0 0 0 0 0 0 0 0 0 0 0 0 0 0 0 0 0 0 0 0 0 0 0 0 0 0 0 0 0 0 0 0 0 0 0 0 0 0 0 0 0 0 0 0 0 0 0 0 0 0 0 0 0 0 0 0 0 0 0 0 0 0 0 0 0 0 0 0 0 0 0 0 0 0 0 0 0 0 0 0 0 0 0 0 0 0 0 0 0 0 0 0 0 0 0 0 0 0 0 0 0 0 0 0 0 0 0 0 0 0 0 0 0 0 0 0 0 0 0 0 0 0 0 0 0 0 0 0 0 0 0 0 0 0 0 0 0 0 0 0 0 0 0 0 0 0 0 0 0 0 0 0 0 0 0 0 0 0 0 0 0 0 0 0 0 0 0 0 0 0 0 0 0 0 0 0 0 0 0 0 0 0 0 0 0 0 0 0 0 0 0 0 0 0 0 0 0 0 0 1 1 1 0 0 0 0 0 0 0 0 0 0 0 0 0 0 0 0 0 0 1 3 4 5 5 5 5 4 6 6 7 6 7 9 11 11 12 12 12 12 13 12 10 13 15 14 14 13 14 16 17 16 18 19 20 20 16 16 17 14 13 13 10 12 14 18 19 21 24 25 27 28 29 29 26 23 24 26 26 30 32 34 32 33 32 32 33 32 31 31 30 30 30 31 29 28 28 28 27 26 30 33 34 35 33 33 31 29 30 29 29 29 30 30 26 26 28 29 29 31 29 31 33 33 33 28 28 27 27 25 24 23 22 23 25 28 29 28 28 29 27 29 28 27 27 28 30 30 29 29 28 30 32 34 34 31 28 28 27 27 26 27 25 23 21 21 21 20 18 
16 14 13 14 17 17 17 16 17 16 16 16 19 19 18 19 22 23 24 22 21 22 21 21 23 27 27 25 24 22 20 17 17 18 19 17 16 15 15 18 20 22 23 24 23 26 25 24 24 23 19 18 18 20 19 19 16 17 19 17 18 18 16 14 14 17 16 15 14 15 16 16 17 18 19 19 20 18 17 15 14 14 14 13 12 12 12 13 11 11 14 16 15 15 17 18 20 20 21 22 23 25 25 26 26 26 27 27 26 25 25 27 28 28 29 29 26 25 23 21 18 15 15 16 14 13 14 14 13 11 9 11 11 10 11 11 12 13 13 11 10 9 10 9 9 9 10 8 8 7 6 5 5 4 2 4 5 7 6 7 7 7 5 3 3 4 6 4 5 6 6 6 5 6 6 5 4 1 0 0 0 1 2 1 2 1 0 0 0 0 0 0 0 0 0 0 0 0 0 0 0 0 0 0 0 0 0 0 0 0 0 0 0 0 0 0 0 0 0 0 0 0 0 0 0 0 0 0 0 0 0 0 0 0 0 0 0 0 0 0 0 0 0 0 0 0 0 0 0 0 0 0 0 0 0 0 0 0 0 0 0 0 0 0 0 0 0 0 0 0 0 0 0 0 0 0 0 0 0 0 0 0 0 0 0 0 0 0 0 0 0 0 0 0 0 0 0 0 0 0 0 0 0 0 0 0 0 0 0 0 0 0 0 0 0 0 0 0 0 0 0 0 0 0 0 0 0 0 0 0 0 0 0 0 0 0 0 0 0 0 0 0 0 0 0 0 0 0 0 0 0 0 0 0 0 0 0 0 0 0 0 0 0 0 0 0 0 0 0 0 0 0 0 0 0 0 0 0 0 0 0 0 0 0 0 0 0 0 0 0 0 0 0 0 0 0 0 0 0 0 0 0 0 0 0 0 0 0 0 0 0 0 0 0 0 0 0 0 0 0 0 0 0 0 0 0 0 0 0 0 0 0 0 0 0 0 0 0 0 0 0 0 0 0 0 0 0 0 0 0 0 0 0 0 0 0 0 0 0 0 0 0 0 0 0 0 0 0 0 0 0 0 1 1 0 1 2 0 0 0 0 0 0 0 0 0 0 0 0 0 1 3 2 3 4 6 6 5 5 7 7 6 7 9 9 10 11 13 13 13 12 12 11 13 13 14 13 13 12 11 14 15 16 17 18 19 19 17 16 14 14 13 13 12 13 15 16 17 21 23 25 25 26 27 27 23 22 22 25 27 28 30 32 32 32 31 32 32 31 31 32 29 29 29 29 28 27 28 28 27 27 30 31 31 31 31 32 29 29 30 32 30 30 30 28 25 24 26 27 27 28 27 29 31 32 31 27 26 26 26 25 23 23 23 25 26 27 28 29 28 29 27 27 27 27 26 28 29 29 29 28 30 30 33 34 33 31 28 27 27 27 26 24 24 23 21 22 22 20 19 
15 14 13 14 16 16 16 15 15 15 16 17 18 18 17 18 21 22 23 21 20 22 20 22 25 26 25 26 24 24 22 19 20 19 18 17 16 14 15 17 20 22 23 24 25 25 26 23 22 20 17 17 17 17 19 21 19 20 21 19 21 21 21 18 18 18 17 16 16 17 18 19 19 20 18 16 17 17 18 16 15 14 13 13 11 11 11 10 11 11 12 14 15 16 18 20 20 22 23 23 24 25 25 25 24 24 25 24 24 26 25 27 27 29 29 28 23 22 21 20 17 17 17 16 14 14 15 14 14 13 12 12 10 10 11 13 13 13 12 10 12 12 10 11 12 11 12 11 12 11 10 8 7 5 4 5 7 6 5 7 8 7 6 5 7 7 7 6 6 7 7 7 6 6 6 5 3 1 1 1 2 1 1 2 1 0 0 0 0 0 0 0 0 0 0 0 0 0 0 0 0 0 0 0 0 0 0 0 0 0 0 0 0 0 0 0 0 0 0 0 0 0 0 0 0 0 0 0 0 0 0 0 0 0 0 0 0 0 0 0 0 0 0 0 0 0 0 0 0 0 0 0 0 0 0 0 0 0 0 0 0 0 0 0 0 0 0 0 0 0 0 0 0 0 0 0 0 0 0 0 0 0 0 0 0 0 0 0 0 0 0 0 0 0 0 0 0 0 0 0 0 0 0 0 0 0 0 0 0 0 0 0 0 0 0 0 0 0 0 0 0 0 0 0 0 0 0 0 0 0 0 0 0 0 0 0 0 0 0 0 0 0 0 0 0 0 0 0 0 0 0 0 0 0 0 0 0 0 0 0 0 0 0 0 0 0 0 0 0 0 0 0 0 0 0 0 0 0 0 0 0 0 0 0 0 0 0 0 0 0 0 0 0 0 0 0 0 0 0 0 0 0 0 0 0 0 0 0 0 0 0 0 0 0 0 0 0 0 0 0 0 0 0 0 0 0 0 0 0 0 0 0 0 0 0 0 0 0 0 0 0 0 0 0 0 0 0 0 0 0 0 0 0 0 0 0 0 0 0 0 0 0 0 0 0 0 0 0 0 0 0 0 0 0 0 2 1 0 1 3 1 1 0 0 0 0 0 0 0 0 0 1 2 3 5 6 6 6 5 6 8 8 8 11 11 10 11 13 12 13 13 12 14 14 14 14 14 14 12 10 12 14 16 18 19 19 19 17 15 15 14 15 14 13 12 14 16 18 19 22 22 25 26 26 26 23 23 25 25 28 30 30 30 31 30 30 30 30 31 32 31 28 29 28 27 29 30 29 29 28 27 30 30 30 30 29 29 28 30 31 31 29 28 28 26 23 22 26 28 28 27 27 29 29 30 30 28 27 25 25 24 23 24 26 27 27 28 29 28 27 27 27 26 26 26 25 27 29 28 26 25 27 29 31 32 31 28 27 26 28 26 23 22 19 19 19 20 20 19 17 
15 15 14 14 15 17 17 18 16 17 16 15 16 16 15 18 19 21 22 22 20 21 20 20 23 24 23 24 24 25 23 21 21 21 21 19 17 16 17 18 21 23 24 25 24 25 25 23 22 21 17 16 16 15 16 20 21 21 22 21 23 23 23 23 21 20 20 19 19 20 21 19 19 17 17 15 17 17 18 17 16 14 12 12 13 11 11 12 12 12 14 15 16 17 19 21 23 24 26 25 25 25 25 24 22 21 21 23 24 25 25 25 26 26 27 25 23 21 21 20 19 17 18 16 16 14 14 16 15 14 14 12 11 10 10 13 13 12 12 12 15 15 14 13 13 14 13 14 14 12 12 9 8 5 5 6 6 4 4 5 6 7 7 8 9 10 8 6 7 6 8 8 9 7 8 6 3 2 0 1 1 2 0 0 0 0 0 0 0 0 0 0 0 0 0 0 0 0 0 0 0 0 0 0 0 0 0 0 0 0 0 0 0 0 0 0 0 0 0 0 0 0 0 0 0 0 0 0 0 0 0 0 0 0 0 0 0 0 0 0 0 0 0 0 0 0 0 0 0 0 0 0 0 0 0 0 0 0 0 0 0 0 0 0 0 0 0 0 0 0 0 0 0 0 0 0 0 0 0 0 0 0 0 0 0 0 0 0 0 0 0 0 0 0 0 0 0 0 0 0 0 0 0 0 0 0 0 0 0 0 0 0 0 0 0 0 0 0 0 0 0 0 0 0 0 0 0 0 0 0 0 0 0 0 0 0 0 0 0 0 0 0 0 0 0 0 0 0 0 0 0 0 0 0 0 0 0 0 0 0 0 0 0 0 0 0 0 0 0 0 0 0 0 0 0 0 0 0 0 0 0 0 0 0 0 0 0 0 0 0 0 0 0 0 0 0 0 0 0 0 0 0 0 0 0 0 0 0 0 0 0 0 0 0 0 0 0 0 0 0 0 0 0 0 0 0 0 0 0 0 0 0 0 0 0 0 0 0 0 0 0 0 0 0 0 0 0 0 0 0 0 0 0 0 0 0 0 0 0 0 0 0 0 0 0 0 0 0 0 1 1 0 2 0 1 0 1 2 3 5 3 0 0 0 0 0 0 0 0 0 0 0 0 3 5 6 7 5 4 6 6 7 9 11 11 9 9 11 12 13 15 14 15 17 16 16 14 13 12 12 14 15 16 18 18 19 17 16 14 14 14 15 15 14 11 11 14 16 18 20 21 22 23 25 27 25 26 26 27 27 28 27 27 29 29 30 29 28 28 30 29 28 28 28 27 28 28 28 26 25 26 27 28 28 28 28 29 29 30 30 31 29 27 24 25 22 22 25 27 29 26 27 27 27 28 29 27 27 26 26 25 25 26 26 27 28 28 29 29 30 29 29 28 26 26 26 28 28 29 25 25 26 28 28 28 27 26 25 25 26 24 21 20 18 18 17 18 17 17 17 
17 15 14 15 16 17 18 17 18 18 16 15 15 16 15 17 20 21 21 21 19 19 19 20 20 21 22 22 25 25 24 22 23 22 23 18 18 17 18 18 21 22 25 25 24 24 22 21 21 20 17 16 17 16 16 18 22 22 23 21 21 23 24 23 23 21 20 20 22 22 22 20 19 16 14 14 15 15 17 17 16 13 12 15 15 16 16 15 13 13 13 15 17 19 21 21 22 24 27 27 25 26 25 22 20 18 19 21 22 22 24 24 24 24 25 24 22 22 22 20 21 18 19 19 17 16 16 17 16 15 15 12 11 10 11 13 14 13 14 15 18 17 17 16 15 16 15 16 16 14 14 11 8 6 5 3 3 2 2 5 7 9 8 9 9 10 10 7 6 8 9 8 7 5 5 2 2 1 0 0 0 1 0 0 0 0 0 0 0 0 0 0 0 0 0 0 0 0 0 0 0 0 0 0 0 0 0 0 0 0 0 0 0 0 0 0 0 0 0 0 0 0 0 0 0 0 0 0 0 0 0 0 0 0 0 0 0 0 0 0 0 0 0 0 0 0 0 0 0 0 0 0 0 0 0 0 0 0 0 0 0 0 0 0 0 0 0 0 0 0 0 0 0 0 0 0 0 0 0 0 0 0 0 0 0 0 0 0 0 0 0 0 0 0 0 0 0 0 0 0 0 0 0 0 0 0 0 0 0 0 0 0 0 0 0 0 0 0 0 0 0 0 0 0 0 0 0 0 0 0 0 0 0 0 0 0 0 0 0 0 0 0 0 0 0 0 0 0 0 0 0 0 0 0 0 0 0 0 0 0 0 0 0 0 0 0 0 0 0 0 0 0 0 0 0 0 0 0 0 0 0 0 0 0 0 0 0 0 0 0 0 0 0 0 0 0 0 0 0 0 0 0 0 0 0 0 0 0 0 0 0 0 0 0 0 0 0 0 0 0 0 0 0 0 0 0 0 0 0 0 0 0 0 0 0 0 0 0 0 0 0 0 0 0 0 0 0 0 0 0 0 0 0 0 0 0 0 0 0 0 0 0 0 0 0 0 0 0 0 0 0 0 0 0 0 0 1 2 4 3 2 0 0 0 0 1 0 0 0 0 0 0 2 3 5 6 6 5 4 5 7 6 10 12 11 9 10 12 13 14 15 16 15 16 15 13 13 12 13 14 16 16 17 18 18 18 16 15 14 13 15 15 14 12 10 9 13 17 19 20 21 23 23 23 25 26 24 26 26 25 25 26 25 27 27 28 28 25 27 28 28 28 26 27 26 26 26 25 25 23 22 23 24 26 27 28 28 28 28 30 29 26 25 23 23 22 22 25 27 28 25 26 25 26 29 30 30 26 26 25 25 25 25 26 27 29 30 30 29 31 30 29 27 26 25 26 29 31 30 27 25 26 26 28 28 27 24 24 24 23 22 20 19 17 16 14 14 13 15 16 
16 16 15 14 14 16 17 17 17 18 16 15 16 17 17 18 21 22 22 22 20 19 20 20 20 22 21 21 24 23 22 20 22 22 21 19 19 20 19 19 20 20 22 24 23 22 22 22 23 22 20 19 18 17 18 19 23 26 24 21 20 22 23 22 21 20 21 21 23 23 22 21 19 17 15 14 14 15 15 14 14 13 13 16 16 17 17 15 12 13 14 16 18 19 20 20 22 25 26 25 25 25 24 21 18 17 17 19 20 21 22 22 22 23 25 23 23 22 23 21 21 21 20 19 17 17 17 18 16 15 16 15 13 11 12 13 14 15 16 17 18 19 16 16 16 14 16 15 14 14 13 12 8 6 2 1 3 3 4 5 7 11 11 9 11 11 11 10 8 8 9 6 3 2 3 1 0 0 0 0 0 0 0 0 0 0 0 0 0 0 0 0 0 0 0 0 0 0 0 0 0 0 0 0 0 0 0 0 0 0 0 0 0 0 0 0 0 0 0 0 0 0 0 0 0 0 0 0 0 0 0 0 0 0 0 0 0 0 0 0 0 0 0 0 0 0 0 0 0 0 0 0 0 0 0 0 0 0 0 0 0 0 0 0 0 0 0 0 0 0 0 0 0 0 0 0 0 0 0 0 0 0 0 0 0 0 0 0 0 0 0 0 0 0 0 0 0 0 0 0 0 0 0 0 0 0 0 0 0 0 0 0 0 0 0 0 0 0 0 0 0 0 0 0 0 0 0 0 0 0 0 0 0 0 0 0 0 0 0 0 0 0 0 0 0 0 0 0 0 0 0 0 0 0 0 0 0 0 0 0 0 0 0 0 0 0 0 0 0 0 0 0 0 0 0 0 0 0 0 0 0 0 0 0 0 0 0 0 0 0 0 0 0 0 0 0 0 0 0 0 0 0 0 0 0 0 0 0 0 0 0 0 0 0 0 0 0 0 0 0 0 0 0 0 0 0 0 0 0 0 0 0 0 0 0 0 0 0 0 0 0 0 0 0 0 0 0 0 0 0 0 0 0 0 0 0 0 0 0 0 0 0 0 0 0 0 0 0 0 0 0 0 0 0 0 2 1 2 1 2 0 0 0 0 0 3 1 0 0 0 0 2 4 4 4 6 5 4 5 5 6 7 9 9 10 10 9 10 13 13 14 15 15 14 14 13 13 15 14 14 16 16 15 17 17 16 15 13 12 12 14 12 12 11 9 10 14 19 21 22 22 22 23 23 24 24 22 24 23 23 24 24 24 24 25 26 27 25 25 25 28 27 25 23 22 22 23 24 23 22 20 20 22 24 26 27 26 27 27 27 27 24 24 22 22 22 20 23 24 27 26 26 26 27 29 32 29 26 25 25 23 24 27 26 27 29 30 30 30 30 29 28 26 26 27 29 31 31 30 28 26 26 25 27 29 28 24 23 21 20 20 19 17 16 14 13 10 12 15 16 
15 15 16 15 13 15 16 14 15 15 17 17 17 18 18 20 23 23 24 23 21 20 22 22 24 23 23 21 22 21 20 20 22 21 21 21 21 21 19 20 20 22 22 23 24 23 23 23 24 24 22 22 20 19 20 22 23 25 23 21 20 20 21 21 21 20 20 21 22 23 24 23 20 19 16 13 14 16 15 14 13 14 13 15 17 18 17 13 11 12 12 14 16 18 19 20 21 23 22 22 23 22 21 20 19 19 19 19 20 22 20 21 20 21 23 23 22 21 22 21 20 19 18 18 16 15 16 18 17 18 17 16 13 13 15 16 17 16 17 20 18 16 15 13 12 12 11 13 13 13 12 10 7 5 3 2 3 5 5 5 7 9 11 11 11 12 11 10 10 9 9 5 3 2 1 0 0 0 0 0 0 0 0 0 0 0 0 0 0 0 0 0 0 0 0 0 0 0 0 0 0 0 0 0 0 0 0 0 0 0 0 0 0 0 0 0 0 0 0 0 0 0 0 0 0 0 0 0 0 0 0 0 0 0 0 0 0 0 0 0 0 0 0 0 0 0 0 0 0 0 0 0 0 0 0 0 0 0 0 0 0 0 0 0 0 0 0 0 0 0 0 0 0 0 0 0 0 0 0 0 0 0 0 0 0 0 0 0 0 0 0 0 0 0 0 0 0 0 0 0 0 0 0 0 0 0 0 0 0 0 0 0 0 0 0 0 0 0 0 0 0 0 0 0 0 0 0 0 0 0 0 0 0 0 0 0 0 0 0 0 0 0 0 0 0 0 0 0 0 0 0 0 0 0 0 0 0 0 0 0 0 0 0 0 0 0 0 0 0 0 0 0 0 0 0 0 0 0 0 0 0 0 0 0 0 0 0 0 0 0 0 0 0 0 0 0 0 0 0 0 0 0 0 0 0 0 0 0 0 0 0 0 0 0 0 0 0 0 0 0 0 0 0 0 0 0 0 0 0 0 0 0 0 0 0 0 0 0 0 0 0 0 0 0 0 0 0 0 0 0 0 0 0 0 0 0 0 0 0 0 0 0 0 0 0 0 0 0 0 0 0 0 0 0 0 0 0 0 0 0 0 0 0 0 0 1 0 0 0 0 1 3 6 6 5 6 4 4 4 6 6 4 5 7 7 8 8 8 9 10 10 12 13 14 14 13 14 16 15 16 16 16 16 17 16 16 15 14 12 11 11 11 11 11 11 10 14 20 22 24 23 23 22 23 23 21 19 21 23 23 22 22 23 24 25 26 25 25 24 26 27 25 23 20 19 22 23 23 23 21 18 18 20 22 25 25 24 25 26 26 25 23 22 23 22 23 21 21 25 27 26 28 28 30 29 29 28 27 25 24 24 25 27 25 26 28 29 29 28 28 27 27 27 28 28 30 31 32 32 29 26 25 25 26 28 26 25 23 22 19 19 17 16 15 16 14 13 14 15 14 
14 14 15 14 14 15 14 13 14 17 18 19 18 18 19 22 24 25 26 26 22 22 23 24 23 24 23 22 23 24 22 21 22 21 21 20 20 19 18 20 21 21 22 22 23 24 25 24 24 24 24 23 21 22 24 23 24 24 22 20 19 19 21 21 20 21 21 23 22 24 26 24 20 18 16 14 15 16 16 15 14 14 16 16 17 17 17 14 12 10 11 12 15 18 19 18 21 20 20 20 20 19 19 19 20 19 19 19 20 21 20 19 19 22 24 23 21 19 18 19 18 19 17 16 14 13 15 16 18 19 20 18 16 16 19 18 17 18 18 18 17 15 12 11 11 10 11 12 13 12 11 9 6 5 4 4 4 4 5 5 6 8 10 10 11 9 9 9 10 9 7 4 3 2 2 1 1 0 0 0 0 0 0 0 0 0 0 0 0 0 0 0 0 0 0 0 0 0 0 0 0 0 0 0 0 0 0 0 0 0 0 0 0 0 0 0 0 0 0 0 0 0 0 0 0 0 0 0 0 0 0 0 0 0 0 0 0 0 0 0 0 0 0 0 0 0 0 0 0 0 0 0 0 0 0 0 0 0 0 0 0 0 0 0 0 0 0 0 0 0 0 0 0 0 0 0 0 0 0 0 0 0 0 0 0 0 0 0 0 0 0 0 0 0 0 0 0 0 0 0 0 0 0 0 0 0 0 0 0 0 0 0 0 0 0 0 0 0 0 0 0 0 0 0 0 0 0 0 0 0 0 0 0 0 0 0 0 0 0 0 0 0 0 0 0 0 0 0 0 0 0 0 0 0 0 0 0 0 0 0 0 0 0 0 0 0 0 0 0 0 0 0 0 0 0 0 0 0 0 0 0 0 0 0 0 0 0 0 0 0 0 0 0 0 0 0 0 0 0 0 0 0 0 0 0 0 0 0 0 0 0 0 0 0 0 0 0 0 0 0 0 0 0 0 0 0 0 0 0 0 0 0 0 0 0 0 0 0 0 0 0 0 0 0 0 0 0 0 0 0 0 0 0 0 0 0 0 0 0 0 0 0 0 0 0 0 0 0 0 0 0 0 0 0 0 0 0 0 0 0 0 0 0 0 0 0 0 0 0 0 1 3 5 5 5 5 5 4 5 5 4 3 5 6 6 5 6 8 11 10 10 10 14 14 16 14 14 15 15 14 14 15 16 16 15 15 16 14 13 12 11 10 12 11 11 10 14 18 21 24 24 23 21 22 20 19 19 19 19 18 19 19 23 25 25 25 25 24 24 26 27 26 23 20 20 21 21 21 21 18 17 16 19 22 24 26 24 25 23 24 24 23 23 23 22 24 24 24 26 26 27 29 30 31 30 29 28 27 25 27 27 27 27 27 26 26 25 26 27 28 26 25 27 27 28 29 32 35 32 29 28 26 25 25 25 25 24 21 22 20 19 18 17 16 15 14 13 12 13 14 
15 14 14 15 14 14 15 14 15 17 18 20 18 20 19 21 23 24 26 24 22 23 24 26 25 25 25 25 26 26 25 23 23 21 20 19 20 18 19 21 21 23 23 23 23 23 25 23 23 24 24 23 23 24 23 23 23 22 21 20 19 20 23 23 23 22 22 23 22 25 25 25 21 18 16 16 18 19 17 16 16 17 16 15 16 16 16 14 11 10 10 12 13 16 16 17 18 19 18 18 21 20 21 18 18 18 17 18 18 20 20 20 20 21 23 21 19 18 17 17 17 16 16 17 15 14 16 17 19 21 20 19 18 18 19 18 15 16 16 16 19 17 14 13 14 12 12 11 12 9 9 8 6 6 4 4 3 5 4 3 4 7 8 11 10 9 8 9 9 6 4 4 4 3 2 3 1 0 0 0 0 0 0 0 0 0 0 0 0 0 0 0 0 0 0 0 0 0 0 0 0 0 0 0 0 0 0 0 0 0 0 0 0 0 0 0 0 0 0 0 0 0 0 0 0 0 0 0 0 0 0 0 0 0 0 0 0 0 0 0 0 0 0 0 0 0 0 0 0 0 0 0 0 0 0 0 0 0 0 0 0 0 0 0 0 0 0 0 0 0 0 0 0 0 0 0 0 0 0 0 0 0 0 0 0 0 0 0 0 0 0 0 0 0 0 0 0 0 0 0 0 0 0 0 0 0 0 0 0 0 0 0 0 0 0 0 0 0 0 0 0 0 0 0 0 0 0 0 0 0 0 0 0 0 0 0 0 0 0 0 0 0 0 0 0 0 0 0 0 0 0 0 0 0 0 0 0 0 0 0 0 0 0 0 0 0 0 0 0 0 0 0 0 0 0 0 0 0 0 0 0 0 0 0 0 0 0 0 0 0 0 0 0 0 0 0 0 0 0 0 0 0 0 0 0 0 0 0 0 0 0 0 0 0 0 0 0 0 0 0 0 0 0 0 0 0 0 0 0 0 0 0 0 0 0 0 0 0 0 0 0 0 0 0 0 0 0 0 0 0 0 0 0 0 0 0 0 0 0 0 0 0 0 0 0 0 0 0 0 0 0 0 0 0 0 0 0 0 0 0 0 0 0 0 0 0 0 0 0 0 1 2 4 5 4 4 4 5 5 6 5 3 5 6 4 4 7 9 9 9 7 7 11 13 14 12 12 12 14 12 13 13 13 15 14 14 14 13 13 13 12 12 13 12 11 10 12 17 21 23 23 21 20 19 18 19 17 17 18 17 17 20 22 24 22 22 23 23 23 26 27 26 22 20 20 21 19 21 20 17 17 18 20 21 23 25 25 23 23 23 23 22 24 23 23 24 25 25 26 28 29 30 31 32 31 30 27 27 27 29 30 30 29 27 26 26 25 26 26 28 26 26 28 28 28 30 32 35 33 30 27 25 24 25 23 25 22 21 21 22 19 17 17 17 17 16 14 12 12 13 
14 14 13 14 15 15 16 15 16 17 17 18 19 19 17 19 21 23 23 23 23 24 25 26 27 26 26 27 28 29 27 26 23 21 19 19 18 18 19 21 23 23 23 23 22 23 22 20 20 21 22 21 22 21 21 19 21 21 20 20 21 22 24 24 23 24 23 22 25 27 26 25 22 19 18 18 19 19 18 16 18 18 16 16 16 17 15 13 12 10 11 12 15 16 16 17 16 16 17 19 20 20 19 18 16 17 15 16 18 18 21 22 23 23 20 19 17 17 17 16 14 14 15 15 16 15 18 19 21 21 20 20 19 17 18 16 15 15 16 18 20 18 17 15 16 15 13 13 11 8 9 8 7 7 4 2 3 4 4 4 5 5 8 9 8 8 8 7 7 5 5 4 2 2 1 1 2 1 0 0 0 0 0 0 0 0 0 0 0 0 0 0 0 0 0 0 0 0 0 0 0 0 0 0 0 0 0 0 0 0 0 0 0 0 0 0 0 0 0 0 0 0 0 0 0 0 0 0 0 0 0 0 0 0 0 0 0 0 0 0 0 0 0 0 0 0 0 0 0 0 0 0 0 0 0 0 0 0 0 0 0 0 0 0 0 0 0 0 0 0 0 0 0 0 0 0 0 0 0 0 0 0 0 0 0 0 0 0 0 0 0 0 0 0 0 0 0 0 0 0 0 0 0 0 0 0 0 0 0 0 0 0 0 0 0 0 0 0 0 0 0 0 0 0 0 0 0 0 0 0 0 0 0 0 0 0 0 0 0 0 0 0 0 0 0 0 0 0 0 0 0 0 0 0 0 0 0 0 0 0 0 0 0 0 0 0 0 0 0 0 0 0 0 0 0 0 0 0 0 0 0 0 0 0 0 0 0 0 0 0 0 0 0 0 0 0 0 0 0 0 0 0 0 0 0 0 0 0 0 0 0 0 0 0 0 0 0 0 0 0 0 0 0 0 0 0 0 0 0 0 0 0 0 0 0 0 0 0 0 0 0 0 0 0 0 0 0 0 0 0 0 0 0 0 0 0 0 0 0 0 0 0 0 0 0 0 0 0 0 0 0 0 0 0 0 0 0 0 0 0 0 0 1 0 0 0 0 0 0 0 0 1 3 3 4 3 2 4 5 5 4 3 3 5 4 4 7 9 8 7 6 5 7 10 10 10 9 9 10 12 11 12 12 13 14 12 12 11 11 11 10 12 13 12 11 10 12 13 16 20 20 21 21 18 20 18 16 16 17 18 19 21 23 22 22 21 22 21 23 25 26 25 23 23 21 20 20 22 21 20 18 20 20 20 22 24 25 25 24 23 23 22 24 25 24 26 26 27 26 29 28 29 30 31 32 31 30 29 28 28 28 29 28 28 28 28 27 28 26 26 26 26 27 28 28 30 32 33 32 29 27 26 25 23 23 23 21 22 23 21 19 19 17 18 18 17 13 12 12 12 
12 12 11 13 16 16 15 17 16 16 17 16 18 16 13 14 17 20 23 23 24 26 27 28 27 26 27 29 30 30 30 26 25 23 22 21 20 20 19 21 23 23 21 21 21 21 20 19 17 18 20 19 22 22 20 18 20 21 22 20 20 20 21 23 22 23 23 23 26 27 26 26 25 21 21 20 22 22 19 16 16 17 16 16 17 16 15 15 14 13 13 15 17 16 17 17 17 16 18 19 19 19 18 16 15 16 14 14 18 18 20 20 20 20 19 18 17 16 14 13 14 13 14 15 17 17 18 19 20 20 21 21 18 17 16 16 16 16 17 20 19 18 18 17 19 17 14 13 11 9 8 8 10 8 5 2 2 3 5 6 5 4 7 7 7 7 6 6 6 5 5 4 2 1 1 1 3 2 2 0 0 0 0 0 0 0 0 0 0 0 0 0 0 0 0 0 0 0 0 0 0 0 0 0 0 0 0 0 0 0 0 0 0 0 0 0 0 0 0 0 0 0 0 0 0 0 0 0 0 0 0 0 0 0 0 0 0 0 0 0 0 0 0 0 0 0 0 0 0 0 0 0 0 0 0 0 0 0 0 0 0 0 0 0 0 0 0 0 0 0 0 0 0 0 0 0 0 0 0 0 0 0 0 0 0 0 0 0 0 0 0 0 0 0 0 0 0 0 0 0 0 0 0 0 0 0 0 0 0 0 0 0 0 0 0 0 0 0 0 0 0 0 0 0 0 0 0 0 0 0 0 0 0 0 0 0 0 0 0 0 0 0 0 0 0 0 0 0 0 0 0 0 0 0 0 0 0 0 0 0 0 0 0 0 0 0 0 0 0 0 0 0 0 0 0 0 0 0 0 0 0 0 0 0 0 0 0 0 0 0 0 0 0 0 0 0 0 0 0 0 0 0 0 0 0 0 0 0 0 0 0 0 0 0 0 0 0 0 0 0 0 0 0 0 0 0 0 0 0 0 0 0 0 0 0 0 0 0 0 0 0 0 0 0 0 0 0 0 0 0 0 0 0 0 0 0 0 0 0 0 0 0 0 0 0 0 0 0 0 0 0 0 0 0 0 0 0 0 0 0 0 1 1 1 0 0 0 0 2 1 2 3 2 4 4 4 2 4 5 6 3 1 2 3 4 4 5 7 5 5 4 4 4 5 7 8 7 7 8 9 9 10 12 12 12 11 10 12 11 10 10 10 11 10 11 11 12 15 16 17 17 18 19 19 19 18 16 16 17 18 20 20 21 20 21 22 23 23 22 26 26 25 24 22 21 19 21 22 21 22 20 21 21 20 24 25 24 24 24 23 20 21 23 24 26 28 28 27 27 28 28 30 30 31 32 31 32 30 27 27 29 29 29 28 28 29 28 27 27 28 28 27 27 27 27 27 29 31 30 29 28 26 23 22 23 22 23 22 24 23 21 20 20 20 18 16 14 12 11 12 
12 12 12 12 14 16 15 15 14 14 16 15 15 12 12 13 15 20 22 25 26 27 28 28 28 26 28 30 30 31 31 29 27 24 23 23 22 20 21 21 22 22 21 21 20 20 17 17 16 17 20 21 22 21 21 18 18 21 21 20 17 18 20 21 20 21 23 23 25 27 28 28 27 22 21 20 21 21 18 16 15 18 17 17 17 16 17 17 18 19 16 17 17 15 15 17 16 17 17 18 18 17 16 16 15 14 14 15 17 18 18 18 18 18 17 17 17 17 14 13 13 14 15 16 18 19 18 19 19 20 21 20 19 15 16 16 17 18 19 22 21 21 19 19 20 17 14 11 9 7 7 6 8 6 3 1 3 5 6 7 5 5 4 4 4 4 4 5 4 4 5 4 2 2 2 3 3 5 3 3 1 0 0 0 0 0 0 0 0 0 0 0 0 0 0 0 0 0 0 0 0 0 0 0 0 0 0 0 0 0 0 0 0 0 0 0 0 0 0 0 0 0 0 0 0 0 0 0 0 0 0 0 0 0 0 0 0 0 0 0 0 0 0 0 0 0 0 0 0 0 0 0 0 0 0 0 0 0 0 0 0 0 0 0 0 0 0 0 0 0 0 0 0 0 0 0 0 0 0 0 0 0 0 0 0 0 0 0 0 0 0 0 0 0 0 0 0 0 0 0 0 0 0 0 0 0 0 0 0 0 0 0 0 0 0 0 0 0 0 0 0 0 0 0 0 0 0 0 0 0 0 0 0 0 0 0 0 0 0 0 0 0 0 0 0 0 0 0 0 0 0 0 0 0 0 0 0 0 0 0 0 0 0 0 0 0 0 0 0 0 0 0 0 0 0 0 0 0 0 0 0 0 0 0 0 0 0 0 0 0 0 0 0 0 0 0 0 0 0 0 0 0 0 0 0 0 0 0 0 0 0 0 0 0 0 0 0 0 0 0 0 0 0 0 0 0 0 0 0 0 0 0 0 0 0 0 0 0 0 0 0 0 0 0 0 0 0 0 0 0 0 0 0 0 0 0 0 0 0 0 0 0 0 0 0 0 0 0 0 0 0 0 0 0 0 0 0 0 0 0 0 1 1 0 0 0 0 1 1 2 2 2 1 2 4 4 4 3 6 5 3 3 2 2 2 2 2 3 4 3 4 3 4 3 4 6 5 6 6 7 8 9 12 12 11 12 12 12 11 9 8 9 9 11 11 11 13 15 15 15 16 16 18 17 16 17 16 17 16 16 17 17 19 21 22 22 23 22 22 24 25 24 24 22 22 20 21 23 23 23 21 21 22 21 22 24 23 23 23 21 19 21 22 23 25 28 30 30 30 28 30 30 30 31 32 30 29 27 28 27 28 28 28 27 27 27 28 27 28 27 28 29 29 29 26 26 28 29 28 28 26 25 24 22 21 22 24 25 24 23 23 21 19 19 18 18 15 13 11 10 
14 12 13 14 15 16 16 16 15 16 15 13 13 14 12 15 16 20 22 25 26 27 28 28 26 24 27 29 30 32 31 30 27 27 25 24 21 19 20 22 23 22 21 22 19 19 15 15 18 20 20 19 22 22 20 17 19 19 18 16 15 17 18 21 22 22 22 22 24 26 26 24 23 22 19 20 19 20 18 16 15 15 16 16 18 18 18 19 20 21 17 16 16 16 16 18 18 17 18 17 15 15 15 15 13 13 12 14 15 17 18 19 17 17 17 16 15 14 13 12 13 14 15 16 17 17 18 19 20 20 21 20 19 15 15 18 18 20 22 23 23 22 20 20 20 19 14 11 8 5 5 4 6 5 3 3 3 4 6 7 6 5 3 3 1 3 4 5 4 5 5 4 3 3 3 4 6 5 4 2 2 1 0 0 0 0 0 0 0 0 0 0 0 0 0 0 0 0 0 0 0 0 0 0 0 0 0 0 0 0 0 0 0 0 0 0 0 0 0 0 0 0 0 0 0 0 0 0 0 0 0 0 0 0 0 0 0 0 0 0 0 0 0 0 0 0 0 0 0 0 0 0 0 0 0 0 0 0 0 0 0 0 0 0 0 0 0 0 0 0 0 0 0 0 0 0 0 0 0 0 0 0 0 0 0 0 0 0 0 0 0 0 0 0 0 0 0 0 0 0 0 0 0 0 0 0 0 0 0 0 0 0 0 0 0 0 0 0 0 0 0 0 0 0 0 0 0 0 0 0 0 0 0 0 0 0 0 0 0 0 0 0 0 0 0 0 0 0 0 0 0 0 0 0 0 0 0 0 0 0 0 0 0 0 0 0 0 0 0 0 0 0 0 0 0 0 0 0 0 0 0 0 0 0 0 0 0 0 0 0 0 0 0 0 0 0 0 0 0 0 0 0 0 0 0 0 0 0 0 0 0 0 0 0 0 0 0 0 0 0 0 0 0 0 0 0 0 0 0 0 0 0 0 0 0 0 0 0 0 0 0 0 0 0 0 0 0 0 0 0 0 0 0 0 0 0 0 0 0 0 0 0 0 0 0 0 0 0 0 0 0 0 0 0 0 0 0 0 0 0 0 0 1 0 0 0 0 0 1 1 4 3 2 2 3 1 4 3 4 3 3 5 4 4 3 2 2 3 3 3 3 4 2 2 3 5 6 6 7 9 10 10 13 13 13 13 12 11 10 9 9 9 9 10 9 11 13 14 15 14 14 16 14 15 16 14 15 14 14 16 16 16 18 20 21 23 23 22 22 23 23 24 24 23 22 21 22 22 23 23 22 21 20 19 21 23 23 22 22 20 20 22 24 25 25 27 29 28 28 29 31 29 29 29 30 28 28 27 27 28 29 30 29 28 27 26 26 26 27 28 28 29 29 28 26 28 27 28 26 25 26 25 24 23 24 23 24 23 23 24 24 21 17 17 19 18 17 15 13 13 
15 15 15 16 17 19 17 15 15 14 14 13 13 15 16 16 19 20 23 24 26 28 26 25 24 24 26 27 28 29 30 29 28 28 27 25 22 20 20 21 23 22 20 19 19 17 14 16 17 18 17 19 19 19 18 16 17 17 16 15 16 17 17 20 22 22 22 22 23 23 23 23 21 20 19 19 18 18 19 16 15 14 14 15 17 18 18 17 18 20 16 14 14 15 17 19 21 20 20 18 16 14 13 13 11 10 11 14 16 16 17 19 18 18 17 14 12 13 12 11 11 12 15 17 18 18 21 23 22 21 22 22 19 16 17 19 20 22 21 22 22 21 21 20 18 19 14 11 7 4 4 4 5 5 4 2 2 2 5 5 5 5 2 1 1 2 2 3 3 4 7 7 6 5 6 6 7 4 3 3 1 2 0 0 0 0 0 0 0 0 0 0 0 0 0 0 0 0 0 0 0 0 0 0 0 0 0 0 0 0 0 0 0 0 0 0 0 0 0 0 0 0 0 0 0 0 0 0 0 0 0 0 0 0 0 0 0 0 0 0 0 0 0 0 0 0 0 0 0 0 0 0 0 0 0 0 0 0 0 0 0 0 0 0 0 0 0 0 0 0 0 0 0 0 0 0 0 0 0 0 0 0 0 0 0 0 0 0 0 0 0 0 0 0 0 0 0 0 0 0 0 0 0 0 0 0 0 0 0 0 0 0 0 0 0 0 0 0 0 0 0 0 0 0 0 0 0 0 0 0 0 0 0 0 0 0 0 0 0 0 0 0 0 0 0 0 0 0 0 0 0 0 0 0 0 0 0 0 0 0 0 0 0 0 0 0 0 0 0 0 0 0 0 0 0 0 0 0 0 0 0 0 0 0 0 0 0 0 0 0 0 0 0 0 0 0 0 0 0 0 0 0 0 0 0 0 0 0 0 0 0 0 0 0 0 0 0 0 0 0 0 0 0 0 0 0 0 0 0 0 0 0 0 0 0 0 0 0 0 0 0 0 0 0 0 0 0 0 0 0 0 0 0 0 0 0 0 0 0 0 0 0 0 0 0 0 0 0 0 0 0 0 0 0 0 0 0 0 0 0 0 0 0 0 0 0 0 0 2 4 3 4 2 1 1 2 3 3 0 1 1 2 4 4 4 5 3 3 2 1 1 1 0 1 2 3 5 7 8 10 10 12 14 15 14 13 12 11 8 8 7 6 7 9 8 8 10 13 13 13 14 14 14 13 13 12 13 13 14 14 15 17 19 20 22 23 23 20 20 22 21 23 23 23 22 20 20 23 23 22 22 21 21 22 23 22 22 22 22 22 21 22 24 25 24 26 26 26 26 28 29 28 27 28 30 29 29 27 28 29 31 30 30 28 28 26 25 24 26 28 30 30 29 28 27 27 29 27 26 26 26 26 25 25 24 24 23 23 23 21 20 19 18 17 17 18 17 15 14 14 
16 17 15 18 18 19 18 16 17 17 17 14 13 14 14 15 19 21 22 23 25 27 26 24 24 23 23 26 28 29 28 29 28 29 27 26 23 23 21 21 20 19 19 18 18 16 16 15 14 13 14 15 16 16 15 16 16 16 14 15 16 16 17 19 21 22 22 22 21 21 20 21 20 20 18 18 18 17 17 16 15 15 15 17 19 19 17 15 17 16 15 14 13 14 16 18 19 19 20 17 15 14 12 12 10 9 11 13 15 15 17 18 17 18 17 14 12 12 12 11 11 12 15 17 18 22 24 26 23 23 22 22 19 18 18 18 22 23 22 20 20 20 20 19 17 16 13 11 7 5 5 4 4 3 1 0 0 0 1 3 3 3 2 1 1 1 4 4 4 5 8 9 8 7 6 6 5 4 3 3 0 0 0 0 0 0 0 0 0 0 0 0 0 0 0 0 0 0 0 0 0 0 0 0 0 0 0 0 0 0 0 0 0 0 0 0 0 0 0 0 0 0 0 0 0 0 0 0 0 0 0 0 0 0 0 0 0 0 0 0 0 0 0 0 0 0 0 0 0 0 0 0 0 0 0 0 0 0 0 0 0 0 0 0 0 0 0 0 0 0 0 0 0 0 0 0 0 0 0 0 0 0 0 0 0 0 0 0 0 0 0 0 0 0 0 0 0 0 0 0 0 0 0 0 0 0 0 0 0 0 0 0 0 0 0 0 0 0 0 0 0 0 0 0 0 0 0 0 0 0 0 0 0 0 0 0 0 0 0 0 0 0 0 0 0 0 0 0 0 0 0 0 0 0 0 0 0 0 0 0 0 0 0 0 0 0 0 0 0 0 0 0 0 0 0 0 0 0 0 0 0 0 0 0 0 0 0 0 0 0 0 0 0 0 0 0 0 0 0 0 0 0 0 0 0 0 0 0 0 0 0 0 0 0 0 0 0 0 0 0 0 0 0 0 0 0 0 0 0 0 0 0 0 0 0 0 0 0 0 0 0 0 0 0 0 0 0 0 0 0 0 0 0 0 0 0 0 0 0 0 0 0 0 0 0 0 0 0 0 0 0 0 0 0 0 0 0 0 0 0 0 0 0 0 0 0 0 0 1 3 4 4 3 2 2 1 1 0 0 0 0 0 3 4 4 5 5 3 2 1 0 0 0 1 2 1 3 6 8 10 10 10 11 12 13 13 12 11 10 8 5 4 6 5 3 5 5 9 13 13 13 12 11 12 11 10 11 12 16 17 17 17 20 21 22 21 21 21 20 21 20 20 21 20 20 20 20 21 22 21 22 22 20 22 22 22 22 24 24 23 22 22 23 24 25 26 27 26 27 28 29 27 28 30 33 31 29 28 28 29 30 30 29 27 28 28 26 25 26 28 29 29 29 29 27 28 29 28 29 28 27 27 27 27 26 24 24 23 22 21 20 21 20 19 19 18 18 16 15 16 
17 17 15 17 18 20 18 18 18 19 18 16 14 15 15 16 18 22 22 23 24 26 24 23 24 23 23 25 27 27 26 27 27 27 25 24 22 22 21 20 20 18 19 19 18 16 14 13 13 13 13 14 15 14 14 14 15 14 14 14 16 17 17 18 20 21 21 19 18 17 17 18 20 21 20 19 18 17 17 16 15 15 16 18 20 19 16 16 16 15 14 14 13 13 15 17 17 17 16 15 14 12 11 10 9 10 10 13 14 17 16 18 18 15 14 12 11 12 13 11 10 12 15 17 20 25 25 25 25 25 24 22 20 19 16 16 20 20 20 20 19 19 20 18 18 14 14 12 8 6 5 4 4 2 1 0 0 1 1 3 3 3 4 1 1 2 4 4 5 6 7 9 8 6 6 7 5 4 4 3 0 0 0 0 0 0 0 0 0 0 0 0 0 0 0 0 0 0 0 0 0 0 0 0 0 0 0 0 0 0 0 0 0 0 0 0 0 0 0 0 0 0 0 0 0 0 0 0 0 0 0 0 0 0 0 0 0 0 0 0 0 0 0 0 0 0 0 0 0 0 0 0 0 0 0 0 0 0 0 0 0 0 0 0 0 0 0 0 0 0 0 0 0 0 0 0 0 0 0 0 0 0 0 0 0 0 0 0 0 0 0 0 0 0 0 0 0 0 0 0 0 0 0 0 0 0 0 0 0 0 0 0 0 0 0 0 0 0 0 0 0 0 0 0 0 0 0 0 0 0 0 0 0 0 0 0 0 0 0 0 0 0 0 0 0 0 0 0 0 0 0 0 0 0 0 0 0 0 0 0 0 0 0 0 0 0 0 0 0 0 0 0 0 0 0 0 0 0 0 0 0 0 0 0 0 0 0 0 0 0 0 0 0 0 0 0 0 0 0 0 0 0 0 0 0 0 0 0 0 0 0 0 0 0 0 0 0 0 0 0 0 0 0 0 0 0 0 0 0 0 0 0 0 0 0 0 0 0 0 0 0 0 0 0 0 0 0 0 0 0 0 0 0 0 0 0 0 0 0 0 0 0 0 0 0 0 0 0 0 0 0 0 0 0 0 0 0 0 0 0 0 0 0 0 0 0 0 0 1 4 4 3 1 2 2 0 1 0 0 0 0 0 2 4 4 5 5 2 0 0 0 0 2 2 2 1 3 6 7 8 8 7 7 7 9 11 10 8 8 5 4 2 3 4 3 3 4 7 11 12 12 10 9 7 10 10 11 14 17 17 16 19 19 20 22 20 20 18 19 21 20 20 18 19 19 18 18 20 22 23 23 23 22 22 21 22 23 23 23 22 23 24 25 24 25 26 26 27 28 28 29 29 30 32 32 32 29 27 27 28 30 30 28 28 27 29 28 26 26 28 30 29 28 29 28 30 30 29 29 29 28 27 28 27 26 24 23 23 24 22 20 21 21 20 19 18 17 17 17 17 
17 16 15 16 18 20 20 18 19 19 17 15 15 17 17 19 19 22 23 23 24 25 24 24 23 23 24 26 29 26 25 24 23 24 24 22 21 22 21 19 18 17 19 18 17 15 12 12 13 14 14 15 14 14 13 12 14 14 13 14 16 17 17 18 20 19 20 21 18 16 16 18 19 20 20 17 17 16 17 18 16 16 17 17 17 17 16 14 16 15 14 15 14 14 15 16 15 14 13 14 12 10 11 10 9 11 13 14 15 17 18 18 16 15 14 13 11 12 13 11 13 13 14 17 21 24 25 26 26 25 26 24 21 19 16 15 17 17 19 18 19 20 20 19 17 14 13 12 9 6 6 6 4 3 2 0 1 1 2 3 5 5 5 3 3 4 4 4 4 6 8 8 8 7 6 7 6 4 3 2 2 1 0 0 0 0 0 0 0 0 0 0 0 1 0 0 0 0 0 0 0 0 0 0 0 0 0 0 0 0 0 0 0 0 0 0 0 0 0 0 0 0 0 0 0 0 0 0 0 0 0 0 0 0 0 0 0 0 0 0 0 0 0 0 0 0 0 0 0 0 0 0 0 0 0 0 0 0 0 0 0 0 0 0 0 0 0 0 0 0 0 0 0 0 0 0 0 0 0 0 0 0 0 0 0 0 0 0 0 0 0 0 0 0 0 0 0 0 0 0 0 0 0 0 0 0 0 0 0 0 0 0 0 0 0 0 0 0 0 0 0 0 0 0 0 0 0 0 0 0 0 0 0 0 0 0 0 0 0 0 0 0 0 0 0 0 0 0 0 0 0 0 0 0 0 0 0 0 0 0 0 0 0 0 0 0 0 0 0 0 0 0 0 0 0 0 0 0 0 0 0 0 0 0 0 0 0 0 0 0 0 0 0 0 0 0 0 0 0 0 0 0 0 0 0 0 0 0 0 0 0 0 0 0 0 0 0 0 0 0 0 0 0 0 0 0 0 0 0 0 0 0 0 0 0 0 0 0 0 0 0 0 0 0 0 0 0 0 0 0 0 0 0 0 0 0 0 0 0 0 0 0 0 0 0 0 0 0 0 0 0 0 0 0 0 0 0 0 0 0 0 0 0 0 0 0 0 0 2 3 2 0 0 0 0 0 0 0 0 0 0 0 1 2 2 5 3 3 3 4 3 3 3 3 4 3 5 6 6 7 6 3 2 4 6 10 11 8 6 4 3 3 4 4 3 3 4 5 8 11 10 10 8 7 8 11 12 15 17 17 16 18 19 20 19 19 17 17 17 18 18 17 17 16 17 16 17 19 20 22 22 24 22 22 23 22 23 23 23 22 22 23 23 24 24 26 26 26 26 28 30 30 30 32 33 31 30 28 26 28 29 30 28 27 28 27 27 26 25 28 30 31 30 30 29 30 29 28 27 27 27 27 26 26 26 25 24 25 23 23 22 21 22 21 20 18 18 19 17 17 
16 15 17 18 20 21 20 18 19 19 17 17 18 19 20 21 22 22 24 22 22 24 24 24 22 21 23 25 26 24 23 21 21 22 20 19 19 20 19 19 16 17 16 17 16 14 13 13 13 14 15 14 14 12 12 12 13 14 14 14 14 15 14 17 20 21 23 22 19 17 17 18 18 19 17 15 16 15 16 17 16 17 15 16 17 16 15 16 17 13 12 13 13 14 14 14 13 12 13 12 10 10 11 12 11 12 14 15 16 17 19 17 17 15 14 15 14 14 12 12 12 13 14 17 22 23 23 23 23 24 25 23 21 20 17 18 18 17 18 19 18 18 19 18 16 16 15 13 10 9 9 9 5 3 2 1 2 3 4 6 6 6 6 5 5 6 7 5 4 3 5 8 7 8 7 9 8 5 5 4 3 2 0 0 0 0 0 0 0 0 0 0 1 2 1 1 0 0 0 0 0 0 0 0 0 0 0 0 0 0 0 0 0 0 0 0 0 0 0 0 0 0 0 0 0 0 0 0 0 0 0 0 0 0 0 0 0 0 0 0 0 0 0 0 0 0 0 0 0 0 0 0 0 0 0 0 0 0 0 0 0 0 0 0 0 0 0 0 0 0 0 0 0 0 0 0 0 0 0 0 0 0 0 0 0 0 0 0 0 0 0 0 0 0 0 0 0 0 0 0 0 0 0 0 0 0 0 0 0 0 0 0 0 0 0 0 0 0 0 0 0 0 0 0 0 0 0 0 0 0 0 0 0 0 0 0 0 0 0 0 0 0 0 0 0 0 0 0 0 0 0 0 0 0 0 0 0 0 0 0 0 0 0 0 0 0 0 0 0 0 0 0 0 0 0 0 0 0 0 0 0 0 0 0 0 0 0 0 0 0 0 0 0 0 0 0 0 0 0 0 0 0 0 0 0 0 0 0 0 0 0 0 0 0 0 0 0 0 0 0 0 0 0 0 0 0 0 0 0 0 0 0 0 0 0 0 0 0 0 0 0 0 0 0 0 0 0 0 0 0 0 0 0 0 0 0 0 0 0 0 0 0 0 0 0 0 0 0 0 0 0 0 0 0 0 0 0 0 0 0 0 0 0 0 0 0 0 0 0 0 0 0 0 0 0 0 0 0 0 0 0 0 0 0 0 3 2 2 3 4 4 4 2 2 3 4 5 6 6 5 3 2 2 4 5 8 9 8 7 4 5 5 5 6 4 2 3 4 8 9 11 9 8 7 8 9 11 12 13 13 14 15 16 16 17 18 17 16 16 17 17 16 16 15 14 16 18 17 20 22 24 23 22 24 23 22 21 21 23 23 23 22 24 24 24 24 25 26 27 28 30 29 30 32 32 31 30 30 28 29 29 28 28 29 29 28 28 27 26 29 31 33 31 30 28 29 29 26 27 27 27 26 25 25 23 23 23 23 23 22 23 23 23 22 22 21 22 20 17 16 
15 16 17 18 20 20 19 17 17 17 17 16 19 20 19 21 22 22 23 22 22 24 23 23 23 21 20 22 25 23 22 20 19 19 20 18 18 19 19 19 16 14 14 15 16 16 14 12 12 13 14 13 12 11 12 13 14 14 13 14 14 14 15 16 21 23 22 22 19 18 17 17 17 16 14 14 14 14 16 15 15 13 13 13 14 14 15 15 15 13 12 14 13 13 13 14 12 13 14 13 11 10 11 12 12 12 14 15 16 17 18 18 18 15 15 14 13 13 15 16 16 14 15 18 21 20 21 22 21 21 21 22 21 21 17 19 19 19 19 19 17 17 16 17 18 18 16 15 12 9 10 8 5 4 3 4 4 5 6 6 8 8 7 8 7 6 5 5 3 4 5 7 6 5 6 6 6 7 5 5 3 3 1 0 0 0 0 0 0 0 0 1 3 2 2 3 4 2 0 0 0 0 0 0 0 0 0 0 0 0 0 0 0 0 0 0 0 0 0 0 0 0 0 0 0 0 0 0 0 0 0 0 0 0 0 0 0 0 0 0 0 0 0 0 0 0 0 0 0 0 0 0 0 0 0 0 0 0 0 0 0 0 0 0 0 0 0 0 0 0 0 0 0 0 0 0 0 0 0 0 0 0 0 0 0 0 0 0 0 0 0 0 0 0 0 0 0 0 0 0 0 0 0 0 0 0 0 0 0 0 0 0 0 0 0 0 0 0 0 0 0 0 0 0 0 0 0 0 0 0 0 0 0 0 0 0 0 0 0 0 0 0 0 0 0 0 0 0 0 0 0 0 0 0 0 0 0 0 0 0 0 0 0 0 0 0 0 0 0 0 0 0 0 0 0 0 0 0 0 0 0 0 0 0 0 0 0 0 0 0 0 0 0 0 0 0 0 0 0 0 0 0 0 0 0 0 0 0 0 0 0 0 0 0 0 0 0 0 0 0 0 0 0 0 0 0 0 0 0 0 0 0 0 0 0 0 0 0 0 0 0 0 0 0 0 0 0 0 0 0 0 0 0 0 0 0 0 0 0 0 0 0 0 0 0 0 0 0 0 0 0 0 0 0 0 0 0 0 0 0 0 0 0 0 0 0 0 0 0 0 0 0 0 0 1 0 0 0 0 0 0 0 0 0 0 1 2 2 2 3 3 2 1 2 3 5 8 7 5 2 0 1 4 5 8 8 8 9 7 5 5 5 5 6 5 4 4 6 7 10 11 11 9 8 8 7 8 9 11 11 12 12 14 15 16 16 16 14 15 15 17 17 15 15 14 16 17 19 22 23 25 25 23 23 21 20 18 18 20 20 21 23 23 24 23 25 25 27 28 30 30 29 30 31 32 32 31 30 29 30 29 28 29 29 30 29 29 27 28 28 30 31 31 29 26 27 27 25 25 27 26 25 24 24 22 22 24 25 23 22 23 22 22 24 22 23 22 21 17 16 
18 18 17 17 19 18 16 16 17 19 18 17 18 19 20 21 22 23 24 21 20 22 23 24 22 21 20 21 23 23 21 21 20 21 19 17 17 16 16 16 17 16 14 14 16 15 12 12 10 10 10 10 10 9 11 13 15 16 16 15 14 14 16 20 23 23 22 21 18 17 17 16 16 15 15 13 15 14 14 13 13 11 12 14 14 13 11 13 12 11 11 12 12 12 13 13 13 13 11 12 13 12 11 12 13 12 13 14 14 15 17 17 16 15 16 14 14 15 15 17 16 16 18 19 19 20 21 21 20 20 20 22 22 22 20 20 18 18 18 19 16 15 15 15 16 17 16 14 12 10 10 8 6 4 4 3 4 5 7 8 10 11 9 10 9 7 6 6 5 5 7 7 5 4 4 4 6 6 5 4 3 1 1 0 0 0 0 0 0 0 0 0 2 3 1 4 4 2 0 0 0 0 0 0 0 0 0 0 0 0 0 0 0 0 0 0 0 0 0 0 0 0 0 0 0 0 0 0 0 0 1 0 0 0 0 0 0 0 0 0 0 0 0 0 0 0 0 0 0 0 0 0 0 0 0 0 0 0 0 0 0 0 0 0 0 0 0 0 0 0 0 0 0 0 0 0 0 0 0 0 0 0 0 0 0 0 0 0 0 0 0 0 0 0 0 0 0 0 0 0 0 0 0 0 0 0 0 0 0 0 0 0 0 0 0 0 0 0 0 0 0 0 0 0 0 0 0 0 0 0 0 0 0 0 0 0 0 0 0 0 0 0 0 0 0 0 0 0 0 0 0 0 0 0 0 0 0 0 0 0 0 0 0 0 0 0 0 0 0 0 0 0 0 0 0 0 0 0 0 0 0 0 0 0 0 0 0 0 0 0 0 0 0 0 0 0 0 0 0 0 0 0 0 0 0 0 0 0 0 0 0 0 0 0 0 0 0 0 0 0 0 0 0 0 0 0 0 0 0 0 0 0 0 0 0 0 0 0 0 0 0 0 0 0 0 0 0 0 0 0 0 0 0 0 0 0 0 0 0 0 0 0 0 0 0 0 0 0 0 0 0 0 0 0 0 0 0 0 0 0 0 0 0 0 0 0 0 0 0 0 0 0 0 0 0 0 0 0 0 0 0 0 0 0 0 1 3 2 3 2 2 2 1 2 2 4 7 6 4 2 0 2 4 6 9 8 9 9 9 8 6 6 5 5 5 5 5 5 7 11 11 9 8 7 8 8 7 8 8 11 11 11 12 12 15 15 14 14 15 15 15 15 16 14 16 17 19 21 22 21 23 23 20 20 19 18 17 17 19 19 22 24 24 24 23 25 26 26 27 28 28 28 29 31 31 30 29 28 29 29 30 31 31 31 29 30 29 28 29 27 29 30 30 28 25 26 26 25 24 25 25 25 25 24 24 24 25 25 26 24 23 23 23 24 23 23 23 20 18 17 
19 19 18 18 18 18 17 17 19 20 18 18 18 20 22 23 22 22 23 21 20 23 24 24 21 19 20 22 22 22 22 21 21 21 20 18 18 15 15 16 18 17 14 15 15 13 12 9 8 9 8 9 8 9 11 13 15 15 16 16 17 16 18 19 23 22 21 20 19 18 17 15 17 17 16 14 14 13 13 12 12 12 12 12 10 11 10 11 11 10 11 11 12 12 11 12 12 11 11 12 12 11 11 11 12 14 14 15 15 15 16 17 17 17 15 13 12 14 13 15 14 17 18 19 19 20 21 22 22 20 19 22 22 21 20 19 16 16 18 17 15 16 15 14 14 17 17 14 13 11 10 8 7 6 7 6 4 6 8 10 13 13 12 12 10 9 7 6 6 8 9 7 6 6 4 3 5 5 4 3 3 3 3 2 0 0 0 0 0 0 0 0 0 0 1 2 3 1 0 0 0 0 0 0 0 0 0 0 0 0 0 0 0 0 0 0 0 0 0 0 0 0 0 0 0 0 0 0 0 0 2 2 0 0 0 0 0 0 0 0 0 0 0 0 0 0 0 0 0 0 0 0 0 0 0 0 0 0 0 0 0 0 0 0 0 0 0 0 0 0 0 0 0 0 0 0 0 0 0 0 0 0 0 0 0 0 0 0 0 0 0 0 0 0 0 0 0 0 0 0 0 0 0 0 0 0 0 0 0 0 0 0 0 0 0 0 0 0 0 0 0 0 0 0 0 0 0 0 0 0 0 0 0 0 0 0 0 0 0 0 0 0 0 0 0 0 0 0 0 0 0 0 0 0 0 0 0 0 0 0 0 0 0 0 0 0 0 0 0 0 0 0 0 0 0 0 0 0 0 0 0 0 0 0 0 0 0 0 0 0 0 0 0 0 0 0 0 0 0 0 0 0 0 0 0 0 0 0 0 0 0 0 0 0 0 0 0 0 0 0 0 0 0 0 0 0 0 0 0 0 0 0 0 0 0 0 0 0 0 0 0 0 0 0 0 0 0 0 0 0 0 0 0 0 0 0 0 0 0 0 0 0 0 0 0 0 0 0 0 0 0 0 0 0 0 0 0 0 0 0 0 0 0 0 0 0 0 0 0 0 0 0 0 0 0 0 0 0 0 0 0 0 0 0 0 3 3 3 2 4 3 2 1 2 1 2 5 5 3 3 2 4 6 7 9 8 8 8 9 10 7 6 5 6 6 5 5 5 8 10 11 10 8 7 7 6 7 7 7 9 10 9 10 12 13 15 14 13 13 14 14 16 15 15 15 17 20 20 22 21 21 21 19 18 18 17 16 17 19 20 22 22 24 24 23 24 26 27 28 28 28 28 29 31 29 29 27 26 26 26 27 29 30 30 29 29 28 28 26 26 27 28 27 25 26 25 25 24 24 26 26 27 26 23 24 24 26 26 25 22 24 25 24 24 24 24 23 21 19 20 
20 19 18 18 18 19 20 19 19 21 20 18 19 20 22 24 22 21 21 22 22 22 22 22 21 19 20 21 21 22 22 21 21 22 21 19 19 17 16 15 15 14 15 13 14 14 12 10 9 9 7 6 7 9 11 14 16 16 15 17 16 17 17 18 21 23 22 19 19 17 15 14 16 17 16 13 12 11 10 9 12 13 13 10 9 9 9 10 10 11 11 10 9 11 11 10 11 10 11 11 10 9 11 11 12 14 15 14 14 15 16 18 19 20 16 13 11 12 13 14 14 15 17 19 19 20 24 24 21 19 19 22 21 20 18 17 15 15 16 16 15 15 13 13 13 15 16 14 12 10 8 7 8 9 8 7 6 8 10 11 13 13 12 11 11 10 10 9 8 9 10 9 7 6 5 4 4 5 5 4 3 4 4 5 3 2 0 0 0 0 0 0 0 0 1 1 1 0 0 0 0 0 0 0 0 0 0 0 0 0 0 0 0 0 0 0 0 0 0 0 0 0 0 0 0 0 0 0 0 1 3 2 0 0 0 0 0 0 0 0 0 0 0 0 0 0 0 0 0 0 0 0 0 0 0 0 0 0 0 0 0 0 0 0 0 0 0 0 0 0 0 0 0 0 0 0 0 0 0 0 0 0 0 0 0 0 0 0 0 0 0 0 0 0 0 0 0 0 0 0 0 0 0 0 0 0 0 0 0 0 0 0 0 0 0 0 0 0 0 0 0 0 0 0 0 0 0 0 0 0 0 0 0 0 0 0 0 0 0 0 0 0 0 0 0 0 0 0 0 0 0 0 0 0 0 0 0 0 0 0 0 0 0 0 0 0 0 0 0 0 0 0 0 0 0 0 0 0 0 0 0 0 0 0 0 0 0 0 0 0 0 0 0 0 0 0 0 0 0 0 0 0 0 0 0 0 0 0 0 0 0 0 0 0 0 0 0 0 0 0 0 0 0 0 0 0 0 0 0 0 0 0 0 0 0 0 0 0 0 0 0 0 0 0 0 0 0 0 0 0 0 0 0 0 0 0 0 0 0 0 0 0 0 0 0 0 0 0 0 0 0 0 0 0 0 0 0 0 0 0 1 0 0 0 0 0 0 0 0 0 0 0 0 0 0 0 0 0 0 0 0 0 0 0 1 2 2 1 1 2 2 1 1 0 2 2 4 7 5 4 6 7 8 7 8 8 9 9 9 9 7 7 6 5 4 4 5 4 5 6 8 8 6 6 6 6 7 7 7 7 7 7 8 11 13 13 12 12 12 11 12 13 14 14 15 15 17 19 20 21 22 20 19 18 18 17 17 17 19 23 24 24 24 23 24 25 26 28 29 29 28 28 29 29 28 28 26 26 27 28 28 29 28 28 27 27 27 25 25 26 25 25 25 24 23 23 24 24 24 24 24 24 24 24 23 24 25 26 24 23 24 25 24 24 25 26 25 24 22 21 
20 20 19 18 19 21 21 20 22 23 21 21 24 24 23 25 22 22 21 22 22 24 23 23 21 19 20 21 21 22 24 22 21 21 21 21 19 17 16 16 15 12 14 13 14 13 12 12 10 9 7 7 9 9 10 13 16 14 15 16 16 15 16 16 18 21 21 18 18 16 15 14 15 18 18 14 10 10 10 9 10 12 13 13 11 9 8 8 10 11 11 8 7 10 9 9 10 9 9 9 8 10 11 11 12 13 12 12 13 15 17 17 18 19 16 13 12 13 15 17 16 16 17 17 16 18 21 21 18 18 19 21 21 19 17 17 16 15 17 17 15 15 13 12 13 15 14 14 11 10 7 8 8 8 9 9 8 7 9 12 12 14 13 12 12 11 10 11 8 11 13 11 9 9 7 7 6 7 5 4 3 3 3 4 2 3 1 0 0 0 0 0 0 0 1 2 1 0 0 0 0 0 0 0 0 0 0 0 0 0 0 0 0 0 0 0 0 0 0 0 0 0 0 0 0 0 0 1 2 1 1 2 0 0 0 0 0 0 0 0 0 0 0 0 0 0 0 0 0 0 0 0 0 0 0 0 0 0 0 0 0 0 0 0 0 0 0 0 0 0 0 0 0 0 0 0 0 0 0 0 0 0 0 0 0 0 0 0 0 0 0 0 0 0 0 0 0 0 0 0 0 0 0 0 0 0 0 0 0 0 0 0 0 0 0 0 0 0 0 0 0 0 0 0 0 0 0 0 0 0 0 0 0 0 0 0 0 0 0 0 0 0 0 0 0 0 0 0 0 0 0 0 0 0 0 0 0 0 0 0 0 0 0 0 0 0 0 0 0 0 0 0 0 0 0 0 0 0 0 0 0 0 0 0 0 0 0 0 0 0 0 0 0 0 0 0 0 0 0 0 0 0 0 0 0 0 0 0 0 0 0 0 0 0 0 0 0 0 0 0 0 0 0 0 0 0 0 0 0 0 0 0 0 0 0 0 0 0 0 0 0 0 0 0 0 0 0 0 0 0 0 0 0 0 0 0 0 0 0 0 0 0 0 0 0 0 0 0 0 0 0 0 0 0 0 0 1 0 2 1 1 1 0 0 0 0 0 0 0 0 0 0 0 0 0 0 0 0 0 0 0 0 0 0 0 1 1 0 0 0 1 0 0 0 1 1 3 6 5 6 5 7 7 7 8 8 10 9 7 8 7 7 7 4 5 4 5 4 5 7 7 7 6 6 7 7 7 6 7 7 6 7 7 9 11 10 10 9 10 11 11 11 12 14 13 13 15 18 17 20 21 19 19 19 18 19 18 20 21 24 24 26 26 25 25 25 25 27 28 29 28 26 27 26 25 25 25 27 27 29 29 28 27 26 26 26 25 25 25 26 26 25 25 25 23 21 22 24 24 24 23 23 23 23 23 24 26 26 25 25 24 25 24 23 24 25 26 24 23 23 
20 21 20 20 19 21 23 22 22 23 24 25 26 25 26 26 25 24 21 20 23 24 25 23 21 21 22 22 24 23 23 24 21 22 20 19 17 16 14 16 15 13 13 15 16 15 12 12 11 10 10 10 12 12 13 14 15 13 14 15 14 14 14 15 17 19 19 18 18 16 15 15 17 17 16 13 10 12 11 11 11 12 12 11 11 9 9 10 10 11 10 8 9 8 8 9 9 11 11 9 11 12 12 12 12 11 12 13 14 14 15 17 17 18 16 14 13 14 17 18 18 16 17 16 16 17 18 19 17 17 18 18 19 18 17 17 17 16 17 17 16 15 13 12 11 12 13 12 13 9 8 8 9 8 9 8 7 8 10 12 13 14 13 13 14 13 13 10 11 12 14 14 11 10 11 9 9 9 6 5 4 5 4 3 3 3 2 0 0 0 0 0 0 0 0 1 0 0 0 0 0 0 0 0 0 0 0 0 0 0 0 0 0 0 0 0 0 0 0 0 0 0 0 0 0 0 0 1 0 0 0 0 0 0 0 0 0 0 0 0 0 0 0 0 0 0 0 0 0 0 0 0 0 0 0 0 0 0 0 0 0 0 0 0 0 0 0 0 0 0 0 0 0 0 0 0 0 0 0 0 0 0 0 0 0 0 0 0 0 0 0 0 0 0 0 0 0 0 0 0 0 0 0 0 0 0 0 0 0 0 0 0 0 0 0 0 0 0 0 0 0 0 0 0 0 0 0 0 0 0 0 0 0 0 0 0 0 0 0 0 0 0 0 0 0 0 0 0 0 0 0 0 0 0 0 0 0 0 0 0 0 0 0 0 0 0 0 0 0 0 0 0 0 0 0 0 0 0 0 0 0 0 0 0 0 0 0 0 0 0 0 0 0 0 0 0 0 0 0 0 0 0 0 0 0 0 0 0 0 0 0 0 0 0 0 0 0 0 0 0 0 0 0 0 0 0 0 0 0 0 0 0 0 0 0 0 0 0 0 0 0 0 0 0 0 0 0 0 0 0 0 0 0 0 0 0 0 0 0 0 0 0 0 0 0 0 0 0 0 0 0 0 0 0 1 0 0 1 2 2 1 0 0 0 0 0 0 0 0 0 0 0 0 0 0 0 0 0 0 0 0 0 0 0 0 1 0 0 0 0 0 0 0 0 0 0 2 3 4 5 5 5 6 6 7 9 9 11 10 7 8 6 4 3 3 4 7 6 5 8 8 7 5 6 6 7 6 5 7 7 7 7 9 7 9 9 9 8 11 13 12 13 14 13 13 13 15 17 18 19 18 19 18 20 19 20 21 22 23 25 26 27 26 24 22 23 24 26 28 27 27 25 25 25 25 25 25 26 27 28 27 26 26 27 26 25 25 25 24 25 26 24 23 23 23 23 23 24 24 23 22 22 23 23 23 23 25 26 25 26 27 27 26 25 26 27 26 25 24 22 
20 20 20 19 20 23 24 24 25 25 25 26 25 23 24 25 25 24 23 21 23 25 25 22 22 21 23 24 24 23 23 24 23 22 20 19 18 17 16 16 14 12 13 15 16 15 14 14 13 11 11 13 13 14 13 13 14 12 13 13 14 13 12 15 16 17 18 19 17 17 15 12 15 15 13 12 10 11 11 12 11 12 12 11 9 8 9 12 11 12 12 8 9 8 9 9 11 12 11 11 10 10 10 11 13 13 14 15 16 14 14 15 17 17 15 13 13 15 17 19 17 15 16 17 17 17 19 18 17 17 16 17 18 17 18 17 17 18 18 19 18 16 13 11 10 11 13 13 12 10 10 9 9 10 9 10 8 9 10 12 13 13 13 13 14 15 15 15 13 12 13 12 10 10 11 10 11 10 8 7 6 6 4 4 4 3 2 0 0 0 0 0 0 0 0 0 0 0 0 0 0 0 0 0 0 0 0 0 0 0 0 0 0 0 0 0 0 0 0 0 0 0 0 0 0 0 0 0 0 0 0 0 0 0 0 0 0 0 0 0 0 0 0 0 0 0 0 0 0 0 0 0 0 0 0 0 0 0 0 0 0 0 0 0 0 0 0 0 0 0 0 0 0 0 0 0 0 0 0 0 0 0 0 0 0 0 0 0 0 0 0 0 0 0 0 0 0 0 0 0 0 0 0 0 0 0 0 0 0 0 0 0 0 0 0 0 0 0 0 0 0 0 0 0 0 0 0 0 0 0 0 0 0 0 0 0 0 0 0 0 0 0 0 0 0 0 0 0 0 0 0 0 0 0 0 0 0 0 0 0 0 0 0 0 0 0 0 0 0 0 0 0 0 0 0 0 0 0 0 0 0 0 0 0 0 0 0 0 0 0 0 0 0 0 0 0 0 0 0 0 0 0 0 0 0 0 0 0 0 0 0 0 0 0 0 0 0 0 0 0 0 0 0 0 0 0 0 0 0 0 0 0 0 0 0 0 0 0 0 0 0 0 0 0 0 0 0 0 0 0 0 0 0 0 0 0 0 0 0 0 0 0 0 0 0 0 0 0 0 0 0 0 0 0 1 1 2 2 1 1 0 0 0 0 0 0 0 0 0 0 0 0 0 0 0 0 0 0 0 0 0 0 0 0 0 1 0 0 0 0 0 0 0 0 0 0 1 2 0 3 5 5 5 6 7 8 10 10 11 9 6 5 3 2 2 5 6 6 7 8 8 8 6 6 5 5 6 5 6 8 9 7 8 6 9 9 8 10 10 12 13 15 16 15 15 15 16 17 17 18 17 19 18 19 18 21 23 25 25 25 26 25 25 22 22 23 23 25 27 27 26 24 24 25 24 25 26 26 26 25 24 24 26 26 27 25 26 24 25 24 22 23 21 22 23 24 24 25 24 24 23 22 23 23 24 21 24 26 26 27 28 29 28 26 26 27 26 23 21 21 
21 21 20 20 21 24 24 26 25 25 25 25 24 23 23 23 26 26 23 23 24 25 25 24 22 21 24 22 21 23 22 24 23 22 22 21 21 18 17 16 14 13 12 13 15 15 13 12 12 12 14 14 13 12 13 12 12 13 13 13 11 11 12 14 17 18 18 18 18 15 13 11 13 13 11 10 11 11 12 10 9 11 12 11 8 7 8 9 10 10 9 7 8 7 8 11 13 14 12 11 10 9 10 13 13 16 16 17 17 16 15 15 16 15 14 14 13 14 15 19 18 15 15 16 17 17 17 16 15 15 15 15 17 17 18 18 17 17 18 17 17 16 14 13 12 14 14 13 11 10 9 9 9 12 11 11 11 11 12 12 13 14 13 13 14 15 17 14 13 11 11 9 8 8 10 11 11 9 8 6 7 6 4 4 4 3 0 0 0 0 0 0 0 0 0 0 1 0 0 0 0 0 0 0 0 0 0 0 0 0 0 0 0 0 0 0 0 0 0 0 0 0 0 0 0 0 0 0 0 0 0 0 0 0 0 0 0 0 0 0 0 0 0 0 0 0 0 0 0 0 0 0 0 0 0 0 0 0 0 0 0 0 0 0 0 0 0 0 0 0 0 0 0 0 0 0 0 0 0 0 0 0 0 0 0 0 0 0 0 0 0 0 0 0 0 0 0 0 0 0 0 0 0 0 0 0 0 0 0 0 0 0 0 0 0 0 0 0 0 0 0 0 0 0 0 0 0 0 0 0 0 0 0 0 0 0 0 0 0 0 0 0 0 0 0 0 0 0 0 0 0 0 0 0 0 0 0 0 0 0 0 0 0 0 0 0 0 0 0 0 0 0 0 0 0 0 0 0 0 0 0 0 0 0 0 0 0 0 0 0 0 0 0 0 0 0 0 0 0 0 0 0 0 0 0 0 0 0 0 0 0 0 0 0 0 0 0 0 0 0 0 0 0 0 0 0 0 0 0 0 0 0 0 0 0 0 0 0 0 0 0 0 0 0 0 0 0 0 0 0 0 0 0 0 0 0 0 0 0 0 0 0 0 0 0 0 0 0 0 0 0 0 0 0 1 2 3 2 2 1 0 0 0 0 0 0 1 3 2 1 0 0 0 0 0 0 0 0 0 0 0 0 0 0 0 0 0 0 0 0 0 0 0 0 0 0 0 0 1 3 2 1 2 5 7 8 10 10 10 8 7 7 6 4 4 5 5 9 8 8 9 8 8 6 4 4 3 5 6 8 9 9 8 7 8 10 10 9 10 12 14 16 17 17 17 16 16 16 16 18 16 17 17 16 18 21 23 23 25 24 24 25 24 21 23 24 26 27 28 25 25 23 25 24 24 24 24 26 26 27 25 25 25 26 25 25 25 23 23 23 24 23 22 22 22 23 25 26 25 26 25 23 25 25 23 23 25 27 27 28 28 27 26 28 26 26 25 23 22 21 
23 21 21 21 21 22 23 25 25 26 25 24 23 23 24 25 25 25 25 24 24 25 27 26 23 24 23 23 21 21 21 22 24 22 22 22 20 17 15 14 15 12 12 12 14 14 12 12 11 11 12 13 13 13 12 12 13 13 14 14 13 11 12 15 17 18 19 19 18 16 13 13 14 13 10 9 10 9 9 8 9 10 11 9 8 6 7 7 7 8 6 6 7 8 7 9 12 13 13 12 11 10 11 12 13 15 15 15 15 14 14 15 15 15 14 14 13 13 15 16 16 15 17 17 16 15 15 15 14 13 12 13 15 16 17 16 16 14 15 15 15 15 15 12 13 13 14 15 10 10 9 11 13 13 14 14 13 13 12 13 14 12 14 15 15 17 16 15 14 11 10 8 8 9 11 11 9 8 6 6 6 3 2 2 3 2 0 0 0 0 0 0 0 0 0 1 1 0 0 0 0 0 0 0 0 0 0 0 0 0 0 0 0 0 0 0 0 0 0 0 0 0 0 0 0 0 0 0 0 0 0 0 0 0 0 0 0 0 0 0 0 0 0 0 0 0 0 0 0 0 0 0 0 0 0 0 0 0 0 0 0 0 0 0 0 0 0 0 0 0 0 0 0 0 0 0 0 0 0 0 0 0 0 0 0 0 0 0 0 0 0 0 0 0 0 0 0 0 0 0 0 0 0 0 0 0 0 0 0 0 0 0 0 0 0 0 0 0 0 0 0 0 0 0 0 0 0 0 0 0 0 0 0 0 0 0 0 0 0 0 0 0 0 0 0 0 0 0 0 0 0 0 0 0 0 0 0 0 0 0 0 0 0 0 0 0 0 0 0 0 0 0 0 0 0 0 0 0 0 0 0 0 0 0 0 0 0 0 0 0 0 0 0 0 0 0 0 0 0 0 0 0 0 0 0 0 0 0 0 0 0 0 0 0 0 0 0 0 0 0 0 0 0 0 0 0 0 0 0 0 0 0 0 0 0 0 0 0 0 0 0 0 0 0 0 0 0 0 0 0 0 0 0 0 0 0 0 0 0 0 0 0 0 0 0 0 0 0 0 0 0 0 0 0 1 3 4 3 1 0 0 0 0 0 0 0 2 4 6 3 1 0 0 0 0 0 0 0 1 1 0 0 0 0 0 0 0 0 0 0 0 0 0 0 0 0 0 0 0 1 2 3 3 6 7 9 9 10 9 9 9 7 7 5 6 6 6 8 9 8 8 7 7 6 4 2 3 3 5 8 10 9 8 8 8 10 10 10 11 14 13 14 17 17 16 17 17 16 16 17 16 15 14 15 16 19 21 22 24 23 24 24 22 23 24 25 25 28 27 25 24 23 23 23 22 22 24 26 26 26 26 26 26 25 25 25 23 22 22 23 24 23 21 20 21 22 23 24 24 24 24 24 25 25 24 25 27 29 27 27 26 26 26 26 25 24 25 23 24 23 
25 22 24 24 23 22 23 27 27 28 26 23 22 22 23 25 25 24 24 23 23 25 27 27 26 23 21 21 21 20 22 23 23 22 22 22 19 18 15 15 13 12 13 11 13 12 11 12 12 10 10 10 10 14 14 14 12 14 16 15 13 13 13 16 17 18 20 21 21 19 15 14 14 14 11 11 10 10 8 8 10 10 9 9 8 8 7 6 6 6 5 4 5 6 7 10 12 12 12 12 12 11 11 12 12 13 15 16 13 13 13 13 12 12 14 13 13 12 13 15 15 14 14 14 15 16 15 14 13 14 13 11 13 14 14 13 13 15 14 13 13 14 13 12 11 14 14 13 11 9 11 13 15 15 15 14 14 13 12 14 13 15 15 15 17 16 16 14 14 11 9 8 9 11 11 9 7 7 5 3 4 2 1 0 1 1 0 0 0 0 0 0 0 0 0 0 1 0 0 0 0 0 0 0 0 0 0 0 0 0 0 0 0 0 0 0 0 0 0 0 0 0 0 0 0 0 0 0 0 0 0 0 0 0 0 0 0 0 0 0 0 0 0 0 0 0 0 0 0 0 0 0 0 0 0 0 0 0 0 0 0 0 0 0 0 0 0 0 0 0 0 0 0 0 0 0 0 0 0 0 0 0 0 0 0 0 0 0 0 0 0 0 0 0 0 0 0 0 0 0 0 0 0 0 0 0 0 0 0 0 0 0 0 0 0 0 0 0 0 0 0 0 0 0 0 0 0 0 0 0 0 0 0 0 0 0 0 0 0 0 0 0 0 0 0 0 0 0 0 0 0 0 0 0 0 0 0 0 0 0 0 0 0 0 0 0 0 0 0 0 0 0 0 0 0 0 0 0 0 0 0 0 0 0 0 0 0 0 0 0 0 0 0 0 0 0 0 0 0 0 0 0 0 0 0 0 0 0 0 0 0 0 0 0 0 0 0 0 0 0 0 0 0 0 0 0 0 0 0 0 0 0 0 0 0 0 0 0 0 0 0 0 0 0 0 0 0 0 0 0 0 0 0 0 0 0 0 0 0 0 0 0 0 0 0 0 0 0 0 0 0 0 0 0 0 2 1 1 1 0 0 0 0 0 0 1 3 6 6 4 0 0 0 0 0 0 0 0 1 1 0 0 0 0 0 0 0 0 0 0 0 0 0 0 0 0 0 0 0 0 3 2 6 8 9 10 10 14 12 10 10 8 7 6 6 7 6 9 10 10 9 8 8 6 4 3 5 4 6 8 10 10 10 9 9 8 9 11 12 11 12 14 16 16 18 17 17 16 15 14 15 13 12 12 13 17 20 20 21 22 25 26 23 25 25 27 26 26 25 24 24 22 23 22 23 22 23 25 27 26 27 25 25 27 24 24 26 23 21 22 24 22 20 20 20 23 23 23 22 23 23 24 25 25 26 26 27 28 27 24 25 28 26 27 27 25 26 26 26 26 
28 25 25 24 24 23 25 27 27 28 27 24 22 21 21 25 24 23 22 23 24 23 25 25 23 23 23 23 23 23 25 23 21 20 20 20 20 18 16 16 14 13 15 12 12 13 11 10 11 10 9 9 10 12 13 12 12 14 15 14 12 13 14 16 18 19 21 20 19 18 15 14 13 12 14 12 12 10 10 8 9 9 9 9 8 8 7 5 5 5 3 3 4 3 6 8 11 10 11 13 12 12 12 11 12 14 13 13 11 10 11 12 11 12 13 15 13 11 13 14 15 13 12 14 15 15 13 14 13 13 12 11 11 11 12 10 12 12 14 13 13 12 12 10 10 14 14 13 12 10 12 15 16 17 18 15 15 14 14 16 15 15 15 14 16 16 16 16 14 11 10 10 11 12 10 9 6 6 5 6 3 2 1 1 0 0 0 0 0 0 0 0 0 0 0 0 0 0 0 0 0 0 0 0 0 0 0 0 0 0 0 0 0 0 0 0 0 0 0 0 0 0 0 0 0 0 0 0 0 0 0 0 0 0 0 0 0 0 0 0 0 0 0 0 0 0 0 0 0 0 0 0 0 0 0 0 0 0 0 0 0 0 0 0 0 0 0 0 0 0 0 0 0 0 0 0 0 0 0 0 0 0 0 0 0 0 0 0 0 0 0 0 0 0 0 0 0 0 0 0 0 0 0 0 0 0 0 0 0 0 0 0 0 0 0 0 0 0 0 0 0 0 0 0 0 0 0 0 0 0 0 0 0 0 0 0 0 0 0 0 0 0 0 0 0 0 0 0 0 0 0 0 0 0 0 0 0 0 0 0 0 0 0 0 0 0 0 0 0 0 0 0 0 0 0 0 0 0 0 0 0 0 0 0 0 0 0 0 0 0 0 0 0 0 0 0 0 0 0 0 0 0 0 0 0 0 0 0 0 0 0 0 0 0 0 0 0 0 0 0 0 0 0 0 0 0 0 0 0 0 0 0 0 0 0 0 0 0 0 0 0 0 0 0 0 0 0 0 0 0 0 0 0 0 0 0 0 1 0 0 0 0 0 0 0 0 0 0 0 0 0 0 0 0 0 0 0 0 0 0 0 0 1 0 2 2 4 6 6 3 0 0 0 0 0 0 0 0 1 2 0 0 0 0 0 0 0 0 0 0 0 0 0 0 0 0 0 0 0 0 1 3 4 7 10 10 12 13 12 11 10 8 8 8 7 7 7 8 10 10 7 6 7 5 3 4 5 6 7 10 9 11 10 9 8 8 8 9 12 12 13 13 16 16 19 19 18 15 13 14 14 14 11 11 14 17 20 19 19 22 25 26 26 25 26 26 26 26 24 23 23 22 22 23 23 23 26 27 28 28 25 25 25 26 25 25 25 23 22 23 23 22 20 20 20 21 21 21 22 21 21 23 24 27 27 26 26 26 27 25 26 27 25 27 28 26 28 29 29 28 
27 24 24 27 26 27 26 27 27 28 27 26 23 22 23 25 23 23 23 22 22 23 25 23 22 22 25 24 24 25 24 22 20 19 19 18 18 16 15 17 17 17 16 15 14 14 13 13 12 11 10 10 10 10 9 9 10 11 10 10 11 12 15 15 17 18 19 19 16 15 15 14 14 14 14 12 12 10 9 9 10 9 10 9 8 8 7 6 7 7 4 4 5 4 5 7 11 15 14 16 16 13 12 12 13 12 11 11 12 12 11 12 12 11 13 15 13 10 11 13 12 10 10 12 13 13 13 13 14 12 11 12 12 9 8 9 11 13 15 14 13 13 11 10 10 13 14 14 12 13 13 16 17 18 17 15 13 14 16 16 16 15 14 14 15 16 16 16 14 13 12 12 12 10 9 7 7 6 8 9 6 4 1 0 0 0 0 1 1 1 1 0 0 0 0 1 0 0 0 0 0 0 0 0 0 0 0 0 0 0 0 0 0 0 0 0 0 0 0 0 0 0 0 0 0 0 0 0 0 0 0 0 0 0 0 0 0 0 0 0 0 0 0 0 0 0 0 0 0 0 0 0 0 0 0 0 0 0 0 0 0 0 0 0 0 0 0 0 0 0 0 0 0 0 0 0 0 0 0 0 0 0 0 0 0 0 0 0 0 0 0 0 0 0 0 0 0 0 0 0 0 0 0 0 0 0 0 0 0 0 0 0 0 0 0 0 0 0 0 0 0 0 0 0 0 0 0 0 0 0 0 0 0 0 0 0 0 0 0 0 0 0 0 0 0 0 0 0 0 0 0 0 0 0 0 0 0 0 0 0 0 0 0 0 0 0 0 0 0 0 0 0 0 0 0 0 0 0 0 0 0 0 0 0 0 0 0 0 0 0 0 0 0 0 0 0 0 0 0 0 0 0 0 0 0 0 0 0 0 0 0 0 0 0 0 0 0 0 0 0 0 0 0 0 0 0 0 0 0 0 0 0 0 0 0 0 0 0 0 0 0 0 0 0 0 0 0 0 0 0 0 0 0 0 0 0 1 3 3 2 0 0 0 0 0 0 0 0 0 0 0 0 0 0 0 0 0 0 0 0 0 1 2 3 4 4 5 6 5 3 0 0 0 0 0 0 0 0 0 0 0 0 0 0 0 0 0 0 0 0 0 0 0 0 0 0 0 0 1 2 2 4 4 6 7 9 9 11 11 11 9 8 9 10 7 7 8 9 11 10 8 9 8 6 4 6 6 7 7 9 9 9 10 9 8 8 6 9 12 13 12 14 16 16 17 18 18 17 15 13 13 14 12 12 15 18 21 20 20 22 24 25 24 23 21 23 25 25 23 22 21 22 22 23 24 24 27 28 29 27 26 26 27 27 26 25 25 25 25 26 23 22 21 22 22 22 20 22 22 20 21 22 25 26 28 27 26 28 29 28 27 26 26 27 28 28 29 32 29 28 
26 24 25 26 28 29 28 27 27 28 28 28 24 22 23 25 22 23 24 22 21 22 22 21 22 22 24 23 24 24 24 22 20 19 21 17 16 15 15 17 18 16 17 15 13 14 13 12 12 10 9 10 9 7 5 6 7 10 8 7 8 11 14 13 14 17 17 14 14 12 13 12 14 14 13 12 12 11 9 9 9 10 11 9 9 8 8 6 9 9 7 6 5 5 6 8 12 13 15 15 15 13 13 13 12 11 10 12 13 11 11 11 10 12 13 13 11 9 10 9 8 7 8 9 13 14 16 16 17 13 11 10 10 8 9 11 11 12 13 14 13 13 13 10 11 11 13 14 13 12 13 15 17 19 19 15 16 15 15 16 16 14 14 14 16 16 17 17 16 15 13 13 11 11 9 8 7 6 6 7 4 2 1 0 1 1 2 2 1 1 1 0 0 1 0 1 0 0 0 0 0 0 0 0 0 0 0 0 0 0 0 0 0 0 0 0 0 0 0 0 0 0 0 0 0 0 0 0 0 0 0 0 0 0 0 0 0 0 0 0 0 0 0 0 0 0 0 0 0 0 0 0 0 0 0 0 0 0 0 0 0 0 0 0 0 0 0 0 0 0 0 0 0 0 0 0 0 0 0 0 0 0 0 0 0 0 0 0 0 0 0 0 0 0 0 0 0 0 0 0 0 0 0 0 0 0 0 0 0 0 0 0 0 0 0 0 0 0 0 0 0 0 0 0 0 0 0 0 0 0 0 0 0 0 0 0 0 0 0 0 0 0 0 0 0 0 0 0 0 0 0 0 0 0 0 0 0 0 0 0 0 0 0 0 0 0 0 0 0 0 0 0 0 0 0 0 0 0 0 0 0 0 0 0 0 0 0 0 0 0 0 0 0 0 0 0 0 0 0 0 0 0 0 0 0 0 0 0 0 0 0 0 0 0 0 0 0 0 0 0 0 0 0 0 0 0 0 0 0 0 0 0 0 0 0 0 0 0 0 0 0 0 0 0 0 0 0 0 0 0 0 0 0 1 0 0 0 2 1 2 0 0 0 0 0 0 0 0 0 0 0 0 0 0 0 0 0 0 0 0 0 3 3 3 5 4 4 5 4 0 0 0 0 0 1 0 0 0 0 0 0 0 0 0 0 0 0 0 0 0 0 0 0 0 0 0 0 0 0 3 3 4 5 6 8 9 9 10 11 9 7 6 7 8 7 8 9 10 11 12 11 9 8 7 7 7 7 8 9 8 8 7 8 9 8 7 7 9 11 13 12 14 16 16 16 17 18 15 14 13 13 15 14 15 16 19 21 23 22 22 23 23 21 20 18 20 23 23 23 20 19 19 19 21 22 23 24 28 28 28 29 29 27 27 27 25 25 26 26 26 25 24 25 23 22 23 21 23 23 22 21 22 24 26 28 30 29 28 27 26 25 26 27 30 30 29 28 28 27 27 
25 24 24 26 28 29 27 26 26 27 29 27 24 22 23 22 22 25 24 22 21 22 21 21 22 24 24 24 24 23 23 22 20 19 21 18 16 16 17 17 17 17 18 15 13 13 15 13 12 10 7 7 6 4 2 4 7 8 7 5 7 11 12 12 11 13 13 13 11 11 11 10 11 12 11 11 11 10 9 11 11 11 9 8 10 10 10 9 11 9 7 4 5 5 7 10 12 13 15 14 13 12 11 12 11 10 12 14 13 10 8 9 9 11 11 11 11 9 10 7 7 5 6 9 13 16 17 16 16 13 12 10 9 8 8 10 11 12 13 15 12 11 10 10 9 12 12 12 13 13 12 13 17 18 17 16 17 16 16 17 17 15 16 16 17 16 18 18 15 14 13 14 12 12 11 9 7 6 5 3 2 0 2 3 3 4 3 5 5 4 2 1 1 0 0 0 0 0 0 0 0 0 0 0 0 0 0 0 0 0 0 0 0 0 0 0 0 0 0 0 0 0 0 0 0 0 0 0 0 0 0 0 0 0 0 0 0 0 0 0 0 0 0 0 0 0 0 0 0 0 0 0 0 0 0 0 0 0 0 0 0 0 0 0 0 0 0 0 0 0 0 0 0 0 0 0 0 0 0 0 0 0 0 0 0 0 0 0 0 0 0 0 0 0 0 0 0 0 0 0 0 0 0 0 0 0 0 0 0 0 0 0 0 0 0 0 0 0 0 0 0 0 0 0 0 0 0 0 0 0 0 0 0 0 0 0 0 0 0 0 0 0 0 0 0 0 0 0 0 0 0 0 0 0 0 0 0 0 0 0 0 0 0 0 0 0 0 0 0 0 0 0 0 0 0 0 0 0 0 0 0 0 0 0 0 0 0 0 0 0 0 0 0 0 0 0 0 0 0 0 0 0 0 0 0 0 0 0 0 0 0 0 0 0 0 0 0 0 0 0 0 0 0 0 0 0 0 0 0 0 0 0 0 0 0 0 0 0 0 0 0 0 0 0 0 0 0 0 0 0 0 0 0 2 0 0 0 0 1 1 0 0 0 0 0 0 0 0 0 0 0 0 0 0 0 0 0 0 0 0 2 3 1 3 3 1 3 1 1 0 0 0 0 0 0 0 0 0 0 0 0 0 0 0 0 0 0 0 0 0 0 0 0 0 0 0 0 0 0 1 3 4 5 6 8 9 11 11 12 9 7 6 7 7 7 9 11 11 10 10 11 9 8 8 9 9 10 10 11 9 7 8 9 10 9 9 8 8 9 9 11 13 14 15 15 17 17 14 12 12 12 14 14 16 15 18 20 21 20 20 20 20 18 16 17 17 21 22 21 18 17 17 19 21 21 22 24 26 28 28 28 27 26 25 26 26 25 25 25 27 25 26 25 25 24 23 22 23 23 22 22 24 24 27 28 29 31 29 26 24 25 28 28 29 30 30 30 28 27 26 
25 24 25 25 26 27 29 27 26 27 27 25 23 23 23 23 23 23 23 23 22 20 20 22 23 24 25 24 23 22 22 21 20 22 21 20 18 19 20 19 18 19 19 14 13 14 14 12 11 8 5 6 5 4 3 4 7 9 7 6 7 9 12 13 11 11 11 11 10 9 10 8 8 11 10 11 10 8 9 9 10 9 9 9 11 12 11 11 9 10 8 5 7 8 9 11 10 12 13 12 11 12 11 12 11 13 13 14 12 9 7 7 8 10 11 9 9 9 7 6 5 3 5 7 10 13 13 14 14 14 13 10 8 8 9 9 10 10 10 12 13 10 10 9 8 10 10 11 11 11 11 10 14 15 16 17 18 18 18 18 16 15 15 17 16 19 18 16 15 16 15 15 15 14 11 9 7 5 3 3 3 2 3 4 3 2 3 6 4 4 2 2 1 0 0 0 0 0 0 0 0 0 0 0 0 0 0 0 0 0 0 0 0 0 0 0 0 0 0 0 0 0 0 0 0 0 0 0 0 0 0 0 0 0 0 0 0 0 0 0 0 0 0 0 0 0 0 0 0 0 0 0 0 0 0 0 0 0 0 0 0 0 0 0 0 0 0 0 0 0 0 0 0 0 0 0 0 0 0 0 0 0 0 0 0 0 0 0 0 0 0 0 0 0 0 0 0 0 0 0 0 0 0 0 0 0 0 0 0 0 0 0 0 0 0 0 0 0 0 0 0 0 0 0 0 0 0 0 0 0 0 0 0 0 0 0 0 0 0 0 0 0 0 0 0 0 0 0 0 0 0 0 0 0 0 0 0 0 0 0 0 0 0 0 0 0 0 0 0 0 0 0 0 0 0 0 0 0 0 0 0 0 0 0 0 0 0 0 0 0 0 0 0 0 0 0 0 0 0 0 0 0 0 0 0 0 0 0 0 0 0 0 0 0 0 0 0 0 0 0 0 0 0 0 0 0 0 0 0 0 0 0 0 0 0 0 0 0 0 0 0 0 0 0 0 0 0 0 0 0 0 0 0 0 1 0 0 0 0 1 2 0 0 0 0 0 0 0 0 0 0 0 0 0 0 0 0 0 0 0 1 3 1 0 2 1 0 0 0 0 0 0 0 0 0 0 0 0 0 0 0 0 0 0 0 0 0 0 0 0 0 0 0 0 0 0 0 0 0 1 2 3 4 6 9 9 9 10 10 8 6 7 7 8 8 10 10 10 9 9 10 9 9 9 9 9 11 11 11 10 9 10 10 9 11 10 9 7 8 8 9 11 12 13 15 15 16 15 13 12 12 12 14 15 15 17 19 18 19 19 19 19 18 16 17 17 20 21 20 18 18 20 21 21 22 22 24 26 27 28 27 28 27 26 26 26 25 26 25 26 25 26 24 25 23 23 24 22 22 24 23 24 25 25 26 25 26 25 24 25 25 26 27 28 30 29 29 28 28 26 
25 26 27 26 28 29 29 29 26 26 26 25 24 26 24 26 26 25 26 23 22 22 22 23 24 22 24 25 24 24 21 21 21 22 22 20 19 20 22 21 19 18 17 15 13 12 13 10 8 5 4 6 5 6 5 4 7 8 6 6 6 9 10 13 12 11 9 9 9 9 7 6 7 10 12 10 9 8 9 10 10 10 11 11 13 13 12 10 9 10 10 9 9 9 9 10 10 11 13 12 12 10 13 13 13 13 13 12 12 9 8 8 9 11 9 8 7 6 5 5 3 3 4 5 8 12 12 12 12 12 11 9 6 7 9 10 11 11 9 9 12 12 10 9 9 10 11 12 10 10 9 10 11 13 14 16 17 18 18 17 17 16 16 18 18 19 18 17 17 16 16 15 16 14 12 10 8 6 3 2 3 3 4 4 3 3 5 5 6 5 4 2 1 0 0 0 0 0 0 0 0 0 0 0 0 0 0 0 0 0 0 0 0 0 0 0 0 0 0 0 0 0 0 0 0 0 0 0 0 0 0 0 0 0 0 0 0 0 0 0 0 0 0 0 0 0 0 0 0 0 0 0 0 0 0 0 0 0 0 0 0 0 0 0 0 0 0 0 0 0 0 0 0 0 0 0 0 0 0 0 0 0 0 0 0 0 0 0 0 0 0 0 0 0 0 0 0 0 0 0 0 0 0 0 0 0 0 0 0 0 0 0 0 0 0 0 0 0 0 0 0 0 0 0 0 0 0 0 0 0 0 0 0 0 0 0 0 0 0 0 0 0 0 0 0 0 0 0 0 0 0 0 0 0 0 0 0 0 0 0 0 0 0 0 0 0 0 0 0 0 0 0 0 0 0 0 0 0 0 0 0 0 0 0 0 0 0 0 0 0 0 0 0 0 0 0 0 0 0 0 0 0 0 0 0 0 0 0 0 0 0 0 0 0 0 0 0 0 0 0 0 0 0 0 0 0 0 0 0 0 0 0 0 0 0 0 0 0 0 0 0 0 0 0 0 0 0 0 0 0 0 0 0 0 0 0 0 0 0 0 0 0 0 0 0 0 0 0 0 0 0 0 0 0 0 0 0 0 0 0 0 0 0 1 2 0 0 0 0 0 0 0 0 0 0 0 1 0 0 0 0 0 0 0 0 0 0 0 0 0 0 0 0 0 0 0 0 0 0 0 0 2 2 6 7 9 9 9 9 6 5 7 7 6 7 8 8 8 8 9 9 9 10 10 10 9 11 12 11 11 11 10 12 11 11 11 11 10 8 7 8 9 11 12 11 12 13 14 14 14 12 13 14 14 15 17 18 19 18 18 18 17 18 17 16 16 19 19 20 20 19 21 22 21 23 23 23 26 26 27 28 29 28 26 25 24 25 25 25 24 23 25 23 23 23 23 23 22 22 24 25 24 24 24 24 23 23 22 23 23 24 24 25 26 27 27 27 26 26 26 
24 26 27 27 28 29 30 29 28 27 28 28 28 27 26 28 28 27 28 26 25 26 25 24 24 24 24 25 24 21 19 20 22 23 21 20 18 18 20 21 18 17 16 16 14 12 12 10 9 6 6 7 8 7 6 6 6 6 6 6 7 10 10 10 11 9 9 7 7 7 6 5 7 9 11 11 10 10 10 10 10 11 11 13 13 14 13 12 13 13 11 11 10 11 11 11 12 12 12 13 12 13 15 14 12 11 13 13 13 12 11 11 10 10 9 6 5 6 4 5 3 0 1 3 7 10 11 9 9 11 11 9 8 9 11 13 13 11 10 11 12 11 12 11 7 7 8 10 9 10 9 11 11 12 13 16 17 18 18 18 19 16 17 19 19 18 18 17 16 16 14 14 14 12 12 11 9 5 4 2 4 3 3 4 4 5 5 6 7 6 4 3 1 0 0 0 0 0 0 0 0 0 0 0 0 0 0 0 0 0 0 0 0 0 0 0 0 0 0 0 0 0 0 0 0 0 0 0 0 0 0 0 0 0 0 0 0 0 0 0 0 0 0 0 0 0 0 0 0 0 0 0 0 0 0 0 0 0 0 0 0 0 0 0 0 0 0 0 0 0 0 0 0 0 0 0 0 0 0 0 0 0 0 0 0 0 0 0 0 0 0 0 0 0 0 0 0 0 0 0 0 0 0 0 0 0 0 0 0 0 0 0 0 0 0 0 0 0 0 0 0 0 0 0 0 0 0 0 0 0 0 0 0 0 0 0 0 0 0 0 0 0 0 0 0 0 0 0 0 0 0 0 0 0 0 0 0 0 0 0 0 0 0 0 0 0 0 0 0 0 0 0 0 0 0 0 0 0 0 0 0 0 0 0 0 0 0 0 0 0 0 0 0 0 0 0 0 0 0 0 0 0 0 0 0 0 0 0 0 0 0 0 0 0 0 0 0 0 0 0 0 0 0 0 0 0 0 0 0 0 0 0 0 0 0 0 0 0 0 0 0 0 0 0 0 0 0 0 0 0 0 0 0 0 0 0 0 0 0 0 0 0 0 0 0 0 0 0 0 0 0 0 0 0 0 0 0 0 0 0 0 0 0 1 0 0 0 0 0 0 0 0 0 0 0 0 1 0 0 0 0 0 0 0 0 0 0 0 0 0 0 0 0 0 0 0 0 0 0 0 0 0 0 3 8 9 9 9 9 7 7 7 5 4 2 2 3 8 7 8 10 10 10 9 7 9 11 12 11 11 11 12 11 10 11 12 11 12 12 10 11 10 9 9 9 12 13 13 12 13 13 13 14 15 16 15 17 19 18 20 18 17 17 16 15 15 16 17 19 19 20 24 23 22 22 22 23 24 27 27 27 28 26 24 24 24 22 22 23 21 21 23 22 24 24 23 22 21 22 23 25 26 24 25 24 22 22 21 22 23 22 21 22 24 25 25 25 25 25 24 
24 25 27 26 27 28 28 28 29 30 30 30 29 29 30 28 30 30 28 27 26 26 25 24 25 23 24 25 22 20 18 18 19 21 19 18 18 17 18 18 16 16 15 14 12 12 11 10 9 9 10 10 11 11 9 7 5 3 4 6 7 7 8 8 8 9 7 6 5 6 5 4 5 6 8 9 10 10 9 10 10 11 12 13 12 13 14 13 12 13 13 11 11 11 11 11 12 14 14 15 14 14 16 15 13 12 14 12 13 12 11 12 11 10 8 6 5 5 4 3 2 0 0 3 6 8 9 7 8 9 10 8 9 10 12 14 14 12 12 13 14 13 12 9 7 6 8 9 9 10 10 12 12 14 15 15 19 20 18 17 18 18 17 17 18 17 17 16 16 14 13 12 12 11 11 11 8 5 4 5 4 2 4 5 6 5 6 7 7 6 4 2 0 0 0 0 0 0 0 0 0 0 0 0 0 0 0 0 0 0 0 0 0 0 0 0 0 0 0 0 0 0 0 0 0 0 0 0 0 0 0 0 0 0 0 0 0 0 0 0 0 0 0 0 0 0 0 0 0 0 0 0 0 0 0 0 0 0 0 0 0 0 0 0 0 0 0 0 0 0 0 0 0 0 0 0 0 0 0 0 0 0 0 0 0 0 0 0 0 0 0 0 0 0 0 0 0 0 0 0 0 0 0 0 0 0 0 0 0 0 0 0 0 0 0 0 0 0 0 0 0 0 0 0 0 0 0 0 0 0 0 0 0 0 0 0 0 0 0 0 0 0 0 0 0 0 0 0 0 0 0 0 0 0 0 0 0 0 0 0 0 0 0 0 0 0 0 0 0 0 0 0 0 0 0 0 0 0 0 0 0 0 0 0 0 0 0 0 0 0 0 0 0 0 0 0 0 0 0 0 0 0 0 0 0 0 0 0 0 0 0 0 0 0 0 0 0 0 0 0 0 0 0 0 0 0 0 0 0 0 0 0 0 0 0 0 0 0 0 0 0 0 0 0 0 0 0 0 0 0 0 0 0 0 0 0 0 0 0 0 0 0 0 0 0 0 0 0 0 0 0 0 0 0 0 0 0 0 0 0 0 0 0 0 0 0 0 0 0 0 0 0 0 0 0 0 0 0 0 0 0 0 0 0 0 0 0 0 0 0 0 0 0 0 0 0 0 0 0 0 0 0 2 4 7 7 9 8 9 8 8 7 3 2 0 1 3 6 8 9 10 10 10 8 8 9 12 12 11 10 11 11 13 12 13 14 14 13 13 12 10 8 7 7 8 11 12 11 11 11 11 11 12 15 15 15 17 20 21 20 19 17 17 17 16 15 15 17 18 19 22 22 24 22 21 22 21 23 25 26 26 26 24 24 22 21 20 20 19 19 18 19 20 21 21 21 21 21 22 25 27 26 25 25 23 22 21 21 22 23 21 19 19 21 23 24 25 24 25 24 
24 25 26 25 26 26 27 28 30 31 31 31 31 31 29 29 29 29 29 28 27 24 24 23 23 22 23 24 23 21 19 17 17 18 18 17 17 15 15 16 16 16 14 11 11 12 11 11 10 12 12 13 15 13 11 8 5 5 4 5 6 6 7 5 5 6 6 5 5 4 5 2 2 5 6 7 8 8 8 7 9 11 13 13 13 13 13 12 12 13 14 12 13 12 11 11 13 14 16 17 15 16 17 16 13 12 14 13 12 10 9 11 10 9 9 8 7 6 6 4 3 1 1 2 3 5 7 6 7 9 9 7 8 10 11 13 14 13 13 14 14 13 11 8 6 6 7 9 9 11 13 14 13 13 14 16 18 18 17 16 16 18 18 16 14 15 15 14 14 14 12 11 10 10 10 10 7 5 5 5 4 4 5 7 6 7 7 9 10 7 5 4 1 0 1 1 1 1 1 0 0 0 0 0 0 0 0 0 0 0 0 0 0 0 0 0 0 0 0 0 0 0 0 0 0 0 0 0 0 0 0 0 0 0 0 0 0 0 0 0 0 0 0 0 0 0 0 0 0 0 0 0 0 0 0 0 0 0 0 0 0 0 0 0 0 0 0 0 0 0 0 0 0 0 0 0 0 0 0 0 0 0 0 0 0 0 0 0 0 0 0 0 0 0 0 0 0 0 0 0 0 0 0 0 0 0 0 0 0 0 0 0 0 0 0 0 0 0 0 0 0 0 0 0 0 0 0 0 0 0 0 0 0 0 0 0 0 0 0 0 0 0 0 0 0 0 0 0 0 0 0 0 0 0 0 0 0 0 0 0 0 0 0 0 0 0 0 0 0 0 0 0 0 0 0 0 0 0 0 0 0 0 0 0 0 0 0 0 0 0 0 0 0 0 0 0 0 0 0 0 0 0 0 0 0 0 0 0 0 0 0 0 0 0 0 0 0 0 0 0 0 0 0 0 0 0 0 0 0 0 0 0 0 0 0 0 0 0 0 0 0 0 0 0 0 0 0 0 0 0 0 0 0 0 0 0 0 0 0 0 0 0 0 0 0 0 0 0 0 0 0 0 0 0 0 0 0 0 0 0 0 0 1 0 0 0 0 0 0 0 0 0 0 0 0 0 0 0 0 0 0 0 0 0 0 0 0 0 0 0 0 0 0 0 0 0 0 0 0 0 0 0 1 5 5 7 6 8 7 7 5 4 3 3 2 3 5 6 7 9 11 11 10 10 11 11 12 11 11 10 11 11 11 11 12 12 15 15 15 14 11 10 9 10 10 12 12 11 10 11 12 12 12 14 16 17 19 22 21 21 18 17 17 17 16 16 17 18 18 18 21 21 22 22 20 21 22 24 24 24 24 23 23 22 20 19 19 19 19 19 17 17 18 17 19 20 20 21 22 24 27 27 26 23 23 20 21 21 21 22 20 20 19 22 23 24 24 24 23 23 
23 24 27 27 28 28 28 28 30 32 31 31 31 29 28 28 29 29 28 27 25 25 25 23 22 21 22 23 21 20 18 17 18 18 17 16 15 15 16 16 16 16 13 11 11 13 14 14 12 13 13 14 13 13 11 7 5 5 5 7 8 7 6 4 2 4 5 4 4 5 5 2 3 5 5 5 6 5 7 8 10 11 13 13 13 13 13 12 13 14 14 14 14 12 11 11 13 15 18 18 16 18 16 15 13 11 13 11 10 9 10 11 11 9 9 8 7 8 8 6 3 2 1 0 1 3 5 5 7 7 8 8 9 10 12 11 12 12 12 12 12 11 11 7 6 6 8 9 9 13 13 13 13 13 15 17 17 16 16 15 16 18 17 15 15 14 14 12 13 12 11 10 8 8 9 8 6 4 5 5 4 4 5 7 6 7 7 8 9 8 6 4 2 1 1 2 1 1 1 0 0 0 0 0 0 0 0 0 0 0 0 0 0 0 0 0 0 0 0 0 0 0 0 0 0 0 0 0 0 0 0 0 0 0 0 0 0 0 0 0 0 0 0 0 0 0 0 0 0 0 0 0 0 0 0 0 0 0 0 0 0 0 0 0 0 0 0 0 0 0 0 0 0 0 0 0 0 0 0 0 0 0 0 0 0 0 0 0 0 0 0 0 0 0 0 0 0 0 0 0 0 0 0 0 0 0 0 0 0 0 0 0 0 0 0 0 0 0 0 0 0 0 0 0 0 0 0 0 0 0 0 0 0 0 0 0 0 0 0 0 0 0 0 0 0 0 0 0 0 0 0 0 0 0 0 0 0 0 0 0 0 0 0 0 0 0 0 0 0 0 0 0 0 0 0 0 0 0 0 0 0 0 0 0 0 0 0 0 0 0 0 0 0 0 0 0 0 0 0 0 0 0 0 0 0 0 0 0 0 0 0 0 0 0 0 0 0 0 0 0 0 0 0 0 0 0 0 0 0 0 0 0 0 0 0 0 0 0 0 0 0 0 0 0 0 0 0 0 0 0 0 0 0 0 0 0 0 0 0 0 0 0 0 0 0 0 0 0 0 0 0 0 0 0 0 0 0 0 0 0 0 0 0 1 0 0 0 0 0 0 0 0 0 0 0 0 0 0 0 0 0 0 0 0 0 0 0 0 0 0 0 0 0 0 0 0 0 0 0 0 0 0 2 2 4 5 6 6 6 7 4 4 3 2 2 5 5 5 7 8 11 11 10 11 13 14 14 14 12 10 10 11 11 10 12 12 14 16 15 15 14 13 13 13 12 13 13 12 10 12 13 11 12 14 16 16 19 19 19 18 18 18 18 17 16 16 17 18 18 18 18 20 22 21 20 20 22 23 23 22 24 23 22 20 18 18 18 18 19 18 18 17 17 17 19 19 19 19 21 24 25 24 25 22 20 20 21 21 21 22 22 21 20 22 24 23 23 22 22 23 
25 26 26 27 27 29 27 28 30 31 31 32 31 30 27 28 27 27 27 26 26 24 23 23 22 24 23 24 23 20 19 17 17 19 20 18 17 15 14 14 15 14 12 11 13 16 17 16 13 13 12 12 11 11 10 6 4 2 3 5 5 6 5 4 2 4 5 4 4 5 3 1 2 4 4 6 5 4 5 9 10 13 13 11 11 12 13 14 15 16 17 15 11 10 11 11 12 15 16 17 17 17 16 15 14 13 11 11 10 10 11 12 12 11 10 9 9 9 7 5 3 0 0 0 0 4 6 5 7 7 6 8 9 10 12 11 10 9 9 7 8 8 8 6 7 8 8 9 11 12 14 13 12 12 15 16 17 19 17 16 16 16 16 15 15 14 12 11 10 11 11 9 9 9 8 6 6 5 4 4 4 4 5 6 8 7 8 8 9 8 5 4 4 3 2 1 1 2 2 1 0 0 0 0 0 0 0 0 0 0 0 0 0 0 0 0 0 0 0 0 0 0 0 0 0 0 0 0 0 0 0 0 0 0 0 0 0 0 0 0 0 0 0 0 0 0 0 0 0 0 0 0 0 0 0 0 0 0 0 0 0 0 0 0 0 0 0 0 0 0 0 0 0 0 0 0 0 0 0 0 0 0 0 0 0 0 0 0 0 0 0 0 0 0 0 0 0 0 0 0 0 0 0 0 0 0 0 0 0 0 0 0 0 0 0 0 0 0 0 0 0 0 0 0 0 0 0 0 0 0 0 0 0 0 0 0 0 0 0 0 0 0 0 0 0 0 0 0 0 0 0 0 0 0 0 0 0 0 0 0 0 0 0 0 0 0 0 0 0 0 0 0 0 0 0 0 0 0 0 0 0 0 0 0 0 0 0 0 0 0 0 0 0 0 0 0 0 0 0 0 0 0 0 0 0 0 0 0 0 0 0 0 0 0 0 0 0 0 0 0 0 0 0 0 0 0 0 0 0 0 0 0 0 0 0 0 0 0 0 0 0 0 0 0 0 0 0 0 0 0 0 0 0 0 0 0 0 0 0 0 0 0 0 0 0 0 0 0 0 0 0 0 0 0 0 0 0 0 0 0 0 0 1 1 1 0 0 0 0 0 0 0 0 0 0 0 0 0 0 0 0 0 0 0 0 0 0 0 0 0 0 0 0 0 0 0 0 0 0 0 0 1 3 3 5 4 5 6 6 6 6 5 3 1 1 3 5 5 5 7 10 10 11 11 13 15 15 14 13 12 12 11 11 10 11 13 16 17 16 15 14 14 16 14 14 14 13 11 12 13 12 11 14 14 17 17 16 18 18 18 20 20 18 17 19 18 17 19 17 17 17 19 19 19 19 20 21 22 21 20 23 22 21 18 16 16 15 18 18 19 17 16 17 18 19 18 18 20 21 22 22 24 23 22 20 21 21 20 21 22 22 22 22 22 21 21 21 21 22 23 
24 25 27 27 27 28 27 27 29 30 31 31 29 27 25 25 26 28 26 25 23 23 24 24 23 24 24 25 22 20 19 18 19 21 22 21 18 15 14 16 15 14 11 11 12 14 15 16 13 12 11 11 11 9 8 4 2 1 1 1 4 5 4 4 2 4 6 6 7 5 4 2 3 4 3 5 6 6 6 9 11 13 13 12 11 11 13 14 17 16 17 13 10 10 11 11 12 12 13 13 14 16 16 14 13 12 12 12 12 11 12 12 12 12 12 11 9 6 5 4 2 1 0 0 3 5 6 7 6 7 7 8 10 10 10 10 8 8 7 5 6 6 6 6 6 6 8 8 11 12 13 13 12 12 12 16 18 21 20 17 16 17 16 14 14 12 10 10 10 12 10 8 6 7 7 7 7 6 5 4 2 3 6 7 8 7 7 7 8 7 5 5 5 4 3 1 1 2 1 1 1 0 0 0 0 0 0 0 0 0 0 0 0 0 0 0 0 0 0 0 0 0 0 0 0 0 0 0 0 0 0 0 0 0 0 0 0 0 0 0 0 0 0 0 0 0 0 0 0 0 0 0 0 0 0 0 0 0 0 0 0 0 0 0 0 0 0 0 0 0 0 0 0 0 0 0 0 0 0 0 0 0 0 0 0 0 0 0 0 0 0 0 0 0 0 0 0 0 0 0 0 0 0 0 0 0 0 0 0 0 0 0 0 0 0 0 0 0 0 0 0 0 0 0 0 0 0 0 0 0 0 0 0 0 0 0 0 0 0 0 0 0 0 0 0 0 0 0 0 0 0 0 0 0 0 0 0 0 0 0 0 0 0 0 0 0 0 0 0 0 0 0 0 0 0 0 0 0 0 0 0 0 0 0 0 0 0 0 0 0 0 0 0 0 0 0 0 0 0 0 0 0 0 0 0 0 0 0 0 0 0 0 0 0 0 0 0 0 0 0 0 0 0 0 0 0 0 0 0 0 0 0 0 0 0 0 0 0 0 0 0 0 0 0 0 0 0 0 0 0 0 0 0 0 0 0 0 0 0 0 0 0 0 0 0 0 0 0 0 0 0 0 0 0 0 0 0 0 0 0 0 1 2 2 1 0 0 0 0 0 0 0 0 0 0 0 0 0 0 0 0 0 0 0 0 0 0 0 0 0 0 0 0 0 0 0 0 0 0 0 0 0 3 4 4 3 4 6 6 6 8 8 5 3 1 4 4 5 5 6 9 10 11 11 14 16 17 13 14 13 13 12 12 11 11 13 15 17 16 15 14 15 14 14 14 15 13 13 12 13 13 12 13 15 18 18 16 17 17 18 20 20 19 18 18 18 16 18 17 16 16 17 17 18 19 19 21 21 22 22 23 23 21 18 16 14 13 16 18 17 15 15 16 17 17 17 17 18 20 21 22 25 23 21 20 19 20 20 20 22 22 21 21 22 21 21 22 22 23 23 
24 25 26 26 26 25 26 26 27 30 30 29 27 27 25 25 26 28 24 22 22 24 24 25 24 25 26 26 23 20 19 19 20 21 23 20 17 14 14 16 16 14 11 10 10 11 12 14 13 12 11 10 10 7 4 3 3 1 0 0 2 5 6 3 3 5 8 6 7 5 5 5 3 3 5 5 6 7 6 9 11 12 13 12 12 13 14 16 15 14 14 12 10 10 10 11 10 9 10 11 11 14 15 16 14 15 15 15 14 12 11 11 11 13 11 10 8 6 7 6 4 2 2 2 5 6 7 7 8 8 8 9 10 12 11 10 8 7 7 6 8 8 8 7 5 5 5 7 9 11 13 13 13 11 11 15 19 20 22 19 17 18 19 16 14 14 12 10 10 11 9 7 7 7 8 8 7 6 5 3 2 4 7 8 8 8 7 8 9 7 6 4 2 2 1 2 1 1 1 1 0 0 0 0 0 0 0 0 0 0 0 0 0 0 0 0 0 0 0 0 0 0 0 0 0 0 0 0 0 0 0 0 0 0 0 0 0 0 0 0 0 0 0 0 0 0 0 0 0 0 0 0 0 0 0 0 0 0 0 0 0 0 0 0 0 0 0 0 0 0 0 0 0 0 0 0 0 0 0 0 0 0 0 0 0 0 0 0 0 0 0 0 0 0 0 0 0 0 0 0 0 0 0 0 0 0 0 0 0 0 0 0 0 0 0 0 0 0 0 0 0 0 0 0 0 0 0 0 0 0 0 0 0 0 0 0 0 0 0 0 0 0 0 0 0 0 0 0 0 0 0 0 0 0 0 0 0 0 0 0 0 0 0 0 0 0 0 0 0 0 0 0 0 0 0 0 0 0 0 0 0 0 0 0 0 0 0 0 0 0 0 0 0 0 0 0 0 0 0 0 0 0 0 0 0 0 0 0 0 0 0 0 0 0 0 0 0 0 0 2 2 2 0 0 0 0 0 0 0 0 0 0 0 0 0 0 0 0 0 0 0 0 0 0 0 0 0 0 0 0 0 0 0 0 0 0 0 0 0 0 0 0 0 0 0 0 0 0 0 0 0 0 0 0 0 0 0 0 0 0 0 0 1 2 2 0 0 0 0 0 0 0 0 0 0 0 0 0 0 0 0 0 0 0 0 0 0 0 0 0 0 0 0 0 0 0 0 0 0 0 0 0 2 4 3 3 5 6 5 6 7 7 7 2 1 2 5 6 5 7 9 9 10 11 13 15 16 13 12 13 12 11 12 13 11 13 15 16 16 15 13 13 13 13 14 15 14 15 14 14 14 13 13 16 19 18 16 17 18 18 18 21 19 19 17 16 17 16 15 15 14 15 18 17 19 19 20 21 23 23 24 24 21 18 17 16 15 16 18 17 15 13 14 15 16 16 16 18 19 21 22 24 23 21 19 19 19 20 21 21 20 19 20 19 20 20 22 22 23 23 
24 23 24 23 23 24 25 25 26 26 25 25 26 26 25 23 25 26 22 22 23 25 27 27 26 29 29 25 22 21 21 20 21 20 21 20 17 16 15 17 15 14 12 10 9 10 12 13 14 13 10 10 8 7 5 3 2 1 0 0 2 7 6 6 5 6 6 7 7 8 9 9 6 5 5 4 5 4 4 6 11 12 12 13 15 13 14 13 13 14 14 12 11 10 10 11 11 10 9 9 11 11 13 15 13 13 14 16 15 13 10 10 12 10 9 8 7 8 8 8 6 4 4 4 5 7 6 8 9 8 10 11 12 12 11 9 9 8 9 8 9 9 7 7 4 5 6 7 9 11 10 12 10 10 11 14 17 21 22 20 19 19 19 15 16 14 12 11 12 11 11 9 7 7 7 7 6 6 4 3 2 4 7 7 8 9 10 11 10 9 5 3 1 2 3 2 2 0 0 0 0 0 0 0 0 0 0 0 0 0 0 0 0 0 0 0 0 0 0 0 0 0 0 0 0 0 0 0 0 0 0 0 0 0 0 0 0 0 0 0 0 0 0 0 0 0 0 0 0 0 0 0 0 0 0 0 0 0 0 0 0 0 0 0 0 0 0 0 0 0 0 0 0 0 0 0 0 0 0 0 0 0 0 0 0 0 0 0 0 0 0 0 0 0 0 0 0 0 0 0 0 0 0 0 0 0 0 0 0 0 0 0 0 0 0 0 0 0 0 0 0 0 0 0 0 0 0 0 0 0 0 0 0 0 0 0 0 0 0 0 0 0 0 0 0 0 0 0 0 0 0 0 0 0 0 0 0 0 0 0 0 0 0 0 0 0 0 0 0 0 0 0 0 0 0 0 0 0 0 0 0 0 0 0 0 0 0 0 0 0 0 0 0 0 0 0 0 0 0 0 0 0 0 0 0 0 0 0 0 0 0 0 0 0 0 0 0 0 1 5 5 3 2 1 0 0 0 0 0 0 0 0 0 0 0 0 0 0 0 0 0 0 0 0 0 0 0 0 0 0 0 0 1 2 1 0 0 0 0 0 0 0 0 0 0 0 0 0 0 0 0 0 0 0 0 0 0 1 0 1 0 0 0 0 0 0 0 0 0 0 0 0 0 0 0 0 0 0 0 0 0 0 0 0 0 0 0 0 0 0 0 0 0 0 0 0 0 0 0 0 0 0 2 3 3 4 7 7 6 7 6 6 4 1 1 1 5 7 8 9 9 10 10 14 13 15 14 11 12 12 11 11 12 11 11 13 15 15 15 12 11 10 11 13 14 16 16 16 14 15 13 14 14 16 19 18 17 17 17 19 20 20 19 19 15 15 16 16 14 14 15 17 19 19 21 23 22 24 24 23 25 24 21 20 19 17 16 16 18 17 15 14 13 15 15 16 17 17 18 20 22 24 24 23 20 18 20 20 20 19 18 16 18 19 18 19 22 23 23 23 
22 22 21 21 22 22 23 20 23 23 24 22 23 23 23 22 25 25 23 23 26 26 26 24 25 26 25 24 23 24 23 22 23 22 21 18 18 18 18 18 18 16 14 12 10 11 12 12 12 11 10 10 8 6 7 5 4 3 1 1 5 8 7 7 5 5 7 9 10 10 10 11 7 4 4 6 4 3 2 4 8 10 12 12 15 15 13 14 15 16 13 11 10 10 9 10 9 10 9 10 10 11 11 13 12 13 13 14 13 11 10 9 8 7 6 7 9 10 11 9 6 5 4 4 5 4 7 9 10 11 12 12 11 10 9 9 8 7 10 10 10 8 5 5 4 5 6 8 8 8 9 9 9 9 11 12 15 18 19 20 18 17 16 17 18 16 15 15 15 13 12 10 8 8 7 6 7 6 5 4 3 4 6 8 9 11 11 8 8 7 6 5 3 3 4 4 2 2 0 0 0 0 0 0 0 0 0 0 0 0 0 0 0 0 0 0 0 0 0 0 0 0 0 0 0 0 0 0 0 0 0 0 0 0 0 0 0 0 0 0 0 0 0 0 0 0 0 0 0 0 0 0 0 0 0 0 0 0 0 0 0 0 0 0 0 0 0 0 0 0 0 0 0 0 0 0 0 0 0 0 0 0 0 0 0 0 0 0 0 0 0 0 0 0 0 0 0 0 0 0 0 0 0 0 0 0 0 0 0 0 0 0 0 0 0 0 0 0 0 0 0 0 0 0 0 0 0 0 0 0 0 0 0 0 0 0 0 0 0 0 0 0 0 0 0 0 0 0 0 0 0 0 0 0 0 0 0 0 0 0 0 0 0 0 0 0 0 0 0 0 0 0 0 0 0 0 0 0 0 0 0 0 0 0 0 0 0 0 0 0 0 0 0 0 0 0 0 0 0 0 0 0 0 0 0 0 0 0 0 0 0 0 0 0 0 0 0 0 3 5 5 3 3 2 0 0 0 0 0 0 0 0 0 0 0 0 0 0 0 0 0 0 0 0 0 0 0 0 0 0 0 0 0 2 1 0 0 0 0 0 0 0 0 0 0 0 0 0 0 0 0 0 0 0 0 0 0 0 0 0 0 0 0 0 0 0 0 0 0 0 0 0 0 0 0 0 0 0 0 0 0 0 1 0 0 0 0 0 0 0 0 0 0 0 0 0 0 0 0 0 0 0 1 3 5 6 7 6 6 6 4 5 5 3 2 2 4 7 8 7 9 10 10 12 13 13 11 12 12 13 11 11 12 13 12 11 13 14 14 13 11 10 12 13 14 16 16 15 15 17 16 15 14 16 17 17 17 17 17 19 19 19 18 16 16 16 15 15 14 16 17 19 19 21 22 24 26 25 24 24 26 24 22 21 20 18 15 16 17 16 14 11 10 12 15 16 17 18 19 19 21 23 26 24 22 20 20 20 20 19 17 16 17 18 18 19 22 22 23 22 
20 20 20 20 20 20 21 18 20 21 22 21 21 23 23 22 23 24 25 24 24 24 23 22 22 23 24 24 23 23 24 25 24 23 19 18 17 17 17 18 20 17 15 14 12 12 12 11 10 11 10 10 8 8 7 5 5 5 5 5 7 10 7 5 5 5 7 12 12 12 10 9 8 7 4 6 3 2 3 4 7 11 11 12 12 14 14 16 16 17 14 12 10 9 8 9 10 10 8 9 9 10 11 13 12 12 13 13 12 10 10 9 9 6 7 7 9 11 12 12 8 5 4 6 7 6 8 10 13 11 11 11 10 10 8 6 7 8 10 10 8 7 4 3 2 3 7 8 7 8 8 8 8 8 8 9 13 15 18 18 17 16 17 16 18 19 17 17 17 17 16 14 11 10 9 8 7 8 5 4 5 6 7 7 8 9 10 6 5 6 6 7 6 4 5 4 2 1 0 0 0 0 0 0 0 0 0 0 0 0 0 0 0 0 0 0 0 0 0 0 0 0 0 0 0 0 0 0 0 0 0 0 0 0 0 0 0 0 0 0 0 0 0 0 0 0 0 0 0 0 0 0 0 0 0 0 0 0 0 0 0 0 0 0 0 0 0 0 0 0 0 0 0 0 0 0 0 0 0 0 0 0 0 0 0 0 0 0 0 0 0 0 0 0 0 0 0 0 0 0 0 0 0 0 0 0 0 0 0 0 0 0 0 0 0 0 0 0 0 0 0 0 0 0 0 0 0 0 0 0 0 0 0 0 0 0 0 0 0 0 0 0 0 0 0 0 0 0 0 0 0 0 0 0 0 0 0 0 0 0 0 0 0 0 0 0 0 0 0 0 0 0 0 0 0 0 0 0 0 0 0 0 0 0 0 0 0 0 0 0 0 0 0 0 0 0 0 0 0 0 0 0 0 0 0 0 0 0 0 0 0 0 0 0 0 0 0 0 2 4 3 4 4 3 0 0 0 0 0 0 0 1 0 0 0 0 0 0 0 0 0 0 0 0 0 0 0 0 0 0 0 0 0 0 0 0 0 0 0 0 0 0 0 0 0 2 1 0 0 0 0 0 0 0 0 0 0 0 0 0 0 0 0 0 0 0 0 0 0 0 0 0 0 0 0 0 0 0 0 0 0 0 0 0 0 0 0 0 0 0 0 0 0 0 0 0 0 0 0 0 0 0 0 2 5 6 8 7 7 6 5 5 5 4 4 3 3 6 6 4 6 8 9 11 10 11 11 10 13 13 13 13 12 12 10 9 11 12 12 13 11 10 11 12 13 16 16 16 17 16 16 14 13 15 17 18 17 16 17 20 19 18 19 19 19 18 16 18 19 19 20 19 21 22 21 25 26 25 25 25 26 25 23 23 20 19 16 16 17 15 13 11 12 14 15 17 17 18 20 21 22 24 26 25 23 22 19 19 19 19 17 15 16 16 16 16 19 20 22 21 
18 18 19 21 21 21 20 19 20 20 20 21 21 21 20 21 23 24 25 24 23 22 21 21 22 23 24 24 24 23 24 24 24 23 21 19 18 16 15 16 18 16 15 14 12 12 12 10 8 8 9 11 10 9 8 6 5 6 6 8 7 8 6 4 6 8 9 11 11 9 9 8 7 6 5 3 3 5 5 7 8 10 10 12 12 14 14 15 15 16 14 12 12 9 10 10 9 9 6 7 7 8 10 11 11 12 11 10 10 9 8 8 7 7 7 7 8 9 10 10 10 7 5 7 9 10 11 11 12 11 12 10 9 8 8 6 6 9 11 11 8 6 5 3 3 5 6 6 6 7 7 7 7 8 6 7 10 12 14 15 15 14 15 16 17 19 18 19 20 20 18 15 13 12 10 9 7 8 7 7 8 9 7 7 7 8 8 5 5 6 7 8 7 4 4 3 1 0 0 0 0 0 0 0 0 0 0 0 0 0 0 0 0 0 0 0 0 0 0 0 0 0 0 0 0 0 0 0 0 0 0 0 0 0 0 0 0 0 0 0 0 0 0 0 0 0 0 0 0 0 0 0 0 0 0 0 0 0 0 0 0 0 0 0 0 0 0 0 0 0 0 0 0 0 0 0 0 0 0 0 0 0 0 0 0 0 0 0 0 0 0 0 0 0 0 0 0 0 0 0 0 0 0 0 0 0 0 0 0 0 0 0 0 0 0 0 0 0 0 0 0 0 0 0 0 0 0 0 0 0 0 0 0 0 0 0 0 0 0 0 0 0 0 0 0 0 0 0 0 0 0 0 0 0 0 0 0 0 0 0 0 0 0 0 0 0 0 0 0 0 0 0 0 0 0 0 0 0 0 0 0 0 0 0 0 0 0 0 0 0 0 0 0 0 0 0 0 0 0 0 0 0 0 0 0 0 0 0 0 0 0 0 0 0 0 0 0 0 3 4 4 3 4 3 0 0 0 0 0 0 0 0 0 0 0 0 0 0 0 0 0 0 0 0 0 0 0 0 0 0 0 0 0 0 0 0 0 0 0 0 0 0 0 0 0 0 0 0 0 0 0 0 0 0 0 0 0 0 0 0 0 0 0 0 0 0 0 0 0 0 0 0 0 0 0 0 0 0 0 0 0 0 0 0 0 0 0 0 0 0 0 0 0 0 0 0 0 0 0 0 0 0 0 4 6 8 8 8 7 7 8 8 6 6 5 3 4 3 5 4 5 6 7 7 10 10 9 10 12 13 14 13 13 11 11 10 11 12 12 13 11 9 10 10 12 15 16 15 17 17 17 16 13 15 17 16 15 16 17 21 22 20 21 21 20 18 16 18 20 21 21 21 22 24 21 22 23 26 25 26 26 24 25 23 22 19 17 15 16 14 12 12 15 16 16 16 19 20 20 21 21 23 24 26 24 21 18 18 19 19 17 13 12 12 14 16 16 18 19 19 
18 19 21 21 20 21 22 21 21 20 20 20 20 19 19 21 22 23 24 24 22 21 22 22 22 24 26 26 25 24 24 24 24 22 20 18 15 15 16 16 15 16 15 12 11 11 11 9 7 7 10 11 12 11 10 8 7 8 7 7 8 7 6 4 7 8 8 9 10 9 7 6 6 6 4 3 5 6 7 11 10 11 10 11 13 14 13 13 15 15 13 11 8 7 7 7 8 7 5 8 9 9 10 10 10 12 11 12 10 9 9 9 7 6 7 6 7 8 9 11 10 9 8 11 12 11 12 12 11 10 9 10 9 7 8 9 9 9 12 11 7 5 5 3 3 3 4 4 3 6 7 5 5 6 5 7 8 9 9 10 11 13 14 16 17 17 18 22 21 22 18 16 14 12 12 10 8 7 8 8 8 9 7 6 6 7 7 6 4 5 5 5 7 4 3 1 1 0 0 0 0 0 0 0 0 0 0 0 0 0 0 0 0 0 0 0 0 0 0 0 0 0 0 0 0 0 0 0 0 0 0 0 0 0 0 0 0 0 0 0 0 0 0 0 0 0 0 0 0 0 0 0 0 0 0 0 0 0 0 0 0 0 0 0 0 0 0 0 0 0 0 0 0 0 0 0 0 0 0 0 0 0 0 0 0 0 0 0 0 0 0 0 0 0 0 0 0 0 0 0 0 0 0 0 0 0 0 0 0 0 0 0 0 0 0 0 0 0 0 0 0 0 0 0 0 0 0 0 0 0 0 0 0 0 0 0 0 0 0 0 0 0 0 0 0 0 0 0 0 0 0 0 0 0 0 0 0 0 0 0 0 0 0 0 0 0 0 0 0 0 0 0 0 0 0 0 0 0 0 0 0 0 0 0 0 0 0 0 0 0 0 0 0 0 0 0 0 0 0 0 0 0 0 0 0 0 0 0 0 0 0 0 0 0 0 0 0 0 2 3 3 2 3 2 0 0 0 0 0 0 0 0 0 0 0 0 0 0 0 0 0 0 0 0 0 0 0 0 0 0 0 0 0 0 0 0 0 0 0 0 0 0 0 0 0 0 0 0 0 0 0 0 0 0 0 0 0 0 0 0 0 0 0 0 0 0 0 0 0 0 0 0 0 0 0 0 0 0 0 0 0 0 0 0 0 0 0 0 0 0 0 0 0 0 0 0 0 2 0 0 2 2 4 5 6 9 9 7 6 6 7 7 7 7 4 3 3 2 4 3 6 7 6 6 7 9 9 10 13 14 13 13 13 11 9 10 12 14 13 14 12 12 11 10 11 14 16 16 17 18 17 14 15 14 15 16 14 15 17 21 21 19 19 21 21 19 19 20 22 23 21 23 24 23 23 24 24 24 26 25 26 24 24 24 22 20 19 16 16 13 13 13 13 15 15 18 20 21 22 22 23 23 24 24 22 19 16 16 15 15 14 14 13 11 12 13 15 18 19 18 
20 21 21 21 20 20 21 20 21 21 20 19 19 19 20 21 21 23 23 24 22 23 24 25 23 25 26 26 24 24 24 23 22 22 21 18 16 16 16 14 13 14 13 11 10 10 9 8 9 8 9 11 15 15 11 9 8 7 8 9 8 7 6 7 9 8 8 9 10 10 8 5 5 4 2 2 4 8 9 11 12 13 12 13 14 14 13 11 11 10 10 8 8 5 5 5 7 7 8 10 11 11 10 9 10 11 11 11 11 9 10 8 5 5 5 6 7 7 8 8 9 9 11 11 12 11 14 13 11 10 9 8 9 9 9 11 11 9 11 10 9 7 5 3 2 1 2 3 2 5 5 3 3 5 6 8 8 8 8 6 9 13 14 15 17 17 19 21 22 21 19 15 15 13 11 9 9 9 8 8 9 10 7 4 5 5 7 6 3 2 4 4 6 5 3 0 0 0 0 0 0 0 0 0 0 0 0 0 0 0 0 0 0 0 0 0 0 0 0 0 0 0 0 0 0 0 0 0 0 0 0 0 0 0 0 0 0 0 0 0 0 0 0 0 0 0 0 0 0 0 0 0 0 0 0 0 0 0 0 0 0 0 0 0 0 0 0 0 0 0 0 0 0 0 0 0 0 0 0 0 0 0 0 0 0 0 0 0 0 0 0 0 0 0 0 0 0 0 0 0 0 0 0 0 0 0 0 0 0 0 0 0 0 0 0 0 0 0 0 0 0 0 0 0 0 0 0 0 0 0 0 0 0 0 0 0 0 0 0 0 0 0 0 0 0 0 0 0 0 0 0 0 0 0 0 0 0 0 0 0 0 0 0 0 0 0 0 0 0 0 0 0 0 0 0 0 0 0 0 0 0 0 0 0 0 0 0 0 0 0 0 0 0 0 0 0 0 0 0 0 0 0 0 0 0 0 0 0 0 0 0 0 0 0 0 0 0 0 0 1 2 3 2 0 0 0 0 0 0 0 0 0 0 0 0 0 0 0 0 0 0 0 0 0 0 0 0 0 0 0 0 0 0 0 0 0 0 0 0 0 0 0 0 0 0 0 0 0 0 0 0 0 0 0 0 0 0 0 0 0 0 0 0 0 0 0 0 0 0 0 0 0 0 0 0 0 0 0 0 0 0 0 0 0 0 0 0 0 0 0 0 0 0 0 1 0 0 0 0 2 3 3 5 6 7 7 7 8 6 4 5 6 5 6 4 3 3 3 4 4 5 5 5 4 5 8 8 9 12 13 14 13 12 10 10 10 12 13 14 14 14 11 12 11 12 14 17 16 18 17 15 13 13 13 14 14 14 16 17 20 20 20 19 19 21 21 21 22 22 22 23 25 24 24 23 25 25 26 26 27 27 26 24 25 24 21 18 16 16 15 14 13 13 14 17 20 21 23 23 21 22 23 21 21 20 16 15 14 15 14 13 12 11 10 11 13 15 16 18 20 
20 21 20 18 19 20 19 18 19 20 22 21 19 19 20 20 21 22 24 23 24 25 27 25 24 24 26 24 24 24 24 23 23 22 20 19 16 15 14 12 11 12 11 10 11 10 7 7 9 8 8 12 14 13 12 10 9 8 8 9 10 8 8 9 9 8 7 9 11 10 8 6 6 4 4 3 7 8 8 11 12 13 13 14 13 14 12 10 10 8 7 8 5 4 4 6 7 9 9 10 10 11 11 10 9 11 13 11 9 8 8 8 5 7 6 5 8 8 6 7 7 8 8 10 12 12 13 12 12 10 10 9 10 10 10 9 10 9 7 8 7 6 4 4 2 1 1 0 1 3 3 3 4 6 6 6 7 8 7 8 10 15 15 16 17 18 21 22 21 19 18 15 14 15 13 12 11 10 9 9 9 8 8 7 7 6 7 6 4 4 4 4 5 6 5 2 0 0 1 0 0 0 0 0 0 0 0 0 0 0 0 0 0 0 0 0 0 0 0 0 0 0 0 0 0 0 0 0 0 0 0 0 0 0 0 0 0 0 0 0 0 0 0 0 0 0 0 0 0 0 0 0 0 0 0 0 0 0 0 0 0 0 0 0 0 0 0 0 0 0 0 0 0 0 0 0 0 0 0 0 0 0 0 0 0 0 0 0 0 0 0 0 0 0 0 0 0 0 0 0 0 0 0 0 0 0 0 0 0 0 0 0 0 0 0 0 0 0 0 0 0 0 0 0 0 0 0 0 0 0 0 0 0 0 0 0 0 0 0 0 0 0 0 0 0 0 0 0 0 0 0 0 0 0 0 0 0 0 0 0 0 0 0 0 0 0 0 0 0 0 0 0 0 0 0 0 0 0 0 0 0 0 0 0 0 0 0 0 0 0 0 0 0 0 0 0 0 0 0 0 0 0 0 0 0 0 0 0 0 0 0 0 0 0 0 0 0 0 0 2 1 1 0 0 0 0 0 0 0 0 0 0 0 0 0 0 0 0 0 0 0 0 0 0 0 0 0 0 0 0 0 0 0 0 0 0 0 0 0 0 0 0 0 0 0 0 0 0 0 0 0 0 0 0 0 0 0 0 0 0 0 0 0 0 0 0 0 0 0 0 1 0 0 0 0 0 0 0 0 0 0 0 0 0 0 0 0 0 0 0 2 3 3 2 3 3 2 1 1 3 1 2 5 5 4 5 6 5 5 2 3 4 4 3 1 2 3 3 4 5 4 4 4 4 6 7 8 9 12 12 14 14 13 11 9 11 12 13 15 16 14 12 11 11 14 15 16 15 17 16 14 13 14 15 15 14 14 16 15 16 19 19 18 20 21 23 23 22 23 22 24 26 25 25 26 25 25 26 27 28 28 27 26 25 25 24 21 19 18 17 17 14 15 16 16 18 19 20 21 19 21 21 19 19 19 16 15 15 14 12 11 11 10 10 11 13 15 18 19 19 
20 21 20 19 19 18 18 18 19 22 21 23 21 18 20 20 21 22 23 23 24 26 25 24 24 25 26 27 25 24 22 21 22 21 21 19 15 13 14 13 13 13 13 10 10 9 7 7 8 10 11 14 15 13 10 9 8 7 5 6 8 9 9 8 7 7 6 9 9 7 4 6 6 5 4 6 8 8 9 10 14 14 13 11 11 13 12 10 9 7 6 6 6 5 5 7 8 8 7 9 10 11 11 11 10 13 12 11 9 6 7 8 8 7 6 4 6 8 8 9 8 8 9 10 11 13 13 12 12 10 11 10 10 9 11 12 10 8 7 5 5 5 5 5 3 2 1 2 4 4 4 4 4 5 5 6 8 10 9 8 10 12 14 15 15 16 19 22 19 18 17 15 15 15 16 14 12 10 8 10 11 9 10 11 8 7 7 6 6 5 4 4 5 6 5 1 0 0 0 0 0 0 0 0 0 0 0 0 0 0 0 0 0 0 0 0 0 0 0 0 0 0 0 0 0 0 0 0 0 0 0 0 0 0 0 0 0 0 0 0 0 0 0 0 0 0 0 0 0 0 0 0 0 0 0 0 0 0 0 0 0 0 0 0 0 0 0 0 0 0 0 0 0 0 0 0 0 0 0 0 0 0 0 0 0 0 0 0 0 0 0 0 0 0 0 0 0 0 0 0 0 0 0 0 0 0 0 0 0 0 0 0 0 0 0 0 0 0 0 0 0 0 0 0 0 0 0 0 0 0 0 0 0 0 0 0 0 0 0 0 0 0 0 0 0 0 0 0 0 0 0 0 0 0 0 0 0 0 0 0 0 0 0 0 0 0 0 0 0 0 0 0 0 0 0 0 0 0 0 0 0 0 0 0 0 0 0 0 0 0 0 0 0 0 0 0 0 0 0 0 0 0 0 0 0 0 0 0 0 0 0 0 0 0 0 0 0 0 0 1 0 0 0 0 0 0 0 0 0 0 0 0 0 0 0 0 0 0 0 0 0 0 0 0 0 0 0 0 0 0 0 0 0 0 0 0 0 0 0 0 0 0 0 0 0 0 0 0 0 0 0 0 0 0 0 0 0 0 0 0 0 0 0 0 0 0 0 0 0 0 1 2 0 0 0 0 0 0 0 0 0 0 0 0 0 0 0 0 0 1 3 5 3 3 3 4 2 1 3 4 4 3 4 1 2 2 3 4 2 1 1 2 2 2 1 0 1 3 2 4 3 3 3 4 4 5 5 9 10 11 14 14 12 10 9 9 12 14 13 15 13 13 12 13 15 14 14 15 15 15 13 13 14 16 16 13 13 14 14 17 18 18 18 18 21 21 22 22 21 21 24 27 28 27 26 28 27 28 29 28 27 27 27 26 25 25 21 20 19 18 17 16 15 14 15 16 17 19 18 17 19 19 19 18 17 16 15 16 16 15 13 12 11 11 13 15 17 19 19 19 
19 20 18 19 19 17 16 18 19 19 22 22 21 20 21 21 23 23 24 23 23 22 23 22 23 24 26 28 27 25 23 21 21 20 21 19 14 12 13 13 14 13 11 11 12 10 9 8 9 12 13 15 16 13 10 8 8 6 6 7 8 10 8 6 5 5 6 7 7 5 5 6 6 6 6 7 7 8 8 11 13 13 12 12 12 11 12 11 7 6 6 6 6 9 7 7 7 6 5 8 9 10 11 13 13 13 12 12 9 7 8 9 8 6 4 4 7 10 11 11 9 10 13 13 11 13 13 14 13 10 9 9 10 11 12 12 10 7 5 5 4 4 4 4 4 3 2 4 4 5 4 5 7 7 7 7 9 9 10 9 11 11 12 14 13 14 16 17 18 18 18 15 16 15 16 14 12 10 9 10 11 10 11 11 10 8 8 8 7 6 6 5 6 6 6 3 0 0 1 1 0 0 0 0 0 0 0 0 0 0 0 0 0 0 0 0 0 0 0 0 0 0 0 0 0 0 0 0 0 0 0 0 0 0 0 0 0 0 0 0 0 0 0 0 0 0 0 0 0 0 0 0 0 0 0 0 0 0 0 0 0 0 0 0 0 0 0 0 0 0 0 0 0 0 0 0 0 0 0 0 0 0 0 0 0 0 0 0 0 0 0 0 0 0 0 0 0 0 0 0 0 0 0 0 0 0 0 0 0 0 0 0 0 0 0 0 0 0 0 0 0 0 0 0 0 0 0 0 0 0 0 0 0 0 0 0 0 0 0 0 0 0 0 0 0 0 0 0 0 0 0 0 0 0 0 0 0 0 0 0 0 0 0 0 0 0 0 0 0 0 0 0 0 0 0 0 0 0 0 0 0 0 0 0 0 0 0 0 0 0 0 0 0 0 0 0 0 0 0 0 0 0 0 0 0 0 0 0 0 0 0 0 0 0 0 0 0 0 0 0 0 0 0 0 0 0 0 0 0 0 0 0 0 0 0 0 0 0 0 0 0 0 0 0 0 0 0 0 0 0 0 0 0 0 0 0 0 0 0 0 0 0 0 0 0 0 0 0 0 0 0 0 0 0 0 0 0 0 0 0 0 0 0 0 0 0 0 0 0 0 0 1 2 2 1 0 0 0 0 0 0 0 0 0 0 0 0 0 2 2 3 5 4 2 3 4 0 0 1 3 4 3 3 2 2 2 2 2 1 1 3 2 3 1 0 0 0 1 1 2 2 1 1 1 3 2 2 6 9 9 12 13 12 11 10 9 9 10 11 13 13 13 14 15 16 14 16 16 15 14 14 13 16 17 15 14 14 13 14 16 18 19 18 19 21 23 23 23 23 23 24 26 28 27 25 25 27 27 28 28 26 26 26 25 24 24 22 20 20 18 17 17 17 15 14 15 17 19 18 16 19 20 19 17 16 16 15 16 18 18 15 15 15 14 14 16 17 19 18 19 
19 18 17 19 18 17 16 16 16 18 17 21 21 20 23 22 22 23 23 22 20 20 21 20 21 25 26 26 26 24 24 21 21 20 20 17 15 13 13 12 12 12 10 11 10 10 8 9 11 14 14 14 15 14 10 8 9 8 6 6 6 7 5 6 4 4 5 6 7 6 7 7 7 7 6 7 8 7 9 11 12 13 13 13 12 11 12 10 8 6 5 5 6 8 7 7 6 5 5 7 9 11 11 13 13 14 14 13 11 9 8 9 8 7 4 5 9 12 13 12 11 13 14 13 14 13 14 12 12 11 9 8 9 8 10 10 9 7 5 5 5 2 4 3 3 3 1 0 2 5 5 6 7 9 9 10 10 11 12 10 11 11 13 14 14 15 15 17 17 18 18 16 16 16 17 13 12 8 10 10 11 11 10 10 9 8 10 10 8 8 8 6 5 5 7 5 2 0 1 0 0 0 0 0 0 0 0 0 0 0 0 0 0 0 0 0 0 0 0 0 0 0 0 0 0 0 0 0 0 0 0 0 0 0 0 0 0 0 0 0 0 0 0 0 0 0 0 0 0 0 0 0 0 0 0 0 0 0 0 0 0 0 0 0 0 0 0 0 0 0 0 0 0 0 0 0 0 0 0 0 0 0 0 0 0 0 0 0 0 0 0 0 0 0 0 0 0 0 0 0 0 0 0 0 0 0 0 0 0 0 0 0 0 0 0 0 0 0 0 0 0 0 0 0 0 0 0 0 0 0 0 0 0 0 0 0 0 0 0 0 0 0 0 0 0 0 0 0 0 0 0 0 0 0 0 0 0 0 0 0 0 0 0 0 0 0 0 0 0 0 0 0 0 0 0 0 0 0 0 0 0 0 0 0 0 0 0 0 0 0 0 0 0 0 0 0 0 0 0 0 0 0 0 0 0 0 0 0 0 0 0 0 0 0 0 0 0 0 0 0 0 0 0 0 0 0 0 0 0 0 0 0 0 0 0 0 0 0 0 0 0 0 0 0 0 0 0 0 0 0 0 0 0 0 0 0 0 0 0 0 0 0 0 0 0 0 0 0 0 0 0 0 0 0 0 0 0 0 0 0 0 0 0 0 0 0 0 0 0 0 0 1 3 2 1 0 0 0 0 0 0 0 0 0 0 0 1 1 1 2 3 3 4 2 2 1 0 0 0 0 3 4 4 3 1 0 2 1 2 2 3 2 3 1 0 0 0 0 1 2 1 0 0 1 2 0 1 4 6 9 10 12 12 11 11 10 10 9 11 12 13 13 14 15 14 15 16 15 16 14 13 15 15 16 16 17 18 17 17 18 19 19 20 22 23 22 22 23 24 24 25 26 26 25 25 24 25 27 25 24 25 25 24 24 24 25 24 22 20 20 19 18 18 15 15 15 19 20 20 20 20 21 19 19 19 17 16 17 18 19 17 15 16 15 15 16 17 17 17 19 
19 18 18 17 18 17 15 18 16 16 16 18 20 21 22 22 21 21 20 19 20 19 20 20 21 23 25 26 24 23 22 21 20 19 18 17 15 14 12 12 11 12 10 9 8 8 8 7 10 12 13 13 14 13 9 9 8 7 4 4 5 5 4 5 5 4 5 6 7 9 8 10 11 9 7 6 7 8 10 10 12 13 12 13 12 12 10 10 11 9 7 6 5 8 9 8 8 7 7 10 11 12 12 10 11 11 12 12 9 7 8 8 9 9 8 7 10 13 14 13 11 11 13 13 13 13 12 11 12 10 9 7 8 8 10 10 7 6 4 4 4 1 2 2 1 1 1 1 4 5 4 5 8 10 9 11 12 12 12 11 12 13 15 17 16 14 13 16 17 18 16 14 16 15 16 14 12 8 7 9 10 9 8 9 8 8 10 11 12 10 9 8 7 7 7 6 4 2 1 1 0 0 0 0 0 0 0 0 0 0 0 0 0 0 0 0 0 0 0 0 0 0 0 0 0 0 0 0 0 0 0 0 0 0 0 0 0 0 0 0 0 0 0 0 0 0 0 0 0 0 0 0 0 0 0 0 0 0 0 0 0 0 0 0 0 0 0 0 0 0 0 0 0 0 0 0 0 0 0 0 0 0 0 0 0 0 0 0 0 0 0 0 0 0 0 0 0 0 0 0 0 0 0 0 0 0 0 0 0 0 0 0 0 0 0 0 0 0 0 0 0 0 0 0 0 0 0 0 0 0 0 0 0 0 0 0 0 0 0 0 0 0 0 0 0 0 0 0 0 0 0 0 0 0 0 0 0 0 0 0 0 0 0 0 0 0 0 0 0 0 0 0 0 0 0 0 0 0 0 0 0 0 0 0 0 0 0 0 0 0 0 0 0 0 0 0 0 0 0 0 0 0 0 0 0 0 0 0 0 0 0 0 0 0 0 0 0 0 0 0 0 0 0 0 0 0 0 0 0 0 0 0 0 0 0 0 0 0 0 0 0 0 0 0 0 0 0 0 0 0 0 0 0 0 0 0 0 0 0 0 0 0 0 0 0 0 0 0 0 0 0 0 0 0 0 0 0 0 0 0 0 0 0 0 0 0 0 0 0 0 0 0 0 2 3 0 0 0 0 0 1 1 2 0 0 1 2 3 3 5 5 4 4 1 2 0 0 0 0 0 1 2 3 3 2 2 3 3 2 3 3 3 1 0 0 0 0 0 0 0 0 0 0 2 2 1 1 5 7 8 10 13 12 11 10 9 10 11 11 12 13 13 15 15 14 14 15 14 14 13 12 14 14 14 15 18 19 19 20 20 20 22 20 20 21 21 22 24 26 25 25 26 26 25 26 25 24 23 23 23 22 24 24 23 24 24 24 23 20 19 20 19 20 18 17 19 20 21 22 20 21 21 20 18 18 17 17 20 20 20 19 18 17 15 15 15 16 16 17 19 
18 16 17 17 18 18 18 18 17 17 17 19 20 19 21 20 20 20 20 20 19 20 20 20 21 22 23 23 22 23 23 21 17 15 15 15 14 13 12 11 10 10 10 9 7 7 8 8 10 12 13 13 14 12 8 7 7 3 2 4 5 7 4 4 5 6 7 9 9 10 10 11 11 9 8 8 8 7 8 10 9 11 12 12 11 11 8 9 10 11 9 5 5 8 9 9 8 8 9 11 12 12 13 11 10 12 11 9 6 6 8 10 11 10 8 8 9 12 13 13 12 11 12 12 11 11 11 10 11 9 9 6 8 8 9 10 8 5 5 5 5 3 1 1 1 0 0 1 1 2 3 4 6 10 10 12 15 14 13 12 13 14 16 16 16 14 15 16 17 15 14 13 14 14 14 12 10 7 8 9 8 7 7 6 7 7 11 10 10 10 9 10 10 9 9 7 7 4 1 0 0 0 0 1 0 0 0 0 0 0 0 0 0 0 0 0 0 0 0 0 0 0 0 0 0 0 0 0 0 0 0 0 0 0 0 0 0 0 0 0 0 0 0 0 0 0 0 0 0 0 0 0 0 0 0 0 0 0 0 0 0 0 0 0 0 0 0 0 0 0 0 0 0 0 0 0 0 0 0 0 0 0 0 0 0 0 0 0 0 0 0 0 0 0 0 0 0 0 0 0 0 0 0 0 0 0 0 0 0 0 0 0 0 0 0 0 0 0 0 0 0 0 0 0 0 0 0 0 0 0 0 0 0 0 0 0 0 0 0 0 0 0 0 0 0 0 0 0 0 0 0 0 0 0 0 0 0 0 0 0 0 0 0 0 0 0 0 0 0 0 0 0 0 0 0 0 0 0 0 0 0 0 0 0 0 0 0 0 0 0 0 0 0 0 0 0 0 0 0 0 0 0 0 0 0 0 0 0 0 0 0 0 0 0 0 0 0 0 0 0 0 0 0 0 0 0 0 0 0 0 0 0 0 0 0 0 0 0 0 0 0 0 0 0 0 0 0 0 0 0 0 0 0 0 0 0 0 0 0 0 0 0 0 0 0 0 0 0 0 0 0 0 0 0 0 0 0 0 0 0 0 0 0 0 0 0 0 0 0 0 0 0 0 1 1 0 0 0 0 0 1 2 3 3 3 1 2 2 3 4 5 5 3 1 1 2 2 0 0 1 2 3 3 2 1 1 2 3 2 2 4 3 0 0 0 0 0 0 0 1 0 0 1 2 4 3 5 7 6 6 10 12 10 10 9 9 9 12 11 11 13 13 12 12 12 13 12 11 12 12 12 14 15 17 18 19 19 20 21 20 19 19 20 18 18 18 21 23 24 24 24 24 25 26 26 26 24 22 21 22 22 24 24 23 24 23 23 22 19 19 20 21 21 20 20 20 22 23 23 22 23 21 22 19 19 17 18 19 19 20 20 19 17 17 14 15 16 17 19 19 
18 17 17 20 19 20 21 21 19 18 19 18 19 19 19 20 22 22 22 22 19 18 18 20 21 21 22 24 22 22 20 17 16 14 15 15 14 14 12 10 8 9 8 8 9 7 6 7 9 11 12 14 13 11 10 9 8 5 3 6 7 6 5 5 7 7 7 9 10 11 10 11 9 8 7 6 6 6 7 7 7 8 8 9 10 9 7 8 10 9 8 5 4 7 9 9 9 10 10 11 12 14 14 13 11 12 12 10 9 8 9 11 10 8 8 7 8 11 12 12 11 11 11 9 9 10 9 8 9 11 10 7 7 8 10 11 9 7 7 5 5 3 1 1 2 1 0 0 0 0 2 3 4 8 10 11 13 13 14 14 13 15 17 16 16 15 15 14 13 14 15 14 14 13 13 12 9 8 7 8 7 6 5 5 5 6 10 11 11 10 10 10 11 9 9 10 9 5 4 2 1 1 2 1 0 0 0 0 0 0 0 0 0 0 0 0 0 0 0 0 0 0 0 0 0 0 0 0 0 0 0 0 0 0 0 0 0 0 0 0 0 0 0 0 0 0 0 0 0 0 0 0 0 0 0 0 0 0 0 0 0 0 0 0 0 0 0 0 0 0 0 0 0 0 0 0 0 0 0 0 0 0 0 0 0 0 0 0 0 0 0 0 0 0 0 0 0 0 0 0 0 0 0 0 0 0 0 0 0 0 0 0 0 0 0 0 0 0 0 0 0 0 0 0 0 0 0 0 0 0 0 0 0 0 0 0 0 0 0 0 0 0 0 0 0 0 0 0 0 0 0 0 0 0 0 0 0 0 0 0 0 0 0 0 0 0 0 0 0 0 0 0 0 0 0 0 0 0 0 0 0 0 0 0 0 0 0 0 0 0 0 0 0 0 0 0 0 0 0 0 0 0 0 0 0 0 0 0 0 0 0 0 0 0 0 0 0 0 0 0 0 0 0 0 0 0 0 0 0 0 0 0 0 0 0 0 0 0 0 0 0 0 0 0 0 0 0 0 0 0 0 0 0 0 0 0 0 0 0 0 0 0 0 0 0 0 0 0 0 0 0 0 0 0 0 0 0 0 0 0 0 0 0 0 0 0 0 0 0 0 0 0 0 0 0 0 0 0 0 0 1 3 2 3 4 1 0 2 2 4 3 1 0 1 1 4 2 1 2 3 2 4 4 2 2 0 0 0 0 0 2 2 0 0 0 0 0 0 0 1 0 0 2 5 6 5 5 6 7 8 7 7 8 9 9 9 11 12 12 11 10 11 11 10 11 12 11 11 11 11 11 13 16 17 18 20 20 20 21 20 19 19 17 16 15 17 19 21 22 22 23 23 23 24 26 25 24 22 22 22 22 24 24 23 22 23 22 19 19 18 19 19 19 20 20 21 23 24 24 23 23 22 21 21 20 17 16 17 18 20 19 19 18 16 14 14 16 17 18 19 
18 18 19 21 22 24 23 22 20 19 19 21 22 20 20 20 22 23 23 23 21 18 19 20 20 21 22 23 22 22 19 16 15 15 15 16 15 13 11 8 8 8 8 9 7 6 7 8 9 12 15 17 16 14 13 12 9 7 5 6 7 6 7 6 6 6 9 11 11 9 6 6 7 5 4 5 4 5 4 3 4 4 4 7 8 8 8 9 10 9 8 6 5 6 7 8 8 10 10 10 12 16 16 15 15 13 12 12 12 11 12 13 12 11 10 7 7 8 9 9 11 12 10 10 9 11 9 8 7 8 9 10 10 10 13 13 11 11 8 5 4 4 2 3 3 1 0 0 0 0 3 5 5 7 9 10 13 14 13 13 13 13 15 15 15 13 13 12 13 12 13 14 13 13 11 11 10 9 7 9 6 5 5 6 6 7 10 11 12 11 11 10 11 10 10 9 7 5 5 3 2 3 4 1 0 0 0 0 0 0 0 0 0 0 0 0 0 0 0 0 0 0 0 0 0 0 0 0 0 0 0 0 0 0 0 0 0 0 0 0 0 0 0 0 0 0 0 0 0 0 0 0 0 0 0 0 0 0 0 0 0 0 0 0 0 0 0 0 0 0 0 0 0 0 0 0 0 0 0 0 0 0 0 0 0 0 0 0 0 0 0 0 0 0 0 0 0 0 0 0 0 0 0 0 0 0 0 0 0 0 0 0 0 0 0 0 0 0 0 0 0 0 0 0 0 0 0 0 0 0 0 0 0 0 0 0 0 0 0 0 0 0 0 0 0 0 0 0 0 0 0 0 0 0 0 0 0 0 0 0 0 0 0 0 0 0 0 0 0 0 0 0 0 0 0 0 0 0 0 0 0 0 0 0 0 0 0 0 0 0 0 0 0 0 0 0 0 0 0 0 0 0 0 0 0 0 0 0 0 0 0 0 0 0 0 0 0 0 0 0 0 0 0 0 0 0 0 0 0 0 0 0 0 0 0 0 0 0 0 0 0 0 0 0 0 0 0 0 0 0 0 0 0 0 0 0 0 0 0 0 0 0 0 0 0 0 0 0 0 0 0 0 0 0 0 0 0 0 0 0 0 0 0 0 0 0 0 0 0 0 0 0 0 0 0 1 0 1 1 1 1 2 2 3 3 1 0 0 1 3 2 1 0 1 4 4 3 3 2 3 4 3 3 1 0 0 0 0 0 0 0 1 0 0 0 0 0 2 2 2 2 1 3 4 5 5 5 6 7 7 6 5 7 8 10 9 11 11 10 10 10 10 10 9 10 11 11 12 11 12 13 13 15 17 18 18 19 20 20 18 19 19 17 15 17 16 17 19 22 21 20 22 23 27 26 26 24 22 22 21 23 25 24 22 23 24 23 21 20 18 17 17 18 18 19 21 24 26 27 24 21 20 21 22 20 17 14 16 18 18 16 16 17 16 14 16 16 16 18 19 
19 18 18 20 21 23 21 20 20 20 20 24 24 21 19 18 19 23 23 23 19 17 18 21 21 22 23 23 23 22 19 18 18 16 15 14 14 14 12 11 9 9 9 8 7 6 6 6 9 12 15 18 18 17 15 14 10 8 6 7 8 7 8 7 7 8 8 9 9 6 2 4 2 1 2 4 4 3 3 3 2 2 2 4 5 7 8 10 10 9 7 5 6 7 7 7 10 11 10 12 14 15 15 14 14 13 13 12 11 13 17 16 14 14 12 10 9 8 7 8 8 10 10 9 9 10 11 8 7 8 10 10 11 11 12 13 12 11 8 5 4 3 4 4 4 0 0 0 0 1 3 4 4 5 7 10 13 14 14 14 14 13 14 14 15 13 11 12 13 12 13 14 12 12 11 12 10 9 9 11 9 7 8 7 7 7 8 10 11 12 11 11 12 9 10 8 7 6 6 3 2 5 4 2 1 0 0 0 1 1 0 0 0 0 0 0 0 0 0 0 0 0 0 0 0 0 0 0 0 0 0 0 0 0 0 0 0 0 0 0 0 0 0 0 0 0 0 0 0 0 0 0 0 0 0 0 0 0 0 0 0 0 0 0 0 0 0 0 0 0 0 0 0 0 0 0 0 0 0 0 0 0 0 0 0 0 0 0 0 0 0 0 0 0 0 0 0 0 0 0 0 0 0 0 0 0 0 0 0 0 0 0 0 0 0 0 0 0 0 0 0 0 0 0 0 0 0 0 0 0 0 0 0 0 0 0 0 0 0 0 0 0 0 0 0 0 0 0 0 0 0 0 0 0 0 0 0 0 0 0 0 0 0 0 0 0 0 0 0 0 0 0 0 0 0 0 0 0 0 0 0 0 0 0 0 0 0 0 0 0 0 0 0 0 0 0 0 0 0 0 0 0 0 0 0 0 0 0 0 0 0 0 0 0 0 0 0 0 0 0 0 0 0 0 0 0 0 0 0 0 0 0 0 0 0 0 0 0 0 0 0 0 0 0 0 0 0 0 0 0 0 0 0 0 0 0 0 0 0 0 0 0 0 0 0 0 0 0 0 0 0 0 0 0 0 0 0 0 0 0 0 0 1 0 0 0 0 0 0 0 0 0 0 0 0 1 2 0 1 1 0 0 0 0 0 0 0 0 1 3 3 2 2 1 2 4 3 2 3 3 4 2 0 1 0 0 0 0 0 0 0 1 0 0 0 0 1 2 2 4 3 3 3 5 6 5 5 5 4 5 5 6 7 9 11 10 12 12 10 9 9 10 10 10 11 11 11 12 13 11 11 13 14 16 16 16 18 19 18 18 18 18 16 15 17 18 18 19 20 22 22 21 24 28 27 28 25 25 25 24 26 26 25 22 22 23 22 20 19 17 17 17 17 19 20 22 24 26 26 23 22 20 20 22 19 16 14 15 17 16 14 14 15 15 14 16 16 16 18 20 
20 18 19 19 19 19 19 18 18 21 21 23 25 23 19 17 17 19 21 20 18 17 18 19 20 21 20 22 23 21 19 18 18 17 15 15 15 15 14 11 8 7 9 9 9 8 7 8 9 11 15 18 18 16 16 14 11 7 7 8 6 5 7 7 6 6 5 6 5 5 2 1 0 0 0 0 1 1 3 3 2 1 1 2 5 7 10 10 9 9 6 5 5 7 7 7 8 9 9 10 13 14 13 13 14 12 11 12 13 15 19 19 17 15 13 11 9 7 7 5 6 9 9 9 10 11 10 9 9 10 11 11 11 11 11 12 12 11 10 8 5 4 5 3 3 0 0 0 1 3 5 4 4 5 7 9 10 13 14 14 15 16 16 14 15 12 10 10 9 11 11 12 11 11 11 12 12 11 13 14 11 8 8 9 8 8 9 10 12 12 10 10 11 9 9 9 8 6 5 4 5 6 6 3 3 3 3 2 3 3 0 0 0 0 0 0 0 0 0 0 0 0 0 0 0 0 0 0 0 0 0 0 0 0 0 0 0 0 0 0 0 0 0 0 0 0 0 0 0 0 0 0 0 0 0 0 0 0 0 0 0 0 0 0 0 0 0 0 0 0 0 0 0 0 0 0 0 0 0 0 0 0 0 0 0 0 0 0 0 0 0 0 0 0 0 0 0 0 0 0 0 0 0 0 0 0 0 0 0 0 0 0 0 0 0 0 0 0 0 0 0 0 0 0 0 0 0 0 0 0 0 0 0 0 0 0 0 0 0 0 0 0 0 0 0 0 0 0 0 0 0 0 0 0 0 0 0 0 0 0 0 0 0 0 0 0 0 0 0 0 0 0 0 0 0 0 0 0 0 0 0 0 0 0 0 0 0 0 0 0 0 0 0 0 0 0 0 0 0 0 0 0 0 0 0 0 0 0 0 0 0 0 0 0 0 0 0 0 0 0 0 0 0 0 0 0 0 0 0 0 0 0 0 0 0 0 0 0 0 0 0 0 0 0 0 0 0 0 0 0 0 0 0 0 0 0 0 0 0 0 0 0 0 0 0 0 0 0 0 0 0 0 0 0 0 0 0 0 0 0 1 1 0 0 0 0 0 0 0 0 0 0 0 0 1 3 2 1 0 1 0 0 0 0 0 0 0 0 0 3 4 3 3 2 2 2 4 3 2 3 2 1 1 2 2 0 0 0 0 0 0 0 0 0 0 0 0 1 2 4 3 4 4 7 8 5 4 4 3 4 4 6 8 10 11 11 11 12 11 10 9 10 10 11 12 13 13 13 13 12 12 12 14 16 14 14 14 15 15 16 16 15 15 15 18 20 21 20 21 22 21 22 24 27 28 29 26 27 27 27 27 27 26 22 23 22 20 18 19 19 17 17 18 20 20 21 23 25 24 23 20 19 19 19 17 16 15 17 16 16 15 15 16 16 16 16 17 18 19 20 
19 17 17 17 17 17 16 17 18 21 21 22 23 21 18 15 15 16 17 18 17 16 17 18 18 19 21 21 22 21 18 18 18 18 17 16 16 16 15 12 10 8 9 12 11 10 10 10 10 12 12 16 17 17 17 16 12 10 8 7 6 6 5 6 6 5 5 4 5 4 2 0 0 0 0 0 0 1 1 3 2 0 0 3 6 8 9 10 9 7 7 6 5 6 8 8 7 9 9 10 12 13 12 14 14 13 11 13 15 18 18 19 18 17 14 12 8 7 6 5 7 9 10 10 10 9 10 11 9 10 11 9 8 8 10 11 11 9 9 9 6 5 4 3 4 1 1 2 5 5 6 6 6 6 8 10 12 13 13 15 16 15 16 15 16 15 13 10 9 10 9 11 11 13 12 13 12 12 14 15 14 10 8 9 7 7 7 9 9 11 9 8 8 8 9 9 8 8 8 7 5 7 7 5 3 4 5 5 5 3 0 0 0 0 1 0 0 0 0 0 0 0 0 0 0 0 0 0 0 0 0 0 0 0 0 0 0 0 0 0 0 0 0 0 0 0 0 0 0 0 0 0 0 0 0 0 0 0 0 0 0 0 0 0 0 0 0 0 0 0 0 0 0 0 0 0 0 0 0 0 0 0 0 0 0 0 0 0 0 0 0 0 0 0 0 0 0 0 0 0 0 0 0 0 0 0 0 0 0 0 0 0 0 0 0 0 0 0 0 0 0 0 0 0 0 0 0 0 0 0 0 0 0 0 0 0 0 0 0 0 0 0 0 0 0 0 0 0 0 0 0 0 0 0 0 0 0 0 0 0 0 0 0 0 0 0 0 0 0 0 0 0 0 0 0 0 0 0 0 0 0 0 0 0 0 0 0 0 0 0 0 0 0 0 0 0 0 0 0 0 0 0 0 0 0 0 0 0 0 0 0 0 0 0 0 0 0 0 0 0 0 0 0 0 0 0 0 0 0 0 0 0 0 0 0 0 0 0 0 0 0 0 0 0 0 0 0 0 0 0 0 0 0 0 0 0 0 0 0 0 0 0 0 0 0 0 0 0 0 0 0 0 0 0 0 0 0 0 0 1 3 2 1 1 0 1 0 0 0 0 0 0 1 1 3 4 2 0 0 0 0 0 0 0 0 0 0 0 2 5 6 5 3 4 3 3 5 4 3 2 2 0 2 3 2 0 0 1 1 0 0 0 0 0 0 1 0 0 3 3 5 4 4 7 8 8 5 5 5 4 4 6 7 8 10 11 11 11 10 10 12 12 12 13 14 14 13 13 13 12 11 12 14 14 15 14 14 14 14 15 16 14 13 16 19 21 20 19 20 22 23 25 25 26 30 29 28 29 28 29 29 26 23 23 24 21 20 18 20 19 19 18 20 21 19 20 21 23 22 20 19 17 18 18 19 16 17 17 19 19 17 17 15 16 16 18 19 18 18 19 
16 15 15 17 17 17 18 18 18 20 19 20 21 19 16 14 14 15 15 17 15 16 15 16 16 18 20 19 19 19 18 19 20 19 18 16 16 17 15 14 12 10 10 13 14 12 11 11 11 11 14 15 16 17 17 16 14 13 10 8 7 6 5 6 5 4 4 3 3 2 0 0 0 0 0 0 0 0 2 3 0 0 0 0 4 8 9 9 8 6 7 6 6 7 8 8 8 8 9 8 12 14 12 14 15 13 12 12 13 17 16 16 17 17 14 12 10 9 7 8 9 9 9 10 10 10 8 10 8 9 8 8 5 6 7 11 9 8 9 9 5 4 3 4 4 4 4 5 6 6 6 5 6 8 9 11 12 12 13 15 15 16 15 15 16 15 15 12 11 10 10 11 11 12 13 14 14 13 15 16 14 10 10 7 7 6 6 8 7 6 7 8 8 9 9 9 10 10 10 10 9 7 7 5 4 4 4 3 4 3 3 3 2 2 4 4 3 0 0 0 0 0 0 0 0 0 0 0 0 0 0 0 0 0 0 0 0 0 0 0 0 0 0 0 0 0 0 0 0 0 0 0 0 0 0 0 0 0 0 0 0 0 0 0 0 0 0 0 0 0 0 0 0 0 0 0 0 0 0 0 0 0 0 0 0 0 0 0 0 0 0 0 0 0 0 0 0 0 0 0 0 0 0 0 0 0 0 0 0 0 0 0 0 0 0 0 0 0 0 0 0 0 0 0 0 0 0 0 0 0 0 0 0 0 0 0 0 0 0 0 0 0 0 0 0 0 0 0 0 0 0 0 0 0 0 0 0 0 0 0 0 0 0 0 0 0 0 0 0 0 0 0 0 0 0 0 0 0 0 0 0 0 0 0 0 0 0 0 0 0 0 0 0 0 0 0 0 0 0 0 0 0 0 0 0 0 0 0 0 0 0 0 0 0 0 0 0 0 0 0 0 0 0 0 0 0 0 0 0 0 0 0 0 0 0 0 0 0 0 0 0 0 0 0 0 0 0 0 0 0 0 0 0 0 0 0 0 0 0 0 0 0 0 0 0 0 0 0 0 0 0 0 0 0 0 0 0 0 0 2 4 2 2 1 3 3 1 0 0 0 0 1 3 3 5 4 3 2 1 0 0 0 0 0 0 0 0 0 2 5 5 3 3 3 4 3 3 3 3 3 3 2 2 3 3 2 3 3 1 1 0 0 0 2 1 1 0 1 2 3 5 4 5 6 7 8 7 7 6 5 6 8 7 9 10 10 10 10 11 11 13 14 13 13 12 12 12 13 12 10 10 12 14 16 17 16 13 13 15 15 17 15 13 15 19 18 18 18 20 24 25 24 26 28 30 30 30 30 30 28 28 25 25 23 23 21 21 20 20 19 20 19 20 19 19 19 20 19 18 18 15 15 16 17 16 16 17 18 21 22 19 17 18 17 16 18 18 17 16 18 
16 14 15 18 20 19 19 18 18 20 19 18 19 18 15 14 13 13 14 14 14 15 17 16 17 17 18 18 19 19 18 20 20 18 18 16 18 17 16 15 13 11 12 14 14 12 12 12 13 12 14 16 17 18 19 18 15 12 10 10 8 8 6 6 6 4 3 2 0 0 1 0 0 0 0 0 1 2 2 2 1 0 0 0 3 6 8 10 8 6 6 6 8 9 10 8 8 8 8 9 10 13 13 15 15 14 13 14 14 16 15 15 14 14 14 12 10 10 8 10 9 10 10 10 9 9 8 7 6 7 6 5 4 3 6 8 8 7 6 6 5 5 5 5 7 7 5 6 7 7 8 7 8 9 10 10 10 12 12 14 14 13 14 13 14 14 15 13 12 12 11 11 11 10 12 12 12 13 14 13 11 10 10 8 8 6 6 6 6 5 7 9 9 10 12 11 11 11 10 10 10 10 10 8 5 5 5 4 6 8 7 7 5 5 5 8 7 4 3 2 0 0 0 0 0 0 0 1 0 0 0 0 0 0 0 0 0 0 0 0 0 0 0 0 0 0 0 0 0 0 0 0 0 0 0 0 0 0 0 0 0 0 0 0 0 0 0 0 0 0 0 0 0 0 0 0 0 0 0 0 0 0 0 0 0 0 0 0 0 0 0 0 0 0 0 0 0 0 0 0 0 0 0 0 0 0 0 0 0 0 0 0 0 0 0 0 0 0 0 0 0 0 0 0 0 0 0 0 0 0 0 0 0 0 0 0 0 0 0 0 0 0 0 0 0 0 0 0 0 0 0 0 0 0 0 0 0 0 0 0 0 0 0 0 0 0 0 0 0 0 0 0 0 0 0 0 0 0 0 0 0 0 0 0 0 0 0 0 0 0 0 0 0 0 0 0 0 0 0 0 0 0 0 0 0 0 0 0 0 0 0 0 0 0 0 0 0 0 0 0 0 0 0 0 0 0 0 0 0 0 0 0 0 0 0 0 0 0 0 0 0 0 0 0 0 0 0 0 0 0 0 0 0 0 0 0 0 0 0 0 0 0 0 0 0 0 0 0 0 0 0 0 0 0 0 0 0 0 0 0 2 2 2 3 3 3 1 2 1 0 0 2 5 4 4 6 5 5 4 1 0 0 0 0 0 0 0 0 2 2 2 2 2 3 2 3 3 2 3 4 4 5 4 4 4 4 5 4 3 2 2 1 1 1 3 1 1 4 3 5 5 4 6 8 9 10 9 8 6 8 9 10 9 11 12 10 10 9 10 11 13 15 16 13 14 12 11 10 10 9 10 12 13 15 16 16 15 16 17 17 16 16 15 16 17 18 19 18 21 22 23 23 25 28 30 30 31 32 32 29 28 26 23 23 23 22 20 19 19 21 20 19 17 17 17 18 18 17 16 13 13 14 14 15 13 15 16 18 20 21 20 20 20 17 18 17 17 16 15 16 
17 17 17 18 19 17 16 18 19 18 17 17 19 17 16 13 13 12 13 14 15 16 18 18 16 16 17 18 19 19 20 21 19 18 18 18 18 17 16 15 15 15 13 13 15 15 13 12 13 12 14 18 20 19 18 17 15 13 12 11 11 10 8 7 6 5 2 0 0 0 0 0 0 0 0 0 0 2 3 3 2 0 0 0 1 3 6 7 7 6 5 6 7 7 8 8 9 9 9 11 10 11 14 15 13 11 12 12 12 14 13 13 12 12 12 11 9 9 9 10 11 11 10 9 9 7 7 6 4 4 5 5 4 2 5 7 8 5 4 5 5 5 8 8 8 8 8 6 6 5 7 6 7 8 8 10 10 12 13 13 13 13 12 13 14 13 14 14 14 14 11 9 9 9 12 13 12 11 10 11 11 10 11 11 9 8 6 8 6 5 7 9 9 10 11 12 14 13 12 10 10 11 11 10 9 8 7 7 9 10 9 10 10 8 9 11 11 7 7 4 3 0 0 0 0 0 1 2 0 0 0 0 0 0 0 0 0 0 0 0 0 0 0 0 0 0 0 0 0 0 0 0 0 0 0 0 0 0 0 0 0 0 0 0 0 0 0 0 0 0 0 0 0 0 0 0 0 0 0 0 0 0 0 0 0 0 0 0 0 0 0 0 0 0 0 0 0 0 0 0 0 0 0 0 0 0 0 0 0 0 0 0 0 0 0 0 0 0 0 0 0 0 0 0 0 0 0 0 0 0 0 0 0 0 0 0 0 0 0 0 0 0 0 0 0 0 0 0 0 0 0 0 0 0 0 0 0 0 0 0 0 0 0 0 0 0 0 0 0 0 0 0 0 0 0 0 0 0 0 0 0 0 0 0 0 0 0 0 0 0 0 0 0 0 0 0 0 0 0 0 0 0 0 0 0 0 0 0 0 0 0 0 0 0 0 0 0 0 0 0 0 0 0 0 0 0 0 0 0 0 0 0 0 0 0 0 0 0 0 0 0 0 0 0 0 0 0 0 0 0 0 0 0 0 0 0 0 0 0 0 0 0 0 0 0 0 0 0 0 0 0 0 0 0 0 0 0 0 0 1 1 0 3 3 3 3 2 2 1 0 1 2 3 4 5 5 6 5 4 3 0 0 0 0 0 0 0 0 0 0 2 1 0 0 2 1 2 1 3 4 5 5 5 5 5 5 7 5 6 4 4 4 5 5 5 3 1 5 6 5 6 5 5 8 8 9 11 10 8 8 9 11 12 11 11 9 9 9 10 11 15 15 16 15 14 13 11 11 11 11 9 11 13 14 15 14 15 17 17 17 16 14 16 18 18 20 19 19 18 19 19 21 22 26 27 28 30 31 31 30 28 26 25 24 22 22 21 18 17 16 16 17 15 16 15 16 15 15 13 12 11 12 12 13 13 15 17 18 18 19 21 20 18 16 17 18 16 16 16 15 
18 18 18 17 16 16 18 20 18 18 16 16 16 17 17 14 12 12 12 15 17 17 19 18 17 15 17 19 20 20 20 20 19 17 17 16 17 18 18 16 16 15 16 17 18 17 15 14 13 14 16 19 19 16 16 18 15 14 14 13 12 11 9 7 7 6 3 1 0 0 0 0 0 0 0 0 0 0 2 3 2 1 0 0 0 1 2 4 6 5 4 4 4 6 6 7 9 9 11 13 12 13 14 13 11 12 11 11 11 12 11 11 12 10 9 8 9 8 9 11 10 11 10 9 7 5 5 7 6 5 7 7 5 4 5 7 7 6 4 6 5 5 8 8 9 9 8 8 6 6 5 5 6 6 6 6 7 9 10 11 13 12 12 12 12 14 14 14 15 14 12 9 9 8 9 11 10 9 9 10 12 12 10 11 9 8 6 7 7 7 8 10 8 9 11 12 13 15 14 11 12 13 12 11 10 9 8 8 10 11 12 11 10 11 12 13 12 9 8 6 2 0 0 1 1 1 3 1 1 2 0 0 0 0 0 0 0 0 0 0 0 0 0 0 0 0 0 0 0 0 0 0 0 0 0 0 0 0 0 0 0 0 0 0 0 0 0 0 0 0 0 0 0 0 0 0 0 0 0 0 0 0 0 0 0 0 0 0 0 0 0 0 0 0 0 0 0 0 0 0 0 0 0 0 0 0 0 0 0 0 0 0 0 0 0 0 0 0 0 0 0 0 0 0 0 0 0 0 0 0 0 0 0 0 0 0 0 0 0 0 0 0 0 0 0 0 0 0 0 0 0 0 0 0 0 0 0 0 0 0 0 0 0 0 0 0 0 0 0 0 0 0 0 0 0 0 0 0 0 0 0 0 0 0 0 0 0 0 0 0 0 0 0 0 0 0 0 0 0 0 0 0 0 0 0 0 0 0 0 0 0 0 0 0 0 0 0 0 0 0 0 0 0 0 0 0 0 0 0 0 0 0 0 0 0 0 0 0 0 0 0 0 0 0 0 0 0 0 0 0 0 0 0 0 0 0 0 0 0 0 0 0 0 0 0 0 0 0 0 0 0 0 0 0 0 0 0 0 0 1 1 2 2 3 3 1 1 0 0 0 1 3 3 4 5 4 3 3 3 1 0 0 0 0 0 0 0 0 0 0 0 1 0 0 1 2 1 2 3 4 4 6 4 3 5 6 5 5 6 5 6 8 7 8 8 4 5 6 6 4 5 5 5 7 9 9 8 8 8 8 10 12 13 13 12 11 10 10 12 13 14 15 13 13 12 13 13 13 14 12 12 11 12 12 14 15 15 15 16 17 16 15 16 16 16 18 17 17 16 18 18 20 21 22 24 26 28 30 31 29 27 25 24 23 23 24 21 17 17 16 17 17 16 16 14 14 13 13 13 10 11 12 12 14 16 16 18 18 17 19 20 19 18 16 17 18 16 15 15 16 
17 19 18 17 16 17 19 20 18 16 15 15 16 17 18 14 11 9 12 16 18 19 20 17 16 16 18 20 20 19 20 19 16 15 15 15 17 18 18 18 17 17 17 18 18 17 18 17 16 16 18 18 19 16 17 17 16 14 13 12 11 10 8 5 6 4 4 1 0 0 0 0 0 0 0 0 0 0 0 1 1 1 0 0 0 0 2 4 5 6 5 3 3 4 5 6 8 8 11 14 12 13 11 12 12 12 10 9 10 11 10 9 8 9 9 8 8 10 10 9 9 9 8 9 6 4 4 6 7 7 9 7 6 6 7 9 7 7 5 5 6 6 7 7 8 8 8 8 9 7 6 5 5 5 5 5 6 7 8 10 13 14 12 12 11 11 12 16 14 13 13 9 8 8 9 10 9 7 7 9 11 10 9 9 8 6 6 6 7 7 7 8 9 9 10 12 14 15 15 13 15 16 14 16 15 12 11 9 10 11 11 11 11 11 12 11 11 11 10 7 6 4 2 3 3 2 2 3 4 3 2 0 0 0 0 0 0 0 0 0 0 0 0 0 0 0 0 0 0 0 0 0 0 0 0 0 0 0 0 0 0 0 0 0 0 0 0 0 0 0 0 0 0 0 0 0 0 0 0 0 0 0 0 0 0 0 0 0 0 0 0 0 0 0 0 0 0 0 0 0 0 0 0 0 0 0 0 0 0 0 0 0 0 0 0 0 0 0 0 0 0 0 0 0 0 0 0 0 0 0 0 0 0 0 0 0 0 0 0 0 0 0 0 0 0 0 0 0 0 0 0 0 0 0 0 0 0 0 0 0 0 0 0 0 0 0 0 0 0 0 0 0 0 0 0 0 0 0 0 0 0 0 0 0 0 0 0 0 0 0 0 0 0 0 0 0 0 0 0 0 0 0 0 0 0 0 0 0 0 0 0 0 0 0 0 0 0 0 0 0 0 0 0 0 0 0 0 0 0 0 0 0 0 0 0 0 0 0 0 0 0 0 0 0 0 0 0 0 0 0 0 0 0 0 0 0 0 0 0 0 0 0 0 0 0 0 0 0 0 0 0 0 0 0 0 0 0 0 0 0 1 2 3 3 4 3 1 0 0 0 1 2 2 3 3 3 3 2 2 1 0 0 0 0 0 0 0 0 0 0 0 0 0 0 2 2 1 3 3 3 6 5 4 3 3 6 6 6 6 6 8 10 10 9 9 7 5 5 4 3 4 7 7 8 8 7 7 7 8 7 7 10 11 12 13 12 13 12 10 13 14 12 11 13 13 14 13 13 12 12 10 11 12 13 15 15 14 15 14 14 15 13 14 15 14 14 15 15 16 15 17 18 19 20 22 24 27 29 28 28 27 26 23 24 23 22 19 17 16 17 17 18 17 15 13 12 12 13 12 12 11 13 14 14 15 16 18 19 19 20 20 19 17 16 16 16 14 15 15 18 
18 19 17 17 18 17 20 19 18 15 13 15 17 17 17 14 11 10 13 18 17 18 18 16 15 15 17 19 17 16 18 16 16 16 17 17 19 20 20 19 18 16 17 17 17 17 18 18 18 18 18 18 18 18 16 16 15 13 12 10 9 8 6 5 5 5 4 1 0 0 0 0 0 0 0 0 0 0 0 0 1 0 0 0 0 0 1 5 5 6 4 3 3 5 4 8 9 9 10 11 11 12 12 13 13 11 9 9 9 8 7 8 6 8 8 8 8 9 8 10 10 9 9 10 9 7 7 6 7 8 9 8 7 7 8 8 8 8 7 6 7 6 5 6 5 6 7 10 10 7 6 6 6 6 7 5 7 7 7 9 12 12 10 9 10 12 11 14 13 11 12 11 10 10 10 10 11 8 7 10 11 11 9 8 7 5 6 6 8 7 7 7 7 7 10 11 12 14 15 14 16 17 17 18 16 12 12 10 10 12 14 12 11 10 10 11 11 10 11 8 7 6 4 3 3 4 3 4 4 3 1 0 0 0 0 0 0 0 0 0 0 0 0 0 0 0 0 0 0 0 0 0 0 0 0 0 0 0 0 0 0 0 0 0 0 0 0 0 0 0 0 0 0 0 0 0 0 0 0 0 0 0 0 0 0 0 0 0 0 0 0 0 0 0 0 0 0 0 0 0 0 0 0 0 0 0 0 0 0 0 0 0 0 0 0 0 0 0 0 0 0 0 0 0 0 0 0 0 0 0 0 0 0 0 0 0 0 0 0 0 0 0 0 0 0 0 0 0 0 0 0 0 0 0 0 0 0 0 0 0 0 0 0 0 0 0 0 0 0 0 0 0 0 0 0 0 0 0 0 0 0 0 0 0 0 0 0 0 0 0 0 0 0 0 0 0 0 0 0 0 0 0 0 0 0 0 0 0 0 0 0 0 0 0 0 0 0 0 0 0 0 0 0 0 0 0 0 0 0 0 0 0 0 0 0 0 0 0 0 0 0 0 0 0 0 0 0 0 0 0 0 0 0 0 0 0 0 0 0 0 0 0 0 0 0 0 0 0 0 0 0 0 0 0 0 0 0 0 0 1 1 1 0 2 2 3 2 2 2 1 2 3 2 3 2 1 2 2 1 1 0 1 1 0 0 0 0 0 0 0 0 0 1 2 2 2 0 2 3 3 4 5 4 4 3 4 6 4 5 8 8 10 11 10 8 7 7 5 4 5 7 8 7 8 7 7 6 7 6 8 7 8 9 10 11 12 13 10 9 10 11 11 10 11 12 13 13 13 13 11 10 11 11 11 11 13 14 14 13 12 13 13 14 13 13 15 15 16 15 13 15 17 18 19 21 23 26 28 28 28 28 26 24 23 22 21 18 19 18 18 17 18 17 14 13 13 12 12 12 13 13 13 14 13 15 17 18 20 21 21 20 19 19 15 15 14 14 14 15 17 
16 17 18 17 18 19 19 17 19 15 15 16 17 17 16 15 13 12 15 15 14 17 17 16 14 15 17 19 16 15 16 16 16 16 17 19 21 20 19 21 19 17 17 15 14 15 17 18 16 17 18 17 17 17 16 17 17 13 10 10 9 8 6 6 6 5 3 2 1 0 1 0 0 0 0 1 0 0 0 0 2 1 0 0 0 1 2 4 5 6 5 5 5 6 7 8 9 10 10 11 11 12 12 13 13 10 9 9 10 10 8 6 5 6 8 8 9 7 8 9 8 9 8 10 9 8 7 8 9 9 9 7 7 6 7 10 8 9 7 7 8 7 6 7 6 6 8 9 9 7 7 6 7 8 7 8 9 8 9 9 11 10 10 8 9 9 10 12 10 11 13 11 12 10 12 11 11 9 8 10 11 8 6 6 7 6 5 5 6 6 5 7 6 7 8 10 13 14 14 13 17 17 18 18 16 14 13 14 12 15 14 12 11 10 10 10 11 9 10 8 6 6 4 4 5 5 5 6 5 3 1 0 0 0 0 0 0 0 0 0 0 0 0 0 0 0 0 0 0 0 0 0 0 0 0 0 0 0 0 0 0 0 0 0 0 0 0 0 0 0 0 0 0 0 0 0 0 0 0 0 0 0 0 0 0 0 0 0 0 0 0 0 0 0 0 0 0 0 0 0 0 0 0 0 0 0 0 0 0 0 0 0 0 0 0 0 0 0 0 0 0 0 0 0 0 0 0 0 0 0 0 0 0 0 0 0 0 0 0 0 0 0 0 0 0 0 0 0 0 0 0 0 0 0 0 0 0 0 0 0 0 0 0 0 0 0 0 0 0 0 0 0 0 0 0 0 0 0 0 0 0 1 2 2 0 0 0 0 0 0 0 0 0 0 0 0 0 0 0 0 0 0 0 0 0 0 0 0 0 0 0 0 0 0 0 0 0 0 0 0 0 0 0 0 0 0 0 0 0 0 0 0 0 0 0 0 0 0 0 0 0 0 0 0 0 0 0 0 0 0 0 0 0 0 0 0 0 0 0 0 0 0 0 0 0 0 0 0 0 0 0 0 0 0 0 1 0 2 1 3 2 1 2 1 2 2 2 2 2 1 1 2 3 3 3 2 2 3 2 0 0 0 0 0 0 0 0 0 0 0 0 0 1 2 2 1 0 1 3 2 3 4 3 4 5 3 5 4 5 6 6 8 11 10 8 6 7 6 5 6 6 8 7 8 8 8 7 7 7 6 8 10 10 8 10 11 12 11 9 10 11 11 10 11 12 11 11 11 13 12 10 11 11 8 8 9 12 12 10 10 11 13 13 13 14 15 15 15 14 13 15 15 17 19 21 24 26 28 27 27 27 26 23 21 22 20 20 20 19 18 18 16 16 14 12 11 10 11 11 13 14 14 13 14 16 16 17 19 21 20 18 16 17 16 16 16 15 15 15 15 
15 17 18 17 20 21 19 17 18 18 18 17 16 15 15 16 16 14 14 13 12 15 14 13 13 17 17 16 16 16 17 17 16 16 17 17 18 19 19 21 20 19 18 15 14 15 15 16 17 19 18 17 17 17 17 18 16 13 12 10 8 7 7 8 8 8 5 1 0 0 0 0 0 0 2 1 1 0 2 2 2 2 2 1 2 1 2 4 6 6 7 7 7 8 8 10 11 9 9 9 9 11 12 13 11 8 8 8 10 9 7 6 6 6 8 9 8 6 5 5 6 6 7 8 8 8 8 9 8 7 6 8 7 4 6 8 8 9 8 6 6 6 7 6 6 5 8 8 9 7 6 7 9 10 8 7 8 8 8 8 9 10 10 9 8 7 9 10 11 10 11 12 11 11 12 11 10 8 7 9 7 7 6 5 4 6 5 7 6 5 6 6 6 6 7 9 12 12 10 12 14 17 18 17 18 16 17 17 15 15 13 12 11 10 10 9 9 8 9 10 6 5 5 6 4 5 4 6 6 3 1 1 0 0 0 0 0 0 0 0 0 0 0 0 0 0 0 0 0 0 0 0 0 0 0 0 0 0 0 0 0 0 0 0 0 0 0 0 0 0 0 0 0 0 0 0 0 0 0 0 0 0 0 0 0 0 0 0 0 0 0 0 0 0 0 0 0 0 0 0 0 0 0 0 0 0 0 0 0 0 0 0 0 0 0 0 0 0 0 0 0 0 0 0 0 0 0 0 0 0 0 0 0 0 0 0 0 0 0 0 0 0 0 0 0 0 0 0 0 0 0 0 0 0 0 0 0 0 0 0 0 0 0 0 0 0 0 0 0 0 0 0 0 0 0 0 0 0 1 2 1 3 4 3 1 0 1 1 1 0 0 0 0 0 0 0 0 0 0 0 0 0 0 0 0 0 0 0 0 0 0 0 0 0 0 0 0 0 0 0 0 0 0 0 0 0 0 0 0 0 0 0 0 0 0 0 0 0 0 0 0 0 0 0 0 0 0 0 0 0 0 0 0 0 0 0 0 0 0 0 0 0 0 0 0 0 0 0 0 0 0 0 0 2 1 1 1 1 1 2 3 3 1 2 2 3 3 1 1 1 3 3 1 1 1 2 2 3 1 0 0 0 0 0 0 0 0 0 0 0 0 0 0 0 0 0 0 1 4 3 5 4 3 3 4 4 4 4 4 4 4 6 8 8 7 7 6 6 6 5 8 8 6 7 8 9 10 8 9 8 8 9 8 8 10 11 12 10 8 10 12 10 13 13 10 9 10 11 13 11 11 12 11 8 8 9 9 7 8 8 10 11 13 13 12 13 16 16 14 13 15 16 19 21 23 24 25 25 25 27 28 26 24 23 24 23 22 21 21 18 18 16 15 14 13 11 9 10 11 12 14 15 14 17 18 18 20 21 20 18 17 15 14 15 15 13 13 13 13 14 
15 17 17 18 20 19 19 18 19 19 19 19 17 16 16 17 16 13 13 11 11 14 13 13 13 15 15 15 15 17 19 19 20 18 15 16 16 17 18 19 19 19 18 16 16 15 16 15 17 18 17 17 17 15 15 16 15 13 11 9 9 8 8 8 8 6 4 3 4 2 2 2 3 4 4 3 2 1 4 6 5 4 5 6 5 3 2 4 7 8 7 8 9 9 9 11 10 9 9 8 10 10 9 10 9 8 9 8 10 10 7 7 7 8 9 9 8 8 7 6 5 6 7 7 8 8 8 9 7 5 4 5 4 2 3 5 7 9 8 5 6 8 7 7 6 4 7 9 10 8 8 10 10 9 9 6 7 7 7 8 8 8 9 8 7 7 8 9 10 10 10 11 12 12 11 11 7 7 5 6 5 4 4 4 3 4 6 6 5 4 4 6 6 6 6 8 10 7 10 11 13 15 17 17 18 18 19 18 16 15 14 13 11 10 8 8 8 9 9 8 7 5 8 7 6 5 4 5 6 4 1 2 1 0 0 0 0 0 0 0 0 0 0 0 0 0 0 0 0 0 0 0 0 0 0 0 0 0 0 0 0 0 0 0 0 0 0 0 0 0 0 0 0 0 0 0 0 0 0 0 0 0 0 0 0 0 0 0 0 0 0 0 0 0 0 0 0 0 0 0 0 0 0 0 0 0 0 0 0 0 0 0 0 0 0 0 0 0 0 0 0 0 0 0 0 0 0 0 0 0 0 0 0 0 0 0 0 0 0 0 0 0 0 0 0 0 0 0 0 0 0 0 0 0 0 0 0 0 0 0 0 0 0 0 0 0 0 0 0 0 0 0 0 0 0 0 0 1 1 1 2 3 3 3 2 0 0 1 0 0 0 0 0 0 0 0 0 0 0 0 0 0 0 0 0 0 0 0 0 0 0 0 0 0 0 0 0 0 0 0 0 0 0 0 0 0 0 0 0 0 0 0 0 0 0 0 0 0 0 0 0 0 0 0 0 0 0 0 0 0 0 0 0 0 0 0 0 0 0 0 0 0 0 0 0 0 0 0 0 0 0 0 2 3 2 0 0 0 0 2 3 3 0 0 2 2 2 0 1 2 3 3 1 0 0 0 1 1 0 0 0 0 0 0 0 0 0 0 0 0 0 0 0 0 0 0 2 3 5 5 5 7 6 6 6 6 4 2 3 4 2 4 5 5 5 7 7 7 5 5 6 8 9 9 9 10 9 11 10 8 9 10 8 9 9 10 10 11 10 11 11 11 13 12 10 9 11 12 13 12 9 11 11 10 8 6 6 4 6 6 6 8 11 13 12 14 16 17 17 16 17 19 21 21 22 23 24 25 25 27 29 27 25 25 24 22 21 21 20 18 17 16 14 14 14 12 10 12 13 14 15 16 17 17 18 19 20 21 21 19 17 15 14 11 11 11 11 11 11 13 
14 17 20 19 19 19 18 19 18 18 16 17 17 17 17 18 15 13 12 13 13 14 14 13 14 14 15 15 15 18 20 20 21 18 17 17 16 17 19 17 16 18 17 17 17 18 18 18 18 18 17 15 16 15 14 14 14 11 11 10 10 9 7 7 6 4 6 7 6 6 5 4 6 5 6 4 3 3 6 8 7 6 6 7 7 5 5 6 7 7 7 8 9 7 6 9 9 9 8 7 8 8 7 10 10 9 7 7 9 9 9 8 8 7 9 10 9 8 8 7 7 6 6 6 7 7 6 7 5 2 2 2 3 1 0 2 5 7 6 5 6 5 4 4 4 5 6 8 9 8 7 8 9 8 7 5 4 3 3 4 5 5 7 9 9 8 9 9 9 8 9 10 11 10 11 11 7 6 3 5 3 4 3 3 2 2 5 6 4 4 4 6 7 6 7 8 9 7 9 11 13 15 15 17 16 17 18 16 16 17 16 15 13 12 9 7 9 9 10 10 9 7 7 7 6 2 2 4 6 4 4 3 2 1 0 0 0 0 0 0 0 0 0 0 0 0 0 0 0 0 0 0 0 0 0 0 0 0 0 0 0 0 0 0 0 0 0 0 0 0 0 0 0 0 0 0 0 0 0 0 0 0 0 0 0 0 0 0 0 0 0 0 0 0 0 0 0 0 0 0 0 0 0 0 0 0 0 0 0 0 0 0 0 0 0 0 0 0 0 0 0 0 0 0 0 0 0 0 0 0 0 0 0 0 0 0 0 0 0 0 0 0 0 0 0 0 0 0 0 0 0 0 0 0 0 0 0 0 0 0 0 0 0 0 0 0 0 0 0 0 0 0 0 0 0 1 1 2 1 2 2 3 3 2 0 0 0 0 0 0 0 0 0 0 0 0 0 0 0 0 0 0 0 0 0 0 0 0 0 0 0 0 0 0 0 0 0 0 0 0 0 0 0 0 0 0 0 0 0 0 0 0 0 0 0 0 0 0 0 0 0 0 0 0 0 0 0 0 0 0 0 0 0 0 0 0 0 0 0 0 0 0 0 0 0 0 0 0 0 0 0 0 3 3 3 1 2 1 1 3 2 1 0 0 1 1 1 0 1 3 1 0 0 0 0 0 1 0 0 0 0 0 0 0 0 0 0 0 0 0 0 0 0 0 1 2 2 3 6 8 9 11 10 9 7 5 3 2 1 3 0 0 3 5 6 6 5 4 6 5 6 8 11 12 12 11 10 10 9 9 8 8 8 10 9 10 10 9 10 10 11 12 11 10 9 7 9 12 11 10 10 9 9 7 5 4 5 3 4 4 6 8 11 11 11 14 17 18 17 17 18 19 20 21 19 20 21 22 22 25 29 28 26 25 24 20 19 19 20 19 17 16 15 15 16 15 13 12 15 16 17 16 17 17 19 19 20 21 20 17 16 14 12 11 11 10 11 11 13 14 
17 18 18 19 20 18 17 18 18 16 16 16 16 17 18 17 16 15 15 15 15 14 15 14 14 14 16 16 18 18 21 22 21 18 17 16 16 16 18 16 16 15 15 14 15 18 18 18 18 19 17 14 14 14 12 12 12 11 11 10 10 8 6 5 6 6 7 8 10 8 7 7 8 7 6 7 5 4 7 10 9 7 5 6 6 7 7 6 5 5 6 7 7 5 4 5 6 7 7 5 4 5 6 8 9 10 9 7 8 10 9 7 6 7 10 11 10 9 9 9 9 6 4 7 7 6 4 5 4 3 4 2 3 1 0 1 4 5 5 4 5 3 3 3 4 4 6 9 10 9 8 8 8 8 8 6 4 3 2 2 4 5 8 10 9 7 9 9 8 8 11 10 9 8 9 7 5 4 3 5 3 4 4 4 2 2 3 5 4 4 6 6 5 4 5 7 9 9 9 12 12 12 13 15 15 15 16 15 15 16 17 16 15 13 9 8 7 9 11 11 10 10 9 9 6 3 4 5 7 5 5 2 2 0 0 0 0 0 0 0 0 0 0 0 0 0 0 0 0 0 0 0 0 0 0 0 0 0 0 0 0 0 0 0 0 0 0 0 0 0 0 0 0 0 0 0 0 0 0 0 0 0 0 0 0 0 0 0 0 0 0 0 0 0 0 0 0 0 0 0 0 0 0 0 0 0 0 0 0 0 0 0 0 0 0 0 0 0 0 0 0 0 0 0 0 0 0 0 0 0 0 0 0 0 0 0 0 0 0 0 0 0 0 0 0 0 0 0 0 0 0 0 0 0 0 0 0 0 0 0 0 0 0 0 0 0 0 0 0 0 0 0 0 0 0 1 0 1 1 2 4 4 3 1 0 1 0 0 0 0 0 0 0 0 0 0 0 0 0 0 0 0 0 0 0 0 0 0 0 0 0 0 0 0 0 0 0 0 0 0 0 0 0 0 0 0 0 0 0 0 0 0 0 0 0 0 0 0 0 0 0 0 0 0 0 0 0 0 0 0 0 0 0 0 0 0 0 0 0 0 0 0 0 0 0 0 0 0 0 0 0 1 2 4 5 3 4 2 4 2 2 1 0 0 0 1 0 2 1 2 1 0 0 0 0 0 0 0 0 0 0 0 0 0 0 0 0 0 0 0 0 0 0 0 0 0 3 4 8 9 13 13 11 9 8 6 4 2 1 1 0 0 4 5 6 6 6 6 5 5 5 10 12 11 12 13 12 12 11 10 8 9 9 9 8 9 10 9 11 10 11 12 9 8 7 5 7 9 10 9 8 9 8 7 5 4 4 2 4 6 6 6 9 9 13 14 17 19 18 18 18 18 17 17 19 19 19 18 20 22 25 24 24 24 22 21 20 20 20 19 16 14 14 16 16 15 14 14 15 16 15 16 17 17 18 19 20 20 19 17 16 15 13 13 13 12 12 13 15 15 
16 19 18 18 18 17 17 17 16 17 17 16 15 16 19 20 19 16 15 15 14 15 16 15 14 14 16 16 18 18 21 21 20 16 14 13 12 15 17 17 15 13 12 14 15 17 19 17 19 21 19 15 13 13 12 12 12 13 12 10 8 7 6 5 7 6 9 9 11 9 9 10 11 9 8 9 9 8 9 10 9 8 6 5 5 6 6 6 5 5 6 5 5 2 1 4 5 5 5 2 2 2 4 6 8 9 9 9 8 9 7 6 5 7 10 10 10 9 8 7 5 5 3 5 5 5 4 5 4 5 3 3 3 0 0 1 3 3 3 1 0 2 1 2 2 3 6 7 8 9 9 10 8 9 7 7 6 4 4 4 4 6 9 10 9 7 9 10 9 10 12 10 8 8 7 5 4 4 4 4 5 5 4 3 1 0 2 3 1 2 4 4 3 4 6 7 9 10 10 13 13 13 13 13 15 14 14 13 13 14 14 15 15 13 11 8 8 9 11 11 10 10 10 9 8 6 6 8 7 5 4 4 1 0 0 0 0 0 0 0 0 0 0 0 0 0 0 0 0 0 0 0 0 0 0 0 0 0 0 0 0 0 0 0 0 0 0 0 0 0 0 0 0 0 0 0 0 0 0 0 0 0 0 0 0 0 0 0 0 0 0 0 0 0 0 0 0 0 0 0 0 0 0 0 0 0 0 0 0 0 0 0 0 0 0 0 0 0 0 0 0 0 0 0 0 0 0 0 0 0 0 0 0 0 0 0 0 0 0 0 0 0 0 0 0 0 0 0 0 0 0 0 0 0 0 0 0 0 0 0 0 0 0 0 0 0 0 0 0 0 0 0 0 0 0 1 0 1 0 0 1 2 1 1 0 0 0 0 0 0 0 0 0 0 0 0 0 0 0 0 0 0 0 0 0 0 0 0 0 0 0 0 0 0 0 0 0 0 0 0 0 0 0 0 0 0 0 0 0 0 0 0 0 0 0 0 0 0 0 0 0 0 0 0 0 0 0 0 0 0 0 0 0 0 0 0 0 0 0 0 0 0 0 0 0 0 0 0 0 1 2 3 4 5 5 5 4 3 3 2 2 1 0 0 0 0 0 0 1 3 3 1 0 0 0 0 1 1 0 0 0 0 0 0 0 0 0 0 0 0 0 0 0 0 0 0 2 4 6 9 11 12 10 9 8 5 2 0 0 1 2 1 4 6 6 7 6 7 5 5 5 8 11 11 12 14 13 13 11 11 10 8 8 7 7 8 9 9 9 9 10 9 6 4 4 5 5 6 7 6 8 9 7 5 4 5 4 3 5 6 7 6 9 10 12 14 15 16 15 16 17 17 16 16 18 17 16 16 17 19 20 22 23 23 22 22 21 19 20 18 14 13 14 14 15 15 14 14 14 14 14 16 16 16 18 19 18 19 18 18 17 15 15 15 15 16 16 17 18 17 
17 18 19 18 17 16 16 15 17 19 18 17 16 17 18 20 19 17 18 17 16 16 17 16 16 15 17 16 17 17 19 20 18 15 12 11 11 11 12 13 11 11 12 14 17 18 19 17 18 19 16 13 12 13 14 15 15 15 13 12 10 8 8 7 6 6 8 9 13 12 13 13 12 12 11 11 11 11 11 10 9 8 5 4 5 6 8 7 6 6 4 3 3 2 3 6 5 6 5 4 3 1 2 4 6 6 7 7 7 9 7 7 5 6 9 8 7 5 5 3 3 3 2 5 5 4 5 6 5 5 2 1 0 1 1 1 1 1 1 0 0 0 0 1 1 4 4 6 8 8 9 10 8 9 9 10 8 7 6 7 7 6 7 8 7 6 8 11 11 10 11 9 7 6 4 4 5 3 4 5 4 4 3 2 0 1 1 1 0 0 3 4 4 4 6 6 9 12 12 13 13 13 13 12 11 11 12 13 14 14 13 14 14 12 10 10 10 9 11 9 10 11 11 11 11 10 8 8 7 7 6 5 2 0 0 0 0 0 0 0 0 0 0 0 0 0 0 0 0 0 0 0 0 0 0 0 0 0 0 0 0 0 0 0 0 0 0 0 0 0 0 0 0 0 0 0 0 0 0 0 0 0 0 0 0 0 0 0 0 0 0 0 0 0 0 0 0 0 0 0 0 0 0 0 0 0 0 0 0 0 0 0 0 0 0 0 0 0 0 0 0 0 0 0 0 0 0 0 0 0 0 0 0 0 0 0 0 0 0 0 0 0 0 0 0 0 0 0 0 0 0 0 0 0 0 0 0 0 0 0 0 0 0 0 0 0 0 0 0 0 0 0 0 0 0 0 0 0 0 0 0 0 0 0 0 0 0 0 0 0 0 0 0 0 0 0 1 1 0 0 0 0 0 0 0 0 0 0 0 0 0 0 0 0 0 0 0 0 0 0 0 0 0 0 0 0 0 0 0 0 0 0 0 0 0 0 0 0 0 0 0 0 0 0 0 0 0 0 0 0 0 0 0 0 0 0 0 0 0 0 0 0 0 0 0 0 0 0 2 0 2 3 4 6 6 7 4 2 3 3 2 0 0 0 0 1 0 0 0 3 3 1 1 0 0 0 0 0 0 0 0 0 0 0 0 0 0 0 0 0 0 0 0 0 0 0 2 3 5 9 10 11 12 11 8 7 2 0 0 1 2 3 5 7 8 7 6 7 4 6 6 9 8 9 10 11 10 10 12 13 9 6 7 6 5 7 7 8 7 8 6 6 7 5 5 6 5 6 8 9 8 8 6 5 5 6 4 3 6 8 9 9 10 10 10 14 14 14 15 16 17 18 16 17 17 17 16 15 15 15 16 19 21 22 23 23 22 19 17 17 13 13 13 15 15 14 13 12 13 13 13 15 15 16 18 18 19 18 19 18 19 16 16 16 17 17 18 19 18 16 
16 16 16 15 15 17 17 16 18 21 20 19 17 17 18 20 20 21 21 19 17 18 18 18 17 16 15 14 13 15 17 17 17 14 13 10 10 9 9 10 10 10 12 12 14 17 17 14 14 14 12 12 11 14 17 17 19 19 15 13 12 11 10 9 6 7 9 12 14 15 15 16 13 11 12 11 11 10 12 11 9 7 8 8 7 7 8 8 8 6 5 3 4 4 5 4 5 5 6 6 4 4 4 4 6 6 5 7 8 7 5 3 4 7 7 5 4 2 1 1 0 2 1 4 4 3 6 5 4 3 3 0 0 0 2 0 0 0 0 0 0 0 0 0 2 4 6 8 9 9 8 9 8 8 10 13 10 9 9 9 10 7 6 7 6 6 8 9 10 10 9 8 7 4 3 4 5 3 3 3 3 4 4 2 0 1 1 2 1 2 3 2 2 2 3 4 8 10 11 11 11 12 13 12 9 9 10 10 11 11 13 13 12 10 9 10 9 9 9 10 11 10 10 11 12 11 10 8 7 7 7 6 3 0 0 0 0 0 0 0 0 0 0 0 0 0 0 0 0 0 0 0 0 0 0 0 0 0 0 0 0 0 0 0 0 0 0 0 0 0 0 0 0 0 0 0 0 0 0 0 0 0 0 0 0 0 0 0 0 0 0 0 0 0 0 0 0 0 0 0 0 0 0 0 0 0 0 0 0 0 0 0 0 0 0 0 0 0 0 0 0 0 0 0 0 0 0 0 0 0 0 0 0 0 0 0 0 0 0 0 0 0 0 0 0 0 0 0 0 0 0 0 0 0 0 0 0 0 0 0 0 0 0 0 0 0 0 0 0 0 0 0 0 0 0 0 0 0 0 0 0 0 0 0 0 0 0 0 0 0 0 0 0 0 0 0 3 3 2 0 0 0 0 0 0 0 0 0 0 0 0 0 0 0 0 0 0 0 0 0 0 0 0 0 0 0 0 0 0 0 0 0 0 0 0 0 0 0 0 0 0 0 0 0 0 0 0 0 0 0 0 0 0 0 0 0 0 0 0 0 0 0 0 0 0 0 0 0 3 3 3 4 5 7 6 5 4 2 4 3 2 2 1 0 1 1 1 1 1 3 5 3 3 1 1 0 0 0 0 0 0 0 0 0 0 0 0 0 0 0 0 0 0 0 0 1 3 3 5 8 10 10 11 9 8 8 5 2 3 2 3 3 5 6 6 5 7 6 5 6 6 7 7 7 8 9 10 10 10 9 6 4 5 6 5 6 7 6 5 4 5 8 8 7 6 7 7 7 8 8 8 7 6 7 6 7 4 5 6 9 11 11 11 10 10 12 14 14 15 17 19 19 17 16 18 18 15 14 12 13 14 17 18 20 20 20 19 19 16 16 13 12 13 13 14 13 12 11 11 11 13 14 16 18 18 19 19 18 19 19 18 16 14 16 17 17 18 19 17 16 
15 14 15 17 17 17 19 18 19 21 21 20 17 18 18 19 20 21 21 18 18 19 19 19 18 15 12 12 11 14 16 16 16 14 12 10 10 9 11 12 10 11 10 11 12 12 13 10 10 10 10 10 11 16 17 19 19 18 16 14 14 12 12 9 8 8 9 12 15 17 16 16 13 12 13 12 11 10 11 11 11 10 10 10 9 7 8 7 6 7 5 4 3 5 6 4 3 4 4 4 5 4 6 5 4 5 5 6 4 5 2 2 3 5 6 4 3 3 0 0 1 0 1 4 4 3 6 6 4 4 2 0 0 1 0 0 0 0 0 0 0 0 0 1 3 6 7 9 11 10 9 11 9 10 10 12 10 10 8 8 7 7 8 10 8 7 8 10 11 10 9 8 7 5 3 4 3 3 2 3 5 5 6 3 3 3 2 1 3 3 0 0 1 0 0 2 5 7 7 7 9 9 11 10 11 10 9 8 10 10 9 11 8 8 8 10 9 10 8 9 10 10 9 11 11 9 9 8 8 8 8 6 3 0 0 0 0 0 0 0 0 0 0 0 0 0 0 0 0 0 0 0 0 0 0 0 0 0 0 0 0 0 0 0 0 0 0 0 0 0 0 0 0 0 0 0 0 0 0 0 0 0 0 0 0 0 0 0 0 0 0 0 0 0 0 0 0 0 0 0 0 0 0 0 0 0 0 0 0 0 0 0 0 0 0 0 0 0 0 0 0 0 0 0 0 0 0 0 0 0 0 0 0 0 0 0 0 0 0 0 0 0 0 0 0 0 0 0 0 0 0 0 0 0 0 0 0 0 0 0 0 0 0 0 0 0 0 0 0 0 0 0 0 0 0 0 0 0 0 0 0 0 0 0 0 0 0 0 0 0 0 0 0 0 0 1 4 3 4 0 0 0 0 0 0 0 0 0 0 0 0 0 0 0 0 0 0 0 0 0 0 0 0 0 0 0 0 0 0 0 0 0 0 0 0 0 0 0 0 0 0 0 0 0 0 0 0 0 0 0 0 0 0 0 0 0 0 0 0 0 0 0 0 0 0 0 1 1 3 3 5 5 6 5 4 4 3 3 3 1 1 3 2 2 2 3 2 2 3 4 5 4 3 3 3 1 1 0 0 0 0 0 0 0 0 0 0 0 0 0 0 0 0 0 0 0 1 2 5 7 10 10 9 8 7 7 7 6 6 6 5 5 5 3 4 5 5 5 5 4 6 6 6 7 7 9 8 9 9 6 3 3 3 5 4 5 6 6 4 5 5 7 7 8 8 9 10 10 8 8 8 7 6 6 6 5 6 7 7 8 9 10 11 9 9 10 13 16 17 17 19 19 19 17 16 17 15 13 11 11 12 14 15 15 16 17 17 17 15 14 12 12 13 13 13 14 12 13 11 11 11 13 15 18 18 20 18 18 19 20 17 15 15 15 16 15 18 18 16 14 
16 17 17 18 19 19 21 21 21 21 21 20 18 17 19 19 20 20 19 19 20 20 20 19 16 13 11 10 11 14 16 18 16 14 12 12 11 10 13 12 9 8 8 9 10 10 8 8 9 9 8 9 11 14 18 17 18 16 15 14 13 11 11 10 8 9 12 12 14 17 16 15 14 13 14 13 12 10 10 11 13 13 12 12 9 8 6 6 7 8 7 4 4 6 6 5 4 4 4 4 4 4 5 5 4 6 6 6 4 2 2 1 2 4 4 3 3 3 2 2 0 0 3 4 4 4 4 3 4 2 0 0 0 0 0 0 0 0 0 1 2 2 1 1 4 7 7 9 10 10 11 11 11 11 10 10 8 7 5 4 5 6 10 9 8 8 11 11 11 9 9 8 7 5 4 4 4 4 4 4 5 6 7 5 3 2 2 1 2 3 2 1 0 0 0 2 3 5 5 6 8 9 9 8 9 9 9 7 8 8 7 6 6 6 8 10 8 8 7 8 9 10 10 10 10 9 10 8 8 7 5 3 3 1 0 0 0 1 0 0 0 0 0 0 0 0 0 0 0 0 0 0 0 0 0 0 0 0 0 0 0 0 0 0 0 0 0 0 0 0 0 0 0 0 0 0 0 0 0 0 0 0 0 0 0 0 0 0 0 0 0 0 0 0 0 0 0 0 0 0 0 0 0 0 0 0 0 0 0 0 0 0 0 0 0 0 0 0 0 0 0 0 0 0 0 0 0 0 0 0 0 0 0 0 0 0 0 0 0 0 0 0 0 0 0 0 0 0 0 0 0 0 0 0 0 0 0 0 0 0 0 0 0 0 0 0 0 0 0 0 0 0 0 0 0 0 0 0 0 0 0 0 0 0 0 0 0 0 0 0 0 0 0 0 0 3 2 2 1 1 0 0 0 0 0 0 0 0 0 0 0 0 0 0 0 0 0 0 0 0 0 0 0 0 0 0 0 0 0 0 0 0 0 0 0 0 0 0 0 0 0 0 0 0 0 0 0 0 0 0 0 0 0 0 0 0 0 0 0 0 0 0 0 0 0 0 2 2 4 4 4 5 5 4 3 3 4 4 2 2 1 2 3 2 4 6 5 5 4 4 5 4 4 3 3 1 0 0 0 0 0 0 0 0 0 0 0 0 0 0 0 0 0 0 0 0 0 3 4 7 10 10 8 9 8 8 9 7 6 5 4 6 5 4 4 4 4 3 2 5 5 6 6 6 8 8 9 8 8 6 3 1 2 3 4 4 4 5 5 5 5 6 7 8 7 9 9 9 8 7 6 6 5 5 5 7 8 8 7 6 7 7 8 8 8 11 13 17 17 18 16 18 18 16 15 16 15 13 11 10 8 10 13 13 15 15 15 16 14 13 13 12 12 12 12 14 12 11 11 12 12 13 15 15 17 18 17 19 21 21 17 16 15 15 15 15 15 17 16 15 
19 20 19 19 22 23 22 22 20 21 22 21 20 19 19 18 19 20 21 21 22 21 20 20 17 13 11 10 11 15 17 18 19 16 14 13 13 13 12 9 7 7 6 6 7 6 5 7 6 6 8 9 11 14 15 15 15 16 16 14 13 12 11 10 9 11 13 12 13 15 17 17 16 14 14 12 12 12 13 14 15 14 14 14 10 8 8 7 6 6 5 3 2 3 5 5 6 6 6 5 2 4 5 4 3 5 6 5 5 2 0 0 1 3 5 3 1 1 2 1 1 1 4 5 5 3 2 3 2 1 0 0 0 0 0 0 0 0 0 3 3 3 3 2 6 7 8 11 11 9 9 9 11 11 9 8 6 4 3 3 4 6 10 9 9 10 11 12 11 9 9 7 7 5 6 5 5 5 7 5 5 5 5 4 3 4 4 5 4 3 2 2 1 1 0 0 2 5 5 6 8 9 8 8 8 7 8 6 6 6 5 6 7 7 7 8 10 9 8 10 11 12 10 9 10 10 8 7 6 5 5 5 4 4 4 2 2 1 0 0 0 0 0 0 0 0 0 0 0 0 0 0 0 0 0 0 0 0 0 0 0 0 0 0 0 0 0 0 0 0 0 0 0 0 0 0 0 0 0 0 0 0 0 0 0 0 0 0 0 0 0 0 0 0 0 0 0 0 0 0 0 0 0 0 0 0 0 0 0 0 0 0 0 0 0 0 0 0 0 0 0 0 0 0 0 0 0 0 0 0 0 0 0 0 0 0 0 0 0 0 0 0 0 0 0 0 0 0 0 0 0 0 0 0 0 0 0 0 0 0 0 0 0 0 0 0 0 0 0 0 0 0 0 0 0 0 0 0 0 0 0 0 0 0 0 0 0 0 0 0 0 0 0 0 0 1 2 2 1 0 0 0 0 0 0 0 0 0 0 0 0 0 0 0 0 0 0 0 0 0 0 0 0 0 0 0 0 0 0 0 0 0 0 0 0 0 0 0 0 0 0 0 0 0 0 0 0 0 0 0 0 0 0 0 0 0 0 0 0 0 0 0 0 0 0 0 1 3 2 4 4 3 5 4 3 2 3 3 2 3 2 3 3 5 5 6 7 6 3 3 5 4 1 2 2 1 0 0 0 0 0 0 0 0 0 0 0 0 0 0 0 0 0 0 0 0 1 3 3 5 7 7 9 9 8 8 8 8 6 5 6 6 7 5 5 4 2 3 3 4 5 5 6 7 8 8 8 9 9 8 5 2 2 2 4 4 4 5 5 6 5 6 6 7 7 6 8 7 6 7 7 6 6 6 7 8 9 8 7 6 6 6 6 7 8 11 13 17 17 17 16 18 16 17 15 14 15 12 10 9 9 10 12 14 14 14 13 13 14 15 14 13 12 11 12 12 11 10 10 12 13 14 15 15 18 16 17 17 19 18 15 14 15 14 16 16 16 17 18 19 
21 21 20 20 22 22 23 22 20 21 24 24 23 19 18 18 18 21 21 22 22 20 20 19 17 14 13 12 12 13 15 16 15 15 14 14 13 12 11 8 7 6 5 5 6 6 3 4 4 4 7 9 11 11 12 13 13 16 17 16 13 12 12 10 10 11 12 12 12 14 17 18 16 15 16 14 12 15 16 17 15 15 15 15 13 11 10 8 5 5 2 0 1 1 3 5 5 5 3 2 2 3 4 4 4 4 6 4 2 0 0 0 1 2 2 2 1 2 2 1 1 1 4 4 4 3 1 1 1 2 1 0 0 0 0 0 0 0 0 0 3 4 3 3 5 6 8 10 10 8 8 8 8 7 6 5 4 4 5 5 5 7 10 10 10 10 11 11 9 9 9 8 7 6 6 6 4 6 6 4 4 6 4 5 3 5 6 6 6 4 4 1 1 1 1 3 4 5 7 7 8 8 8 7 7 6 7 6 6 6 5 4 6 7 7 7 7 9 9 12 13 10 8 6 8 7 5 4 3 3 6 6 7 7 6 3 1 2 0 0 0 0 0 0 0 0 0 0 0 0 0 0 0 0 0 0 0 0 0 0 0 0 0 0 0 0 0 0 0 0 0 0 0 0 0 0 0 0 0 0 0 0 0 0 0 0 0 0 0 0 0 0 0 0 0 0 0 0 0 0 0 0 0 0 0 0 0 0 0 0 0 0 0 0 0 0 0 0 0 0 0 0 0 0 0 0 0 0 0 0 0 0 0 0 0 0 0 0 0 0 0 0 0 0 0 0 0 0 0 0 0 0 0 0 0 0 0 0 0 0 0 0 0 0 0 0 0 0 0 0 0 0 0 0 0 0 0 0 0 0 0 0 0 0 0 0 0 0 0 0 0 0 0 0 0 0 1 2 1 0 0 0 0 0 0 0 0 0 0 0 0 0 0 0 0 0 0 0 0 0 0 0 0 0 0 0 0 0 0 0 0 0 0 0 0 0 0 0 0 0 0 0 0 0 0 0 0 0 0 0 0 0 0 0 0 0 0 0 0 0 0 0 0 0 0 0 2 3 1 3 3 4 5 3 1 1 2 2 1 2 2 2 3 6 6 6 7 6 4 2 2 1 0 0 1 1 0 0 0 0 0 0 0 0 0 0 0 0 0 0 0 0 0 0 0 0 1 3 3 4 7 7 7 8 7 9 10 9 7 6 5 4 5 6 5 3 3 4 4 5 7 7 8 9 8 9 9 11 10 6 5 3 4 4 5 3 4 5 5 4 4 5 6 7 7 6 6 6 6 7 6 5 6 6 6 8 10 10 9 7 7 7 6 7 8 10 14 16 18 17 16 16 15 15 14 14 13 10 11 11 11 11 10 11 12 12 13 13 14 14 13 13 12 12 10 11 11 10 10 10 12 14 16 17 16 15 16 17 18 16 15 15 15 15 16 17 16 19 20 20 
22 21 21 20 20 20 20 21 20 23 24 23 22 21 19 17 18 21 21 21 20 19 18 17 15 13 13 12 11 12 13 14 14 15 12 11 11 10 9 8 6 6 6 8 7 5 3 3 4 5 8 9 11 11 12 12 15 16 17 14 11 10 11 10 11 10 12 13 12 13 15 15 15 17 18 17 14 15 16 16 14 14 16 14 14 11 10 9 7 4 1 1 1 2 4 4 4 3 2 1 1 3 4 6 3 4 2 3 1 0 0 0 0 1 2 2 2 2 2 1 0 0 1 1 0 0 0 0 1 1 0 0 0 0 0 0 0 0 0 0 0 2 2 2 4 6 8 10 10 9 8 8 9 7 5 5 4 4 3 4 5 9 13 14 12 12 11 11 10 10 10 9 8 6 5 4 3 4 5 3 4 5 4 4 4 3 7 8 6 5 5 3 2 2 1 4 4 5 5 6 6 7 8 7 6 5 7 6 4 4 3 4 5 7 6 6 7 9 9 10 11 10 6 3 5 4 3 2 3 4 6 7 8 7 7 3 2 4 3 2 0 0 0 0 0 0 0 0 0 0 0 0 0 0 0 0 0 0 0 0 0 0 0 0 0 0 0 0 0 0 0 0 0 0 0 0 0 0 0 0 0 0 0 0 0 0 0 0 0 0 0 0 0 0 0 0 0 0 0 0 0 0 0 0 0 0 0 0 0 0 0 0 0 0 0 0 0 0 0 0 0 0 0 0 0 0 0 0 0 0 0 0 0 0 0 0 0 0 0 0 0 0 0 0 0 0 0 0 0 0 0 0 0 0 0 0 0 0 0 0 0 0 0 0 0 0 0 0 0 0 0 0 0 0 0 0 0 0 0 0 0 0 0 0 0 0 0 0 0 0 0 0 0 0 0 0 0 0 0 0 0 0 0 0 0 0 0 0 0 0 0 0 0 0 0 0 0 0 0 0 0 0 0 0 0 0 0 0 0 0 0 0 0 0 0 0 0 0 0 0 0 0 0 0 0 0 0 0 0 0 0 0 0 0 0 1 0 0 0 0 0 0 0 0 0 1 2 2 1 1 4 4 2 0 0 0 0 0 0 2 2 3 4 7 7 6 6 6 4 2 2 1 0 0 0 0 0 0 0 0 0 0 0 0 0 0 0 0 1 2 2 2 1 0 0 0 1 2 4 5 8 5 6 6 8 11 9 8 7 6 5 5 5 4 3 4 5 6 6 5 7 10 11 12 12 11 12 11 9 7 6 4 4 5 4 4 4 5 6 5 5 5 5 6 6 7 7 7 7 8 6 5 5 5 8 11 13 12 10 6 8 8 9 10 10 11 13 15 17 16 16 15 14 13 14 14 14 13 12 14 15 13 10 11 12 11 12 12 13 14 13 12 10 9 9 11 10 10 8 9 12 15 16 17 17 16 17 17 17 17 18 18 15 15 18 18 19 20 21 21 
20 20 19 18 18 18 18 19 21 22 23 23 23 24 22 18 17 19 22 21 20 19 17 16 13 13 10 9 8 9 13 14 15 14 10 9 9 7 6 4 4 6 6 6 6 4 3 5 5 7 9 10 10 11 12 10 11 14 14 11 8 8 9 10 10 11 13 13 13 14 15 17 17 18 20 19 16 16 17 16 16 15 16 13 12 12 10 9 7 5 3 2 3 3 5 6 6 4 2 2 2 2 1 3 1 1 0 1 0 0 0 0 0 0 0 0 1 3 3 2 0 0 0 0 0 0 0 1 1 0 0 0 0 0 0 0 0 0 0 0 0 0 0 0 1 4 6 9 11 10 10 10 9 7 6 5 4 4 5 5 8 11 12 13 13 12 11 10 10 9 9 10 8 7 6 4 3 4 5 4 4 6 5 4 3 3 6 7 7 6 5 4 1 0 1 2 2 3 3 3 4 4 6 7 6 5 4 4 3 2 3 2 6 7 7 8 7 7 7 6 7 6 4 2 3 3 1 0 2 4 6 8 6 6 5 5 3 4 3 2 0 0 0 0 0 0 0 0 0 0 1 2 0 0 0 0 0 0 0 0 0 0 0 0 0 0 0 0 0 0 0 0 0 0 0 0 0 0 0 0 0 0 0 0 0 0 0 0 0 0 0 0 0 0 0 0 0 0 0 0 0 0 0 0 0 0 0 0 0 0 0 0 0 0 0 0 0 0 0 0 0 0 0 0 0 0 0 0 0 0 0 0 0 0 0 0 0 0 0 0 0 0 0 0 0 0 0 0 0 0 0 0 0 0 0 0 0 0 0 0 0 0 0 0 0 0 0 0 0 0 0 0 0 0 0 0 0 0 0 0 0 0 0 0 0 0 0 0 0 0 0 0 0 0 0 0 0 0 0 0 0 0 0 0 0 0 0 0 0 0 0 0 0 0 0 0 0 0 0 0 0 0 0 0 0 0 0 0 0 0 0 0 0 0 0 0 0 0 0 0 0 0 0 0 0 0 0 0 0 0 0 0 0 0 1 4 4 1 1 0 0 0 0 0 0 1 2 2 1 0 1 3 2 0 0 0 1 1 0 1 1 1 2 6 8 6 5 5 3 2 1 0 0 0 0 0 0 0 0 0 0 0 0 0 0 0 0 0 1 3 3 2 1 0 0 0 1 3 3 5 5 6 5 5 6 8 9 7 6 5 3 2 4 3 3 3 4 4 3 4 6 10 12 11 12 13 13 11 9 7 6 6 6 5 5 4 7 6 5 4 3 4 4 6 8 8 8 9 9 9 8 7 7 6 9 11 12 13 10 8 7 8 10 10 11 13 14 16 16 16 15 16 13 12 13 14 16 16 16 16 16 13 11 10 12 11 10 11 11 11 11 10 9 8 10 10 11 9 10 10 13 16 17 18 18 19 18 17 17 18 18 17 17 17 19 21 22 21 21 21 
19 17 16 17 16 16 18 18 21 21 22 22 23 25 24 20 20 21 22 21 20 18 17 16 15 12 10 9 8 10 12 15 13 13 10 9 8 8 6 3 3 4 6 6 7 5 6 5 5 6 8 9 10 10 10 10 10 11 11 9 7 6 10 11 12 12 13 13 13 15 15 18 18 20 20 19 18 18 18 18 17 18 17 15 15 14 13 11 10 6 5 4 5 4 5 8 6 5 3 1 0 1 0 2 1 2 1 0 0 0 0 0 0 0 0 1 3 2 1 0 0 0 0 0 0 0 0 2 0 0 0 0 0 0 0 0 0 0 0 0 0 0 0 0 0 3 6 10 10 10 11 10 8 7 6 5 5 5 5 6 7 8 10 10 11 11 12 11 10 9 9 10 8 7 6 4 2 4 4 4 2 3 5 3 3 2 5 6 6 4 4 2 0 0 0 0 0 1 2 3 4 5 6 7 5 2 4 3 1 2 3 3 5 7 7 7 6 6 6 6 4 4 4 3 3 2 0 0 0 4 5 5 5 5 5 5 6 5 3 2 1 0 0 0 0 0 0 0 0 1 1 2 0 0 0 0 0 0 0 0 0 0 0 0 0 0 0 0 0 0 0 0 0 0 0 0 0 0 0 0 0 0 0 0 0 0 0 0 0 0 0 0 0 0 0 0 0 0 0 0 0 0 0 0 0 0 0 0 0 0 0 0 0 0 0 0 0 0 0 0 0 0 0 0 0 0 0 0 0 0 0 0 0 0 0 0 0 0 0 0 0 0 0 0 0 0 0 0 0 0 0 0 0 0 0 0 0 0 0 0 0 0 0 0 0 0 0 0 0 0 0 0 0 0 0 0 0 0 0 0 0 0 0 0 0 0 0 0 0 0 0 0 0 0 0 0 0 0 0 0 0 0 0 0 0 0 0 0 0 0 0 0 0 0 0 0 0 0 0 0 0 0 0 0 0 0 0 0 0 0 0 0 0 0 0 0 0 0 0 0 0 0 0 0 0 0 0 0 0 0 0 0 0 0 0 3 4 2 1 2 0 1 1 1 0 0 1 1 0 0 0 1 1 0 0 0 2 2 2 2 0 0 1 5 5 4 2 1 0 0 0 0 0 0 0 0 0 0 0 0 0 0 0 0 0 0 0 2 3 4 3 5 2 0 0 0 2 2 3 4 5 6 4 4 5 9 8 7 7 4 2 2 4 2 1 1 0 0 1 1 5 9 9 10 10 11 13 12 12 10 8 7 6 5 5 4 4 6 3 4 4 6 7 7 9 11 9 8 9 10 9 8 7 8 8 9 10 12 11 11 11 9 9 10 12 12 14 15 17 15 15 14 13 12 13 14 16 16 15 14 14 12 10 10 10 10 9 10 11 10 8 8 9 9 9 10 10 9 11 12 14 17 19 22 22 19 18 17 16 16 17 17 16 18 20 22 24 23 21 20 
19 16 14 17 15 17 18 21 21 22 22 23 24 25 24 23 21 23 22 22 21 19 17 17 16 12 10 10 10 12 14 15 12 13 10 9 8 8 7 4 6 7 8 7 6 6 6 5 4 6 6 8 9 9 10 10 8 8 9 6 6 9 12 13 13 14 14 11 11 13 14 16 18 18 19 18 17 18 18 16 18 19 18 17 17 16 15 13 10 7 6 6 7 6 6 8 6 5 2 1 0 0 0 0 1 2 1 0 0 0 0 0 0 0 0 0 1 0 0 0 0 0 0 1 0 0 0 0 0 0 0 0 0 0 0 0 0 0 0 0 0 0 0 0 0 2 7 9 9 11 12 11 9 9 7 8 6 6 5 6 6 5 6 8 11 10 11 10 10 10 9 10 10 7 4 4 2 1 3 2 1 2 3 3 3 2 4 4 3 3 1 0 0 0 0 0 0 0 3 4 4 3 5 6 4 3 4 2 0 0 2 4 6 6 6 5 6 4 4 5 5 4 5 4 3 3 2 0 0 2 4 5 5 7 5 5 6 6 5 3 0 0 0 0 0 0 0 0 0 0 2 0 1 0 0 0 0 0 0 0 0 0 0 0 0 0 0 0 0 0 0 0 0 0 0 0 0 0 0 0 0 0 0 0 0 0 0 0 0 0 0 0 0 0 0 0 0 0 0 0 0 0 0 0 0 0 0 0 0 0 0 0 0 0 0 0 0 0 0 0 0 0 0 0 0 0 0 0 0 0 0 0 0 0 0 0 0 0 0 0 0 0 0 0 0 0 0 0 0 0 0 0 0 0 0 0 0 0 0 0 0 0 0 0 0 0 0 0 0 0 0 0 0 0 0 0 0 0 0 0 0 0 0 0 0 0 0 0 0 0 0 0 0 0 0 0 0 0 0 0 0 0 0 0 0 0 0 0 0 0 0 0 0 0 0 0 0 0 0 0 0 0 0 0 0 0 0 0 0 0 0 0 0 0 0 0 0 0 0 0 0 0 0 0 0 0 0 0 0 0 0 0 0 0 0 3 4 3 3 3 3 3 4 3 2 0 1 0 0 0 0 0 0 0 1 1 2 2 4 3 1 1 2 1 3 1 0 0 0 2 2 1 0 0 0 0 0 0 0 0 0 0 0 0 0 0 0 4 5 3 4 4 3 0 1 1 2 4 3 5 6 6 5 4 5 7 7 6 7 3 4 3 3 3 2 0 0 0 1 2 5 6 7 7 9 10 12 13 13 11 8 8 6 6 6 3 4 5 5 5 5 8 8 10 11 12 11 9 9 11 8 7 6 6 8 9 12 12 11 12 12 11 11 13 12 12 11 14 15 14 13 12 12 11 12 15 15 14 12 13 13 13 11 11 10 9 9 9 9 8 8 7 8 9 10 11 11 11 12 14 16 18 21 21 20 18 15 14 15 15 16 16 16 16 19 22 23 23 21 19 
19 17 15 16 17 19 20 21 21 20 21 23 23 24 24 22 21 23 22 20 21 20 19 18 16 14 13 13 14 14 15 15 12 12 11 9 7 8 8 6 8 9 10 8 7 6 4 4 3 4 5 8 9 10 11 9 8 6 6 7 9 10 13 12 14 15 14 13 11 13 15 16 16 15 16 16 16 16 16 17 18 18 19 19 16 17 16 13 11 10 9 9 9 7 4 4 4 4 2 2 0 0 1 1 0 0 0 0 0 0 0 0 0 0 0 0 0 0 0 0 0 0 0 1 1 0 0 0 0 0 0 0 0 0 0 0 0 0 0 0 0 0 0 0 0 2 5 8 9 10 9 10 9 9 8 7 8 5 6 7 7 5 7 10 11 9 10 10 11 12 10 9 11 7 4 3 1 0 0 1 2 2 3 2 4 5 5 3 1 1 0 0 0 0 0 0 0 0 2 3 3 3 4 5 5 3 4 2 0 1 3 3 6 5 4 6 7 5 6 5 5 5 3 3 5 5 4 1 0 3 3 4 7 8 7 5 5 4 5 4 2 0 1 2 3 0 0 0 0 0 0 0 0 0 0 0 0 0 0 0 0 0 0 0 0 0 0 0 0 0 0 0 0 0 0 0 0 0 0 0 0 0 0 0 0 0 0 0 0 0 0 0 0 0 0 0 0 0 0 0 0 0 0 0 0 0 0 0 0 0 0 0 0 0 0 0 0 0 0 0 0 0 0 0 0 0 0 0 0 0 0 0 0 0 0 0 0 0 0 0 0 0 0 0 0 0 0 0 0 0 0 0 0 0 0 0 0 0 0 0 0 0 0 0 0 0 0 0 0 0 0 0 0 0 0 0 0 0 0 0 0 0 0 0 0 0 0 0 0 0 0 0 0 0 0 0 0 0 0 0 0 0 0 0 0 0 0 0 0 0 0 0 0 0 0 0 0 0 0 0 0 0 0 0 0 0 0 0 0 0 0 0 0 0 0 0 0 0 0 0 0 0 0 0 0 0 0 0 0 0 0 0 1 0 1 2 2 2 2 3 4 4 3 4 4 1 0 0 0 0 0 0 0 0 1 2 3 4 4 2 0 0 1 0 0 0 0 1 2 3 1 0 0 0 0 0 0 0 0 0 0 0 0 0 0 0 0 5 5 2 2 3 1 1 2 1 2 3 4 5 7 7 6 4 3 5 6 6 5 4 4 4 3 3 4 3 2 2 3 5 4 7 6 7 8 10 13 14 14 11 8 6 6 7 5 4 5 6 5 5 6 6 7 8 10 12 12 10 10 10 9 9 7 5 7 9 10 11 12 12 12 11 11 13 11 11 12 13 13 12 11 9 8 10 11 13 13 11 10 10 11 11 9 10 9 8 8 9 8 7 7 6 8 10 11 10 11 10 11 13 17 19 20 20 18 16 13 12 14 16 16 16 16 16 18 20 22 23 20 19 
20 18 19 19 19 20 21 22 22 22 21 23 24 24 24 24 23 22 23 21 21 19 19 18 17 15 15 14 13 12 13 14 12 11 9 7 6 7 6 7 8 11 9 7 6 7 7 5 5 6 7 9 11 11 11 11 9 9 11 11 10 11 12 13 12 13 14 14 13 13 16 16 14 13 14 14 16 14 14 15 17 19 18 19 18 18 16 15 14 11 10 8 8 6 3 2 1 2 3 3 2 2 2 0 0 0 0 0 0 0 0 0 0 0 0 0 0 0 0 0 0 0 0 0 0 0 0 0 0 0 0 0 0 0 0 0 0 0 0 0 0 0 0 0 0 2 6 8 8 10 9 9 7 7 6 6 6 7 7 9 7 8 8 9 9 9 10 9 10 10 9 10 9 8 5 4 3 2 1 1 1 2 2 3 2 4 3 2 1 0 0 0 0 0 0 0 0 0 1 3 4 5 5 5 4 3 2 1 0 0 2 1 3 4 5 7 7 6 5 5 3 3 3 3 5 7 4 1 2 3 3 3 5 7 5 4 5 4 5 5 4 2 5 5 4 1 0 0 0 0 0 1 0 0 0 0 0 0 0 0 0 0 0 0 0 0 0 0 0 0 0 0 0 0 0 0 0 0 0 0 0 0 0 0 0 0 0 0 0 0 0 0 0 0 0 0 0 0 0 0 0 0 0 0 0 0 0 0 0 0 0 0 0 0 0 0 0 0 0 0 0 0 0 0 0 0 0 0 0 0 0 0 0 0 0 0 0 0 0 0 0 0 0 0 0 0 0 0 0 0 0 0 0 0 0 0 0 0 0 0 0 0 0 0 0 0 0 0 0 0 0 0 0 0 0 0 0 0 0 0 0 0 0 0 0 0 0 0 0 0 0 0 0 0 0 0 0 0 0 0 0 0 0 0 0 0 0 0 0 0 0 0 0 0 0 0 0 0 0 0 0 0 0 0 0 0 0 0 0 0 0 0 0 0 0 0 0 0 0 0 0 0 0 0 0 0 0 0 0 0 0 0 1 0 1 2 3 3 2 2 2 2 2 3 1 0 0 0 0 0 0 0 0 0 1 1 3 2 3 1 1 2 0 0 0 0 1 1 0 1 0 0 0 0 1 1 1 0 0 0 0 0 0 0 0 0 0 1 1 0 0 0 0 1 1 2 2 3 4 6 8 8 6 5 3 4 6 7 6 5 5 4 4 4 3 3 3 3 6 6 7 6 5 6 8 10 12 12 11 8 7 6 6 5 4 3 4 5 6 6 6 5 6 7 9 12 13 11 11 12 12 10 8 7 6 10 10 10 11 10 11 10 11 12 12 11 12 14 13 12 10 8 7 8 9 11 11 12 10 9 9 10 9 11 10 7 8 10 9 9 9 8 8 10 9 10 10 9 12 14 16 18 18 20 18 16 13 12 13 15 16 15 17 17 19 20 22 22 20 20 
20 21 21 20 20 20 22 22 22 20 21 22 24 23 22 24 23 23 23 23 22 20 18 17 17 16 14 13 13 12 12 11 10 9 8 7 7 7 6 7 7 7 8 7 9 11 9 8 8 9 11 11 13 12 10 10 12 13 12 12 9 11 13 14 14 13 14 15 13 14 14 15 13 12 11 12 13 14 14 15 17 17 18 17 17 17 16 15 15 14 9 8 6 4 2 2 2 3 4 4 4 2 2 1 1 0 0 0 1 0 0 0 0 0 0 0 0 0 0 0 0 0 0 0 0 0 0 0 0 0 0 0 0 0 0 0 0 0 0 0 0 0 0 0 1 3 5 7 7 8 9 8 7 9 8 6 8 8 8 8 9 9 9 10 8 7 8 10 10 11 10 11 9 9 9 7 5 3 1 0 2 4 3 2 3 2 2 0 0 0 0 0 0 0 0 0 0 0 0 2 2 2 3 3 4 2 1 1 0 1 1 0 0 5 6 7 6 5 3 3 3 3 3 3 6 6 3 1 1 3 3 2 4 6 3 3 3 3 5 7 6 5 5 5 5 2 0 0 0 1 1 1 0 0 0 0 0 0 0 0 0 0 0 0 0 0 0 0 0 0 0 0 0 0 0 0 0 0 0 0 0 0 0 0 0 0 0 0 0 0 0 0 0 0 0 0 0 0 0 0 0 0 0 0 0 0 0 0 0 0 0 0 0 0 0 0 0 0 0 0 0 0 0 0 0 0 0 0 0 0 0 0 0 0 0 0 0 0 0 0 0 0 0 0 0 0 0 0 0 0 0 0 0 0 0 0 0 0 0 0 0 0 0 0 0 0 0 0 0 0 0 0 0 0 0 0 0 0 0 0 0 0 0 0 0 0 0 0 0 0 0 0 0 0 0 0 0 0 0 0 0 0 0 0 0 0 0 0 0 0 0 0 0 0 0 0 0 0 0 0 0 0 0 0 0 0 0 0 0 0 0 0 0 0 0 0 0 0 0 0 0 0 0 0 0 0 0 0 0 0 0 0 1 1 2 4 5 4 4 3 2 1 0 0 0 0 0 0 0 0 0 0 0 0 0 0 1 2 2 1 2 1 0 0 0 0 0 1 0 0 0 0 0 1 3 4 3 2 2 0 0 0 0 0 0 0 0 0 0 0 0 0 0 0 0 0 1 2 4 5 5 6 6 3 5 5 8 8 6 5 4 3 3 4 4 5 5 6 6 7 6 8 7 6 7 9 11 9 10 8 6 5 6 5 3 4 5 4 6 3 3 5 6 8 9 10 10 11 13 13 12 12 9 7 6 9 8 9 11 10 10 10 11 13 12 12 12 12 14 13 12 10 8 7 9 10 10 10 8 8 9 9 10 11 11 9 9 9 10 11 10 8 8 9 9 10 12 12 13 15 16 16 17 20 18 16 14 14 14 14 14 14 14 16 16 18 18 21 22 21 
22 22 20 20 21 21 22 22 21 20 21 22 22 21 22 22 23 25 24 23 21 19 18 18 17 17 14 11 11 10 8 10 9 9 6 6 7 8 7 8 8 8 8 9 11 11 10 9 8 9 12 13 13 13 10 10 13 13 12 11 10 10 12 14 15 13 15 14 14 11 12 12 11 10 10 9 11 12 13 14 15 15 16 17 16 18 17 17 16 14 10 7 6 5 5 4 3 4 4 6 7 5 2 0 0 0 0 0 0 0 0 0 0 0 0 0 0 0 0 0 0 0 0 0 0 0 0 0 0 0 0 0 0 0 0 0 0 0 0 0 0 0 0 0 0 3 4 6 6 6 7 8 9 10 10 7 7 9 9 9 9 9 9 11 9 7 8 10 11 10 10 9 9 11 12 9 7 4 4 4 3 4 5 2 3 3 2 0 0 0 0 0 0 0 0 0 0 0 0 0 2 2 2 3 2 1 2 2 0 2 1 0 1 5 6 5 4 2 0 3 5 6 6 5 4 4 1 0 0 0 1 2 3 4 4 3 3 3 4 5 6 6 5 6 4 3 2 2 2 3 3 2 0 0 0 0 0 0 0 0 0 0 0 0 0 0 0 0 0 0 0 0 0 0 0 0 0 0 0 0 0 0 0 0 0 0 0 0 0 0 0 0 0 0 0 0 0 0 0 0 0 0 0 0 0 0 0 0 0 0 0 0 0 0 0 0 0 0 0 0 0 0 0 0 0 0 0 0 0 0 0 0 0 0 0 0 0 0 0 0 0 0 0 0 0 0 0 0 0 0 0 0 0 0 0 0 0 0 0 0 0 0 0 0 0 0 0 0 0 0 0 0 0 0 0 0 0 0 0 0 0 0 0 0 0 0 0 0 0 0 0 0 0 0 0 0 0 0 0 0 0 0 0 0 0 0 0 0 0 0 0 0 0 0 0 0 0 0 0 0 0 0 0 0 0 0 0 0 0 0 0 0 0 0 0 0 0 0 0 0 2 3 0 1 1 0 1 0 0 0 0 0 0 0 4 6 6 6 4 2 1 0 0 0 0 0 0 0 0 0 0 0 0 0 0 1 2 3 3 2 2 0 0 1 0 0 0 0 0 0 0 3 4 4 6 5 3 3 3 2 2 1 2 0 0 0 0 0 0 1 1 2 0 0 0 0 0 1 2 5 2 4 3 3 3 4 6 6 6 6 6 6 5 5 4 4 5 4 4 6 6 7 7 5 6 8 8 7 8 10 7 5 6 4 3 5 6 5 5 5 4 5 8 7 8 9 9 12 14 13 13 12 8 7 6 8 9 9 11 10 11 11 12 12 11 11 11 10 11 12 11 8 7 9 8 7 8 7 6 7 9 11 11 13 12 11 11 11 12 12 11 8 8 9 10 11 12 15 15 14 15 16 17 19 19 17 13 13 15 15 14 15 14 14 14 16 19 21 23 23 
23 23 20 20 21 20 20 20 20 19 19 21 22 21 21 21 21 22 23 23 21 21 20 20 18 18 15 13 10 9 9 9 10 11 9 8 8 7 8 9 10 11 11 11 11 10 11 8 7 9 11 13 12 12 12 13 14 12 12 10 10 9 12 14 16 14 14 14 13 11 10 9 11 10 9 8 9 12 13 14 14 15 18 17 15 17 17 17 16 13 12 8 8 7 4 4 3 4 5 7 8 5 2 0 0 0 0 0 0 0 0 0 0 0 0 0 0 0 0 0 0 0 0 0 0 0 0 0 0 0 0 0 0 0 0 0 0 0 0 0 0 0 0 0 0 2 4 4 4 4 7 8 10 10 11 9 8 11 12 11 9 9 8 9 10 9 9 9 9 11 12 11 11 13 14 12 9 5 5 4 2 4 4 2 3 3 0 0 0 0 0 0 0 0 0 0 0 0 0 0 0 0 0 1 1 1 1 1 2 2 1 0 0 2 3 3 1 1 1 4 6 7 7 6 5 4 3 2 0 0 1 1 3 2 1 3 3 4 4 4 5 3 3 5 6 5 4 3 3 5 4 3 0 0 0 0 0 0 0 0 0 0 0 0 0 0 0 0 0 0 0 0 0 0 0 0 0 0 0 0 0 0 0 0 0 0 0 0 0 0 0 0 0 0 0 0 0 0 0 0 0 0 0 0 0 0 0 0 0 0 0 0 0 0 0 0 0 0 0 0 0 0 0 0 0 0 0 0 0 0 0 0 0 0 0 0 0 0 0 0 0 0 0 0 0 0 0 0 0 0 0 0 0 0 0 0 0 0 0 0 0 0 0 0 0 0 0 0 0 0 0 0 0 0 0 0 0 0 0 0 0 0 0 0 0 0 0 0 0 0 0 0 0 0 0 0 0 0 0 0 0 0 0 0 0 0 0 0 0 0 0 0 0 0 0 0 0 0 0 0 0 0 0 0 0 0 0 0 0 0 0 0 0 0 0 0 0 0 0 1 3 1 1 0 0 2 2 1 0 0 0 0 1 1 3 3 4 5 2 1 1 1 0 0 0 0 0 0 0 0 0 0 0 0 0 1 1 2 3 2 0 0 0 1 0 0 0 0 0 0 3 5 5 5 6 4 3 3 4 3 2 2 1 0 0 0 0 0 0 3 3 2 3 1 0 0 0 0 1 1 0 0 2 2 2 2 4 6 7 9 7 7 6 7 5 3 3 2 3 5 6 9 8 6 5 6 7 7 7 8 7 5 5 4 4 6 6 5 5 5 4 5 7 8 7 9 12 13 15 15 13 11 9 7 7 8 10 10 11 10 10 10 11 12 11 10 10 10 10 10 9 8 8 8 6 7 7 7 8 8 9 10 12 14 12 10 9 12 12 13 13 10 8 8 11 12 14 14 13 14 14 16 18 18 18 15 13 12 13 13 14 15 13 13 14 15 18 22 24 25 
25 23 20 20 21 20 19 18 16 18 19 20 20 20 21 22 21 21 22 22 22 22 21 20 20 19 16 13 10 11 9 9 9 11 10 9 8 8 11 11 13 12 13 12 10 11 10 6 5 8 10 11 11 11 12 15 16 15 12 10 8 9 11 14 15 15 16 13 13 12 11 10 10 10 6 4 6 8 10 11 15 17 18 17 17 19 19 18 15 13 11 10 8 7 5 5 4 4 5 6 7 5 2 0 1 1 1 0 0 0 0 0 0 0 0 0 0 0 0 0 0 0 0 0 0 0 0 0 0 0 0 0 0 0 0 0 0 0 0 0 0 0 0 0 0 2 3 3 3 4 6 8 9 11 10 9 10 13 14 13 11 9 8 8 11 11 9 10 10 11 12 13 12 12 13 13 9 7 5 4 3 4 3 3 3 4 1 0 0 0 0 0 0 0 0 0 0 0 0 0 0 0 0 0 1 1 0 1 1 2 2 0 0 0 0 1 2 1 1 4 6 6 4 4 4 5 4 3 3 3 3 4 3 2 1 2 2 3 3 3 5 4 4 5 6 5 4 3 3 3 3 2 0 0 0 0 0 0 0 0 0 0 0 0 0 0 0 0 0 0 0 0 0 0 0 0 0 0 0 0 0 0 0 0 0 0 0 0 0 0 0 0 0 0 0 0 0 0 9 26 43 59 69 76 83 87 88 90 87 84 79 72 67 56 44 32 21 6 0 0 0 0 0 0 0 0 0 0 0 0 0 0 0 0 0 0 0 0 0 0 0 0 0 0 0 0 0 0 0 0 0 0 0 0 0 0 0 0 0 0 0 0 0 0 0 0 0 0 0 0 0 0 0 0 0 0 0 0 0 0 0 0 0 0 0 0 0 0 0 0 0 0 0 0 0 0 0 0 0 0 0 0 0 0 0 0 0 0 0 0 0 0 0 0 0 0 0 0 0 0 0 0 0 0 0 0 0 0 0 0 0 0 0 0 0 0 0 0 0 1 3 2 1 1 3 3 4 3 0 0 0 0 1 0 1 3 3 3 3 2 3 3 3 1 2 0 0 0 0 0 0 0 0 0 0 1 0 2 1 0 1 0 0 0 0 2 1 3 4 4 5 5 5 5 4 4 3 3 4 5 3 0 0 0 1 0 0 0 1 4 3 2 3 2 1 0 0 1 2 1 0 0 1 1 1 2 3 6 7 7 7 6 6 3 2 2 3 2 2 4 4 7 6 4 4 6 6 5 6 6 6 4 5 5 4 4 4 5 4 4 3 3 5 7 9 10 12 14 15 14 13 10 10 9 8 10 10 9 9 10 9 9 9 11 12 13 10 10 11 12 10 9 8 7 6 6 6 6 9 8 7 9 11 12 12 11 11 11 13 12 11 9 8 8 9 9 12 13 12 12 13 15 18 20 18 15 12 11 11 13 13 14 13 13 15 18 20 24 25 26 
24 23 20 18 19 19 17 15 16 17 17 19 21 21 20 21 20 22 22 22 21 22 21 20 21 19 16 13 11 11 11 10 12 12 11 11 11 11 14 16 15 13 13 12 11 12 10 7 6 8 9 11 12 10 11 13 15 13 12 10 9 9 11 13 13 14 15 13 13 12 12 11 10 9 7 3 4 7 8 11 14 17 19 19 19 20 19 17 13 10 10 9 8 7 6 4 4 3 4 4 3 3 1 0 0 0 0 1 0 0 0 0 0 0 0 0 0 0 0 0 0 0 0 0 0 0 0 0 0 0 0 0 0 0 0 0 0 0 0 0 0 0 0 0 2 5 5 5 4 4 6 9 8 10 12 13 12 12 14 15 13 12 10 10 13 12 10 11 11 13 14 13 12 12 11 10 7 5 3 5 5 4 3 2 3 5 2 0 0 0 0 0 0 0 0 0 0 0 0 0 0 0 0 0 0 0 1 1 2 2 1 0 0 0 2 2 2 2 2 5 4 4 2 2 4 7 5 4 3 2 2 4 2 1 2 5 5 4 4 6 6 5 5 6 5 5 4 2 2 2 3 1 0 0 0 0 0 0 0 0 0 0 0 0 0 0 0 0 0 0 0 0 0 0 0 0 0 0 0 0 0 0 0 0 0 0 0 0 0 0 0 0 0 0 15 46 76 103 119 127 131 132 132 131 129 129 128 128 127 123 121 119 118 114 108 103 98 88 73 57 37 15 0 0 0 0 0 0 0 0 0 0 0 0 0 0 0 0 0 0 0 0 0 0 0 0 0 0 0 0 0 0 0 0 0 0 0 0 0 0 0 0 0 0 0 0 0 0 0 0 0 0 0 0 0 0 0 0 0 0 0 0 0 0 0 0 0 0 0 0 0 0 0 0 0 0 0 0 0 0 0 0 0 0 0 0 0 0 0 0 0 0 0 0 0 0 0 0 0 0 0 0 0 0 0 0 0 0 0 0 0 0 0 0 0 0 0 0 0 0 2 1 1 3 6 6 5 3 0 0 1 2 0 1 1 2 3 3 3 4 3 3 2 1 2 1 0 1 0 0 0 0 0 0 0 0 0 0 1 0 0 0 0 0 1 2 3 5 8 8 8 7 6 6 4 3 4 5 5 4 0 0 0 0 1 0 0 0 4 3 2 0 2 2 2 0 0 1 1 3 0 0 1 1 1 2 4 5 6 8 6 6 5 2 3 1 2 4 3 5 5 6 7 5 5 7 5 5 5 7 6 5 5 5 4 2 3 3 2 3 1 1 3 5 7 8 11 14 12 11 12 10 10 9 9 10 9 10 8 8 8 10 11 12 12 14 11 10 11 13 12 9 7 6 5 4 4 4 5 7 7 9 10 9 9 10 9 10 10 11 11 9 8 8 8 7 9 11 11 12 15 18 20 20 16 15 13 11 12 15 14 15 13 14 15 17 20 22 24 26 
23 22 18 17 17 16 17 15 16 16 19 20 20 19 19 19 20 23 23 22 23 21 22 21 19 20 18 14 13 11 13 15 13 15 14 15 16 18 17 17 16 14 12 12 13 14 11 8 7 9 11 11 12 13 14 13 15 13 12 10 8 9 10 11 11 12 12 13 14 13 14 13 12 10 7 5 5 9 11 12 15 18 20 20 21 20 17 16 13 10 9 9 8 5 6 4 3 3 3 2 4 4 2 2 2 2 1 1 1 0 0 0 0 0 0 0 0 0 0 0 0 0 0 0 0 0 0 0 0 0 0 0 0 0 0 0 0 0 0 0 0 0 0 0 3 5 5 5 5 4 5 7 8 10 14 14 14 14 14 14 14 12 12 13 14 14 14 13 14 13 13 13 12 11 11 8 6 5 5 6 6 4 4 4 5 5 3 2 0 0 0 0 0 0 0 0 0 0 0 0 0 0 0 0 0 0 0 1 0 2 4 3 1 1 3 2 3 5 3 5 5 3 1 1 4 6 5 3 2 1 2 4 4 3 3 3 6 6 5 6 6 4 3 2 2 2 0 0 0 0 0 0 0 0 0 0 0 0 0 0 0 0 0 0 0 0 0 0 0 0 0 0 0 0 0 0 0 0 0 0 0 0 0 0 0 0 0 0 0 0 0 4 49 97 124 136 140 142 142 142 141 140 138 134 133 130 130 130 130 128 126 124 124 123 120 119 118 115 112 104 96 84 70 48 22 0 0 0 0 0 0 0 0 0 0 0 0 0 0 0 0 0 0 0 0 0 0 0 0 0 0 0 0 0 0 0 0 0 0 0 0 0 0 0 0 0 0 0 0 0 0 0 0 0 0 0 0 0 0 0 0 0 0 0 0 0 0 0 0 0 0 0 0 0 0 0 0 0 0 0 0 0 0 0 0 0 0 0 0 0 0 0 0 0 0 0 0 0 0 0 0 0 0 0 0 0 0 0 0 0 0 0 0 0 0 0 0 0 0 0 2 2 2 4 6 6 5 4 2 4 4 4 2 2 3 3 4 4 5 4 2 1 1 0 0 2 2 1 0 0 0 0 0 0 0 0 0 1 1 0 0 0 0 0 1 1 3 5 9 10 9 8 9 6 6 4 3 4 1 0 0 0 0 0 0 0 0 0 3 2 0 0 0 1 1 0 0 0 0 1 0 0 2 1 2 4 4 6 7 6 7 5 4 3 2 1 3 4 4 5 6 7 7 6 5 5 5 4 6 6 7 5 6 4 2 0 2 2 3 3 1 0 2 4 4 7 11 13 11 10 10 11 9 11 10 10 9 10 8 9 10 12 13 13 13 13 12 12 14 13 14 12 9 6 5 5 4 3 4 5 7 8 8 9 9 8 8 10 10 12 11 10 8 7 9 7 9 11 11 14 16 19 21 19 17 16 15 14 13 16 17 18 16 15 17 17 19 21 23 23 
20 19 16 14 15 16 15 15 16 17 18 19 19 18 17 17 18 20 22 22 21 22 21 20 21 20 19 15 15 14 16 16 16 17 18 17 20 20 18 16 15 13 13 12 12 12 12 10 11 11 13 14 15 18 17 14 16 14 11 7 8 7 8 8 9 10 11 13 14 15 15 13 13 11 9 9 9 10 11 12 17 19 21 20 20 19 16 16 14 11 11 10 9 5 5 4 4 4 3 4 4 4 2 4 5 3 2 2 3 1 0 0 0 0 0 0 0 0 0 0 0 0 0 0 0 0 0 0 0 0 0 0 0 0 0 0 0 0 0 0 0 0 0 0 3 5 4 5 5 5 7 8 8 11 14 16 17 16 14 14 14 11 11 13 15 15 14 15 15 13 13 13 13 11 11 10 10 8 6 7 6 4 4 4 4 2 1 1 0 0 0 0 0 0 0 0 0 0 0 0 0 0 0 0 0 0 1 0 2 2 4 3 1 2 2 3 5 4 3 5 6 5 3 1 1 2 2 1 1 2 4 5 7 5 2 2 3 4 5 5 5 2 0 0 0 0 0 0 0 0 0 0 0 0 0 0 0 0 0 0 0 0 0 0 0 0 0 0 0 0 0 0 0 0 0 0 0 0 0 0 0 0 0 0 0 0 0 0 0 0 61 117 135 140 143 144 146 147 145 145 145 142 138 136 133 131 132 133 133 131 128 127 126 123 124 122 122 122 122 117 114 110 104 94 83 66 37 1 0 0 0 0 0 0 0 0 0 0 0 0 0 0 0 0 0 0 0 0 0 0 0 0 0 0 0 0 0 0 0 0 0 0 0 0 0 0 0 0 0 0 0 0 0 0 0 0 0 0 0 0 0 0 0 0 0 0 0 0 0 0 0 0 0 0 0 0 0 0 0 0 0 0 0 0 0 0 0 0 0 0 0 0 0 0 0 0 0 0 0 0 0 0 0 0 0 0 0 0 0 0 0 0 0 1 1 1 1 2 0 1 4 3 4 6 6 6 6 5 4 4 4 3 2 3 4 5 5 5 4 1 0 0 0 0 0 1 0 0 0 0 0 0 0 0 0 0 0 0 0 0 0 0 0 0 0 1 3 7 9 11 10 10 9 8 6 4 3 2 0 0 0 0 0 0 0 1 0 1 1 1 0 0 0 2 2 0 0 0 0 0 0 0 0 2 3 3 4 5 8 9 6 4 2 1 1 2 1 2 4 5 6 7 7 7 6 5 5 5 7 7 7 5 5 1 0 0 1 2 1 2 0 1 2 5 5 7 8 8 9 8 9 11 10 10 10 10 9 11 10 9 11 11 13 13 12 12 12 14 15 14 15 11 9 7 5 6 4 6 5 5 5 6 9 8 10 9 11 12 13 12 11 11 9 9 10 10 12 13 14 16 18 20 20 19 19 17 16 16 14 15 17 18 16 14 16 16 18 19 20 20 
19 17 14 13 14 17 15 17 17 17 18 19 20 20 18 17 18 19 20 21 22 22 21 20 20 20 19 16 15 16 16 17 17 18 20 18 19 18 18 17 16 17 15 13 12 12 12 11 13 14 16 16 18 19 18 15 15 13 9 8 6 5 7 7 10 11 12 12 15 15 16 14 13 13 13 13 13 12 13 13 15 19 21 21 20 18 18 17 16 13 11 11 10 6 6 6 6 7 4 4 4 4 5 7 6 5 3 4 4 1 0 0 0 0 0 0 0 0 0 0 0 0 0 0 0 0 0 0 0 0 0 0 0 0 0 0 0 0 0 0 0 0 0 0 2 6 6 8 8 9 8 9 8 11 13 15 16 16 15 14 14 12 13 14 16 15 14 15 17 16 15 14 13 13 13 15 13 10 8 7 6 4 2 3 3 2 0 0 0 0 0 0 0 0 0 0 0 0 0 0 0 0 0 0 0 0 0 1 2 3 4 2 2 2 3 5 6 5 3 3 4 4 2 0 1 1 3 1 1 4 5 6 6 4 2 0 2 4 4 4 3 0 0 0 0 0 0 0 0 0 0 0 0 0 0 0 0 0 0 0 0 0 0 0 0 0 0 0 0 0 0 0 0 0 0 0 0 0 0 0 0 0 0 0 0 0 0 0 42 110 138 144 145 145 147 147 148 148 147 145 143 141 140 137 134 131 131 132 133 132 129 128 127 125 127 127 125 124 125 123 121 121 118 112 105 98 89 70 31 0 0 0 0 0 0 0 0 0 0 0 0 0 0 0 0 0 0 0 0 0 0 0 0 0 0 0 0 0 0 0 0 0 0 0 0 0 0 0 0 0 0 0 0 0 0 0 0 0 0 0 0 0 0 0 0 0 0 0 0 0 0 0 0 0 0 0 0 0 0 0 0 0 0 0 0 0 0 0 0 0 0 0 0 0 0 0 0 0 0 0 0 0 0 0 0 0 0 0 0 0 0 0 1 1 3 2 2 3 3 4 5 4 6 7 6 7 7 7 6 3 3 2 2 1 2 4 5 5 4 2 0 0 0 0 0 0 0 0 0 0 0 0 0 0 0 0 0 0 0 0 0 0 0 0 0 0 3 6 8 11 12 11 10 8 6 4 2 2 1 0 0 0 0 0 0 0 1 0 0 2 1 1 3 2 2 0 0 0 0 0 0 0 0 1 2 1 3 6 10 9 8 5 3 1 1 0 0 1 2 4 5 6 7 6 5 5 4 5 4 2 2 3 2 0 0 0 1 2 3 1 1 2 4 7 8 6 6 6 6 5 5 9 8 9 9 10 11 10 10 7 7 9 12 13 13 12 13 13 14 13 13 10 9 6 6 6 5 6 5 6 6 9 9 8 10 12 12 13 14 13 15 13 11 13 13 14 16 17 17 18 18 19 20 20 18 17 16 15 14 14 17 16 14 14 15 17 17 18 19 18 
18 15 13 13 14 15 15 16 17 17 16 19 21 20 20 19 19 20 20 21 21 21 21 19 20 21 19 18 17 15 14 16 18 19 20 20 19 18 18 17 17 16 15 14 12 11 12 12 12 14 15 16 18 18 18 16 16 12 9 8 6 4 5 8 10 12 12 13 14 15 15 14 15 15 15 14 13 12 12 13 15 18 18 20 21 20 19 17 16 14 12 12 12 10 7 5 5 6 6 5 3 4 5 6 6 6 3 4 4 0 0 0 0 0 0 0 0 0 0 0 0 0 0 0 0 0 0 0 0 0 0 0 0 0 0 0 0 0 0 5 24 37 45 52 58 54 47 40 33 22 12 10 11 12 14 16 17 18 15 14 13 12 13 16 15 15 13 16 17 17 16 14 15 15 17 16 13 11 9 7 6 3 2 1 1 0 0 0 0 0 0 0 0 0 0 0 0 0 0 0 0 0 0 0 0 0 1 1 2 3 3 3 4 3 4 5 6 5 3 2 3 2 1 0 0 1 3 2 2 3 5 7 5 4 3 1 2 3 2 2 1 0 0 0 0 0 0 0 0 0 0 0 0 0 0 0 0 0 0 0 0 0 0 0 0 0 0 0 0 0 0 0 0 0 0 0 0 0 0 0 0 0 0 0 0 0 16 95 138 148 148 147 148 149 150 150 149 149 148 146 144 143 141 139 135 132 133 132 133 132 130 128 127 127 128 128 127 129 129 128 127 126 124 121 117 111 106 102 91 53 10 0 0 0 0 0 0 0 0 0 0 0 0 0 0 0 0 0 0 0 0 0 0 0 0 0 0 0 0 0 0 0 0 0 0 0 0 0 0 0 0 0 0 0 0 0 0 0 0 0 0 0 0 0 0 0 0 0 0 0 0 0 0 0 0 0 0 0 0 0 0 0 0 0 0 0 0 0 0 0 0 0 0 0 0 0 0 0 0 0 0 0 0 0 0 0 0 0 0 0 0 1 1 1 2 2 3 2 2 4 5 6 6 7 8 7 8 7 6 4 2 2 0 0 0 1 4 5 5 2 0 0 0 0 0 0 0 0 0 0 0 0 0 0 0 0 0 0 0 0 0 0 0 0 0 0 3 5 7 9 12 12 10 7 5 4 4 3 5 2 0 2 2 2 2 1 1 2 3 3 3 2 3 3 3 0 0 0 0 0 0 0 0 1 0 1 3 7 9 8 7 4 3 2 1 0 0 0 0 2 4 4 5 6 4 2 2 1 1 0 0 0 0 0 0 0 0 2 3 3 3 2 5 7 8 8 7 6 5 5 5 7 7 9 8 10 11 10 9 8 7 9 11 13 13 12 10 13 13 12 11 8 6 6 6 7 8 8 6 6 9 10 10 10 12 13 13 14 14 13 13 13 13 13 15 17 17 18 17 16 18 19 18 19 17 16 14 15 15 16 17 17 16 15 14 16 16 17 17 17 
17 15 13 13 13 15 15 16 17 17 15 17 19 21 20 18 20 19 21 21 21 21 21 20 21 22 20 19 17 16 15 17 18 20 22 22 20 20 18 18 16 15 16 13 13 12 11 13 13 13 14 14 15 17 17 17 14 13 11 8 5 5 4 7 9 11 12 12 15 15 15 15 15 16 14 14 13 14 13 15 16 18 18 20 19 20 17 17 16 15 13 12 11 10 8 8 7 6 6 4 4 6 4 5 6 5 3 3 1 0 0 0 0 0 0 0 0 0 0 0 0 0 0 0 0 0 0 0 0 0 0 0 0 0 0 0 0 40 96 122 140 149 154 157 161 163 164 161 157 147 130 109 87 61 39 22 17 16 15 14 12 12 12 13 15 13 13 15 18 16 16 15 15 17 18 16 13 13 10 6 4 2 1 0 0 0 0 0 0 0 0 0 0 0 0 0 0 0 0 0 0 0 0 0 0 0 2 3 3 4 2 2 2 4 4 4 5 4 3 1 2 1 0 1 0 1 3 4 3 3 4 6 5 6 3 1 1 1 0 0 0 0 0 0 0 0 0 0 0 0 0 0 0 0 0 0 0 0 0 0 0 0 0 0 0 0 0 0 0 0 0 0 0 0 0 0 0 0 0 0 0 0 0 0 0 42 127 150 153 153 152 151 151 152 152 152 152 150 149 148 146 144 143 140 137 135 135 134 133 133 131 129 128 129 128 128 129 131 132 131 130 129 129 125 121 117 114 112 108 101 77 39 0 0 0 0 0 0 0 0 0 0 0 0 0 0 0 0 0 0 0 0 0 0 0 0 0 0 0 0 0 0 0 0 0 0 0 0 0 0 0 0 0 0 0 0 0 0 0 0 0 0 0 0 0 0 0 0 0 0 0 0 0 0 0 0 0 0 0 0 0 0 0 0 0 0 0 0 0 0 0 0 0 0 0 0 0 0 0 0 0 0 1 1 0 0 0 3 2 1 0 0 0 2 3 3 1 3 3 3 5 6 6 6 7 7 7 7 7 5 2 0 0 0 0 0 3 5 6 5 1 0 0 0 0 0 0 0 0 0 0 0 0 0 0 0 0 0 0 0 0 0 0 0 0 0 2 6 7 9 9 11 10 7 6 5 4 4 4 3 1 3 3 3 2 2 3 3 4 3 3 1 0 3 3 2 0 0 0 1 2 0 1 0 0 1 3 7 8 7 7 4 2 2 0 0 0 0 0 1 3 4 4 3 3 1 1 0 0 0 0 1 0 0 0 0 0 1 3 3 6 5 7 8 9 7 6 6 5 4 5 5 8 9 8 10 10 10 10 9 8 10 11 14 13 12 12 13 13 14 14 10 9 6 7 6 7 9 9 8 11 11 12 13 11 13 15 15 14 14 14 14 15 15 15 17 16 17 16 17 17 18 17 18 17 16 16 17 16 16 17 18 16 16 15 16 17 17 17 17 
14 13 14 12 13 14 15 14 15 16 16 17 18 19 18 18 19 22 21 22 22 21 22 21 22 24 22 19 19 18 19 20 19 20 22 20 20 19 17 16 16 14 15 13 13 15 13 13 14 13 13 13 14 15 17 14 13 13 11 7 5 4 3 6 9 10 12 12 12 13 12 14 15 15 16 12 13 14 16 16 16 18 19 19 19 19 16 17 19 17 15 13 12 9 8 6 7 5 5 4 4 5 4 3 3 4 1 0 0 0 0 0 0 0 0 0 0 0 0 0 0 0 0 0 0 0 0 0 0 0 0 0 0 0 0 2 82 136 151 157 161 164 168 171 174 176 178 177 178 177 176 175 174 170 162 143 114 77 44 19 11 10 12 13 14 12 12 14 16 17 17 16 15 17 17 16 14 12 9 6 2 0 0 0 0 0 0 0 0 0 0 0 0 0 0 0 0 0 0 0 0 0 0 0 0 0 1 3 4 5 3 2 1 1 4 3 3 3 2 1 0 0 0 1 3 4 4 4 3 2 3 4 4 5 2 0 0 0 0 0 0 0 0 0 0 0 0 0 0 0 0 0 0 0 0 0 0 0 0 0 0 0 0 0 0 0 0 0 0 0 0 0 0 0 0 0 0 0 0 0 0 0 0 0 47 137 155 156 156 156 157 155 153 153 153 153 153 150 150 149 148 145 144 141 139 137 136 134 132 132 131 130 130 130 129 129 129 131 131 132 131 130 132 129 126 123 119 119 117 116 104 95 49 0 0 0 0 0 0 0 0 0 0 0 0 0 0 0 0 0 0 0 0 0 0 0 0 0 0 0 0 0 0 0 0 0 0 0 0 0 0 0 0 0 0 0 0 0 0 0 0 0 0 0 0 0 0 0 0 0 0 0 0 0 0 0 0 0 0 0 0 0 0 0 0 0 0 1 0 0 0 0 0 0 0 0 0 0 0 0 0 0 1 4 3 2 3 5 2 2 1 0 0 2 0 2 2 3 3 4 4 6 7 6 6 6 6 7 6 3 2 0 0 0 0 0 2 4 4 3 4 1 0 1 0 0 0 0 0 0 0 0 0 0 0 0 0 0 0 0 0 0 0 0 0 0 3 5 7 7 7 9 8 7 6 4 3 5 3 3 2 3 2 2 2 1 3 3 3 3 2 0 1 3 3 1 1 2 1 1 2 1 0 0 1 2 3 4 7 6 5 3 1 1 0 0 0 0 0 0 2 3 3 3 2 0 0 0 0 0 0 1 0 0 0 0 0 1 2 3 7 5 6 7 9 7 6 6 6 5 6 7 8 9 10 12 11 10 11 11 10 10 10 12 13 12 15 15 16 16 15 12 10 9 7 7 8 8 9 11 11 15 15 15 13 13 15 14 13 15 16 17 14 14 15 16 15 14 16 15 16 17 17 17 17 17 17 18 18 17 19 17 15 16 15 16 16 14 14 15 
13 13 13 14 13 14 16 15 16 18 17 18 18 19 19 17 20 23 23 22 22 21 23 20 21 21 20 19 21 20 21 21 21 21 21 20 20 20 17 17 15 14 12 13 13 15 15 15 14 13 14 13 14 14 16 13 11 11 9 6 5 4 5 6 10 10 11 12 12 12 13 12 13 14 12 12 13 14 16 16 16 16 17 18 17 18 17 18 21 19 16 14 12 9 7 6 5 5 5 6 5 4 3 3 4 2 0 0 0 0 0 0 0 0 0 0 0 0 0 0 0 0 0 0 0 0 0 0 0 0 0 0 1 0 0 30 142 153 153 156 162 165 166 171 174 176 177 177 178 180 181 182 184 185 185 184 183 176 164 135 89 45 18 14 13 12 11 11 14 16 16 16 15 14 15 14 13 10 10 7 2 0 0 0 0 0 0 0 0 0 0 0 0 0 0 0 0 0 0 0 0 0 0 0 0 0 0 2 3 4 1 2 1 2 4 3 3 3 3 1 0 0 0 0 1 1 3 3 3 1 1 2 2 1 0 0 1 0 0 0 0 0 0 0 0 0 0 0 0 0 0 0 0 0 0 0 0 0 0 0 0 0 0 0 0 0 0 0 0 0 0 0 0 0 0 0 0 0 0 0 0 0 0 8 127 159 160 157 157 158 158 157 156 153 153 153 153 151 151 151 150 147 145 142 140 138 138 135 132 132 132 131 131 131 130 131 131 131 132 132 131 133 134 132 130 128 124 123 123 120 114 112 103 21 0 0 0 0 0 0 0 0 0 0 0 0 0 0 0 0 0 0 0 0 0 0 0 0 0 0 0 0 0 0 0 0 0 0 0 0 0 0 0 0 0 0 0 0 0 0 0 0 0 0 0 0 0 0 0 0 0 0 0 0 0 0 0 0 0 0 0 0 0 0 0 0 0 0 1 0 0 0 0 0 0 0 0 0 0 1 0 1 2 5 7 5 5 4 4 1 1 1 1 1 0 2 3 3 3 5 3 4 6 7 5 3 4 5 4 2 1 0 0 1 1 1 2 4 4 4 4 3 1 1 0 0 0 0 0 0 0 0 0 0 0 0 0 0 0 1 0 0 0 0 0 1 5 6 5 6 6 7 6 5 5 2 1 3 2 3 2 2 3 4 3 2 2 3 3 3 4 1 3 4 2 2 2 3 3 2 2 2 0 1 1 1 1 3 5 5 3 0 1 1 0 0 0 0 0 1 2 5 4 2 1 1 1 0 0 0 0 0 0 0 0 0 0 1 2 3 4 5 5 6 8 6 6 7 7 5 6 7 7 8 11 12 13 12 11 12 11 10 10 12 14 14 15 16 16 15 15 16 13 11 11 11 13 12 12 11 14 16 18 16 14 15 15 14 14 15 17 17 15 15 16 16 14 15 17 17 18 17 18 18 20 19 19 19 18 19 19 16 16 15 15 15 15 14 14 14 
14 14 13 13 12 14 16 17 17 18 18 17 17 18 18 19 19 21 23 22 21 21 20 19 20 20 19 18 20 20 22 22 21 21 23 21 19 19 17 16 15 13 12 12 13 15 14 13 14 12 13 13 13 13 14 12 11 12 10 6 4 5 5 5 9 11 11 11 11 12 13 11 12 13 12 13 14 16 16 15 15 15 16 16 15 16 17 18 20 19 17 15 10 9 8 6 4 4 5 5 4 4 4 2 1 0 0 0 0 0 0 0 0 0 0 0 0 0 0 0 0 0 0 0 0 0 0 0 0 0 0 0 1 1 1 23 143 158 150 149 156 160 164 167 172 174 177 178 179 180 182 183 184 187 185 186 189 188 186 183 178 163 132 78 29 12 11 13 16 17 15 15 13 11 12 14 14 11 9 8 2 0 0 0 0 0 0 0 0 0 0 0 0 0 0 0 0 0 0 0 0 0 0 2 0 0 0 0 1 2 2 2 2 3 4 4 4 1 1 1 1 0 0 0 0 0 0 2 2 0 0 0 0 0 0 0 0 0 0 0 0 0 0 0 0 0 0 0 0 0 0 0 0 0 0 0 0 0 0 0 0 0 0 0 0 0 0 0 0 0 0 0 0 0 0 0 0 0 0 0 0 0 0 45 153 164 162 159 158 158 160 161 159 156 156 154 154 153 152 150 149 148 146 144 140 140 139 139 136 134 133 132 133 132 132 133 133 133 134 133 134 135 135 133 131 130 129 129 128 124 118 122 122 51 0 0 0 0 0 0 0 0 0 0 0 0 0 0 0 0 0 0 0 0 0 0 0 0 0 0 0 0 0 0 0 0 0 0 0 0 0 0 0 0 0 0 0 0 0 0 0 0 0 0 0 0 0 0 0 0 0 0 0 0 0 0 0 0 0 0 0 0 0 0 0 0 0 0 0 0 0 0 0 0 0 0 0 0 0 0 0 2 4 7 8 7 6 5 6 4 2 1 1 2 0 1 4 5 6 4 3 4 6 7 5 3 4 3 3 2 2 3 4 5 4 3 3 3 2 4 4 3 1 1 0 0 0 0 0 0 0 0 0 0 0 0 1 0 0 2 1 2 2 1 2 3 4 5 4 4 3 5 4 2 2 0 1 4 1 3 3 3 6 5 3 3 4 4 5 6 4 3 2 2 2 3 2 3 3 2 2 1 2 2 2 2 1 2 5 4 2 0 0 0 1 1 0 0 0 2 2 3 3 1 0 0 0 0 0 0 0 0 0 1 0 1 1 2 3 4 3 4 3 4 5 6 6 5 5 5 6 7 8 10 11 12 12 13 11 11 10 10 12 14 17 16 15 15 17 16 17 17 15 14 14 14 13 14 13 14 17 18 18 18 17 16 17 17 15 16 17 17 18 16 16 16 16 18 19 19 19 20 20 20 24 24 22 19 17 18 17 15 16 16 13 14 14 13 15 15 
14 13 11 11 13 17 19 19 18 19 18 15 15 16 18 18 20 21 20 20 19 20 21 19 21 21 20 17 18 20 22 22 20 21 23 21 19 19 17 15 14 13 11 11 13 13 14 14 13 12 11 13 12 12 12 11 12 11 8 6 4 7 4 6 8 9 9 11 11 11 10 10 11 11 12 13 14 16 15 15 15 16 16 15 16 15 17 18 19 17 16 14 12 9 8 7 5 6 7 5 3 2 2 0 0 0 0 0 0 0 0 0 0 0 0 0 0 0 0 0 0 0 0 0 0 0 0 0 0 0 0 0 1 2 0 3 101 161 161 149 144 150 157 163 168 171 174 177 178 179 179 181 182 184 184 186 189 188 187 188 188 185 181 169 142 88 34 14 15 15 15 14 12 12 10 12 14 12 9 8 4 0 0 0 0 0 0 0 0 0 0 0 0 0 0 0 0 0 0 0 0 0 0 2 2 0 0 1 2 1 2 2 2 3 5 6 5 2 2 4 1 1 0 0 0 0 0 0 0 0 0 0 0 0 0 0 0 0 0 0 0 0 0 0 0 0 0 0 0 0 0 0 0 0 0 0 0 0 0 0 0 0 0 0 0 0 0 0 0 0 0 0 0 0 0 0 0 0 0 0 0 0 0 66 158 164 164 163 161 162 162 161 159 158 156 155 153 152 152 151 150 149 150 146 143 141 142 141 138 136 136 136 138 135 134 134 135 136 137 135 137 137 137 135 132 132 132 130 130 126 123 128 130 56 0 0 0 0 0 0 0 0 0 0 0 0 0 0 0 0 0 0 0 0 0 0 0 0 0 0 0 0 0 0 0 0 0 0 0 0 0 0 0 0 0 0 0 0 0 0 0 0 0 0 0 0 0 0 0 0 0 0 0 0 0 0 0 0 0 0 0 0 0 0 0 0 0 0 0 0 0 0 0 0 0 0 0 0 0 1 2 5 7 7 8 7 6 7 8 6 2 0 2 1 0 2 3 6 6 5 5 5 6 7 6 4 3 2 4 4 4 4 4 6 5 4 3 2 4 4 4 3 2 0 0 0 0 0 0 0 0 0 0 0 0 0 0 0 0 0 2 2 2 3 3 4 6 6 5 4 3 4 2 1 0 1 2 3 2 3 6 7 8 7 4 4 6 6 6 6 5 4 4 4 2 2 2 3 2 2 2 1 3 3 3 3 2 3 3 2 2 1 0 0 2 4 4 0 0 0 1 2 2 1 1 0 0 0 0 0 0 0 1 3 2 2 3 3 4 3 5 4 2 2 2 3 4 3 4 7 7 8 9 11 10 11 12 12 10 10 10 12 14 16 20 18 16 16 16 17 18 18 16 16 16 15 15 14 15 17 18 18 20 18 19 19 18 17 16 18 18 19 17 17 19 18 19 21 21 20 21 21 23 25 26 25 22 20 18 19 17 16 15 14 13 12 14 13 15 14 
15 13 12 12 15 19 21 20 20 19 17 15 14 14 16 18 19 18 18 18 18 18 19 19 20 21 19 17 18 21 20 19 19 21 21 21 20 17 16 14 14 14 12 11 12 13 13 13 12 12 13 14 12 11 11 11 12 11 9 7 4 5 5 7 8 9 10 11 11 9 10 9 9 9 10 12 13 15 15 14 14 14 15 15 15 16 18 19 17 17 16 14 11 8 7 8 6 6 6 5 2 1 0 0 0 0 0 0 0 0 0 0 0 0 0 0 0 0 0 0 0 0 0 0 0 0 0 0 0 0 0 0 1 1 1 1 21 118 162 168 161 148 145 150 158 163 168 170 174 175 178 179 180 182 183 185 187 187 185 185 185 184 182 181 177 166 136 74 23 16 15 14 11 11 10 11 12 10 10 9 6 3 0 0 0 0 0 0 0 0 0 0 0 0 0 0 0 0 0 0 0 0 1 1 2 1 0 0 2 2 2 2 4 5 4 5 4 5 6 4 3 3 2 1 0 0 0 0 0 0 0 0 0 0 0 0 0 0 0 0 0 0 0 0 0 0 0 0 0 0 0 0 0 0 0 0 0 0 0 0 0 0 0 0 0 0 0 0 0 0 0 0 0 0 0 0 0 0 0 0 0 0 0 66 158 165 165 166 164 163 161 161 159 158 156 154 154 152 153 151 150 150 152 149 146 144 145 144 142 141 139 139 139 138 138 137 137 140 140 140 140 140 138 135 134 133 132 131 130 125 127 131 131 56 0 0 0 0 0 0 0 0 0 0 0 0 0 0 0 0 0 0 0 0 0 0 0 0 0 0 0 0 0 0 0 0 0 0 0 0 0 0 0 0 0 0 0 0 0 0 0 0 0 0 0 0 0 0 0 0 0 0 0 0 0 0 0 0 0 0 0 0 0 0 0 0 0 0 0 0 1 1 0 0 0 0 0 0 0 1 2 4 6 7 9 7 8 7 7 6 2 1 1 1 2 3 5 6 5 6 7 8 9 8 7 6 5 3 5 4 3 4 5 5 6 5 3 2 3 4 4 2 0 0 0 0 0 0 0 0 0 0 0 0 0 1 0 0 0 0 1 2 2 1 1 4 6 6 5 3 1 3 3 0 0 0 1 2 3 4 8 10 9 7 4 4 7 9 8 8 7 5 4 4 4 2 4 3 2 4 3 3 3 4 4 3 2 2 2 3 3 2 2 2 4 6 4 1 0 1 1 1 2 1 0 0 1 0 0 0 0 1 2 3 5 4 4 4 4 5 4 3 2 0 0 1 2 3 3 6 7 7 10 12 12 12 13 12 12 11 12 14 16 17 19 19 18 17 17 18 19 19 17 16 17 15 15 14 15 18 19 20 21 20 22 21 20 19 17 19 18 19 17 18 19 20 22 22 23 24 21 23 25 27 27 25 22 20 20 18 17 15 13 13 14 13 15 15 16 16 
16 14 14 16 20 21 21 20 17 16 15 14 14 13 14 16 16 17 17 16 17 18 19 20 21 20 18 19 20 22 20 20 18 19 21 20 18 17 17 14 12 12 11 11 11 12 13 12 11 10 12 13 11 11 11 11 12 10 9 7 5 5 5 6 7 8 8 8 8 8 7 6 7 6 8 9 12 14 14 15 13 14 18 16 17 18 20 18 16 15 14 13 11 10 10 11 9 7 7 6 4 1 1 0 0 0 0 0 0 0 0 0 0 0 0 0 0 0 0 0 0 0 0 0 0 0 0 0 0 0 0 0 0 1 0 0 0 23 118 161 171 172 165 156 152 155 160 165 168 171 173 172 173 172 175 178 182 184 181 182 183 181 178 175 175 176 169 151 104 40 14 11 9 9 9 11 11 11 10 9 6 4 2 0 0 0 0 0 0 0 0 0 0 0 0 0 0 0 0 0 0 0 0 1 0 0 0 0 0 0 2 3 3 4 2 2 3 4 3 3 1 1 2 0 0 0 0 0 0 0 0 0 0 0 0 0 0 0 0 0 0 0 0 0 0 0 0 0 0 0 0 0 0 0 0 0 0 0 0 0 0 0 0 0 0 0 0 0 0 0 0 0 0 0 0 0 0 0 0 0 0 0 0 58 156 164 165 163 165 165 163 162 161 160 157 154 155 154 154 153 153 154 155 154 151 148 146 144 146 146 143 142 142 142 142 141 142 142 141 142 141 139 139 139 137 136 135 133 130 127 128 131 130 55 0 0 0 0 0 0 0 0 0 0 0 0 0 0 0 0 0 0 0 0 0 0 0 0 0 0 0 0 0 0 0 0 0 0 0 0 0 0 0 0 0 0 0 0 0 0 0 0 0 0 0 0 0 0 0 0 0 0 0 0 0 0 0 0 0 0 0 0 0 0 0 0 0 0 0 0 2 2 0 0 0 0 0 0 0 3 4 7 8 8 8 7 7 6 6 4 2 2 2 2 3 4 6 5 6 7 10 9 9 9 10 7 5 4 4 4 4 5 7 6 6 3 4 2 3 4 2 0 0 0 0 0 0 0 0 0 0 0 0 0 0 0 0 0 0 0 0 0 0 0 1 4 5 6 4 1 2 2 3 3 1 0 1 3 4 5 7 9 7 5 4 4 7 9 9 9 10 8 6 6 7 4 6 5 4 5 6 4 4 7 6 5 3 4 5 5 5 5 4 5 8 9 7 5 4 2 2 3 3 2 1 0 0 1 1 1 1 1 2 2 3 5 5 5 4 4 2 1 1 0 0 2 1 2 3 6 6 8 12 12 12 15 15 15 13 12 13 15 18 18 18 18 19 19 19 19 17 17 17 15 16 16 15 15 17 20 20 21 21 22 21 22 23 20 19 18 18 18 17 18 19 21 23 24 24 24 22 23 25 26 27 25 23 21 20 17 17 15 13 13 12 13 16 16 15 17 
15 16 15 17 20 20 20 18 17 16 15 14 14 12 12 14 14 14 16 16 18 18 20 21 21 20 19 18 19 20 20 20 19 20 22 21 18 17 16 15 13 13 12 12 12 11 11 12 11 9 10 11 11 9 9 10 11 11 10 6 4 3 4 4 6 6 7 8 7 6 5 4 4 5 6 9 11 12 13 13 12 14 15 16 14 17 18 17 17 15 14 13 12 13 12 11 10 8 6 6 6 4 3 1 0 0 0 0 0 0 0 0 0 0 0 0 0 0 0 0 0 0 0 0 0 0 0 0 0 0 0 0 0 0 0 1 1 1 23 110 159 172 175 175 174 170 166 163 157 142 118 98 101 89 95 117 116 138 148 155 166 172 172 171 167 167 169 162 149 118 53 10 6 7 7 8 9 8 9 6 5 4 2 0 0 0 0 0 0 0 0 0 0 0 0 0 0 0 0 0 0 0 0 0 0 0 0 0 0 0 0 0 0 2 2 1 1 1 0 0 0 0 1 0 0 0 0 0 0 0 0 0 0 0 0 0 0 0 0 0 0 0 0 0 0 0 0 0 0 0 0 0 0 0 0 0 0 0 0 0 0 0 0 0 0 0 0 0 0 0 0 0 0 0 0 0 0 0 0 0 0 0 0 41 149 163 165 161 160 163 164 162 162 161 160 156 156 155 155 155 155 156 156 154 151 149 146 147 148 150 147 146 146 146 146 144 144 145 144 144 142 140 139 140 138 137 137 133 131 131 131 135 130 44 0 0 0 0 0 0 0 0 0 0 0 0 0 0 0 0 0 0 0 0 0 0 0 0 0 0 0 0 0 0 0 0 0 0 0 0 0 0 0 0 0 0 0 0 0 0 0 0 0 0 0 0 0 0 0 0 0 0 0 0 0 0 0 0 0 0 0 0 0 0 0 0 0 0 0 0 0 0 0 0 0 0 0 0 2 3 4 7 7 9 7 7 6 5 5 5 4 3 4 4 7 7 7 7 7 9 10 10 9 8 8 5 3 4 4 4 5 5 5 4 4 3 4 5 4 3 2 0 0 0 0 0 0 0 0 0 0 0 0 0 0 0 0 0 0 0 0 0 0 0 1 4 3 3 3 0 3 3 4 5 5 4 3 4 7 6 6 8 8 7 5 5 6 8 8 8 9 9 8 7 7 7 7 7 7 9 8 7 7 7 9 8 7 6 7 7 8 8 7 9 9 10 9 9 6 5 5 4 2 3 0 0 0 0 0 1 1 2 2 2 3 5 4 4 4 2 1 1 1 0 0 2 2 1 3 5 7 9 12 14 15 15 17 17 15 15 14 16 18 18 17 17 18 19 19 17 17 18 17 15 14 14 15 14 18 19 19 21 20 22 21 22 22 21 20 19 19 20 19 20 21 22 23 24 23 23 22 24 25 27 26 25 23 21 20 17 17 15 14 14 12 14 16 17 16 16 
18 17 18 17 18 19 17 17 16 17 16 14 11 11 12 13 14 13 14 16 18 18 20 20 20 18 18 18 18 20 20 20 20 20 21 19 17 17 17 15 13 12 12 12 12 12 11 11 10 11 11 11 11 9 8 9 10 9 7 4 3 1 3 3 5 6 6 7 5 4 4 6 6 5 5 8 11 11 10 11 10 11 12 13 13 14 16 16 15 14 12 12 12 11 10 10 9 10 8 7 6 3 2 1 0 0 0 0 0 0 0 0 0 0 0 0 0 0 0 0 0 0 0 0 0 0 0 0 0 0 0 0 0 0 1 2 2 2 2 18 98 154 169 173 176 181 180 177 172 164 152 145 150 149 153 171 169 171 170 160 159 144 125 143 162 165 166 163 156 145 119 59 8 5 5 6 6 6 5 5 3 2 2 1 0 0 0 0 0 0 0 0 0 0 0 0 0 0 0 0 0 0 0 0 0 0 0 0 0 0 0 0 0 0 0 0 0 0 0 0 0 0 0 0 0 0 0 0 0 0 0 0 0 0 0 0 0 0 0 0 0 0 0 0 0 0 0 0 0 0 0 0 0 0 0 0 0 0 0 0 0 0 0 0 0 0 0 0 0 0 0 0 0 0 0 0 0 0 0 0 0 0 0 9 128 160 163 164 165 162 166 165 165 164 163 163 160 157 158 157 158 158 158 157 155 152 150 149 151 153 151 150 150 149 147 146 147 147 145 145 143 143 142 143 141 138 136 134 134 136 137 138 110 8 0 0 0 0 0 0 0 0 0 0 0 0 0 0 0 0 0 0 0 0 0 0 0 0 0 0 0 0 0 0 0 0 0 0 0 0 0 0 0 0 0 0 0 0 0 0 0 0 0 0 0 0 0 0 0 0 0 0 0 0 0 0 0 0 0 0 0 0 0 0 0 0 0 0 0 0 0 0 0 0 0 0 0 0 1 4 4 7 8 9 8 7 6 5 5 6 5 4 5 6 8 8 10 9 8 8 8 9 9 7 6 3 2 3 4 5 4 5 6 6 4 5 4 5 4 4 2 3 2 1 1 0 0 0 0 0 0 0 0 0 0 0 0 0 0 0 0 0 0 0 0 1 2 1 1 2 2 3 3 4 5 6 7 8 8 9 8 10 9 9 8 6 7 6 7 8 9 9 7 6 6 7 7 6 9 12 11 10 10 8 10 10 9 8 10 8 9 9 9 10 10 11 12 11 9 8 7 5 3 2 0 0 0 0 0 1 2 1 3 3 4 5 5 4 3 2 0 0 1 0 0 0 1 2 3 4 6 11 14 16 16 16 17 19 17 14 14 14 18 19 18 18 19 19 19 18 18 15 16 15 15 14 13 13 17 18 19 20 20 22 22 22 24 23 21 21 20 21 20 20 20 22 24 25 24 24 24 24 25 26 25 24 23 21 20 20 18 16 15 14 13 14 15 15 16 16 
19 18 18 17 17 18 17 17 14 13 13 12 10 12 12 14 15 14 17 18 19 17 18 19 18 17 18 18 18 19 20 18 17 17 20 17 16 16 16 14 12 10 10 10 11 12 13 14 13 14 12 11 10 8 7 8 8 9 6 3 1 1 2 3 4 5 4 4 5 5 6 6 7 6 6 7 9 10 11 10 10 10 12 12 12 11 13 14 14 14 14 12 13 11 10 9 9 9 10 8 6 4 4 3 0 0 0 0 0 0 0 0 0 0 0 0 0 0 0 0 0 0 0 0 0 0 0 0 0 0 0 0 0 0 0 1 2 2 3 2 11 80 144 164 171 178 179 179 178 179 180 179 178 176 178 180 181 183 181 178 176 172 165 166 169 168 165 161 157 152 141 115 53 4 5 6 3 4 4 3 1 1 2 2 0 0 0 0 0 0 0 0 0 0 0 0 0 0 0 0 0 0 0 0 0 0 0 0 0 0 0 0 0 0 0 0 0 0 0 0 0 0 0 0 0 0 0 0 0 0 0 0 0 0 0 0 0 0 0 0 0 0 0 0 0 0 0 0 0 0 0 0 0 0 0 0 0 0 0 0 0 0 0 0 0 0 0 0 0 0 0 0 0 0 0 0 0 0 4 11 21 36 46 60 97 149 159 161 166 166 168 168 167 166 164 165 164 161 161 160 161 160 161 159 157 155 152 152 155 155 155 152 151 151 151 149 149 148 148 148 145 143 143 144 142 138 136 138 140 140 141 139 116 88 72 55 36 20 6 0 0 0 0 0 0 0 0 0 0 0 0 0 0 0 0 0 0 0 0 0 0 0 0 0 0 0 0 0 0 0 0 0 0 0 0 0 0 0 0 0 0 0 0 0 0 0 0 0 0 0 0 0 0 0 0 0 0 0 0 0 0 0 0 0 0 0 0 0 0 0 0 0 0 0 0 0 0 0 0 0 3 5 7 7 7 7 6 7 6 7 5 5 6 6 6 7 9 9 8 6 6 4 6 5 3 1 1 1 4 5 7 7 8 8 5 4 4 5 3 4 4 5 5 5 4 0 0 0 0 0 0 0 0 0 0 0 0 0 0 0 0 0 1 0 1 2 1 3 4 3 2 3 4 4 5 7 9 8 9 8 9 12 12 9 7 6 7 7 9 10 10 9 9 7 8 7 7 9 10 13 13 13 12 12 11 12 10 9 9 9 7 7 8 11 12 13 14 15 10 9 7 6 4 3 3 0 0 0 0 3 3 2 3 3 3 4 5 4 4 4 1 2 0 1 1 0 1 4 5 6 8 12 13 14 16 16 16 18 15 13 12 13 16 19 19 18 19 20 19 18 17 16 15 15 16 15 15 15 16 17 17 17 19 19 21 24 27 26 25 24 22 21 20 19 19 21 24 26 25 24 25 26 25 24 24 22 23 23 23 22 20 19 17 15 12 12 13 12 14 17 
19 17 16 15 17 17 17 14 12 13 11 11 10 10 12 15 17 18 18 18 17 19 21 19 18 18 19 18 18 19 18 17 18 18 17 16 14 16 16 14 12 11 10 13 12 12 13 15 14 13 10 12 10 8 7 7 8 7 4 4 2 2 3 5 4 4 5 4 5 6 8 8 9 8 7 8 10 10 10 11 10 9 11 12 11 11 9 11 13 14 12 13 13 13 12 10 10 8 9 7 5 4 3 3 1 0 0 0 0 0 0 0 0 0 0 0 0 0 0 0 0 0 0 0 0 0 0 0 0 0 1 2 0 1 2 1 3 1 1 3 5 8 60 132 159 169 173 176 177 181 182 183 183 183 185 190 190 189 186 183 181 179 177 173 171 168 164 162 161 156 148 139 108 40 5 5 3 2 3 2 0 0 0 0 0 0 0 0 0 0 0 0 0 0 0 0 0 0 0 0 0 0 0 0 0 0 0 0 0 0 0 0 0 0 0 0 0 0 0 0 0 0 0 0 0 0 0 0 0 0 0 0 0 0 0 0 0 0 0 0 0 0 0 0 0 0 0 0 0 0 0 0 0 0 0 0 0 0 0 0 0 0 0 0 0 0 0 0 0 0 0 0 8 22 42 64 86 102 115 120 125 130 135 136 138 142 149 156 161 163 165 168 168 167 166 166 165 164 163 164 163 163 163 160 159 156 153 154 155 155 155 155 153 153 150 149 149 149 149 148 146 144 142 142 140 137 137 140 141 141 140 149 152 151 150 148 145 137 127 115 102 88 72 56 35 15 0 0 0 0 0 0 0 0 0 0 0 0 0 0 0 0 0 0 0 0 0 0 0 0 0 0 0 0 0 0 0 0 0 0 0 0 0 0 0 0 0 0 0 0 0 0 0 0 0 0 0 0 0 0 0 0 0 0 0 0 0 0 0 0 0 0 0 0 0 0 0 0 0 0 2 6 5 5 6 7 6 6 6 5 5 4 5 5 3 6 6 8 7 5 2 2 3 1 1 0 0 1 3 5 7 9 8 8 6 4 3 3 4 4 5 6 8 7 5 1 0 0 0 0 0 0 0 0 0 0 0 0 0 0 0 0 0 0 1 4 2 4 3 4 3 5 5 6 8 10 9 9 10 10 10 13 13 10 9 8 8 9 9 10 12 11 10 10 10 9 9 9 13 14 14 15 15 13 12 13 12 10 9 10 8 7 9 11 13 15 16 16 14 9 8 6 6 5 4 2 1 2 3 4 4 4 2 1 3 4 4 5 5 6 4 2 1 2 2 2 3 3 4 5 8 10 12 14 16 16 16 15 12 10 10 12 16 19 19 18 19 20 20 20 18 17 16 16 15 14 14 15 17 17 16 16 17 19 23 26 28 27 26 23 23 21 18 18 18 19 22 23 25 25 25 25 25 24 24 23 24 24 23 22 21 20 17 13 12 11 10 11 14 18 
19 18 16 16 16 17 15 12 10 10 10 11 11 11 13 17 18 17 18 17 18 19 20 19 18 18 18 18 18 18 18 15 15 16 18 17 16 15 15 13 12 9 10 12 13 12 12 12 11 11 10 11 9 9 9 8 8 7 4 4 2 3 3 3 2 5 4 6 6 6 8 8 8 8 7 9 10 10 9 11 10 10 11 11 11 11 10 11 14 13 13 14 13 13 14 13 10 9 7 6 6 5 3 2 0 0 0 0 0 0 0 0 0 0 0 0 0 0 0 0 0 0 0 0 0 0 0 0 0 0 1 3 2 3 5 4 6 4 4 5 7 8 7 47 125 155 164 171 177 178 181 182 183 183 187 191 191 189 186 184 182 179 177 173 172 168 167 165 163 160 152 145 132 92 24 4 3 2 1 0 0 0 0 0 0 0 0 0 0 0 0 0 0 0 0 0 0 0 0 0 0 0 0 0 0 0 0 0 0 0 0 0 0 0 0 0 0 0 0 0 0 0 0 0 0 0 0 0 0 0 0 0 0 0 0 0 0 0 0 0 0 0 0 0 0 0 0 0 0 0 0 0 0 0 0 0 0 0 0 0 0 0 0 0 0 0 4 23 45 67 86 105 118 127 132 135 138 137 136 134 135 135 133 130 129 127 132 144 151 157 163 167 166 166 167 167 165 165 165 164 164 164 162 161 159 158 155 154 155 154 155 155 154 153 149 148 148 147 147 147 145 142 142 141 138 137 137 140 140 137 136 147 150 152 156 159 159 155 152 151 148 147 146 143 137 130 118 100 77 53 31 12 0 0 0 0 0 0 0 0 0 0 0 0 0 0 0 0 0 0 0 0 0 0 0 0 0 0 0 0 0 0 0 0 0 0 0 0 0 0 0 0 0 0 0 0 0 0 0 0 0 0 0 0 0 0 0 0 0 0 0 0 0 0 0 0 0 0 0 1 4 6 4 6 6 7 7 5 5 5 5 4 4 3 2 3 5 6 6 3 2 1 2 2 2 1 0 0 1 2 6 10 10 9 8 5 3 2 3 5 6 5 6 7 4 1 0 0 0 0 0 0 0 0 0 0 0 0 0 0 0 0 0 0 2 4 2 2 2 2 4 4 7 9 9 10 11 9 10 9 11 11 13 13 12 10 10 9 8 9 11 12 10 9 9 10 12 13 13 15 15 16 16 15 13 13 10 9 9 10 10 9 10 11 14 16 17 16 14 12 9 8 9 7 5 5 3 5 6 6 6 5 3 2 4 4 6 6 6 6 4 2 3 3 2 3 4 2 2 4 5 8 13 15 16 17 14 14 12 11 12 13 16 19 20 19 19 21 22 22 20 20 17 17 16 16 15 16 16 15 15 15 17 20 23 27 27 26 23 22 22 20 18 18 17 16 19 24 25 24 25 24 23 24 25 26 25 24 23 22 20 19 14 12 11 9 8 8 12 15 
16 16 17 16 16 16 14 11 9 7 7 9 11 11 12 14 15 16 15 17 17 18 19 16 16 18 18 18 17 18 17 17 17 19 19 18 15 14 14 13 10 10 11 12 12 11 10 9 8 8 7 8 9 9 10 9 8 7 6 5 5 3 3 3 1 4 5 6 7 6 6 6 8 8 7 9 10 10 9 12 10 11 11 12 11 11 11 11 13 12 14 12 12 13 14 13 11 9 9 8 8 7 3 0 0 0 0 0 0 0 0 0 0 0 0 0 0 0 0 0 0 0 0 0 0 0 0 0 0 0 2 4 5 7 7 8 8 7 7 9 9 8 8 7 50 126 154 164 173 176 178 181 181 182 185 187 188 187 185 183 182 179 177 174 172 170 168 166 166 161 155 149 140 124 72 13 3 1 0 0 0 0 0 0 0 0 0 0 0 0 0 0 0 0 0 0 0 0 0 0 0 0 0 0 0 0 0 0 0 0 0 0 0 0 0 0 0 0 0 0 0 0 0 0 0 0 0 0 0 0 0 0 0 0 0 0 0 0 0 0 0 0 0 0 0 0 0 0 0 0 0 0 0 0 0 0 0 0 0 0 0 0 14 41 74 98 112 121 127 131 133 135 135 133 130 127 127 124 121 119 120 120 116 113 112 110 111 127 141 150 155 159 161 163 163 164 163 163 162 161 160 161 161 161 160 158 156 155 154 154 154 154 153 151 149 149 146 145 143 142 140 136 137 139 139 137 135 136 135 129 130 132 135 137 143 148 151 151 151 150 150 151 151 153 154 154 153 151 148 146 141 130 112 90 65 41 19 0 0 0 0 0 0 0 0 0 0 0 0 0 0 0 0 0 0 0 0 0 0 0 0 0 0 0 0 0 0 0 0 0 0 0 0 0 0 0 0 0 0 0 0 0 0 0 0 0 0 0 0 0 0 0 0 0 0 0 0 0 0 3 5 5 5 6 4 5 6 5 4 3 2 1 2 2 2 3 5 6 5 2 2 2 0 1 2 1 0 0 1 3 8 9 10 8 7 5 3 1 3 4 5 4 5 5 3 1 0 0 0 0 0 0 0 0 0 0 0 0 0 0 0 0 0 0 1 2 2 2 1 1 4 5 6 9 9 11 10 9 9 9 11 12 14 14 14 13 11 11 10 10 11 11 10 10 10 11 12 12 14 16 16 17 16 14 13 11 10 10 10 8 9 10 9 12 14 17 17 17 14 12 11 9 11 9 8 7 6 5 8 8 8 8 6 5 6 7 7 8 9 9 7 6 6 5 3 3 4 3 2 4 7 10 12 14 16 16 15 15 14 14 15 14 17 20 19 20 20 22 22 22 22 22 20 21 19 17 17 15 15 15 16 15 16 18 21 24 25 25 23 21 21 21 19 18 15 15 19 21 23 25 25 25 24 25 26 26 26 25 23 20 18 16 12 12 11 9 6 7 10 14 
16 15 14 14 14 14 13 12 10 9 8 10 11 10 10 12 13 14 14 16 17 17 15 15 15 16 17 17 17 18 19 19 19 20 19 16 14 13 13 12 13 13 12 11 10 10 7 7 7 5 5 5 8 8 9 9 9 6 6 6 4 2 4 3 3 4 6 4 4 5 5 7 7 8 10 9 9 11 11 13 12 12 12 12 12 12 11 12 10 10 11 11 12 12 13 13 11 10 9 8 8 7 2 0 0 0 0 0 0 0 1 2 2 1 0 0 0 0 0 0 0 0 0 0 0 0 0 0 0 1 3 4 5 7 9 10 10 10 9 11 12 9 9 10 9 55 130 157 166 171 176 179 182 182 183 185 185 185 183 181 180 179 177 175 173 172 170 167 166 161 158 154 146 134 114 56 4 0 0 0 0 0 0 0 0 0 0 0 0 0 0 0 0 0 0 0 0 0 0 0 0 0 0 0 0 0 0 0 0 0 0 0 0 0 0 0 0 0 0 0 0 0 0 0 0 0 0 0 0 0 0 0 0 0 0 0 0 0 0 0 0 0 0 0 0 0 0 0 0 0 0 0 0 0 0 0 0 0 23 50 80 102 113 121 125 126 124 123 122 122 120 118 117 113 110 109 107 105 101 100 102 101 99 97 96 95 97 100 123 139 145 149 153 156 157 158 158 158 159 157 156 158 158 158 157 156 153 153 152 153 152 152 151 149 147 145 142 139 138 136 133 133 136 138 136 133 132 130 126 119 118 120 122 126 130 134 136 136 139 141 141 145 146 148 151 153 155 156 156 156 157 154 152 149 146 142 134 115 86 52 19 0 0 0 0 0 0 0 0 0 0 0 0 0 0 0 0 0 0 0 0 0 0 0 0 0 0 0 0 0 0 0 0 0 0 0 0 0 0 0 0 0 0 0 0 0 0 0 0 0 0 0 0 0 0 0 0 0 0 2 4 5 5 4 4 6 6 4 3 2 1 0 0 1 1 2 3 5 5 4 2 2 1 2 2 3 1 1 2 5 8 9 9 7 7 6 3 2 1 2 3 4 4 4 2 1 0 0 0 0 0 0 0 0 0 0 0 0 0 0 0 0 0 0 0 1 1 2 0 2 3 6 8 8 8 9 8 8 7 8 10 12 12 11 11 12 13 15 14 11 10 10 7 8 9 9 11 10 11 16 16 16 16 14 11 11 11 10 10 8 7 8 10 14 16 16 17 17 14 13 12 12 12 11 9 8 9 8 7 7 6 7 5 6 6 8 9 10 12 11 10 10 9 6 5 6 6 6 5 6 9 10 10 11 14 16 16 17 16 15 16 17 18 21 20 19 20 21 20 22 22 24 24 22 20 18 16 15 15 15 16 14 15 16 17 21 24 22 22 19 20 19 18 17 16 16 18 20 22 23 24 25 24 25 26 28 26 25 21 18 18 16 13 10 11 9 7 7 11 14 
15 13 14 13 14 15 16 16 13 11 10 13 12 11 10 10 12 15 15 15 15 14 13 12 13 15 16 15 16 18 19 20 20 19 17 17 15 15 16 17 15 14 12 9 9 6 5 4 4 4 3 5 6 9 10 10 8 9 8 7 4 5 4 4 3 5 4 2 2 4 7 9 9 10 10 8 9 10 12 13 14 12 11 12 14 13 12 11 9 10 11 13 14 13 14 13 12 10 7 5 7 5 3 0 0 0 0 1 0 2 2 5 6 4 3 0 0 0 0 0 0 0 0 0 0 0 0 1 3 3 5 7 7 8 10 11 12 13 12 12 12 9 9 11 9 10 57 134 160 168 172 177 178 179 178 181 183 184 183 181 179 179 177 175 175 174 173 168 165 161 160 155 148 140 129 100 35 0 0 0 0 0 0 0 0 0 0 0 0 0 0 0 0 0 0 0 0 0 0 0 0 0 0 0 0 0 0 0 0 0 0 0 0 0 0 0 0 0 0 0 0 0 0 0 0 0 0 0 0 0 0 0 0 0 0 0 0 0 0 0 0 0 0 0 0 0 0 0 0 0 0 0 0 6 33 64 85 105 115 118 120 119 115 111 106 104 102 100 98 98 96 95 94 90 89 86 84 83 81 82 84 85 84 84 85 85 88 90 97 119 132 140 145 150 152 152 151 152 153 152 152 154 155 155 153 151 150 150 149 149 148 148 146 145 143 140 135 133 132 132 131 130 132 134 132 129 127 120 112 110 110 112 114 116 120 124 127 127 128 131 131 132 133 137 142 144 148 151 152 153 156 156 156 155 156 156 157 153 150 143 131 112 82 46 16 0 0 0 0 0 0 0 0 0 0 0 0 0 0 0 0 0 0 0 0 0 0 0 0 0 0 0 0 0 0 0 0 0 0 0 0 0 0 0 0 0 0 0 0 0 0 0 0 0 0 0 0 0 0 0 2 2 3 2 3 5 6 4 1 1 0 0 0 0 0 0 1 4 5 6 5 4 5 5 5 5 4 2 3 6 6 7 7 6 6 6 3 1 2 1 2 1 1 1 0 0 0 0 0 0 0 0 0 0 0 0 0 0 0 0 0 0 0 0 0 1 3 2 1 3 4 5 6 7 7 7 7 6 6 7 8 10 10 9 9 12 13 14 14 12 11 11 9 10 10 9 11 12 12 16 16 16 16 14 12 11 12 12 10 9 9 10 12 14 16 15 17 16 15 14 13 14 14 14 11 10 10 7 7 6 5 5 5 6 6 9 11 11 13 12 12 11 10 7 8 10 11 10 7 9 10 10 10 11 14 15 16 17 15 15 14 16 16 20 19 17 18 19 19 22 23 25 26 22 19 19 17 15 14 14 16 14 12 14 16 21 24 22 22 20 17 18 17 17 14 14 14 16 19 22 23 24 24 24 25 25 23 22 20 20 20 17 15 12 11 9 7 10 12 14 
11 11 11 12 15 17 18 16 16 15 15 15 13 11 9 9 14 15 13 11 12 11 10 10 12 12 12 13 14 18 19 21 21 20 18 16 16 18 21 21 19 14 13 11 8 5 3 3 3 3 4 6 8 10 12 11 10 9 7 4 1 2 3 5 5 4 4 1 3 5 7 9 8 8 8 10 10 11 12 12 13 12 11 12 12 11 10 10 9 9 11 13 14 15 15 13 10 10 7 6 7 8 4 1 0 2 1 3 2 2 4 5 5 4 4 1 0 0 0 0 0 0 0 0 0 0 3 4 6 8 8 8 8 8 10 14 14 13 12 10 10 8 7 9 10 9 9 63 137 161 168 173 175 175 175 177 180 181 182 181 180 179 178 176 175 174 172 169 166 162 160 154 150 145 134 119 81 19 0 0 0 0 0 0 0 0 0 0 0 0 0 0 0 0 0 0 0 0 0 0 0 0 0 0 0 0 0 0 0 0 0 0 0 0 0 0 0 0 0 0 0 0 0 0 0 0 0 0 0 0 0 0 0 0 0 0 0 0 0 0 0 0 0 0 0 0 0 0 0 0 17 50 86 110 119 120 117 112 109 104 99 93 86 79 75 73 70 69 69 69 69 69 69 69 67 66 66 67 68 70 74 81 88 95 100 103 109 114 117 120 125 126 130 138 141 143 144 145 146 145 147 149 150 150 147 147 146 143 143 142 142 141 138 135 135 132 131 130 132 131 130 129 130 130 129 126 117 100 96 96 93 96 99 102 107 111 114 118 121 123 124 125 127 128 129 131 134 137 142 146 151 152 153 152 152 153 154 156 157 157 155 153 148 140 128 108 76 43 12 0 0 0 0 0 0 0 0 0 0 0 0 0 0 0 0 0 0 0 0 0 0 0 0 0 0 0 0 0 0 0 0 0 0 0 0 0 0 0 0 0 0 0 0 0 0 0 0 0 0 0 1 1 1 1 2 4 5 3 0 0 0 0 0 0 0 0 0 3 6 7 7 8 8 9 9 7 4 3 4 3 4 4 6 7 8 6 4 3 2 1 0 0 0 0 0 0 0 0 0 0 0 0 0 0 0 0 0 0 0 0 0 0 0 0 1 1 2 1 0 2 3 3 5 6 8 7 6 6 6 6 6 8 9 10 9 10 11 13 13 13 11 10 10 10 8 9 10 11 14 16 17 17 17 16 15 14 13 12 13 12 12 13 13 13 14 14 14 13 14 13 14 14 15 15 15 13 10 9 7 6 4 6 7 8 8 10 12 13 14 14 13 13 13 12 12 14 14 13 11 11 13 13 12 13 13 13 13 13 14 12 10 13 15 16 17 16 16 17 18 21 22 22 21 21 20 18 18 15 11 12 14 12 11 14 18 21 22 21 20 19 18 16 16 16 15 13 12 15 18 19 21 23 24 24 25 23 22 21 20 21 21 19 16 15 12 12 10 9 11 12 
10 11 11 13 15 18 19 17 18 18 17 16 14 12 9 10 12 14 12 11 10 10 11 10 10 11 11 11 14 17 19 19 19 19 16 16 17 19 21 20 19 15 11 12 10 6 3 4 4 5 6 7 8 9 10 9 9 8 7 4 1 2 2 3 5 4 3 3 4 6 7 8 8 9 7 9 10 11 13 12 12 11 11 12 9 8 8 8 8 10 13 14 14 16 16 15 13 10 8 8 9 9 6 4 1 3 2 3 2 2 3 4 5 4 3 1 0 0 0 0 0 0 0 0 0 2 5 6 9 10 12 11 12 12 12 15 16 14 12 9 5 6 6 7 8 9 10 11 65 140 162 170 173 173 174 177 179 179 181 180 179 178 178 176 173 174 172 168 165 163 159 156 150 143 135 124 107 63 6 0 0 0 0 0 0 0 0 0 0 0 0 0 0 0 0 0 0 0 0 0 0 0 0 0 0 0 0 0 0 0 0 0 0 0 0 0 0 0 0 0 0 0 0 0 0 0 0 0 0 0 0 0 0 0 0 0 0 0 0 0 0 0 0 0 0 0 0 16 53 90 115 121 121 115 107 98 88 79 71 67 60 54 49 43 41 39 37 39 41 43 48 49 52 55 58 65 70 82 94 106 116 122 124 127 127 127 128 129 129 130 130 122 118 125 130 134 134 136 136 137 139 141 142 142 140 140 138 137 137 136 136 134 131 131 131 132 129 127 127 126 126 126 126 127 125 118 105 101 103 102 100 99 99 98 97 96 95 98 100 100 100 102 107 112 117 122 126 127 128 133 136 142 146 146 146 148 149 151 153 153 155 156 154 150 150 146 143 137 127 99 58 19 0 0 0 0 0 0 0 0 0 0 0 0 0 0 0 0 0 0 0 0 0 0 0 0 0 0 0 0 0 0 0 0 0 0 0 0 0 0 0 0 0 0 0 0 0 0 0 0 0 2 1 1 4 5 3 1 0 0 0 1 1 1 1 1 2 5 7 9 8 7 9 9 9 8 7 4 3 3 3 4 4 5 8 7 6 6 5 3 1 0 0 0 0 0 0 0 0 0 0 0 1 1 0 0 0 0 0 0 0 0 0 0 0 0 0 0 0 0 2 3 5 6 8 6 5 6 4 5 5 6 9 9 9 9 10 10 12 12 11 10 10 10 8 9 12 13 15 15 16 18 17 16 16 15 14 13 14 13 13 12 11 10 11 11 11 12 13 13 14 15 16 17 15 14 13 10 9 7 7 7 6 8 9 11 13 14 13 14 14 14 14 14 14 14 14 14 13 13 14 13 12 11 10 10 9 9 9 9 10 12 15 16 16 16 15 17 17 18 19 18 20 20 18 19 17 16 14 12 13 14 13 16 19 21 21 20 19 19 19 17 18 18 16 13 11 13 15 17 19 21 22 21 21 23 21 20 20 20 20 18 16 15 14 12 12 10 13 11 
11 11 12 14 17 20 19 19 20 18 17 16 15 12 10 9 11 11 10 11 10 11 10 8 10 12 11 11 13 14 16 16 15 16 14 15 16 16 17 17 17 13 11 12 9 7 5 4 4 5 6 8 9 9 10 9 8 8 6 4 1 1 2 2 3 3 1 1 4 5 6 7 8 7 7 7 9 10 12 13 11 12 10 11 8 7 5 6 8 9 13 13 16 15 16 15 12 11 9 10 8 8 8 5 4 5 4 2 1 2 2 4 3 4 2 0 0 0 0 0 0 0 0 0 0 4 7 8 11 11 13 13 13 14 14 16 15 15 13 10 7 8 9 8 6 7 8 8 12 70 144 165 170 173 174 175 176 177 178 179 178 176 176 172 172 173 172 169 167 165 162 156 150 144 138 130 119 96 45 0 0 0 0 0 0 0 0 0 0 0 0 0 0 0 0 0 0 0 0 0 0 0 0 0 0 0 0 0 0 0 0 0 0 0 0 0 0 0 0 0 0 0 0 0 0 0 0 0 0 0 0 0 0 0 0 0 0 0 0 0 0 0 0 0 23 67 98 116 122 120 114 105 94 79 66 52 42 32 26 22 18 14 10 8 9 13 16 20 26 38 55 77 95 109 117 122 125 127 128 129 130 130 129 130 131 130 131 132 133 132 132 128 121 116 121 124 124 125 125 128 129 130 130 130 130 130 130 129 128 127 128 126 126 127 129 128 127 125 124 125 125 125 125 123 117 108 104 104 104 105 103 103 102 102 101 101 103 103 104 102 100 98 95 88 83 86 91 100 108 118 124 128 131 133 137 140 142 144 145 147 147 149 148 148 148 149 151 152 152 149 142 128 97 53 13 0 0 0 0 0 0 0 0 0 0 0 0 0 0 0 0 0 0 0 0 0 0 0 0 0 0 0 1 0 0 0 0 0 0 0 0 0 0 0 0 0 0 0 0 0 0 1 2 3 4 5 4 4 1 0 0 1 2 2 1 2 2 6 9 11 11 8 9 8 9 7 6 3 2 2 1 1 4 5 6 7 8 7 7 5 2 1 0 0 0 0 0 0 0 0 0 1 1 2 1 0 0 0 0 0 0 0 0 0 0 0 0 0 0 0 0 0 1 4 6 6 4 2 3 4 5 6 8 8 8 8 9 10 11 12 11 12 11 11 9 9 11 13 14 15 16 19 19 19 18 17 15 14 13 12 12 11 8 8 8 9 11 12 13 12 13 13 16 16 18 17 14 11 10 8 9 8 8 10 12 14 14 14 14 14 15 15 16 16 16 15 15 15 14 14 14 13 10 10 10 8 8 9 9 11 11 12 14 15 16 15 14 15 15 16 19 20 20 19 16 15 15 16 14 13 13 14 15 16 19 21 21 20 20 19 18 17 17 18 17 13 13 14 14 15 16 19 18 19 19 21 20 20 21 19 19 16 15 14 14 15 13 12 12 12 
12 12 13 15 16 18 20 20 20 17 17 17 16 13 11 10 9 9 9 11 11 10 9 7 9 12 13 12 12 12 15 16 15 14 12 13 12 12 14 14 12 11 11 9 9 7 6 6 7 6 7 8 9 9 10 8 8 10 9 5 1 0 0 1 2 0 0 0 2 3 2 4 5 6 4 5 8 10 13 15 13 13 11 10 8 7 5 6 9 11 13 14 13 14 14 13 12 12 11 10 10 8 9 7 6 8 6 5 2 1 3 4 4 5 3 0 0 0 0 0 0 0 0 0 0 4 7 9 11 14 14 16 17 16 15 16 17 16 14 12 8 7 8 7 5 6 7 9 10 13 79 149 165 169 172 174 174 175 177 177 176 175 173 171 170 169 169 169 167 166 162 159 154 149 143 136 127 112 84 26 0 0 0 0 0 0 0 0 0 0 0 0 0 0 0 0 0 0 0 0 0 0 0 0 0 0 0 0 0 0 0 0 0 0 0 0 0 0 0 0 0 0 0 0 0 0 0 0 0 0 0 0 0 0 0 0 0 0 0 0 0 13 63 99 117 123 120 111 98 87 74 59 43 26 13 0 0 0 0 0 0 0 0 0 0 17 45 73 96 113 123 127 131 132 133 134 133 131 132 131 131 129 129 131 133 133 132 134 133 132 132 132 132 122 114 116 116 117 117 119 120 122 123 123 124 124 123 121 120 120 122 121 123 124 125 125 125 124 124 124 124 123 122 118 109 106 104 105 103 102 101 103 102 103 104 104 106 106 107 106 104 103 102 102 100 98 94 87 84 79 78 85 94 105 119 125 129 131 135 135 137 138 141 141 142 144 147 148 151 152 153 154 150 141 123 91 49 9 0 0 0 0 0 0 0 0 0 0 0 0 0 0 0 0 0 0 0 0 0 0 0 0 0 0 0 0 0 0 0 0 0 0 0 0 0 0 0 0 0 0 0 1 3 3 5 5 4 4 2 0 0 0 1 1 0 0 2 5 7 10 10 10 10 9 8 5 4 1 0 0 1 3 3 6 6 6 8 9 8 5 4 3 1 0 0 0 0 0 0 0 0 0 0 1 1 0 0 0 0 0 0 0 0 0 0 0 0 0 0 0 0 0 0 1 3 3 1 2 3 4 6 5 6 7 8 7 8 9 11 12 12 13 13 10 10 8 10 12 12 13 18 19 20 20 19 17 16 13 13 13 12 10 7 6 5 9 10 11 12 11 12 13 14 17 19 17 15 13 11 10 9 7 8 11 13 15 15 16 16 18 17 19 19 18 17 17 17 18 15 14 12 11 9 9 11 12 11 11 12 12 13 11 11 14 16 14 15 15 16 17 18 20 19 17 16 15 14 13 13 11 14 15 15 15 18 20 19 18 20 20 18 16 15 18 17 15 14 14 15 15 16 16 18 17 17 20 21 19 18 17 17 17 17 14 13 13 12 13 14 13 
12 11 12 15 17 18 21 21 19 18 18 17 15 13 12 10 9 10 9 9 9 9 9 7 9 12 12 11 9 11 12 14 13 13 11 10 10 12 11 12 10 10 9 9 8 6 6 8 10 9 8 8 10 11 10 8 8 9 9 7 3 0 1 2 2 1 0 0 0 0 0 1 3 3 3 5 7 13 14 15 13 14 12 11 9 8 8 8 10 13 15 14 15 13 15 15 13 14 14 11 10 9 9 8 9 9 9 5 2 0 2 4 4 5 2 2 1 0 0 0 0 0 0 0 0 5 8 10 13 17 18 19 20 19 16 17 18 16 15 12 10 8 9 8 7 7 8 10 10 12 16 87 150 163 167 170 171 174 176 175 173 173 171 169 169 168 167 167 166 166 163 160 158 152 147 140 133 122 103 59 3 0 0 0 0 0 0 0 0 0 0 0 0 0 0 0 0 0 0 0 0 0 0 0 0 0 0 0 0 0 0 0 0 0 0 0 0 0 0 0 0 0 0 0 0 0 0 0 0 0 0 0 0 0 0 0 0 0 0 33 85 114 122 117 106 94 79 63 45 30 12 0 0 0 0 0 0 0 0 0 0 12 39 70 96 112 120 124 126 128 129 131 133 134 135 136 132 131 131 131 131 130 130 132 133 133 133 133 133 132 132 132 132 132 124 112 110 111 113 115 116 117 118 121 122 122 120 117 115 116 116 118 120 120 122 122 121 120 123 123 123 123 120 111 109 108 107 103 102 99 100 101 101 98 94 91 88 82 77 72 65 59 56 56 53 51 44 44 47 45 53 58 56 56 53 47 61 88 107 118 125 126 128 129 132 133 137 142 143 145 148 149 150 150 148 144 135 117 82 36 0 0 0 0 0 0 0 0 0 0 0 0 0 0 0 0 0 0 0 0 0 0 0 0 0 0 0 0 0 0 0 0 0 0 0 0 0 0 0 0 0 1 1 3 4 4 3 2 1 0 0 0 0 0 0 0 2 4 6 8 8 9 8 6 5 3 3 0 0 0 0 1 2 5 7 7 9 8 6 5 4 2 1 0 0 0 0 0 0 0 0 0 0 0 0 0 0 0 0 0 0 0 0 0 0 0 0 0 0 0 0 0 0 0 0 0 0 2 3 3 5 5 7 7 7 7 6 7 8 9 11 12 11 10 8 7 8 9 11 13 16 17 17 18 17 14 14 14 13 14 12 11 8 8 8 9 10 10 12 11 11 13 15 16 18 18 16 13 13 12 11 9 9 12 14 15 14 16 18 18 20 20 22 19 18 18 17 16 16 15 13 12 8 8 10 12 11 11 12 14 13 14 13 14 16 16 14 14 15 16 17 18 18 18 16 14 12 12 11 11 13 14 13 15 18 19 18 18 19 19 16 14 15 16 17 16 16 17 17 16 16 17 18 17 17 19 22 19 18 17 20 20 16 15 14 13 13 13 14 14 
12 11 11 12 16 18 20 20 19 18 18 17 16 14 12 11 10 9 7 5 7 6 7 6 10 12 12 9 11 11 11 13 13 12 10 12 11 12 12 11 9 9 9 9 9 8 7 9 11 10 8 8 9 11 10 8 9 9 9 7 4 1 1 1 3 3 1 0 0 0 0 2 4 3 5 5 8 11 13 14 14 13 13 12 10 9 9 9 10 13 15 16 13 13 14 15 13 12 12 10 8 9 10 9 9 10 9 6 2 1 3 4 4 5 5 3 2 0 0 0 0 0 0 0 4 6 11 12 16 19 20 21 21 19 18 18 19 17 15 13 11 9 8 8 8 8 9 10 11 13 11 14 92 151 161 166 169 172 173 174 172 170 168 167 168 168 167 167 165 165 164 161 160 156 150 144 139 129 112 85 28 0 0 0 0 0 0 0 0 0 0 0 0 0 0 0 0 0 0 0 0 0 0 0 0 0 0 0 0 0 0 0 0 0 0 0 0 0 0 0 0 0 0 0 0 0 0 0 0 0 0 0 0 0 0 0 9 54 100 121 123 112 96 72 48 29 13 0 0 0 0 0 0 0 0 0 0 0 21 59 89 108 114 119 122 125 127 127 127 127 128 131 133 135 136 136 133 131 131 132 132 131 131 133 133 134 133 133 134 133 132 131 131 133 133 122 113 113 114 116 118 119 120 120 121 119 115 113 113 114 114 116 116 118 120 120 119 120 121 124 126 124 114 110 109 107 104 96 86 80 73 59 52 36 23 18 16 7 0 0 2 0 0 0 0 2 0 0 0 0 0 3 5 8 13 13 10 12 23 43 70 96 106 115 120 124 123 122 121 121 123 123 126 132 133 133 136 137 137 126 97 47 4 0 0 0 0 0 0 0 0 0 0 0 0 0 0 0 0 0 0 0 0 0 0 0 0 0 0 0 0 0 0 0 0 0 0 0 0 0 0 0 0 1 2 4 2 1 2 0 0 0 0 0 0 0 2 3 4 6 5 6 4 6 5 4 3 2 0 0 0 2 3 3 6 7 6 6 5 4 3 0 0 0 0 0 0 0 0 0 0 0 0 0 0 0 0 0 0 0 0 0 0 0 0 0 0 0 0 0 0 0 0 0 0 0 0 1 3 3 5 8 7 7 6 6 7 6 5 7 8 9 9 8 8 7 7 7 10 12 13 14 14 15 14 14 14 14 15 14 13 11 10 9 9 11 11 11 12 12 11 14 14 15 17 17 17 15 14 13 12 12 13 14 13 14 13 16 19 19 20 21 21 19 19 18 16 16 17 16 14 13 9 8 10 12 11 10 12 15 16 16 15 16 15 15 13 12 14 14 16 17 17 16 15 11 11 12 11 11 11 12 13 13 15 17 17 16 17 17 17 14 16 17 17 18 18 17 17 16 18 19 20 20 20 21 22 20 19 18 19 20 18 17 15 15 15 16 14 13 
12 11 9 9 12 14 19 19 17 18 18 18 17 15 13 10 9 7 5 4 5 6 6 6 8 11 12 12 13 13 13 13 13 10 11 12 11 11 13 13 12 11 11 9 9 9 9 8 11 10 9 9 11 13 11 9 7 8 9 6 3 1 0 2 3 3 2 2 0 1 1 4 5 4 3 5 8 11 14 14 15 14 11 11 11 11 9 9 11 13 14 14 12 12 13 14 12 11 9 9 9 10 10 10 9 11 10 7 4 2 3 3 6 6 5 4 1 0 0 0 0 0 0 0 5 8 11 13 17 18 21 22 22 19 17 20 18 16 16 13 11 11 10 10 8 9 10 12 12 13 12 9 33 126 155 161 166 170 174 175 173 170 169 169 167 167 166 166 163 164 165 163 161 157 153 148 142 134 118 97 59 3 0 0 0 0 0 0 0 0 0 0 0 0 0 0 0 0 0 0 0 0 0 0 0 0 0 0 0 0 0 0 0 0 0 0 0 0 0 0 0 0 0 0 0 0 0 0 0 0 0 0 0 0 29 82 116 123 119 107 85 58 29 5 0 0 0 0 0 0 0 0 0 0 0 32 74 103 117 123 122 123 123 123 125 128 128 126 127 126 128 131 133 134 137 136 135 133 134 134 135 133 133 132 132 131 134 134 135 135 133 132 132 133 135 132 125 120 118 118 120 122 125 124 123 121 116 112 111 112 114 117 117 118 119 120 121 121 124 127 126 116 106 99 88 70 52 38 21 12 1 0 0 0 0 0 0 0 0 0 0 0 0 0 0 0 0 0 0 0 0 0 0 0 0 0 0 0 0 0 5 39 51 65 85 99 100 95 91 81 78 76 80 83 97 103 110 118 129 132 133 126 104 58 13 0 0 0 0 0 0 0 0 0 0 0 0 0 0 0 0 1 1 2 0 0 0 0 0 0 0 0 0 0 0 0 0 0 0 0 0 0 0 0 0 1 0 0 0 0 0 0 0 0 0 0 1 3 3 3 3 4 4 4 3 3 4 3 0 0 0 1 2 4 6 6 5 5 5 3 2 1 0 0 0 0 0 0 0 0 0 0 1 0 0 0 0 0 0 0 0 0 0 0 0 0 0 0 0 0 0 0 0 0 0 0 0 0 2 3 6 8 7 8 6 6 7 5 4 4 5 6 7 8 7 7 6 7 9 11 13 13 14 12 13 13 13 14 13 13 13 12 11 11 12 13 12 14 13 13 11 12 14 15 16 17 16 17 15 14 15 14 14 14 14 14 16 18 18 20 18 20 20 18 18 18 15 16 17 16 14 13 10 9 12 13 13 12 12 16 17 16 16 14 13 11 11 11 12 13 14 16 16 14 13 11 10 11 11 12 11 13 11 11 11 13 14 15 15 15 15 15 15 16 17 18 18 17 18 19 20 20 20 20 19 20 20 20 19 19 19 19 19 20 19 17 17 16 13 13 
11 11 7 8 11 14 17 17 16 17 20 19 20 17 13 9 8 7 5 2 4 3 5 4 8 10 11 13 15 16 14 13 14 12 11 12 10 10 11 12 12 12 11 11 11 11 11 9 10 9 7 8 9 9 9 9 8 8 8 6 3 2 2 1 2 4 5 5 4 3 5 6 7 4 3 5 6 11 12 13 12 12 9 10 10 8 8 9 9 10 13 14 11 11 11 11 9 9 9 9 10 10 11 11 10 10 11 9 6 4 4 5 6 7 5 4 2 0 0 0 0 0 1 2 3 6 11 14 15 16 18 20 21 19 18 19 18 16 16 15 13 13 11 10 10 10 10 11 12 13 12 10 11 71 145 158 164 169 174 174 173 172 172 171 168 167 166 164 163 163 163 163 161 158 154 148 142 136 124 105 79 28 0 0 0 0 0 0 0 0 0 0 0 0 0 0 0 0 0 0 0 0 0 0 0 0 0 0 0 0 0 0 0 0 0 0 0 0 0 0 0 0 0 0 0 0 0 0 0 0 0 0 42 101 129 133 122 99 68 39 12 0 0 0 0 0 0 0 0 0 0 5 40 81 110 122 126 128 127 128 125 125 124 125 127 128 127 127 127 128 131 133 134 136 140 139 137 135 135 136 139 137 135 132 131 132 134 136 136 137 137 133 134 136 138 137 135 131 127 127 126 126 129 130 128 125 121 115 112 113 114 116 118 120 122 123 125 128 128 128 117 77 50 33 18 0 0 0 0 0 0 0 0 0 0 0 0 0 0 0 0 0 0 1 3 4 4 3 3 3 5 5 5 6 7 7 6 6 4 2 0 0 0 17 47 63 81 74 68 49 46 44 36 44 49 54 57 78 92 104 119 129 134 134 114 67 18 0 0 0 0 0 0 0 0 0 0 0 0 0 0 2 3 2 2 1 1 0 0 0 0 0 0 0 0 0 0 0 0 0 0 0 0 0 0 1 0 0 0 0 0 0 0 0 0 0 1 3 3 2 2 3 3 4 3 3 4 2 0 0 0 1 3 2 4 5 6 6 6 4 3 2 1 0 0 0 0 0 0 0 0 0 0 1 0 1 0 0 0 0 0 0 0 0 0 0 0 0 0 0 0 0 0 0 0 0 0 0 2 4 4 5 6 6 9 8 7 7 3 1 2 5 7 8 8 9 8 6 5 9 12 12 11 10 11 11 10 11 12 14 14 12 11 11 12 14 15 14 13 12 12 13 14 16 17 16 18 19 19 17 18 17 16 17 16 15 16 19 20 20 20 21 20 18 19 15 15 16 16 16 17 15 14 12 14 15 15 14 14 16 16 16 13 11 10 10 11 12 15 13 13 14 15 14 13 10 10 9 12 12 12 11 9 8 9 9 10 13 15 13 13 14 16 16 15 18 18 18 18 19 20 21 20 20 19 20 20 19 20 20 19 18 19 20 20 18 17 16 13 12 
14 11 8 9 10 13 16 14 14 17 17 18 17 13 12 9 8 8 4 3 3 3 5 5 7 10 11 14 17 17 16 13 13 11 9 10 9 9 11 10 10 12 11 11 10 11 11 9 8 7 7 6 6 6 6 6 7 8 6 6 4 2 0 2 1 3 6 7 7 7 8 8 8 7 5 6 6 8 10 11 9 9 8 9 7 6 7 7 7 8 9 10 10 11 10 10 8 7 7 8 9 11 11 12 11 12 12 11 9 6 4 7 7 8 6 5 4 1 0 0 0 1 2 2 4 6 10 12 13 16 18 18 20 18 17 17 17 16 16 16 16 15 14 11 10 9 9 10 12 14 13 11 10 22 116 155 163 168 173 173 172 171 172 170 169 167 165 164 163 163 162 162 159 155 153 147 143 137 128 110 90 56 2 0 0 0 0 0 0 0 0 0 0 0 0 0 0 0 0 0 0 0 0 0 0 0 0 0 0 0 0 0 0 0 0 0 0 0 0 0 0 0 0 0 0 0 0 0 0 0 35 101 133 135 120 94 58 23 0 0 0 0 0 0 0 0 0 0 1 40 86 115 130 135 136 136 132 130 129 129 127 126 125 127 127 128 128 130 130 131 132 133 134 138 139 139 138 136 137 138 140 139 135 133 133 133 135 136 138 139 141 138 138 138 140 139 139 142 137 135 135 137 138 138 135 131 127 122 119 115 118 119 121 123 125 127 130 131 132 130 94 9 0 0 0 0 0 0 0 0 0 0 0 0 0 0 0 0 0 0 0 0 4 6 8 10 10 10 10 10 11 10 11 12 12 14 14 14 13 10 8 7 5 3 4 10 36 63 81 88 90 74 46 22 24 21 36 45 49 58 80 95 113 129 135 130 116 75 23 0 0 0 0 0 0 0 0 0 0 1 1 2 2 2 2 2 2 0 0 0 0 0 0 0 0 0 0 0 0 0 0 0 0 0 0 0 0 0 0 0 0 0 0 0 0 0 0 1 1 2 2 1 2 3 3 2 3 2 0 0 0 0 1 1 3 4 6 6 7 7 6 3 2 1 0 0 0 0 0 0 0 0 0 1 1 0 0 0 0 0 0 0 0 0 0 0 0 0 0 0 0 0 0 0 0 0 0 0 3 5 4 3 5 7 9 7 6 6 3 2 2 3 6 8 9 8 8 6 5 7 9 9 9 8 8 8 11 12 13 14 12 11 10 10 12 14 15 14 12 12 13 14 15 19 20 19 20 20 20 20 19 18 17 16 18 18 20 21 22 21 20 21 20 18 16 14 13 15 18 18 19 20 17 17 17 18 18 17 15 15 14 13 13 11 10 10 13 15 15 15 14 13 15 14 13 9 8 9 11 11 11 11 9 8 8 9 11 14 14 14 12 12 14 14 15 17 19 19 20 20 20 21 23 23 22 21 21 20 19 19 19 19 17 18 19 19 18 18 16 16 
13 11 11 10 9 12 13 14 13 15 14 13 13 12 10 9 8 8 6 4 5 5 6 7 9 10 10 14 16 15 14 12 11 10 9 10 9 11 11 12 11 13 11 9 8 8 8 8 8 6 6 6 7 5 4 4 4 6 4 2 3 1 0 1 2 3 6 8 9 9 8 8 9 7 8 6 4 5 9 9 8 9 8 8 7 6 4 4 5 6 7 9 9 10 9 10 8 8 7 9 11 11 11 11 11 12 12 10 9 8 6 7 8 8 8 5 3 1 2 2 0 1 3 3 4 6 8 12 14 16 19 18 18 17 16 17 16 17 18 17 19 17 15 13 10 9 10 12 14 13 13 13 13 11 56 144 163 168 170 172 172 170 168 168 166 164 164 164 163 162 162 160 158 154 150 146 142 137 128 114 96 74 28 0 0 0 0 0 0 0 0 0 0 0 0 0 0 0 0 0 0 0 0 0 0 0 0 0 0 0 0 0 0 0 0 0 0 0 0 0 0 0 0 0 0 0 0 0 16 87 130 136 125 95 51 12 0 0 0 0 0 0 0 0 0 0 17 69 110 128 133 137 138 139 140 137 135 132 130 129 130 128 126 127 129 129 131 131 131 131 131 133 135 137 138 138 137 137 137 139 140 139 137 137 135 135 135 137 139 141 142 141 139 141 142 141 142 151 148 143 141 143 144 146 144 140 135 131 127 126 122 123 124 125 127 131 133 134 135 131 77 0 0 0 0 0 0 0 0 0 0 0 0 0 0 0 0 1 4 3 4 7 9 12 13 14 15 16 15 16 17 16 17 19 20 19 19 20 19 17 15 12 12 12 13 14 14 15 23 47 78 95 91 63 11 13 15 15 22 40 40 55 63 95 113 130 141 137 115 62 11 0 0 0 0 1 0 0 2 3 2 4 4 4 3 2 1 0 0 0 0 0 0 0 0 0 0 0 0 0 0 0 0 0 0 0 0 0 0 0 0 0 0 0 0 0 0 2 2 1 0 0 0 1 1 1 1 1 0 0 0 1 2 3 4 5 6 5 6 7 5 5 4 2 1 0 0 0 0 0 0 1 2 1 0 0 0 0 0 0 0 0 0 0 0 0 0 0 0 0 0 0 0 0 0 0 0 1 3 5 5 5 6 6 8 7 6 6 4 4 4 4 5 7 9 7 5 6 7 7 7 7 7 8 7 8 8 11 13 14 14 12 10 11 12 13 13 12 11 11 13 16 17 19 20 21 23 24 24 24 22 21 19 16 19 22 23 23 22 22 21 20 22 20 16 15 15 17 19 21 22 22 21 20 20 19 19 17 15 15 13 14 13 12 12 13 17 19 18 16 15 16 16 15 12 8 8 9 11 12 11 11 10 11 10 11 13 15 14 13 11 11 13 13 14 17 18 19 20 20 22 22 25 23 22 22 21 22 22 21 22 22 20 19 21 20 19 17 16 15 
11 11 11 9 10 12 13 14 14 13 13 14 13 12 10 10 11 10 7 7 8 10 9 9 10 9 11 13 14 15 14 12 11 11 11 11 10 11 12 14 14 14 11 10 6 6 6 7 7 5 5 8 9 7 4 3 4 5 4 2 2 1 0 1 2 4 7 10 9 8 9 9 9 8 7 6 4 5 8 10 9 8 8 10 7 6 4 4 3 5 6 7 7 7 7 8 8 8 7 9 9 10 11 10 11 12 10 10 9 8 7 8 8 6 6 5 3 2 2 2 3 3 4 5 5 7 8 10 13 16 19 16 15 15 17 18 17 17 17 19 19 18 17 14 12 12 11 14 14 13 12 12 12 12 18 114 158 166 168 170 171 169 168 167 165 163 162 162 162 160 160 160 158 155 151 146 141 136 130 119 103 86 55 4 0 0 0 0 0 0 0 0 0 0 0 0 0 0 0 0 0 0 0 0 0 0 0 0 0 0 0 0 0 0 0 0 0 0 0 0 0 0 0 0 0 0 0 63 122 137 128 100 56 15 0 0 0 0 0 0 0 0 0 0 32 86 122 135 136 137 137 139 140 138 138 138 135 134 133 130 130 129 128 128 129 131 133 132 132 132 131 133 135 136 138 138 138 137 137 139 141 142 140 139 137 135 136 138 140 143 143 142 144 144 144 145 151 160 156 152 151 153 153 153 152 147 141 137 134 131 128 126 127 129 132 134 136 138 136 132 106 23 0 0 0 0 0 0 0 0 0 0 0 0 2 3 6 9 12 11 11 13 16 18 19 18 18 18 18 20 21 22 21 24 25 24 24 23 23 21 19 17 16 16 19 19 20 22 23 22 23 30 46 57 34 25 24 28 15 7 12 31 42 61 80 108 128 145 148 136 98 39 1 0 0 0 0 1 2 3 4 5 5 4 2 1 0 0 0 0 0 0 0 0 0 0 0 0 0 0 0 0 0 0 0 0 0 0 0 0 0 0 0 0 0 0 0 0 0 0 0 0 0 0 0 0 0 2 3 2 2 2 3 4 5 6 6 6 6 5 5 6 5 3 0 0 0 0 0 1 1 3 2 2 2 0 0 0 0 0 0 0 0 0 0 0 0 0 0 0 0 0 0 0 0 0 0 1 1 3 5 6 6 7 8 7 7 6 4 3 4 4 6 8 8 6 5 5 5 7 6 7 6 6 6 7 9 11 12 12 14 14 13 13 14 13 13 11 10 11 12 14 17 18 20 22 25 26 26 25 23 22 20 19 21 24 23 24 23 22 21 19 21 22 19 19 18 19 23 24 24 24 22 23 22 20 19 18 16 15 14 16 16 14 14 14 17 19 19 18 16 16 15 15 11 8 8 10 11 12 11 11 12 12 13 14 13 13 11 11 10 11 13 15 15 15 18 20 21 20 21 22 25 23 22 22 22 23 22 22 23 22 19 21 22 20 18 15 14 12 
10 12 11 9 10 12 14 14 14 14 14 14 13 12 10 10 12 11 10 11 9 10 10 10 11 11 14 14 13 14 13 12 12 11 12 12 11 13 14 15 16 15 11 9 8 6 5 6 6 5 5 6 6 7 6 5 6 5 4 4 4 2 1 2 5 6 7 8 8 8 7 9 10 8 5 4 4 6 8 10 10 10 9 11 10 6 4 4 5 6 6 5 5 6 6 7 10 10 8 8 10 10 11 11 10 10 10 9 10 7 7 9 7 4 6 5 4 4 4 4 4 4 5 3 4 5 7 7 11 16 18 16 16 18 19 20 18 17 17 17 18 18 16 15 15 15 13 14 16 14 12 10 10 10 9 49 142 160 166 168 169 168 168 168 166 164 164 163 161 161 160 159 157 154 153 148 143 141 134 123 108 93 70 27 0 0 0 0 0 0 0 0 0 0 0 0 0 0 0 0 0 0 0 0 0 0 0 0 0 0 0 0 0 0 0 0 0 0 0 0 0 0 0 0 0 42 108 133 130 108 62 18 0 0 0 0 0 0 0 0 0 3 46 99 130 138 140 139 138 139 139 140 142 141 140 140 138 136 134 132 131 131 129 130 131 133 135 137 135 135 135 135 135 138 138 141 139 138 138 141 143 144 142 141 139 136 137 138 140 143 143 144 148 149 150 153 161 164 161 159 160 160 160 161 159 154 148 144 142 138 136 132 132 133 135 137 137 139 138 133 123 90 46 22 11 6 4 5 5 6 7 7 10 12 14 16 17 19 20 19 19 21 22 24 24 24 24 23 23 24 24 26 26 26 29 30 29 26 26 25 26 23 22 22 23 24 26 29 30 29 28 27 29 28 25 31 25 23 27 13 6 14 16 27 46 65 97 131 151 155 149 126 72 14 0 1 0 0 2 3 4 4 3 3 1 0 0 0 0 0 0 0 0 0 0 0 0 0 0 0 0 0 0 0 0 0 0 0 0 0 0 0 0 0 0 0 0 0 0 0 0 0 0 0 0 0 1 3 2 2 1 2 2 4 6 5 4 2 4 4 3 3 3 2 0 0 1 1 2 4 4 5 4 3 0 0 0 0 0 0 0 0 0 0 0 0 0 0 0 0 0 0 0 2 1 1 1 1 2 4 4 6 6 7 9 8 7 8 6 5 5 4 5 6 6 4 2 2 3 6 6 8 9 9 6 7 9 10 11 11 13 14 14 15 15 14 13 11 10 11 12 13 16 19 20 23 25 25 25 27 25 23 21 21 22 27 28 27 25 23 21 20 22 22 23 23 22 22 24 26 26 24 24 22 21 21 19 18 17 16 15 18 17 16 15 16 19 21 20 20 19 18 17 14 11 9 9 11 11 11 12 12 13 13 13 14 13 11 11 11 10 11 12 14 15 16 18 21 21 20 20 23 23 22 21 21 21 22 22 24 23 22 19 20 21 17 15 13 13 12 
10 10 10 9 11 14 14 14 14 15 15 14 13 12 11 11 12 12 12 12 11 9 10 9 11 12 13 14 13 15 14 12 11 12 14 13 13 13 12 13 16 15 12 11 8 8 9 8 6 8 7 7 6 6 7 7 5 4 5 6 5 3 3 4 7 7 8 9 7 6 4 7 9 7 6 5 4 6 8 11 12 12 11 13 12 7 6 5 6 5 5 4 4 6 6 6 7 9 9 10 10 12 11 12 11 9 8 8 9 7 6 6 6 5 7 7 7 7 6 6 6 6 4 4 2 5 6 7 11 14 17 19 20 20 22 20 18 18 15 15 15 18 16 16 16 14 11 12 13 11 12 11 10 7 7 10 100 152 163 166 167 167 167 167 166 166 165 163 162 161 160 158 157 156 153 149 146 142 135 127 112 97 75 46 0 0 0 0 0 0 0 0 0 0 0 0 0 0 0 0 0 0 0 0 0 0 0 0 0 0 0 0 0 0 0 0 0 0 0 0 0 0 0 26 99 132 132 111 70 21 0 0 0 0 0 0 0 0 0 0 62 112 132 139 141 141 143 141 142 142 143 141 142 144 143 141 139 137 134 135 135 135 134 133 133 135 136 139 137 138 137 137 138 140 141 140 140 139 140 144 145 146 144 141 140 136 138 139 143 145 145 147 151 156 159 161 165 165 165 163 165 166 167 166 164 162 157 153 151 146 142 140 139 138 136 136 135 138 138 135 128 112 88 69 53 40 31 28 25 25 23 23 25 24 24 25 25 28 30 29 28 27 27 27 29 29 30 31 29 29 30 30 28 29 31 34 31 31 30 29 30 29 28 27 26 29 30 31 32 32 31 32 33 33 32 32 32 25 21 14 11 5 0 6 22 39 64 103 134 152 157 153 138 104 48 3 0 1 1 1 3 2 2 1 0 0 0 0 0 0 0 0 0 0 0 0 0 0 0 0 0 0 0 0 0 0 0 0 0 0 0 0 0 0 0 0 0 0 0 0 0 0 0 0 0 0 0 0 0 0 0 1 1 4 4 4 3 2 3 3 3 1 1 0 0 0 0 0 1 4 4 3 4 3 1 0 0 0 0 0 0 0 0 0 0 0 1 1 2 1 0 1 3 3 3 3 2 3 2 3 3 4 6 8 10 10 9 7 6 5 6 7 5 5 4 2 0 0 1 3 7 9 12 11 8 8 11 11 11 13 12 13 13 12 12 13 12 10 10 12 13 15 18 19 22 24 23 23 25 26 26 22 21 21 26 27 30 27 26 26 25 24 25 26 25 24 23 25 26 28 27 24 22 21 22 21 20 18 19 16 18 20 20 17 16 17 19 21 21 19 18 18 16 15 11 11 10 11 11 13 14 15 14 13 13 13 12 11 12 14 12 11 13 13 14 16 19 20 22 22 21 21 21 19 18 19 19 21 22 22 22 20 20 20 18 18 16 15 15 12 
11 12 11 11 13 15 15 15 16 17 16 15 13 11 12 11 11 11 10 10 9 9 10 12 11 10 10 10 11 14 14 14 13 12 12 11 11 10 10 14 16 16 15 13 10 9 8 7 8 10 9 6 5 6 7 7 5 6 6 8 7 5 4 4 5 5 5 6 5 4 3 7 8 9 8 6 6 7 9 10 10 10 11 12 12 8 6 7 7 6 5 4 6 6 6 5 6 8 9 10 11 12 11 10 9 7 8 8 8 8 7 7 5 5 7 8 7 6 5 6 5 6 6 5 6 6 8 8 11 14 16 16 18 18 17 17 17 17 15 14 15 17 17 14 14 11 11 8 8 8 10 9 8 7 6 8 40 132 157 163 166 166 165 165 166 166 164 163 163 161 159 158 157 156 153 151 148 144 136 127 114 101 83 60 20 0 0 0 0 0 0 0 0 0 0 0 0 0 0 0 0 0 0 0 0 0 0 0 0 0 0 0 0 0 0 0 0 0 0 0 0 0 47 123 140 125 84 31 0 0 0 0 0 0 0 0 0 0 39 105 132 139 140 141 141 142 142 144 144 146 145 145 143 145 146 143 140 137 138 137 138 138 137 135 135 137 139 141 140 140 139 140 141 141 142 142 140 142 144 145 146 147 144 142 140 139 140 142 146 149 149 153 157 161 163 165 166 168 166 166 170 171 170 170 169 165 162 158 154 152 147 146 145 142 140 138 139 137 137 134 129 118 105 94 83 69 56 48 43 41 38 37 37 36 34 35 36 36 36 35 33 32 30 32 33 35 35 36 35 37 37 35 33 34 37 36 35 34 33 33 34 35 33 32 32 32 33 34 35 35 34 34 34 36 36 40 41 41 38 25 9 12 9 6 7 8 41 71 96 135 154 156 152 145 125 75 19 2 2 3 3 3 2 0 0 0 0 0 0 0 0 0 0 0 0 0 0 0 0 0 0 0 0 0 0 0 0 0 0 0 0 0 0 0 0 0 0 0 0 0 0 0 0 0 0 0 0 0 0 0 0 0 1 0 1 2 2 2 3 2 1 0 0 0 1 1 0 0 0 3 3 4 4 3 1 0 0 0 0 0 0 0 0 0 0 0 1 2 3 3 3 2 3 3 2 3 4 3 4 4 2 2 3 6 8 8 8 6 5 5 6 6 7 6 4 3 1 0 1 3 7 10 13 13 9 9 12 11 12 13 12 12 10 11 12 11 10 8 9 13 14 16 18 20 23 24 22 23 23 25 26 23 22 21 25 27 29 28 27 27 28 28 28 29 27 27 27 26 26 25 24 24 21 21 22 21 22 20 19 19 20 22 19 18 17 18 19 20 19 18 17 16 17 16 12 11 11 13 14 15 17 16 14 13 13 13 12 12 12 14 13 13 14 17 17 18 19 20 21 21 21 20 19 16 16 16 17 18 20 20 21 19 19 18 17 17 16 14 14 13 
12 12 14 14 16 16 16 15 14 16 16 14 13 12 11 10 10 9 9 10 12 12 12 12 11 10 7 8 9 11 12 13 11 11 12 12 11 9 12 13 15 16 15 14 12 9 9 9 8 10 10 6 6 7 9 6 4 5 6 8 6 5 5 4 4 4 3 4 3 4 4 7 9 10 10 7 9 9 9 9 9 8 9 10 10 8 7 7 7 8 6 7 6 8 7 5 4 6 6 7 9 11 10 9 7 6 6 8 9 7 7 7 5 5 7 7 6 4 5 4 5 7 6 7 9 9 8 8 10 14 14 14 16 15 14 15 16 17 16 16 16 18 16 13 11 10 9 6 5 5 9 8 6 6 8 8 7 83 151 162 164 165 165 165 167 166 165 164 162 161 160 158 158 156 153 152 149 143 136 126 116 106 89 68 40 0 0 0 0 0 0 0 0 0 0 0 0 0 0 0 0 0 0 0 0 0 0 0 0 0 0 0 0 0 0 0 0 0 0 0 0 70 129 138 121 70 11 0 0 0 0 0 0 0 0 0 25 93 128 139 142 142 143 142 141 141 143 145 146 147 145 146 146 146 145 143 141 140 141 140 141 140 139 138 138 139 142 142 142 141 139 140 142 145 146 146 144 146 146 147 147 147 146 142 141 142 143 145 148 152 154 158 162 165 167 170 169 170 170 171 173 174 173 172 170 168 165 161 159 156 151 150 148 147 147 145 144 141 140 137 131 122 113 105 96 86 72 63 58 55 52 51 50 48 44 43 43 44 43 41 37 36 35 35 37 39 40 40 40 41 41 39 38 40 40 39 36 36 36 38 38 38 38 37 35 35 35 37 37 36 37 37 38 39 39 43 47 48 48 50 40 14 1 0 3 0 6 28 54 94 133 148 151 152 145 130 88 29 4 4 3 2 1 0 0 0 0 0 0 0 0 0 0 0 0 0 0 0 0 0 0 0 0 0 0 0 0 0 0 0 0 0 0 0 0 0 0 0 0 0 0 0 0 0 0 0 0 0 0 0 0 0 0 1 0 2 2 2 1 1 0 2 1 0 2 1 0 0 2 3 3 3 3 3 1 0 0 0 0 0 0 0 0 0 0 1 2 3 3 2 3 3 4 5 4 4 5 5 5 3 2 1 3 4 5 7 7 5 5 4 5 6 8 6 5 4 3 2 1 3 7 11 14 14 13 11 14 12 11 13 13 11 11 12 12 11 11 10 10 12 14 17 19 22 23 22 22 22 22 24 24 25 24 23 23 27 30 31 30 30 29 28 29 29 30 30 29 28 27 27 25 23 23 22 21 23 23 22 20 19 20 21 21 19 18 19 20 19 18 17 16 17 17 14 11 10 9 13 15 17 16 15 14 13 15 14 14 14 14 15 14 14 15 19 19 18 20 21 20 19 18 19 18 17 17 18 17 19 19 20 21 20 21 19 17 15 14 12 13 11 
11 12 13 15 16 15 15 15 15 18 18 16 13 11 10 11 12 12 11 12 14 14 15 13 10 9 10 9 11 12 11 10 9 10 12 13 12 10 13 14 16 16 13 13 12 10 11 10 9 12 10 8 7 8 8 6 4 5 7 6 5 5 4 5 5 4 4 4 6 5 6 7 9 11 12 10 9 8 8 9 9 8 9 12 13 11 7 7 9 9 9 7 7 8 7 5 3 4 3 4 5 8 7 7 6 8 7 8 7 6 4 5 3 4 4 5 3 3 2 2 4 7 7 7 7 8 8 9 9 11 13 13 14 14 15 17 17 16 15 16 16 19 17 13 11 9 8 6 4 3 7 9 7 5 6 7 6 30 129 159 162 163 164 163 166 167 167 166 164 164 160 158 157 157 154 152 147 141 135 126 119 110 95 76 56 15 0 0 0 0 0 0 0 0 0 0 0 0 0 0 0 0 0 0 0 0 0 0 0 0 0 0 0 0 0 0 0 0 0 0 85 130 131 108 53 2 0 0 0 0 0 0 0 0 11 79 128 141 143 145 146 146 144 144 142 142 143 144 146 145 145 144 146 146 145 144 144 145 144 144 141 141 143 142 141 141 142 143 143 142 142 143 146 148 148 149 149 149 148 148 149 149 148 146 145 145 146 147 150 153 155 159 163 165 168 171 172 172 173 172 175 175 174 171 171 169 165 164 162 158 155 153 151 150 150 150 149 148 146 145 140 131 123 113 105 95 85 75 71 69 66 64 61 57 53 52 53 52 50 46 43 41 40 40 42 42 43 44 42 42 43 42 42 42 43 43 40 40 41 41 43 41 42 42 39 39 40 40 39 37 38 39 41 43 43 47 49 52 54 56 58 52 30 5 0 1 2 8 36 59 89 130 145 151 153 146 133 98 38 5 3 2 3 2 1 0 0 0 0 0 0 0 0 0 0 0 0 0 0 0 0 0 0 0 0 0 0 0 0 0 0 0 0 0 0 0 0 0 0 0 0 0 0 0 0 0 0 0 0 0 0 0 0 0 0 0 2 2 1 0 0 0 0 0 1 1 2 1 2 4 5 3 4 3 1 0 0 0 0 0 0 0 0 0 0 1 2 4 4 4 4 4 5 4 4 6 6 7 4 4 2 2 3 3 6 7 5 5 7 6 6 7 7 8 6 5 4 3 4 6 8 9 13 16 13 10 10 11 10 11 11 12 13 13 13 15 13 12 12 13 15 16 19 24 24 23 23 22 22 24 24 26 26 24 25 27 29 29 28 28 30 28 29 31 32 32 33 31 29 28 28 25 24 24 24 24 25 24 22 20 20 22 21 20 19 19 18 17 17 17 16 18 17 12 12 11 12 13 14 17 16 15 15 16 17 16 15 14 15 16 16 15 15 19 18 18 20 22 22 19 19 19 19 18 18 16 17 20 23 21 21 21 21 19 16 15 13 13 12 11 
11 12 14 14 15 15 16 17 18 20 20 18 16 13 12 14 14 14 13 14 14 17 15 13 11 11 12 11 12 12 11 9 10 11 13 13 12 10 10 13 16 16 15 14 13 12 12 10 9 10 12 9 8 8 6 5 5 6 7 7 8 7 5 6 5 7 7 7 6 6 6 8 10 11 11 10 10 9 9 9 8 9 10 12 13 12 9 6 7 8 8 7 8 7 7 3 3 3 4 3 3 4 4 5 7 7 7 6 6 5 3 3 3 4 3 2 1 2 0 1 3 5 5 4 5 8 8 9 9 11 12 14 13 14 16 18 17 16 15 15 15 18 18 17 12 10 8 7 4 4 6 8 7 4 4 5 6 4 75 151 160 164 164 164 166 168 169 168 167 165 163 159 157 158 155 153 148 141 136 126 118 112 100 83 64 34 0 0 0 0 0 0 0 0 0 0 0 0 0 0 0 0 0 0 0 0 0 0 0 0 0 0 0 0 0 0 0 0 16 100 131 125 94 33 0 0 0 0 0 0 0 0 0 60 123 146 149 148 148 149 150 150 147 143 143 143 143 143 145 145 145 145 145 147 148 147 146 147 145 145 144 144 146 145 144 143 143 144 146 145 145 146 146 148 150 153 152 151 149 150 152 151 149 148 148 148 149 150 152 154 156 159 161 165 167 170 172 173 173 174 176 175 175 173 173 170 168 165 164 161 157 154 151 149 151 151 151 150 151 152 150 146 139 131 124 111 98 88 84 82 79 75 72 68 62 60 60 59 57 54 51 48 48 47 46 47 50 48 46 46 47 46 45 47 46 45 44 45 45 45 46 45 45 44 44 43 43 41 39 40 41 42 45 46 48 52 53 55 59 60 61 63 63 46 14 0 0 0 0 25 49 99 134 147 152 154 153 140 103 44 3 3 5 3 2 0 0 0 0 0 0 0 0 0 0 0 0 0 0 0 0 0 0 0 0 0 0 0 0 0 0 0 0 0 0 0 0 0 0 0 0 0 0 0 0 0 0 0 0 0 0 0 0 0 0 0 0 0 0 0 0 0 0 0 0 0 0 0 3 5 7 5 3 2 1 0 0 0 0 0 0 0 1 1 2 2 4 4 4 4 4 7 9 7 7 7 7 8 6 4 5 4 4 3 6 6 6 6 7 6 6 6 6 6 7 5 3 3 5 7 8 9 12 14 13 10 10 9 10 12 13 12 12 12 13 15 14 12 13 15 19 20 22 24 24 22 22 22 22 24 25 28 27 27 27 27 27 26 25 27 28 29 30 32 31 32 32 32 29 29 30 28 27 28 28 27 25 24 23 19 20 21 20 19 19 18 17 17 15 16 15 17 18 17 14 14 13 13 15 16 16 16 19 19 19 18 18 17 16 16 16 15 16 18 19 20 22 22 23 23 21 20 20 21 18 18 18 21 22 22 21 19 19 16 15 15 14 13 11 10 
11 13 13 15 16 16 17 18 19 21 21 19 17 15 15 17 15 14 13 12 14 16 17 14 13 12 12 13 13 11 10 10 12 14 14 12 12 10 9 11 15 17 17 16 14 12 12 9 9 11 12 11 8 8 6 6 6 7 10 10 10 11 9 7 6 7 8 8 8 5 7 9 10 10 10 10 10 10 8 8 9 9 11 11 13 11 9 7 6 7 8 8 8 8 9 5 3 2 3 5 3 5 4 4 6 6 5 5 3 3 2 3 3 3 3 1 0 1 0 0 0 2 3 3 4 8 8 8 9 11 12 13 13 14 15 16 17 16 14 14 14 16 18 16 13 10 8 9 7 6 7 8 8 5 5 6 6 5 32 138 158 162 163 165 166 168 168 168 167 165 162 159 158 156 155 152 146 141 136 127 119 112 104 87 70 48 6 0 0 0 0 0 0 0 0 0 0 0 0 0 0 0 0 0 0 0 0 0 0 0 0 0 0 0 0 0 0 38 119 136 124 85 23 0 0 0 0 0 0 0 0 2 91 142 152 154 153 151 151 152 151 151 147 143 143 144 144 143 144 146 146 145 145 148 149 148 146 145 145 145 146 145 147 146 146 145 145 147 149 148 148 147 148 148 150 152 153 153 151 152 154 153 151 150 150 150 150 152 153 155 157 158 160 163 164 167 170 171 171 172 175 176 175 173 172 170 170 165 164 161 158 157 154 151 152 152 151 152 153 155 154 154 149 144 139 135 126 117 112 108 103 95 87 81 73 68 69 67 64 62 58 56 55 54 53 52 53 53 52 50 48 47 48 47 49 49 50 49 46 48 49 49 48 49 46 45 44 43 42 42 44 45 46 49 51 55 58 61 63 67 68 73 77 78 60 18 0 0 0 1 19 60 111 139 148 155 160 157 142 109 47 4 2 3 0 0 0 0 0 0 0 0 0 0 0 0 0 0 0 0 0 0 0 0 0 0 0 0 0 0 0 0 0 0 0 0 0 0 0 0 0 0 0 0 0 0 0 0 0 0 0 0 0 0 0 0 0 0 0 0 0 0 0 0 0 0 0 0 2 4 6 5 3 3 2 2 1 2 2 2 2 4 3 5 3 4 4 6 6 6 7 9 12 11 8 8 6 7 6 5 5 4 3 4 6 7 6 5 6 6 5 5 5 6 5 4 4 5 6 8 8 10 13 14 13 10 10 11 12 12 14 12 12 11 13 13 13 13 14 17 19 21 25 26 25 23 21 22 24 25 25 28 27 28 27 26 26 23 23 25 26 27 30 30 30 28 29 29 28 29 30 29 29 29 28 28 26 26 24 21 19 21 20 19 19 19 18 15 16 15 17 18 19 19 17 14 15 14 15 16 18 18 19 20 20 21 20 19 17 18 16 16 16 17 18 22 23 23 24 23 20 21 20 21 18 17 17 19 21 21 18 18 16 14 14 13 14 12 10 10 
10 12 15 16 16 16 17 18 20 21 20 18 18 16 17 17 18 15 12 12 14 16 17 17 14 14 13 11 12 11 11 10 13 16 15 14 14 13 12 12 15 18 17 16 14 12 11 11 11 12 13 11 10 9 7 6 6 8 12 12 13 13 11 8 7 8 8 10 7 6 6 9 10 11 12 10 8 8 9 8 9 11 11 12 12 11 9 6 6 8 7 7 9 8 9 9 6 4 3 5 5 5 5 5 6 5 5 4 1 1 1 3 2 2 3 0 0 0 0 0 0 1 0 1 4 6 9 9 11 11 12 13 13 13 16 16 18 16 14 13 12 13 14 14 11 8 9 9 7 6 6 5 7 6 4 6 5 4 9 113 155 161 163 167 167 167 168 169 168 167 162 158 154 154 154 152 145 140 136 129 121 113 106 93 78 57 25 0 0 0 0 0 0 0 0 0 0 0 0 0 0 0 0 0 0 0 0 0 0 0 0 0 0 0 0 0 59 129 140 129 83 24 0 0 0 0 0 0 0 0 13 102 144 151 153 153 153 154 152 153 153 152 149 144 143 143 146 146 145 147 147 147 146 148 147 146 145 145 145 146 146 145 147 148 148 146 147 149 151 149 149 148 148 148 150 153 155 153 154 154 156 154 152 152 151 150 151 152 154 155 155 156 157 159 162 166 168 169 170 172 174 174 172 172 171 169 168 165 162 160 157 157 155 153 154 152 153 153 154 156 158 158 154 150 147 143 139 136 133 133 133 128 123 117 105 93 95 85 75 74 70 67 64 61 58 57 57 58 56 54 50 49 49 51 51 52 54 51 49 50 51 52 52 52 49 49 49 48 46 48 48 51 51 56 62 70 72 80 82 85 88 91 95 96 92 65 21 2 1 0 0 10 55 118 144 151 158 162 157 140 108 49 4 2 0 0 0 0 0 0 0 0 0 0 0 0 0 0 0 0 0 0 0 0 0 0 0 0 0 0 0 0 0 0 0 0 0 0 0 0 0 0 0 0 0 0 0 0 0 0 0 0 0 0 0 0 0 0 0 0 0 0 0 0 0 0 0 0 2 5 5 6 3 2 2 2 1 3 4 4 5 6 6 6 5 4 4 6 7 8 8 10 11 10 9 7 7 6 5 6 5 4 3 5 6 7 7 6 6 6 5 4 4 4 6 5 6 5 6 6 7 8 12 13 12 12 11 11 13 13 14 14 13 13 13 14 11 13 15 16 19 21 24 25 23 22 24 25 26 25 25 27 28 27 27 26 27 24 23 24 26 25 27 29 26 26 26 26 27 29 28 29 29 30 30 27 24 24 23 20 21 21 21 20 20 20 18 18 18 18 18 21 21 21 17 14 14 14 15 18 19 18 19 20 20 20 21 21 19 19 17 16 16 17 18 22 24 24 23 22 20 20 19 18 18 16 17 18 17 15 16 16 14 12 12 12 11 11 10 8 
9 12 16 16 16 17 17 18 18 20 18 17 18 17 17 17 18 18 15 15 16 15 16 17 15 13 13 11 14 14 12 14 15 17 18 15 15 15 15 13 14 16 18 16 13 11 11 12 13 14 13 11 10 9 8 9 9 10 13 13 14 13 12 8 7 9 9 11 7 7 7 10 11 10 11 11 9 7 9 10 10 12 13 10 10 10 8 6 6 6 5 6 7 9 8 7 7 4 4 7 6 6 7 8 6 6 5 5 2 0 0 0 3 3 3 1 0 0 0 0 0 0 0 2 2 4 9 11 13 13 14 14 15 16 16 16 16 16 13 12 9 9 10 10 9 8 7 8 6 6 6 7 7 5 3 4 3 2 0 75 149 160 164 168 168 169 169 168 168 167 162 157 155 153 154 151 144 140 135 129 122 116 108 98 82 64 39 1 0 0 0 0 0 0 0 0 0 0 0 0 0 0 0 0 0 0 0 0 0 0 0 0 0 0 0 46 133 142 134 100 24 0 0 0 0 0 0 0 0 27 116 147 152 151 151 153 155 155 154 154 154 153 151 146 144 144 146 146 147 147 148 147 149 148 147 147 147 147 147 147 148 147 147 149 149 150 149 152 152 151 151 150 150 150 152 155 156 156 155 155 155 155 154 152 149 149 149 151 152 154 155 155 155 156 159 165 168 168 170 171 173 170 171 170 170 168 166 163 162 160 158 157 157 154 153 152 155 156 157 159 159 160 157 153 152 148 144 141 139 139 141 139 140 137 133 130 129 125 118 112 104 99 95 90 85 78 75 74 70 63 61 60 57 58 58 59 60 61 57 55 59 62 61 61 64 63 66 66 66 70 78 80 82 87 94 99 102 105 108 112 113 115 115 116 113 104 74 20 1 0 0 1 5 59 128 145 152 158 159 150 132 100 52 2 0 0 0 0 0 0 0 0 0 0 0 0 0 0 0 0 0 0 0 0 0 0 0 0 0 0 0 0 0 0 0 0 0 0 0 0 0 0 0 0 0 0 0 0 0 0 0 0 0 0 0 0 0 0 0 0 0 0 0 0 0 0 0 0 0 3 5 4 2 2 1 1 2 4 4 5 7 7 6 6 5 4 6 5 7 8 8 10 10 9 10 7 6 6 6 6 7 6 4 3 6 7 7 7 5 4 2 3 2 5 5 5 6 6 6 6 6 7 10 13 14 13 10 12 14 14 14 14 12 12 12 11 11 11 13 14 17 19 22 23 24 23 22 23 24 24 27 29 28 28 28 27 26 25 25 25 25 25 25 26 24 24 25 27 29 27 28 27 27 27 29 27 24 22 22 23 23 23 22 20 19 21 20 18 18 20 20 22 22 20 18 16 16 18 19 21 21 20 20 19 19 21 21 21 21 21 19 18 19 20 20 24 24 24 23 20 20 19 17 16 17 16 15 15 14 15 16 16 15 12 13 11 10 10 8 8 
10 13 14 16 16 16 17 18 17 19 19 19 19 17 17 17 19 19 18 19 18 17 17 17 16 14 13 13 14 14 14 15 17 18 19 18 16 15 15 14 14 16 16 16 13 11 12 13 14 14 13 11 11 11 10 10 11 10 12 11 11 14 12 8 8 8 11 10 9 7 9 11 12 12 11 11 10 8 9 11 12 13 11 10 11 10 10 8 9 8 6 6 8 8 7 7 7 5 4 7 7 8 10 11 9 8 6 4 2 0 0 0 1 4 3 0 0 0 0 0 0 0 0 0 1 4 8 11 13 13 15 15 16 16 16 17 16 15 13 9 7 7 7 7 9 8 6 5 5 4 7 7 6 5 3 2 1 0 0 37 139 158 163 165 166 167 168 169 168 166 164 159 156 154 153 150 144 139 134 128 122 114 108 99 86 69 49 16 0 0 0 0 0 0 0 0 0 0 0 0 0 0 0 0 0 0 0 0 0 0 0 0 0 0 19 124 146 140 114 52 6 0 0 0 0 0 0 0 45 126 147 152 154 154 152 154 154 156 155 154 155 154 152 149 145 145 147 147 148 147 148 148 151 150 149 147 147 149 150 150 150 149 147 148 150 152 152 153 151 152 151 151 151 152 155 157 158 157 155 156 156 157 156 153 149 148 146 149 150 152 154 155 155 156 159 163 166 166 167 169 169 167 169 171 169 166 164 163 163 159 157 156 156 155 153 153 155 158 157 158 159 159 157 155 152 150 147 145 142 142 143 142 143 141 137 136 137 138 137 136 131 130 130 129 129 125 118 118 114 107 108 104 97 96 95 96 94 97 92 90 95 98 102 104 104 106 108 110 115 114 117 117 117 120 123 123 124 122 121 123 125 124 123 122 120 119 111 75 24 0 0 0 1 4 62 130 145 151 157 157 144 123 100 48 0 0 0 0 0 0 0 0 0 0 0 0 0 0 0 0 0 0 0 0 0 0 0 0 0 0 0 0 0 0 0 0 0 0 0 0 0 0 0 0 0 0 0 0 0 0 0 0 0 0 0 0 0 0 0 0 0 0 0 0 0 0 0 0 2 4 3 3 3 1 1 3 4 4 5 5 7 7 5 5 5 5 6 5 8 9 10 11 11 11 10 9 7 7 7 8 8 10 7 4 6 8 6 6 4 3 2 2 2 4 5 6 7 7 7 6 9 9 12 12 12 13 11 13 14 12 12 11 11 11 11 11 9 9 10 13 15 20 22 23 23 21 21 22 22 24 25 29 28 28 29 26 27 26 24 25 26 25 25 25 26 26 26 27 28 28 26 26 25 27 29 26 23 21 21 22 24 22 22 21 20 20 20 20 22 22 23 21 20 19 18 18 17 18 19 22 23 22 21 22 22 22 21 21 22 22 21 21 21 22 21 24 24 24 22 21 18 16 15 14 14 13 13 13 14 17 17 16 15 15 12 11 9 9 9 11 
12 13 14 14 15 14 15 16 18 18 18 18 19 19 19 19 20 20 20 19 17 16 17 16 16 14 13 15 15 16 16 16 17 19 19 17 14 16 16 16 16 14 17 15 14 12 13 12 14 15 13 12 12 13 10 10 11 9 10 9 11 13 11 10 9 10 12 11 9 8 9 11 11 11 12 14 12 12 13 13 14 14 12 11 11 10 9 11 11 9 7 7 8 9 7 8 6 5 5 7 8 9 11 12 9 8 6 4 3 0 0 0 0 2 2 1 0 0 0 0 0 0 0 1 2 4 7 9 11 12 14 15 16 15 16 15 14 14 11 7 5 5 4 6 6 6 4 5 5 3 5 6 5 3 3 2 2 1 0 10 118 155 161 163 164 166 167 169 168 166 165 162 158 155 152 147 142 138 133 129 123 116 108 101 90 74 55 31 0 0 0 0 0 0 0 0 0 0 0 0 0 0 0 0 0 0 0 0 0 0 0 0 0 0 108 146 145 128 69 13 0 0 0 0 0 0 0 57 136 149 151 153 156 156 156 154 155 155 156 155 155 156 153 150 147 148 147 148 147 148 149 150 152 153 151 150 150 151 153 153 153 152 150 150 152 153 154 154 153 152 151 150 150 153 156 156 156 154 154 155 156 157 154 151 150 147 147 148 150 150 153 155 154 157 160 162 163 163 164 167 168 167 170 170 169 166 164 163 161 158 156 155 155 154 153 154 155 158 157 158 160 158 157 155 154 152 149 147 145 143 143 145 144 143 140 139 140 141 141 140 138 138 137 137 137 136 135 134 133 130 130 129 128 124 125 125 125 124 124 126 127 129 128 127 127 128 127 126 127 129 129 128 127 127 129 128 127 124 125 127 128 127 127 126 124 121 118 109 71 18 0 0 1 0 3 60 127 144 152 160 155 138 118 95 32 0 0 0 0 0 0 0 0 0 0 0 0 0 0 0 0 0 0 0 0 0 0 0 0 0 0 0 0 0 0 0 0 0 0 0 0 0 0 0 0 0 0 0 0 0 0 0 0 0 0 0 0 0 0 0 0 0 0 0 0 0 0 2 1 3 3 3 2 2 2 4 6 5 7 8 6 4 3 3 2 5 6 6 8 10 10 13 13 10 9 8 8 8 7 8 9 10 7 6 8 7 7 8 8 5 4 3 4 3 4 6 7 8 8 8 10 13 12 12 12 12 12 12 12 11 10 10 10 10 11 10 11 10 10 12 16 19 20 21 20 21 20 21 21 24 25 27 27 28 27 26 25 25 24 22 22 23 24 24 25 26 29 29 29 27 27 26 24 25 25 23 22 23 24 24 26 26 24 23 22 22 22 23 22 21 21 21 20 19 19 18 15 16 19 20 22 22 22 23 22 23 23 24 23 23 22 23 22 22 21 22 23 24 23 22 18 15 13 12 13 14 12 13 14 16 16 15 14 14 14 11 10 10 10 12 
12 13 14 13 13 15 14 15 17 17 17 19 18 21 21 21 20 19 20 19 17 18 17 16 14 14 13 16 16 18 17 17 17 19 18 17 16 15 16 16 15 14 16 15 14 14 13 12 13 15 15 14 14 12 11 12 12 10 9 8 10 11 10 8 9 11 11 12 12 11 12 14 12 11 12 14 13 15 16 15 17 17 15 14 13 13 10 9 10 9 7 8 8 9 9 7 6 6 8 7 7 9 10 11 9 7 7 6 5 3 0 0 0 0 1 1 0 0 0 0 0 0 0 1 2 4 5 8 10 12 14 14 16 16 15 15 12 10 8 5 3 2 2 3 4 4 5 5 4 5 7 4 2 2 1 2 2 1 1 1 81 151 160 161 162 164 167 168 167 166 165 162 158 153 148 145 141 137 136 129 124 118 111 105 96 80 60 41 7 0 0 0 0 0 0 0 0 0 0 0 0 0 0 0 0 0 0 0 0 0 0 0 0 90 147 149 138 92 33 0 0 0 0 0 0 0 30 132 151 152 153 156 159 158 157 157 157 157 156 155 155 157 157 154 149 148 149 149 149 148 149 151 152 153 153 153 152 155 157 156 155 155 154 154 154 154 155 153 152 150 151 150 152 152 154 155 154 154 154 155 157 156 154 152 152 150 149 149 152 152 153 153 154 156 159 161 162 162 161 163 166 167 169 169 169 166 164 162 159 156 155 154 154 154 154 154 155 156 157 158 159 160 159 158 156 155 153 149 146 145 145 145 145 146 145 143 142 143 144 145 143 141 140 141 139 137 136 135 134 131 131 131 130 127 126 127 128 129 130 131 131 132 131 131 130 129 128 128 129 131 131 132 131 130 131 131 131 129 129 131 130 128 128 128 127 126 123 119 103 48 5 0 0 0 0 0 56 124 144 153 158 146 131 115 83 10 0 0 0 0 0 0 0 0 0 0 0 0 0 0 0 0 0 0 0 0 0 0 0 0 0 0 0 0 0 0 0 0 0 0 0 0 0 0 0 0 0 0 0 0 0 0 0 0 0 0 0 0 0 0 0 0 0 0 0 0 0 2 4 3 4 4 5 4 4 5 5 7 7 7 5 4 4 4 4 7 8 8 8 9 9 10 11 9 9 9 10 11 10 11 11 10 7 7 8 9 8 8 9 7 5 5 7 6 5 6 7 8 9 10 10 14 12 12 13 11 12 11 10 11 10 9 11 11 11 12 13 13 13 15 15 17 18 20 20 20 20 20 22 22 24 25 26 25 26 25 24 24 21 19 18 21 23 23 25 26 29 28 28 29 28 27 25 25 24 23 23 25 24 27 27 27 26 26 24 23 22 22 22 21 22 21 21 21 20 19 15 16 17 20 23 23 22 22 22 22 22 22 22 22 23 21 22 21 20 21 23 24 22 21 19 14 12 12 13 14 15 14 14 13 13 13 15 15 15 14 11 11 11 11 
12 13 14 13 14 14 14 14 15 16 16 18 19 20 21 21 19 18 17 17 17 17 14 15 14 15 15 15 17 17 18 17 18 19 19 17 16 15 14 15 14 14 15 16 15 16 14 13 15 17 17 16 16 13 12 12 11 11 8 7 7 8 9 9 10 12 12 12 13 13 13 12 11 11 12 13 15 16 16 16 18 20 19 17 16 13 11 10 8 8 8 8 7 8 6 7 7 7 9 7 7 9 11 11 10 8 7 6 4 2 0 0 0 0 1 1 0 0 0 0 2 0 0 0 1 4 5 7 8 10 12 14 15 14 13 11 8 6 6 3 1 0 0 3 5 4 5 5 7 7 6 6 4 4 2 1 0 0 0 0 41 141 158 160 161 164 165 166 166 163 162 161 158 153 146 142 140 139 137 130 124 118 112 107 98 83 65 49 22 0 0 0 0 0 0 0 0 0 0 0 0 0 0 0 0 0 0 0 0 0 0 0 59 146 154 147 124 53 10 0 0 0 0 0 0 3 115 152 154 155 155 156 158 159 160 158 159 158 156 155 155 156 157 153 150 150 151 151 152 152 152 153 152 154 155 155 155 157 159 159 159 158 159 157 157 157 156 154 151 149 152 153 152 152 154 155 154 154 155 155 157 157 155 155 153 150 150 150 152 154 154 155 155 156 158 161 162 161 161 163 166 167 168 168 169 167 163 161 158 156 154 152 153 154 153 152 155 155 157 158 160 161 161 161 158 157 155 153 150 149 147 148 149 147 146 145 145 144 145 147 146 144 143 142 141 139 138 136 133 131 132 132 129 127 127 128 128 130 129 128 131 132 132 132 133 132 132 130 129 132 135 135 133 132 134 134 134 132 132 133 130 130 130 130 130 129 125 122 115 83 27 0 0 0 0 0 0 53 123 147 155 152 139 124 112 57 1 0 0 0 0 0 0 0 0 0 0 0 0 0 0 0 0 0 0 0 0 0 0 0 0 0 0 0 0 0 0 0 0 0 0 0 0 0 0 0 0 0 0 0 0 0 0 0 0 0 0 0 0 0 0 0 0 0 0 1 1 3 3 4 6 5 6 8 7 6 7 6 7 5 5 6 6 7 6 7 10 9 8 9 9 11 11 11 10 11 11 11 10 11 11 9 8 8 9 8 8 8 9 8 6 7 8 8 6 7 8 9 9 7 9 12 12 13 12 12 11 10 10 10 10 10 11 12 12 14 14 15 17 15 16 17 19 21 21 21 21 20 22 22 22 23 23 24 25 24 22 21 18 17 19 20 22 23 23 25 27 26 26 27 27 26 24 24 23 24 23 23 25 27 27 25 26 26 25 24 24 23 23 24 23 22 23 21 22 22 19 18 18 22 23 23 22 22 23 22 22 21 22 21 21 20 21 19 18 20 21 21 21 20 18 16 14 14 15 17 18 16 13 13 14 14 13 13 14 12 14 14 12 12 
12 14 13 12 13 13 13 14 15 15 18 20 20 20 21 21 21 18 18 16 16 15 13 15 16 15 14 17 16 16 16 16 18 20 20 18 18 16 14 12 14 14 15 16 17 16 15 15 16 18 19 17 15 12 12 13 11 11 9 7 8 8 9 10 10 12 12 12 14 14 13 13 13 13 13 14 15 16 17 18 18 19 19 19 18 15 12 10 9 8 8 6 4 6 5 6 5 7 8 8 10 11 11 10 9 8 7 6 2 0 0 0 0 1 0 0 0 0 0 1 1 2 2 2 5 6 6 4 6 9 11 14 13 12 12 9 5 5 4 2 1 0 0 3 4 3 3 5 8 7 7 8 7 6 4 1 0 0 0 0 9 118 153 158 161 164 165 164 164 163 162 161 158 155 147 142 139 139 136 130 125 120 114 108 99 85 70 54 34 0 0 0 0 0 0 0 0 0 0 0 0 0 0 0 0 0 0 0 0 0 0 36 137 154 152 144 105 31 0 0 0 0 0 0 0 90 149 155 154 154 154 156 158 159 159 159 159 158 155 155 155 156 155 152 152 153 153 153 153 152 152 152 154 156 155 157 158 159 161 162 163 160 160 159 156 157 155 154 153 153 153 153 154 154 154 154 153 153 153 153 154 156 156 156 154 152 150 151 150 152 154 155 156 157 158 161 163 162 161 162 165 166 166 166 168 167 165 161 159 156 152 153 153 152 151 153 153 155 156 158 161 160 160 160 158 158 157 155 154 152 151 151 149 147 147 147 146 145 147 149 147 145 144 142 140 141 141 137 134 132 132 133 130 129 129 128 129 130 128 129 130 132 132 133 135 137 135 132 131 134 138 139 137 135 135 134 133 134 134 133 133 132 132 131 131 128 125 125 121 107 57 11 0 0 0 0 0 0 57 134 152 155 144 130 118 100 25 0 0 0 0 0 0 0 0 0 0 0 0 0 0 0 0 0 0 0 0 0 0 0 0 0 0 0 0 0 0 0 0 0 0 0 0 0 0 0 0 0 0 0 0 0 0 0 0 0 0 0 0 0 0 0 0 0 0 1 1 2 2 5 6 7 8 9 9 7 7 7 8 6 7 9 8 9 9 8 11 10 8 9 9 11 13 13 11 13 11 11 10 11 11 10 8 8 10 8 7 8 8 9 9 8 10 8 7 6 10 9 7 6 7 11 12 15 14 12 10 9 9 11 10 12 12 14 16 17 16 16 16 16 15 19 22 23 23 22 20 21 22 23 24 24 23 24 23 23 20 19 18 18 18 20 21 21 22 23 25 25 25 26 25 25 24 24 24 24 22 22 24 25 24 24 25 27 26 25 25 26 26 26 26 26 24 23 23 23 23 23 22 23 24 23 23 24 25 23 22 21 19 20 21 21 19 18 18 18 19 20 19 18 16 16 16 16 16 17 17 15 12 13 15 13 13 12 14 14 15 15 13 11 
12 14 15 12 12 13 13 15 16 17 17 20 21 21 21 22 20 19 18 17 16 17 16 16 16 15 15 16 15 15 15 15 17 19 20 21 19 18 16 14 15 16 15 17 18 17 15 15 17 18 17 16 15 13 13 14 12 10 9 8 8 9 9 9 10 12 13 14 14 15 15 12 14 15 16 14 15 16 18 18 16 18 18 19 19 18 15 14 13 11 10 8 7 6 7 8 7 7 9 10 11 13 12 11 9 7 5 4 1 0 0 0 0 0 1 0 0 0 0 1 2 4 3 4 5 4 6 6 6 8 10 10 12 12 9 6 4 2 2 1 3 1 0 0 1 2 2 5 7 6 6 6 7 5 3 0 0 0 0 0 0 78 146 155 160 162 164 163 163 162 162 161 159 155 150 144 140 137 134 129 125 121 115 108 100 88 73 58 41 16 0 0 0 0 0 0 0 0 0 0 0 0 0 0 0 0 0 0 0 0 11 122 155 154 151 136 80 7 0 0 0 0 0 0 52 142 155 156 155 153 154 155 156 158 158 158 158 156 155 155 156 156 154 154 152 153 154 154 154 153 151 152 155 156 156 159 160 161 163 163 162 162 161 159 159 157 155 154 154 154 154 154 154 155 154 154 155 155 154 156 155 156 157 155 154 151 150 149 149 150 153 156 158 159 160 161 162 163 163 163 164 165 165 166 167 166 163 161 159 156 154 153 152 151 150 150 153 155 156 158 159 158 159 157 158 159 158 157 155 155 154 153 151 148 146 146 146 145 148 149 148 148 145 142 144 145 143 139 137 135 135 133 133 132 132 132 131 132 129 130 131 131 132 135 136 137 136 134 133 136 138 138 138 137 136 134 135 134 134 135 134 134 133 130 128 128 127 127 127 121 83 27 0 0 0 0 0 0 6 97 146 156 146 134 121 119 76 2 0 0 0 0 0 0 0 0 0 0 0 0 0 0 0 0 0 0 0 0 0 1 0 0 0 0 0 0 1 0 0 1 0 0 0 0 0 0 0 0 0 0 0 0 0 0 0 0 0 0 0 0 0 0 0 0 0 1 2 1 3 6 7 8 10 9 12 9 10 9 9 8 9 10 9 8 9 10 11 10 8 10 9 11 13 14 11 11 10 10 11 13 12 10 8 7 10 9 9 9 10 8 8 6 6 7 6 6 8 8 8 8 8 11 13 14 12 11 9 9 8 10 11 12 15 16 18 19 17 16 17 17 18 18 21 23 24 22 20 21 23 24 23 23 23 23 22 21 19 18 17 17 18 18 19 19 20 21 22 24 22 22 23 23 23 22 22 23 23 23 21 22 23 24 25 26 27 25 26 26 26 27 27 27 26 25 24 22 22 24 23 24 27 27 25 25 25 23 22 20 20 21 21 21 19 16 17 18 19 20 21 18 18 16 17 15 15 16 16 14 13 13 14 14 14 14 16 15 16 15 14 12 
14 13 14 15 15 14 13 14 16 16 17 19 21 21 20 20 20 20 20 19 18 17 19 18 17 15 16 14 15 14 15 16 16 18 21 20 20 19 18 17 18 18 18 17 17 17 14 14 17 18 17 15 14 14 13 13 13 11 9 8 8 9 9 8 10 12 12 15 17 14 14 14 16 17 16 16 15 16 18 17 15 15 17 18 17 18 18 17 15 14 12 9 8 9 9 8 8 9 10 13 13 14 13 10 7 4 4 3 1 0 0 0 0 0 0 0 0 1 1 3 5 4 3 3 4 5 5 4 5 6 8 8 9 10 8 5 4 3 2 2 4 1 0 2 3 3 3 6 8 7 5 4 4 3 3 0 0 0 0 0 0 38 137 152 156 159 164 163 161 162 164 162 161 156 151 145 140 137 134 130 125 121 114 109 100 89 74 61 48 31 2 0 0 0 0 0 0 0 0 0 0 0 0 0 0 0 0 0 0 0 95 153 157 154 148 127 63 0 0 0 0 0 0 19 130 153 157 156 154 152 153 153 155 156 157 158 156 154 155 156 156 156 155 155 154 155 156 156 156 155 153 152 155 157 158 160 161 160 161 161 161 161 160 158 159 157 155 156 156 156 155 155 156 156 156 157 157 157 155 156 155 156 156 155 154 151 148 148 148 150 154 155 158 159 160 163 163 164 164 163 164 166 165 165 165 164 162 160 159 157 157 154 154 153 150 151 152 154 155 156 156 156 156 158 160 160 159 159 158 156 155 154 152 147 147 146 146 147 148 148 149 149 146 144 145 145 143 142 138 137 135 135 135 134 136 136 135 135 132 131 131 132 133 134 135 136 136 135 134 135 138 138 138 139 137 134 133 134 134 133 132 132 131 130 129 129 130 128 128 121 98 51 2 0 0 0 0 0 0 35 127 154 149 136 125 122 115 45 0 0 0 0 0 0 0 0 0 0 0 0 0 0 0 0 0 0 0 0 0 1 1 2 2 1 1 1 1 1 0 0 0 0 0 0 0 0 0 0 0 0 0 0 0 0 0 0 0 0 0 0 0 0 0 0 0 1 1 2 4 5 7 9 11 13 14 11 10 10 11 11 11 12 10 9 10 13 12 11 9 9 9 11 13 13 11 10 9 11 12 13 13 10 9 9 11 12 11 10 8 6 4 3 4 6 5 6 7 7 10 11 12 13 14 14 13 12 11 9 8 10 13 12 15 16 18 18 18 18 16 17 17 19 21 21 21 23 22 23 24 23 22 22 22 22 21 18 18 18 19 17 17 17 17 19 20 20 20 21 22 23 23 23 23 22 22 23 22 21 22 24 23 23 25 25 26 24 23 25 26 27 27 28 27 27 25 22 22 22 22 23 27 27 27 27 25 24 24 22 20 22 21 20 18 16 15 15 17 21 21 20 19 19 17 16 15 15 15 15 15 15 15 15 16 16 17 15 15 15 14 14 
15 16 16 15 14 15 13 13 13 16 16 17 18 18 20 20 21 21 20 20 18 20 20 16 15 15 15 15 15 14 15 15 17 18 19 20 20 20 20 20 18 18 17 18 16 16 16 14 17 20 19 16 14 14 13 12 11 10 9 9 9 9 9 7 10 12 14 15 17 16 16 16 19 17 17 15 15 15 15 15 14 15 17 17 16 18 18 17 15 15 14 12 11 10 9 7 6 9 11 13 14 15 13 10 7 5 4 3 1 0 0 0 0 0 0 0 1 2 2 2 3 5 3 3 2 4 3 4 5 5 6 6 8 9 9 7 5 4 4 4 4 3 2 3 2 2 4 4 6 4 2 1 0 1 0 0 0 0 0 0 0 10 119 149 153 157 162 162 162 163 163 162 160 156 150 146 141 138 134 130 126 120 115 109 100 90 79 68 56 43 21 0 0 0 0 0 0 0 0 0 0 0 0 0 0 0 0 0 0 35 144 158 156 152 142 112 33 0 0 0 0 0 0 101 150 154 156 156 157 154 153 154 154 154 156 157 157 156 156 155 155 156 158 159 157 158 158 158 159 159 156 156 155 158 158 158 159 160 161 160 161 161 161 160 159 157 155 156 158 158 157 157 156 158 159 157 157 157 156 155 154 154 155 154 152 150 148 147 149 150 155 157 157 159 161 161 163 164 164 163 164 166 165 164 162 163 161 160 159 158 157 156 155 153 152 152 155 155 154 155 154 154 154 157 158 159 159 157 156 156 155 155 152 150 148 148 149 149 148 149 150 150 148 147 148 147 145 142 139 139 137 138 139 138 139 139 139 136 136 133 133 134 134 135 135 135 136 136 135 135 137 138 138 139 138 135 134 134 134 132 131 131 131 131 130 131 129 128 126 122 103 63 13 0 0 0 0 0 0 0 79 150 152 139 130 125 126 96 12 0 0 0 0 0 0 0 0 0 0 0 0 0 0 0 0 0 0 0 0 1 2 3 2 0 1 0 0 0 0 0 0 0 0 0 0 0 0 0 0 0 0 0 0 0 0 0 0 0 0 0 0 0 0 0 0 0 3 4 5 7 9 10 13 13 13 14 13 13 14 15 14 13 11 11 10 13 12 11 10 9 9 11 12 12 11 10 10 12 13 13 13 11 11 10 13 13 11 8 6 4 4 5 7 8 7 7 7 8 10 11 12 15 15 15 14 13 12 11 10 11 14 13 15 17 17 17 17 16 13 14 15 17 21 19 20 23 23 23 22 21 21 21 22 21 20 18 18 17 17 16 18 17 16 18 18 19 17 17 19 19 21 22 22 22 21 22 22 22 22 22 22 22 25 25 25 25 23 25 24 28 29 29 28 27 25 22 21 21 22 25 25 26 28 28 28 27 26 23 22 22 21 20 19 16 16 16 16 20 20 20 19 19 18 18 18 17 16 17 17 18 17 15 16 18 18 19 17 17 18 16 
19 17 19 19 17 16 15 14 15 14 15 17 16 18 19 20 21 20 21 20 19 19 19 16 16 16 17 15 14 13 14 16 20 22 22 23 23 23 22 21 18 18 17 16 16 15 16 17 19 21 19 17 15 14 13 13 11 11 10 10 10 9 9 10 12 14 15 15 18 18 18 17 18 18 17 14 15 15 15 15 15 16 17 16 18 19 18 15 14 14 12 12 11 10 10 9 6 9 11 13 15 13 11 10 8 5 3 2 2 1 0 0 0 0 0 0 0 1 2 1 3 3 3 3 1 1 2 4 4 5 5 6 7 9 11 9 6 5 4 6 5 2 1 3 1 1 2 4 4 2 1 1 0 1 0 0 0 0 0 0 0 0 90 146 153 157 161 162 162 161 161 160 158 154 150 146 143 138 135 132 127 121 115 109 102 94 84 73 64 52 37 8 0 0 0 0 0 0 0 0 0 0 0 0 0 0 0 0 0 103 158 159 155 151 139 98 8 0 0 0 0 0 47 145 151 154 156 158 158 158 156 156 155 155 156 158 160 157 156 156 156 156 160 161 159 159 161 162 163 162 161 158 158 158 158 158 158 159 160 159 159 159 159 159 158 156 156 157 156 157 156 158 157 158 158 159 159 158 157 155 155 153 153 153 151 150 148 148 150 152 155 157 157 158 160 161 162 163 164 163 163 165 166 166 163 162 161 159 158 157 157 156 155 154 155 156 157 156 154 153 152 152 153 155 156 157 156 155 155 156 156 156 154 150 151 151 150 149 148 149 149 150 149 150 151 149 146 145 143 143 141 142 143 142 143 141 141 138 137 137 136 136 136 135 135 136 136 136 138 138 137 136 138 138 137 135 136 136 135 134 134 133 134 133 134 133 129 127 126 123 107 65 25 0 0 0 0 0 0 0 29 138 153 141 132 127 128 125 64 1 0 0 0 0 0 0 0 0 0 0 0 0 0 0 0 0 1 1 0 1 2 1 1 0 0 0 0 0 0 0 0 0 0 0 0 0 0 0 0 0 0 1 0 0 0 0 0 0 0 0 0 0 0 2 2 2 4 6 6 7 10 12 14 14 15 15 14 15 16 16 15 13 13 13 12 15 14 12 9 10 9 9 11 11 12 12 12 12 13 14 14 13 12 11 12 12 10 8 6 5 6 8 10 13 11 9 8 9 10 11 11 15 17 18 16 15 14 13 11 11 14 14 16 17 17 16 16 15 13 15 15 18 19 19 20 20 20 20 21 23 23 22 23 21 19 21 18 17 15 17 16 15 16 17 17 18 16 17 18 18 19 20 21 20 21 21 22 21 21 21 21 21 23 25 25 25 25 25 27 29 29 30 28 28 25 24 24 23 23 23 24 25 27 28 29 29 28 24 22 22 22 21 19 19 18 18 17 19 19 19 19 20 21 21 21 19 20 19 19 19 17 15 16 18 20 21 21 22 21 18 
21 19 20 20 19 18 16 14 14 14 14 18 17 17 18 20 20 21 21 20 18 18 17 16 13 14 16 14 12 12 14 16 19 22 24 24 25 25 22 21 19 17 17 14 13 14 15 16 18 19 19 17 15 15 16 14 15 15 12 9 8 9 9 12 14 15 16 18 18 17 18 19 17 16 16 14 15 16 17 18 17 16 17 18 18 17 15 14 14 14 13 11 11 10 10 9 8 9 12 14 13 11 8 6 6 4 2 2 2 0 0 0 0 0 0 0 1 1 0 1 2 3 2 3 1 1 2 3 5 5 7 7 8 8 10 7 7 6 6 5 4 1 0 0 0 0 0 0 2 2 1 1 2 1 0 0 0 0 0 0 0 0 57 141 152 157 160 161 162 161 160 157 156 154 150 146 143 140 136 134 128 122 116 112 105 99 90 80 70 60 50 25 0 0 0 0 0 0 0 0 0 0 0 0 0 0 0 0 28 142 161 159 156 151 138 90 1 0 0 0 0 0 104 152 154 156 158 159 159 158 157 156 155 155 157 159 159 157 155 155 157 158 161 162 159 161 162 163 164 163 162 157 158 159 160 159 159 160 159 159 157 157 158 159 161 160 160 159 158 158 158 158 157 158 159 160 160 159 157 156 154 153 153 152 152 151 149 148 149 151 155 157 158 159 161 161 162 162 164 163 163 165 166 166 162 163 162 162 160 157 159 158 154 154 154 157 156 156 154 153 153 153 152 154 154 154 155 154 153 155 156 157 156 153 152 151 149 148 149 149 149 151 150 152 151 151 150 148 146 145 145 144 145 143 143 142 142 141 141 140 138 139 139 139 138 137 137 138 140 137 136 137 136 137 136 135 134 135 136 135 135 135 135 136 135 133 131 129 128 127 113 73 31 0 0 0 0 0 0 2 8 118 152 140 133 128 131 132 109 15 0 0 0 0 1 0 0 0 1 1 2 2 1 1 1 1 1 1 1 2 3 2 1 0 0 0 0 0 0 0 0 0 0 0 1 1 0 0 0 0 0 0 0 0 0 0 0 0 0 0 0 1 4 4 4 4 4 6 7 9 11 14 15 16 15 15 15 16 17 17 15 15 15 15 16 16 13 12 10 10 10 9 11 12 11 11 11 12 14 14 15 14 15 13 14 11 9 8 7 5 7 8 12 13 14 12 10 11 12 11 12 16 17 16 16 16 16 14 13 13 15 14 15 16 15 14 16 15 14 15 16 18 19 20 20 20 21 21 22 23 24 23 23 24 22 22 20 18 18 16 15 15 16 16 16 16 16 15 17 17 19 19 21 21 21 22 22 21 19 21 22 21 21 24 24 23 26 27 28 27 28 30 31 30 30 27 25 23 22 24 24 24 25 27 27 27 25 24 23 24 22 21 21 21 22 19 19 20 19 20 22 22 22 23 21 22 22 20 20 20 18 16 15 16 19 21 22 23 23 23 
23 20 20 21 19 17 15 13 13 14 14 18 17 17 17 17 19 20 20 19 19 18 17 16 14 13 14 14 13 14 15 16 19 21 22 22 23 22 23 21 19 19 17 16 16 14 15 16 16 18 19 18 17 18 16 15 16 16 15 12 10 9 10 11 16 16 16 17 17 19 18 19 17 16 15 14 15 17 17 17 17 18 15 16 17 16 15 13 11 13 11 10 10 10 11 11 10 11 11 13 12 9 7 4 3 3 1 0 0 0 0 0 0 0 2 2 2 2 1 2 4 2 2 1 0 0 1 5 7 7 5 6 7 8 7 7 5 4 4 3 3 2 1 1 1 0 0 0 0 0 0 3 2 1 0 0 0 0 0 0 0 0 32 133 149 155 159 162 163 161 158 156 155 154 151 148 145 142 140 135 130 123 120 115 111 104 95 85 77 69 58 42 14 0 0 0 0 0 0 0 0 0 0 0 0 0 0 0 93 157 160 158 155 150 139 92 0 0 0 0 0 10 133 153 155 156 157 158 158 157 156 155 156 157 158 158 158 157 155 155 156 158 161 161 160 160 161 164 163 163 161 159 159 160 160 161 159 160 160 158 157 156 159 161 163 164 163 162 161 160 159 158 158 158 159 159 159 158 158 157 155 154 154 152 152 152 151 150 150 152 155 157 160 160 160 161 160 161 162 162 161 165 166 165 164 164 164 164 163 160 159 158 153 152 154 155 155 156 155 155 154 154 154 154 154 153 155 153 152 154 156 158 158 156 153 152 151 151 151 151 152 152 153 153 154 151 152 152 150 148 147 144 144 144 145 147 146 147 144 142 142 141 140 141 140 138 139 138 139 137 137 136 136 135 136 135 136 137 137 137 136 137 136 136 136 136 134 133 130 126 111 78 39 1 0 0 0 0 0 0 1 97 149 138 133 129 131 134 129 61 0 0 0 0 1 1 0 0 2 1 2 2 2 2 3 2 2 3 2 1 2 1 0 0 0 0 0 0 0 0 0 0 0 1 2 2 0 0 0 0 0 1 0 0 0 0 0 0 0 0 0 3 6 6 5 6 6 6 9 9 12 13 14 15 16 15 14 17 18 17 16 16 16 18 16 16 14 12 12 12 12 11 12 14 12 10 12 12 14 16 17 15 16 14 12 11 11 9 7 7 6 6 10 12 13 12 12 12 13 12 14 16 14 15 16 16 16 15 14 16 16 16 16 16 15 14 15 15 15 15 17 19 20 22 22 22 21 22 24 24 23 23 23 25 23 21 21 19 17 16 15 15 16 16 16 17 15 15 16 17 19 20 21 21 21 21 22 19 18 20 20 20 21 22 23 23 26 28 27 26 28 30 32 32 30 28 25 22 22 24 24 25 26 25 24 24 24 23 22 23 22 22 23 24 24 23 22 23 22 22 22 23 23 23 22 24 22 21 20 22 20 17 16 17 19 21 22 22 23 23 
22 21 21 21 20 17 16 13 12 14 15 17 18 17 19 19 19 19 18 20 20 18 18 15 14 14 14 14 13 14 14 18 19 20 20 22 22 23 23 21 20 19 19 18 17 16 15 17 19 19 19 19 18 18 17 16 18 16 15 13 12 11 10 14 15 16 16 15 15 17 17 18 16 15 16 15 15 15 15 15 18 17 14 13 14 15 13 10 10 12 12 11 11 12 12 13 10 9 10 12 11 9 7 6 3 3 0 0 0 0 0 0 2 3 3 4 4 4 3 4 4 3 1 0 0 0 1 4 8 7 5 6 8 6 7 6 4 4 3 2 1 1 0 0 0 0 0 0 0 0 0 0 1 0 0 0 0 0 0 0 0 0 9 121 148 154 160 160 161 160 158 156 154 153 152 149 144 143 140 136 131 127 123 118 112 105 98 90 82 74 65 55 32 3 0 0 0 0 0 0 0 0 0 0 0 0 0 19 136 159 159 156 155 152 142 97 0 0 0 0 0 50 148 154 155 154 154 155 157 157 156 157 156 157 158 158 157 157 156 157 157 159 161 162 161 160 160 162 161 162 162 162 162 162 160 160 159 160 159 158 160 160 160 161 163 165 165 164 162 163 162 160 160 160 160 161 159 157 157 156 156 155 156 155 155 155 153 152 152 154 156 159 161 161 160 160 160 160 162 162 162 165 166 165 166 165 166 166 163 161 160 158 155 154 155 156 157 157 156 157 155 156 156 155 155 153 153 153 153 154 157 157 158 158 155 154 155 154 154 153 155 154 154 154 152 151 154 153 152 150 149 147 146 146 149 149 150 150 146 144 145 142 142 144 143 139 140 139 139 138 138 138 138 138 137 136 136 136 137 137 137 137 135 136 137 136 136 134 131 126 102 75 41 5 0 0 0 0 0 0 3 113 148 139 134 129 133 135 133 104 11 0 0 0 0 0 0 0 0 1 2 0 1 3 2 2 3 2 1 0 1 2 0 0 0 0 0 0 0 0 0 0 0 0 0 0 0 0 0 0 1 2 0 0 0 0 0 0 1 2 3 4 7 6 6 7 7 8 11 11 12 14 14 17 17 15 15 17 18 18 16 15 17 17 17 17 14 13 13 12 12 14 14 14 12 12 14 16 17 16 16 16 15 13 12 11 11 11 8 6 6 6 9 13 13 13 13 14 13 14 14 16 14 16 16 16 16 15 14 15 18 18 18 17 16 16 17 15 15 15 17 20 21 22 24 23 23 23 24 22 22 21 22 23 25 22 20 17 16 16 15 14 15 17 14 15 14 16 17 18 19 20 20 21 21 20 21 19 19 20 21 19 19 21 21 23 24 27 26 28 28 30 31 30 28 26 24 23 23 24 25 25 25 22 24 24 23 23 22 23 23 22 22 24 25 25 25 24 23 23 24 25 26 24 24 24 23 23 23 23 21 21 18 19 20 23 22 23 23 23 
23 23 23 22 22 19 17 16 14 15 17 17 18 19 20 20 20 20 21 21 21 19 18 17 13 13 13 14 13 14 15 17 20 21 22 22 21 23 22 22 21 20 18 17 17 16 14 17 20 20 21 19 20 21 20 20 20 18 16 12 10 10 10 12 15 15 16 16 15 15 17 17 17 16 17 15 15 15 14 16 16 15 12 13 13 12 11 9 8 10 12 12 12 11 13 12 10 8 10 11 10 10 9 6 4 3 0 0 0 0 0 2 3 3 5 7 6 5 3 3 5 4 3 1 0 0 1 5 7 6 5 7 7 6 6 5 4 5 4 2 0 0 0 0 0 0 0 0 0 0 0 0 0 0 0 0 0 0 0 0 0 0 0 103 147 154 157 160 161 159 157 154 152 151 151 149 146 142 140 136 131 127 123 119 114 109 101 94 86 78 70 61 45 19 0 0 0 0 0 0 0 0 0 0 0 0 0 78 153 157 157 156 156 154 144 103 3 0 0 0 0 98 153 155 154 153 154 156 157 157 156 157 155 154 155 156 157 158 160 158 158 161 161 163 163 160 158 160 160 162 161 161 162 160 160 161 160 160 162 161 161 161 162 162 162 162 162 162 164 165 163 162 161 162 162 162 160 159 158 156 156 155 156 156 156 157 155 155 154 157 160 161 163 161 159 160 160 161 161 161 162 165 166 166 166 166 165 165 162 160 160 158 155 154 154 155 157 157 158 158 157 158 158 157 155 154 153 154 154 155 157 158 159 157 155 153 155 156 155 155 156 156 154 153 152 152 153 153 153 152 151 148 149 149 151 151 152 149 146 145 147 146 147 147 145 143 142 140 140 141 141 141 140 140 137 137 138 137 136 137 136 137 136 137 138 136 135 135 130 120 95 67 37 4 0 0 0 0 0 0 20 134 146 141 136 133 137 140 138 128 54 0 0 0 0 0 0 0 0 0 2 1 1 2 3 2 2 1 0 0 0 0 0 0 0 0 0 0 0 0 0 0 0 0 0 0 0 1 1 1 1 1 0 0 0 0 0 2 3 3 4 5 8 7 7 10 11 13 12 13 14 15 15 17 17 15 14 17 19 20 19 18 17 19 17 15 14 14 14 13 15 16 14 14 14 15 17 19 17 17 15 16 15 14 13 13 11 11 8 6 5 6 9 13 16 14 14 15 15 15 16 16 17 16 16 16 17 18 15 16 20 20 20 17 19 18 17 18 18 17 20 21 22 23 22 24 23 22 23 24 23 20 20 21 23 22 19 17 15 16 15 14 15 15 13 13 14 16 16 18 20 22 20 21 23 22 21 20 22 22 22 21 20 22 22 22 23 26 27 28 29 31 29 29 28 26 24 22 22 23 25 24 23 22 22 24 23 22 22 24 24 23 22 23 25 25 25 24 25 26 26 26 27 26 28 26 26 25 25 24 22 21 21 21 22 24 25 24 23 24 
23 23 22 20 21 21 19 17 16 17 18 17 18 18 21 22 21 22 22 23 23 19 18 16 13 12 14 15 13 13 15 17 20 21 21 22 21 22 23 23 21 20 19 19 18 17 15 16 18 20 21 19 20 21 22 23 21 18 16 14 11 11 12 13 15 15 15 15 16 16 17 17 17 16 17 14 13 15 15 17 15 15 13 13 11 10 10 10 9 11 12 12 13 11 11 12 9 8 9 10 9 9 8 6 5 2 0 0 0 0 2 3 4 3 5 6 6 6 4 3 6 6 4 2 0 0 1 5 6 6 6 5 6 4 5 3 3 5 3 0 0 0 0 0 0 0 0 0 0 0 0 0 0 0 0 0 0 0 0 0 0 0 0 81 143 153 158 162 161 160 158 156 153 151 150 148 144 143 140 137 134 129 127 121 115 111 104 97 90 81 75 68 55 35 7 0 0 0 0 0 0 0 0 0 0 0 8 129 159 158 158 157 157 156 147 112 10 0 0 0 0 126 154 154 154 153 156 157 159 158 156 156 154 154 156 156 157 160 159 158 158 161 163 165 164 160 158 158 159 162 162 162 162 163 161 161 160 160 160 161 159 160 159 159 158 159 161 162 164 163 163 163 162 163 164 164 162 159 158 157 155 155 156 157 157 157 157 157 159 160 161 162 162 161 158 159 160 161 161 162 164 164 166 166 167 166 165 164 162 160 158 159 156 156 155 154 155 157 159 158 157 156 157 157 156 155 155 155 156 155 155 157 157 155 153 153 154 156 156 156 156 154 154 154 154 153 153 152 151 151 150 149 149 150 150 152 154 151 148 149 148 150 151 149 147 146 145 143 143 143 143 141 140 140 139 139 139 137 137 136 137 137 137 139 138 136 136 135 132 119 90 62 32 0 0 0 0 0 0 3 45 144 145 141 138 136 141 143 143 139 102 10 0 0 0 0 0 0 0 1 0 2 3 2 1 0 0 0 0 0 0 0 0 0 0 0 0 0 0 0 0 0 0 0 0 1 1 2 3 2 3 3 1 0 1 2 4 5 4 5 6 9 9 8 11 14 15 15 14 14 15 17 18 18 18 15 13 17 18 20 19 18 19 20 18 17 16 16 16 15 16 16 15 15 16 17 18 17 17 16 14 16 14 12 13 14 13 12 10 9 6 6 11 14 15 14 14 17 18 18 17 16 17 16 18 21 21 20 18 19 19 21 20 19 18 16 17 19 19 20 23 22 23 23 21 24 24 25 24 24 22 20 20 21 22 20 19 15 15 15 15 13 12 13 13 11 12 14 15 17 17 20 20 22 23 23 23 24 24 24 23 22 22 22 22 22 24 26 27 26 29 29 28 28 27 24 22 20 21 21 23 23 22 22 22 23 23 20 22 23 23 23 23 24 24 25 24 24 24 26 26 26 28 30 30 29 28 28 26 23 23 23 23 23 22 23 24 24 25 23 
23 21 21 21 20 20 18 18 18 20 19 19 19 21 21 22 21 23 24 23 22 21 19 16 14 13 16 17 16 15 16 17 18 20 20 21 22 24 24 24 22 22 21 20 18 18 17 16 19 21 20 18 21 22 22 21 19 16 14 13 13 13 14 15 17 16 17 17 18 16 16 16 17 17 16 15 13 16 16 17 16 15 13 12 12 10 11 11 12 12 11 12 10 10 11 10 8 7 9 9 9 10 9 7 4 3 1 3 2 3 2 4 4 4 6 7 6 3 3 2 4 5 3 1 0 0 0 3 6 6 5 5 5 3 2 3 1 1 0 0 0 0 0 0 0 0 0 0 0 0 0 0 0 0 0 0 0 0 0 0 0 0 0 53 138 152 159 163 162 161 159 156 154 151 147 146 144 143 141 137 135 134 130 125 119 113 107 102 94 86 80 72 63 50 28 1 0 0 0 0 0 0 0 0 0 0 60 150 158 159 159 161 160 159 153 130 35 0 0 0 1 132 152 154 154 154 156 159 160 159 156 156 157 156 157 157 158 161 159 158 160 163 165 166 166 162 159 159 161 163 164 164 164 162 161 159 158 158 158 159 158 159 160 159 158 158 159 161 162 163 162 162 161 160 163 163 162 159 156 156 156 156 158 158 157 157 158 158 159 159 160 161 161 161 159 159 162 162 162 164 165 167 168 168 167 166 166 165 163 161 159 157 155 156 155 155 156 157 159 159 158 156 157 159 158 158 157 155 155 156 156 157 158 156 153 152 153 154 155 155 154 154 154 155 155 154 152 150 150 152 152 149 150 152 152 153 154 154 152 151 151 153 153 151 150 148 147 146 146 144 144 142 140 139 140 140 138 136 137 136 137 138 138 139 139 135 134 134 132 111 83 57 30 0 0 0 0 0 0 3 77 149 146 144 140 143 147 148 147 144 132 54 1 1 1 3 1 0 0 1 0 0 0 0 0 0 1 1 0 0 0 0 0 0 0 0 0 0 0 0 0 0 0 1 3 2 2 4 4 4 4 3 3 4 4 4 4 5 5 7 9 10 11 12 11 14 14 15 15 14 16 19 19 19 18 17 16 17 19 20 19 18 20 21 20 19 19 19 17 16 17 18 18 17 18 17 18 18 15 13 13 14 13 12 13 12 13 13 12 13 10 10 13 14 16 15 16 17 19 17 18 16 17 18 20 23 22 22 21 22 22 23 22 20 18 17 17 19 19 20 21 23 21 22 23 24 26 26 26 26 24 20 18 19 20 22 18 14 15 16 15 13 11 11 11 11 14 13 13 15 16 18 18 20 24 25 26 25 25 25 25 24 24 23 23 24 27 27 26 25 27 25 24 23 24 23 22 21 20 21 23 23 23 24 24 23 23 21 23 24 22 23 24 24 24 24 23 24 23 25 28 29 29 31 31 28 27 26 26 24 24 25 25 24 25 24 26 25 23 23 
22 22 21 20 19 20 17 17 20 20 20 19 20 21 23 21 21 23 25 24 23 24 19 16 16 17 19 19 17 14 15 15 16 19 20 21 22 23 24 22 21 21 20 18 19 18 18 18 18 21 20 20 20 22 21 19 16 14 14 16 15 15 15 16 16 16 18 19 17 15 14 17 18 17 18 17 16 17 18 17 17 14 11 11 12 12 13 11 11 11 10 9 9 10 10 10 9 7 8 10 10 12 10 8 5 3 2 3 3 5 2 4 4 4 4 5 3 3 1 2 1 1 1 0 0 0 0 3 4 5 6 6 4 2 2 1 0 0 0 0 0 0 0 0 0 0 0 0 0 0 0 0 0 0 0 0 0 0 0 0 0 0 0 27 130 149 156 160 160 161 160 156 153 150 148 146 144 143 140 138 137 136 131 127 122 116 110 105 99 92 87 79 71 60 45 22 0 0 0 0 0 0 0 0 0 0 118 154 159 159 160 160 160 160 157 146 92 0 0 0 0 127 152 156 156 156 157 158 159 160 159 160 159 158 159 158 159 161 160 160 161 163 164 165 165 163 161 162 164 164 165 165 163 161 161 159 158 158 158 158 158 158 159 159 161 160 158 159 162 164 165 163 162 162 161 160 160 159 158 158 156 158 159 159 160 159 159 159 159 158 158 161 161 161 160 161 161 163 164 167 168 170 170 171 168 166 167 165 164 160 158 156 156 157 157 157 157 157 158 159 158 157 158 159 159 158 157 158 157 158 157 158 160 158 153 151 152 153 153 155 154 155 155 155 155 153 150 150 152 153 153 153 153 153 155 157 156 154 152 153 153 152 154 153 151 150 149 147 147 145 144 143 142 142 142 139 136 135 136 136 138 139 139 139 138 137 135 132 124 99 71 51 26 0 0 0 0 0 0 15 119 151 151 149 146 148 150 150 150 148 142 101 10 2 3 4 2 1 0 1 0 0 0 0 0 0 1 2 0 0 0 0 0 0 0 0 0 0 0 0 0 0 0 2 1 1 2 4 5 8 7 5 4 4 4 4 5 5 5 7 10 11 12 11 12 13 15 16 15 14 16 20 19 20 18 17 17 18 18 20 19 19 19 20 21 22 21 21 18 18 16 17 18 18 19 19 18 18 15 14 14 14 13 12 12 13 13 14 14 14 13 12 15 17 17 15 16 17 18 18 16 17 18 20 22 23 23 23 23 23 22 21 22 20 18 17 18 18 17 19 19 21 22 21 22 24 26 26 26 24 23 20 20 20 23 22 18 15 14 16 14 14 12 12 13 12 13 13 13 13 15 17 18 20 22 24 25 25 24 25 24 24 25 24 24 26 26 25 25 23 24 25 22 21 20 20 20 20 22 22 23 25 26 25 25 24 24 23 24 23 23 24 25 25 23 22 24 24 26 26 27 28 27 28 27 28 28 28 26 24 23 24 27 26 25 25 24 23 23 23 
22 21 21 23 21 21 21 20 22 22 22 19 19 20 21 20 20 21 23 23 23 22 20 17 18 18 20 21 19 16 15 17 15 19 21 22 22 24 25 22 21 20 19 19 19 18 19 18 18 19 20 20 21 21 19 19 17 16 16 18 18 17 18 18 17 16 18 18 16 16 15 16 17 17 17 16 17 17 18 19 18 15 13 13 12 11 12 11 10 9 9 9 9 9 9 11 9 9 11 12 12 12 9 7 4 2 1 0 2 4 4 3 2 4 5 6 4 1 0 0 0 0 0 0 0 0 0 2 4 5 4 5 2 2 1 1 1 1 1 0 0 0 0 0 0 0 0 0 0 0 0 0 0 0 0 0 0 0 0 0 0 0 0 7 119 148 156 158 159 158 157 154 152 150 149 147 145 144 143 141 138 137 133 128 123 118 114 109 106 101 94 87 78 68 60 42 14 0 0 0 0 0 0 0 0 42 142 154 157 159 160 160 160 160 159 152 130 34 0 0 0 118 153 157 157 156 157 157 157 159 159 160 160 160 160 159 161 162 164 162 163 164 164 164 164 163 159 161 162 163 165 165 164 164 163 162 160 158 157 158 159 159 160 161 163 162 160 162 162 165 164 162 162 162 160 160 160 160 159 159 158 159 159 161 161 160 160 160 160 158 159 161 160 161 160 160 161 165 167 169 169 172 171 170 167 166 166 167 165 162 160 157 157 157 158 158 157 157 158 158 157 158 159 159 160 159 159 158 158 159 159 159 158 156 155 155 154 152 153 156 155 154 154 155 155 153 151 151 154 156 155 156 156 155 156 157 156 156 157 156 153 153 154 153 152 152 151 149 148 147 146 144 146 146 144 141 138 137 136 138 138 139 138 139 139 137 135 127 107 87 65 44 19 0 0 0 0 0 0 82 146 153 154 152 151 153 154 154 154 150 146 132 49 3 4 3 3 1 1 1 1 0 0 0 0 0 2 0 0 0 0 0 0 0 1 1 0 0 0 0 1 0 0 1 0 0 2 2 4 5 4 3 2 0 1 2 4 5 5 9 12 13 12 12 13 14 16 17 16 16 17 18 19 19 19 16 17 18 19 20 19 20 20 21 22 23 21 20 18 17 16 16 19 18 17 17 18 18 17 16 17 17 15 13 13 13 15 16 16 16 14 15 16 19 17 16 17 16 17 19 18 19 20 21 22 22 21 21 24 23 22 22 23 20 18 18 17 17 17 18 19 22 22 22 22 24 26 25 26 25 24 22 21 20 22 22 18 16 14 15 15 14 15 14 13 13 11 12 12 11 13 17 18 21 20 23 23 23 23 24 24 23 23 24 25 26 25 24 24 20 20 21 20 19 20 19 19 20 22 25 25 26 27 26 24 24 25 25 26 23 23 24 26 25 22 23 25 25 27 27 27 26 26 27 27 28 28 28 26 24 25 27 26 27 25 24 23 22 23 22 
21 21 23 26 25 26 25 24 22 22 21 20 17 17 19 19 20 22 22 22 23 23 21 19 20 20 21 20 18 18 18 18 18 20 21 23 22 24 25 21 22 21 22 20 19 19 20 20 19 21 21 20 22 21 19 19 19 17 18 18 18 18 20 20 20 19 19 17 16 15 14 15 17 17 17 17 16 18 19 18 17 16 14 13 12 10 10 11 9 7 8 10 10 10 10 12 11 10 11 12 11 10 7 5 3 2 0 0 0 2 2 3 1 2 3 4 3 0 0 0 0 0 0 0 0 0 0 1 3 4 3 4 3 1 0 0 1 0 1 0 0 0 0 0 0 0 0 0 0 0 0 0 0 0 0 0 0 0 0 0 0 0 0 0 103 145 153 158 159 158 156 154 152 149 149 148 147 145 144 143 140 138 134 129 125 120 117 114 111 107 100 92 85 78 70 55 34 3 0 0 0 0 0 0 0 102 148 153 155 158 160 161 160 160 160 156 144 91 0 0 0 106 154 158 159 158 158 158 157 158 158 160 159 160 161 160 161 162 164 163 162 164 164 164 164 163 160 159 159 160 163 162 165 166 166 164 162 160 160 160 159 160 161 163 163 164 164 163 164 166 164 164 163 162 160 159 161 160 160 159 159 159 160 160 161 162 161 161 160 160 159 161 162 162 160 162 164 165 168 171 171 171 170 171 168 168 168 168 166 161 160 158 157 157 158 159 157 158 157 157 157 158 158 159 161 162 162 162 160 160 158 158 159 158 158 157 154 153 155 156 156 155 154 155 154 153 151 152 156 159 158 158 157 156 157 158 157 157 157 156 156 154 154 154 153 153 152 150 148 148 147 148 148 147 147 146 142 140 139 139 139 139 139 140 140 137 128 118 98 75 56 36 9 0 0 0 0 0 45 133 149 154 155 154 156 158 158 159 157 153 149 141 94 7 3 4 2 0 1 1 0 0 0 0 0 0 3 2 0 0 1 2 2 3 3 1 1 0 0 0 2 0 0 0 0 1 0 0 0 1 0 0 0 0 1 3 4 6 7 9 12 12 13 13 14 15 18 18 19 19 19 18 18 19 18 17 17 18 20 22 20 21 22 22 24 23 21 21 19 20 19 19 19 19 18 17 20 19 18 18 17 17 16 17 17 17 18 16 16 17 16 16 18 18 16 15 15 17 17 21 21 21 20 21 21 21 19 20 24 23 24 23 22 21 20 19 17 18 18 18 21 22 23 21 23 25 26 26 26 26 24 23 19 19 23 22 20 18 17 17 16 16 13 14 12 11 11 10 11 13 14 18 19 19 20 21 23 22 22 22 21 21 21 22 23 24 23 24 21 19 19 20 21 19 19 21 20 22 24 26 26 26 27 27 25 26 27 27 26 24 24 24 24 25 23 24 25 26 26 27 27 27 28 28 28 29 28 27 26 24 24 26 27 27 27 25 23 22 21 20 
22 23 25 28 28 29 27 25 23 22 20 17 14 14 17 18 19 20 20 20 24 25 23 21 20 22 24 21 21 19 20 21 21 22 23 23 23 24 24 22 22 22 23 20 20 20 20 21 21 22 22 22 22 22 21 19 21 20 18 17 18 18 21 21 22 21 20 20 16 15 15 16 17 18 17 17 17 16 17 17 17 16 16 15 12 11 10 9 7 6 8 11 11 12 12 11 11 10 10 10 9 8 6 5 4 2 0 0 0 1 2 2 0 0 1 2 1 0 0 0 0 0 0 0 0 0 0 0 2 1 1 2 2 2 1 1 1 0 0 0 0 0 0 0 0 0 0 0 0 0 0 0 0 0 0 0 0 0 0 0 0 0 0 0 80 142 152 157 160 160 158 156 154 152 150 149 148 145 143 144 144 140 134 128 127 124 121 117 112 108 103 97 90 85 77 67 51 24 0 0 0 0 0 0 24 133 149 152 155 159 160 160 159 160 160 158 151 128 34 0 0 87 154 159 161 161 159 160 159 159 161 160 159 159 160 161 160 162 164 164 164 164 163 163 164 163 160 158 158 160 162 164 165 166 166 165 162 161 161 162 161 163 164 164 165 167 166 165 165 166 167 167 164 161 161 160 160 161 160 161 161 160 161 161 163 163 163 163 162 161 160 161 162 162 162 163 164 167 169 171 171 168 169 171 168 166 166 165 165 163 161 161 160 159 158 156 156 158 158 159 158 158 158 159 162 164 163 163 163 162 160 158 158 157 157 157 155 155 156 158 158 157 156 155 155 155 154 154 156 159 158 157 156 157 157 160 158 156 155 155 156 156 156 155 154 154 153 150 149 149 149 150 150 150 149 148 147 144 142 140 140 140 141 142 140 136 122 100 83 67 48 25 0 0 0 0 0 14 112 143 149 153 153 153 157 160 161 162 160 156 151 146 129 40 6 4 4 2 2 3 1 0 0 0 0 3 3 4 3 2 3 4 3 4 3 2 1 0 0 0 1 1 2 1 0 1 0 0 0 0 0 0 0 0 2 5 5 6 9 11 11 13 13 14 15 17 20 20 20 20 19 19 19 18 17 17 19 20 22 21 21 22 22 23 23 23 21 20 20 19 20 20 21 19 17 19 20 21 20 18 18 19 19 20 19 20 18 18 18 20 18 19 19 19 16 14 15 16 18 22 22 20 20 20 21 23 23 23 24 24 24 25 23 22 21 21 19 19 18 19 19 21 21 22 22 26 27 27 26 26 24 22 19 20 22 22 21 21 19 17 17 14 12 12 13 12 12 11 11 13 15 16 17 17 19 19 21 22 22 21 19 17 17 20 20 20 22 21 19 18 20 21 21 22 21 21 23 23 26 26 27 27 27 27 27 26 28 27 25 25 23 23 25 26 24 24 25 25 25 25 27 30 29 29 29 30 29 28 26 25 26 25 27 28 28 28 27 24 21 21 
27 28 30 30 29 27 26 26 25 24 20 18 17 16 17 18 19 19 19 20 23 24 22 20 19 21 23 23 21 21 23 23 22 22 21 21 23 25 24 24 24 25 22 19 19 19 19 20 22 24 24 23 25 23 23 22 22 21 20 19 17 16 17 20 19 19 20 19 17 19 20 18 17 19 18 16 17 15 16 16 16 17 15 15 13 12 11 11 10 8 8 9 10 13 12 11 11 11 11 9 9 7 5 4 2 1 0 1 0 1 2 1 1 1 1 2 0 0 0 0 0 0 0 0 0 0 0 0 0 0 0 0 0 2 1 1 1 0 0 0 0 0 0 0 0 0 0 0 0 0 0 0 0 0 0 0 0 0 0 0 0 0 0 0 53 138 152 156 160 161 159 159 156 155 152 150 150 148 145 145 143 138 134 130 128 126 122 119 115 112 107 102 95 90 83 75 63 41 14 0 0 0 0 0 86 144 148 151 156 158 159 159 158 160 160 158 154 146 108 11 0 45 147 159 161 163 162 161 161 163 163 161 158 159 160 163 162 162 162 165 165 164 163 162 163 162 160 157 159 162 163 166 167 168 167 166 164 163 163 163 164 164 166 167 167 166 166 165 165 168 167 168 166 164 161 160 158 160 159 160 161 161 161 163 164 164 163 163 162 161 161 162 162 162 163 163 164 165 166 168 168 168 169 170 168 166 164 166 165 164 163 162 161 159 158 157 157 159 161 160 160 159 160 160 161 163 162 163 163 164 162 159 158 159 159 158 158 158 158 157 158 158 157 157 157 157 156 156 157 159 158 157 156 157 158 158 157 155 154 154 155 157 158 157 155 155 154 152 151 150 150 151 151 151 151 150 149 148 145 144 143 143 144 144 139 128 112 91 76 61 40 12 0 0 0 0 4 87 142 146 148 150 150 153 155 159 162 163 162 159 156 152 144 91 9 7 6 5 3 2 2 1 1 0 2 5 6 9 7 5 3 3 3 5 5 5 1 0 0 0 1 1 1 1 0 2 0 0 0 0 0 0 0 0 1 5 7 7 10 11 13 15 15 14 15 20 22 22 23 20 18 18 18 16 15 16 18 19 21 20 21 22 22 23 25 23 23 22 20 18 19 19 18 19 18 19 21 21 20 20 20 20 20 19 19 20 18 18 20 21 20 20 20 20 16 17 16 17 18 21 21 20 20 22 23 23 24 25 26 25 25 26 25 23 22 21 20 19 20 19 19 19 19 19 19 22 25 25 24 24 24 19 18 18 21 22 21 20 18 15 15 13 11 12 12 14 14 12 12 12 15 14 16 17 18 19 20 22 21 21 20 16 17 18 18 17 19 20 19 19 20 21 22 24 24 25 25 26 26 27 28 28 27 27 26 24 24 25 25 26 24 24 24 27 25 24 24 22 24 25 26 29 29 29 29 30 30 28 27 27 27 26 26 27 30 29 30 27 24 25 
30 32 31 30 29 27 27 27 26 23 22 20 19 18 18 20 20 18 17 19 22 23 22 21 20 20 20 22 23 23 24 23 21 20 22 23 24 26 25 24 23 24 24 21 21 20 18 20 22 22 23 24 26 26 24 22 21 19 17 18 17 16 18 19 20 18 18 18 18 21 22 19 18 19 18 17 15 15 16 16 17 15 14 13 12 11 11 11 13 12 11 12 11 11 10 9 9 11 11 10 9 6 5 4 2 0 0 0 1 2 3 1 2 2 1 0 0 0 0 0 0 0 0 0 0 0 0 0 0 0 0 0 0 0 0 0 0 1 0 0 0 0 0 0 0 0 0 0 0 0 0 0 0 0 0 0 0 0 0 0 0 0 0 0 29 132 150 156 159 160 160 161 158 155 154 152 150 148 145 144 140 139 135 131 129 126 122 119 118 116 111 105 100 92 88 81 71 55 34 8 0 0 0 11 128 149 150 153 158 158 157 158 158 159 159 159 157 154 144 104 8 0 116 158 162 163 163 162 163 163 162 160 160 159 161 163 162 162 162 164 164 164 162 160 161 161 160 160 162 163 166 168 169 170 169 167 165 164 164 165 166 167 168 167 167 165 165 163 164 165 167 168 167 164 163 161 160 160 159 158 160 161 162 162 164 165 164 163 162 162 162 162 162 162 163 163 163 162 163 165 168 168 168 168 168 165 164 165 165 165 163 160 160 158 158 158 161 161 163 161 159 158 159 160 160 162 162 163 164 164 161 160 159 162 160 160 161 159 159 157 159 159 159 158 158 158 157 157 158 157 158 158 158 158 157 156 156 155 154 153 155 158 157 156 157 156 156 155 154 151 150 151 151 152 151 150 151 149 147 144 145 146 147 144 134 113 98 85 70 53 29 0 0 0 0 6 66 137 148 149 150 151 151 155 156 160 162 162 162 160 158 156 148 128 39 8 7 5 3 3 4 5 4 3 3 7 7 8 8 6 4 3 4 7 7 5 3 1 0 1 1 1 2 1 1 2 2 0 0 0 0 0 0 0 3 7 7 7 10 13 14 16 16 15 17 19 21 23 23 21 18 16 17 16 15 16 17 19 20 21 21 21 22 25 25 23 22 23 21 19 20 19 19 18 18 17 18 19 19 20 21 20 21 20 20 21 20 22 23 23 23 20 21 21 20 20 20 18 18 20 20 21 21 22 24 24 27 27 26 25 25 26 26 24 23 22 20 19 19 20 18 20 19 19 19 19 23 22 22 23 22 18 18 18 21 21 21 18 17 15 15 13 13 14 13 13 13 13 14 14 15 15 15 17 17 19 19 20 20 20 21 18 17 19 17 17 19 19 21 21 21 22 23 24 27 28 27 28 28 27 25 24 24 24 24 21 22 22 24 23 23 22 24 27 24 22 23 22 23 25 27 28 29 29 29 30 31 31 30 30 28 26 25 28 27 28 28 29 26 28 
31 31 30 29 30 29 29 29 27 25 24 23 21 21 21 21 21 20 19 18 20 21 22 22 19 19 19 21 22 24 21 22 20 20 20 23 25 26 24 22 23 25 24 23 23 22 20 22 20 20 23 25 26 26 24 22 22 19 17 18 18 18 19 21 21 19 19 17 18 19 21 19 17 17 17 14 15 15 15 14 14 13 12 11 11 12 11 13 13 13 12 10 12 10 9 9 8 10 8 9 8 7 5 4 3 1 0 0 1 2 2 1 0 1 1 0 0 0 0 0 0 0 0 0 0 0 0 0 0 0 0 0 0 0 0 0 0 0 0 0 0 0 0 0 0 0 0 0 0 0 0 0 0 0 0 0 0 0 0 0 0 0 0 0 11 124 149 155 158 159 161 161 158 156 155 154 153 150 147 145 143 140 137 133 132 129 126 121 122 118 114 111 104 98 93 86 77 66 53 34 9 0 0 75 146 153 154 156 157 157 157 157 158 158 158 161 159 156 153 144 104 6 45 148 160 162 163 163 164 163 163 163 161 160 162 162 162 161 161 162 164 163 161 160 162 162 161 161 163 164 166 170 171 172 170 168 165 166 166 166 167 167 168 166 166 164 164 163 164 165 167 169 167 165 165 164 162 159 158 159 159 162 161 163 163 164 163 163 163 164 164 163 163 163 163 163 163 162 164 165 167 167 166 166 167 164 164 166 167 165 162 161 161 162 161 162 162 162 162 161 160 158 160 160 160 161 161 163 162 163 160 160 161 161 161 161 160 161 161 160 160 161 160 160 159 156 155 157 157 158 158 157 158 156 157 158 158 158 156 154 154 155 157 157 159 158 157 157 154 152 152 151 150 148 151 151 152 150 148 145 146 146 140 132 119 103 90 78 63 42 15 0 0 0 7 84 137 147 149 150 151 152 154 156 158 160 163 163 163 161 159 155 152 141 84 10 8 7 6 5 7 6 4 4 5 6 8 8 8 5 3 3 5 7 7 5 3 1 1 0 1 3 3 3 3 3 4 2 0 0 1 2 2 2 3 6 7 8 9 11 14 14 14 14 15 17 20 23 24 23 21 19 18 18 18 19 20 21 22 23 23 22 24 25 25 25 22 22 22 21 20 21 20 18 17 16 15 16 17 18 22 22 22 19 20 21 23 24 25 23 22 22 22 23 22 21 19 18 18 21 22 23 21 22 24 25 27 27 26 26 26 27 27 24 23 23 21 18 18 19 18 19 19 20 21 22 22 22 22 23 21 19 19 19 21 21 18 16 17 16 14 14 14 13 13 14 15 15 17 16 16 16 16 18 17 18 19 19 19 19 21 21 22 20 19 19 20 19 21 21 22 22 24 26 28 27 26 27 26 24 23 21 20 22 22 21 21 21 24 24 22 22 24 25 23 22 23 24 24 26 29 29 30 30 30 31 31 32 33 32 28 26 26 28 27 27 28 27 26 27 
28 29 29 30 31 31 30 29 28 27 26 26 26 25 24 23 21 20 20 22 22 24 24 22 19 18 19 22 23 22 20 21 20 19 21 25 26 25 24 23 25 26 25 25 26 23 24 22 21 22 23 25 25 25 25 23 23 18 18 19 20 19 21 22 22 18 17 17 18 20 19 18 18 17 18 17 16 16 16 16 14 13 13 13 11 13 13 14 13 11 11 8 9 9 8 9 9 9 9 8 5 4 4 4 5 4 3 2 1 0 0 0 0 0 0 0 0 0 0 0 0 0 0 0 0 0 0 0 0 0 0 0 0 0 0 0 0 0 0 0 0 0 0 0 0 0 0 0 0 0 0 0 0 0 0 0 0 0 0 0 0 0 0 0 0 110 147 154 156 160 163 161 158 158 155 155 153 150 147 146 145 144 141 136 135 132 128 125 123 121 117 115 110 104 98 93 86 79 71 57 38 10 2 124 152 155 156 158 158 158 159 159 159 159 160 161 160 159 157 154 145 101 11 108 157 161 163 163 163 162 162 163 162 161 161 161 161 161 161 163 164 163 162 163 165 164 163 165 165 167 168 172 173 173 170 168 168 167 167 166 165 168 169 168 167 167 166 166 164 165 167 167 168 168 166 164 162 160 158 158 159 160 159 160 161 162 162 164 165 166 164 163 163 164 164 162 162 165 165 165 166 165 165 166 165 164 166 166 167 166 164 164 164 165 164 163 164 163 161 161 160 160 160 162 162 162 161 162 162 162 161 161 162 162 161 161 162 162 163 160 158 159 159 160 158 156 155 155 157 157 158 156 157 157 159 160 161 160 157 155 155 156 157 158 158 158 158 157 154 152 150 149 148 149 150 150 151 150 150 149 146 142 129 114 102 91 79 67 50 29 0 0 0 11 91 140 148 150 151 151 152 154 156 158 160 162 164 163 164 162 159 156 154 146 123 31 10 9 7 7 6 5 5 5 4 4 5 7 7 4 3 3 5 7 7 5 3 1 0 0 1 2 5 5 6 6 4 4 2 3 4 4 3 2 3 4 6 7 8 10 12 13 11 9 11 15 19 22 23 22 21 20 19 20 19 21 22 21 22 24 22 21 23 25 25 24 23 22 21 21 23 21 19 17 16 15 14 15 16 18 20 22 21 21 21 21 22 24 24 24 21 21 23 23 24 22 19 18 19 22 23 22 23 23 23 24 25 27 28 29 28 28 26 24 24 24 21 19 20 20 20 20 21 23 23 22 24 24 24 22 20 18 18 19 19 19 17 17 17 16 14 15 14 13 11 13 16 16 17 18 16 16 18 17 16 16 18 17 18 19 20 20 22 22 20 21 21 21 21 22 22 24 25 26 27 28 28 26 24 22 21 19 19 21 22 21 21 23 25 26 25 23 23 23 25 25 25 26 26 28 30 31 32 30 30 30 31 32 32 30 27 26 26 27 27 26 26 26 25 26 
27 28 27 29 29 30 30 30 29 29 29 27 26 26 25 24 24 22 21 24 25 25 23 22 22 21 21 22 23 21 19 20 20 21 22 23 24 25 27 25 25 26 27 25 24 24 23 21 21 22 23 24 25 25 24 24 23 22 20 23 22 23 22 20 19 18 17 17 18 19 18 18 18 17 17 16 15 15 17 17 16 14 15 13 11 13 13 13 11 10 8 7 6 9 9 8 8 8 9 9 6 3 4 6 4 3 2 0 0 0 0 0 0 0 0 0 0 0 0 0 0 0 0 0 0 0 0 0 0 0 0 0 0 0 0 0 0 0 0 0 0 0 0 0 0 0 0 0 0 0 0 0 0 0 0 0 0 0 0 0 0 0 0 0 0 93 145 153 155 158 162 161 158 157 154 153 151 149 147 145 145 144 142 139 138 136 132 129 126 123 121 120 116 111 106 100 94 89 85 76 61 40 67 146 156 156 157 158 159 158 159 161 160 159 159 161 162 161 160 157 155 145 99 46 138 155 159 162 164 165 163 163 161 161 162 162 161 161 162 161 163 164 163 164 167 165 166 166 168 169 171 173 174 172 169 170 169 169 168 166 165 168 169 170 168 169 167 167 167 166 169 168 168 167 167 164 162 160 159 159 159 159 159 159 161 161 161 163 165 166 164 163 164 163 162 162 163 163 165 165 165 163 162 164 164 167 167 167 166 167 166 166 165 166 166 166 166 164 162 163 162 161 162 164 164 161 159 161 161 162 161 162 163 162 161 160 161 163 162 158 156 156 158 158 158 158 156 156 156 157 156 155 157 157 160 160 161 161 158 157 156 156 160 160 161 159 157 156 155 153 151 149 148 149 150 151 152 154 152 147 140 129 115 102 92 81 68 53 34 9 0 0 23 101 141 149 152 153 153 152 153 156 155 157 162 164 165 164 165 163 160 158 156 152 142 77 10 8 8 7 7 6 4 2 2 2 3 5 5 4 3 5 6 8 7 6 5 2 1 2 3 3 5 6 7 6 6 6 5 6 5 5 5 3 3 5 4 5 6 8 11 9 10 8 10 12 16 18 20 21 22 21 21 20 20 22 22 22 22 22 22 21 24 25 25 25 25 24 24 24 22 21 20 19 18 17 16 14 15 19 20 20 20 20 21 19 20 22 23 23 21 21 22 22 23 21 20 21 22 23 24 24 24 22 23 24 26 28 29 28 27 28 27 23 21 20 20 20 21 21 21 22 22 24 25 26 25 25 25 23 21 19 20 20 20 19 19 18 17 15 13 12 12 10 11 11 13 15 16 16 17 15 18 20 17 20 20 18 19 21 22 21 22 21 20 21 21 22 23 25 25 26 25 26 28 29 28 26 24 22 19 19 20 22 22 23 23 24 26 27 25 23 24 25 26 26 27 28 29 28 31 31 30 31 29 29 30 31 30 28 25 25 26 27 28 28 28 28 26 26 
26 28 28 28 28 29 28 28 29 29 29 28 27 26 25 26 25 24 24 26 25 26 24 24 25 24 24 23 22 21 21 21 22 21 22 24 24 25 26 25 26 25 26 23 22 21 22 22 22 22 23 24 25 24 23 22 23 23 24 24 24 23 22 20 19 19 18 16 18 17 17 17 17 18 17 16 15 16 17 17 16 15 16 15 13 12 11 11 9 10 9 7 7 9 10 9 9 8 11 11 8 5 4 5 3 2 0 0 0 0 0 0 0 0 0 0 0 0 0 0 0 0 0 0 0 0 0 0 0 0 0 0 0 0 0 0 0 0 0 0 0 0 0 0 0 0 0 0 0 0 0 0 0 0 0 0 0 0 0 0 0 0 0 0 0 71 140 152 155 158 159 159 158 158 155 150 149 149 145 144 145 145 143 141 139 139 136 132 128 126 126 124 122 118 114 108 103 99 95 91 80 67 124 152 157 156 157 157 158 159 159 161 162 162 162 163 161 162 161 159 156 152 144 108 76 142 157 161 164 165 164 164 162 163 162 162 163 161 161 162 162 162 164 166 167 167 168 169 170 172 174 174 173 172 171 171 171 169 169 168 169 169 170 171 169 168 167 166 168 169 170 169 168 169 168 167 164 161 160 160 160 159 159 159 160 160 162 163 163 163 163 164 164 164 163 162 162 162 163 163 164 162 161 164 165 166 166 167 165 166 167 168 169 168 168 168 168 166 164 164 164 162 161 162 163 161 160 161 162 163 163 163 163 162 161 161 161 162 160 157 157 157 158 159 158 156 155 155 157 158 158 156 157 158 159 160 162 161 159 157 157 159 159 159 160 160 159 158 157 156 155 152 152 153 152 150 151 151 149 142 123 112 103 93 82 71 56 37 13 0 0 36 114 143 150 151 153 154 154 154 155 157 158 161 164 165 166 167 165 164 162 159 158 153 148 119 25 10 8 7 5 6 5 3 1 1 5 7 9 8 6 7 7 6 6 6 6 5 5 4 5 4 5 7 9 9 8 8 7 6 6 5 6 7 6 5 4 6 5 8 8 8 7 8 10 12 13 16 17 20 21 19 19 21 21 21 22 21 23 23 22 22 21 22 23 24 25 25 25 25 24 22 21 22 21 19 18 15 14 16 17 17 18 20 20 19 20 21 23 21 22 20 21 21 22 20 21 22 23 25 25 25 24 25 24 25 26 28 27 27 26 27 27 23 21 19 19 21 23 25 24 24 24 26 28 27 25 26 25 25 23 22 21 21 22 22 21 20 19 17 14 12 12 10 9 8 9 13 15 15 16 17 20 21 20 23 21 20 20 21 22 21 22 21 21 22 22 22 22 25 26 26 27 29 28 27 27 26 24 22 20 19 21 21 20 21 22 24 26 28 27 25 26 27 28 28 28 28 29 30 32 32 30 30 29 29 30 29 29 28 24 24 25 27 27 28 27 25 25 27 
26 28 28 28 27 27 28 27 27 27 28 26 25 25 26 27 25 25 25 25 27 26 27 26 25 26 24 23 23 22 21 23 23 25 25 25 24 24 24 25 24 23 22 22 21 21 21 22 22 22 23 22 23 22 23 23 24 24 25 25 24 23 21 20 20 20 17 17 16 14 16 17 16 17 16 16 16 18 19 18 17 16 16 15 13 11 10 10 9 10 11 10 9 8 11 13 11 12 11 10 9 7 5 7 6 1 0 0 0 0 0 0 0 0 0 0 0 0 0 0 0 0 0 0 0 0 0 0 0 0 0 0 0 0 0 0 0 0 0 0 0 0 0 0 0 0 0 0 0 0 0 0 0 0 0 0 0 0 0 0 0 0 0 0 0 46 136 149 153 155 157 159 158 157 154 151 150 149 146 146 146 144 143 141 140 141 139 136 132 130 129 129 128 126 121 116 113 109 106 101 94 97 144 153 155 157 157 157 158 159 159 160 161 161 163 164 164 163 163 160 157 155 154 148 132 107 141 159 163 165 165 163 163 163 162 162 164 164 161 161 161 161 164 166 167 168 170 171 172 173 174 172 174 174 173 171 170 169 169 170 169 169 170 172 171 170 167 169 170 170 170 169 169 168 169 168 166 164 162 162 161 159 159 159 159 161 161 161 159 162 163 164 163 161 161 161 163 162 162 162 161 161 162 162 163 163 165 166 165 166 167 168 169 169 167 168 168 167 167 166 166 162 163 162 163 161 160 160 162 163 163 162 162 163 161 162 162 161 160 159 158 158 157 157 158 154 153 153 157 159 158 157 157 158 159 161 162 162 160 159 157 157 159 160 160 162 162 161 160 159 158 156 156 155 153 151 149 144 135 127 113 102 95 84 74 60 42 17 0 4 53 122 144 150 153 153 153 155 156 158 161 162 163 166 166 167 167 167 167 166 162 159 156 153 149 140 66 10 8 7 4 4 4 4 2 5 6 9 10 9 7 6 8 6 5 5 6 4 5 4 5 5 7 9 10 10 9 9 8 9 7 7 8 9 8 6 7 8 9 10 11 9 8 8 8 11 12 15 16 18 19 19 19 20 21 20 20 21 22 22 21 21 18 20 20 22 25 26 27 27 26 25 25 23 23 20 17 14 12 15 17 16 17 18 18 21 20 20 23 22 22 21 20 20 22 22 23 23 25 26 26 26 27 28 26 27 26 27 28 27 27 26 25 24 21 20 21 22 24 26 26 25 25 27 27 27 27 28 27 25 26 23 23 22 24 24 24 22 22 20 18 16 14 11 10 11 12 13 14 15 16 19 19 22 22 23 23 22 21 23 23 23 23 22 21 22 23 22 22 22 25 26 27 28 28 29 27 25 25 24 20 19 20 22 20 19 20 23 25 28 29 28 27 27 29 30 30 30 30 30 29 29 29 27 26 27 29 28 28 28 26 27 26 26 27 27 26 26 27 27 
25 27 27 28 27 26 25 27 28 27 26 25 25 24 25 26 25 25 26 27 28 28 28 27 27 27 24 24 25 23 22 22 24 25 24 25 25 24 24 23 22 21 23 22 22 22 23 24 22 21 21 22 22 22 22 22 24 23 24 23 25 24 21 20 19 18 16 16 14 15 18 17 17 17 17 17 16 16 17 16 16 16 16 14 12 10 9 9 7 10 12 12 11 10 13 13 13 13 11 10 9 6 6 7 7 2 1 0 0 0 0 0 0 0 0 0 0 0 0 0 0 0 0 0 0 0 0 0 0 0 0 0 0 0 0 0 0 0 0 0 0 0 0 0 0 0 0 0 0 0 0 0 0 0 0 0 0 0 0 0 0 0 0 0 0 23 128 147 152 156 159 159 159 158 155 152 151 150 148 147 147 146 145 141 140 140 141 138 136 135 134 135 134 133 128 124 122 118 115 109 103 125 152 154 156 157 158 158 160 160 159 160 162 163 163 164 164 164 165 163 161 160 158 156 153 145 128 149 162 163 161 160 162 162 162 162 165 163 161 158 159 159 162 166 168 170 171 171 173 172 173 175 175 174 173 171 170 170 169 169 168 167 171 172 172 172 171 171 172 172 171 169 169 168 169 168 167 165 164 163 165 163 162 161 160 161 162 160 160 161 163 162 161 160 161 161 161 161 160 162 161 160 160 161 161 162 164 164 166 167 168 169 169 168 168 167 167 167 168 168 167 165 165 164 163 162 162 162 163 164 163 163 163 163 163 163 165 163 161 160 159 158 158 156 156 154 152 155 159 160 160 159 159 159 159 161 161 159 158 159 158 158 160 161 164 165 165 164 163 162 161 159 157 153 151 146 138 130 119 110 101 93 86 77 63 46 22 4 39 102 138 148 152 154 154 155 155 156 159 163 165 165 166 168 168 167 165 165 166 165 162 157 155 152 148 145 110 19 7 6 3 3 4 3 3 5 9 10 9 10 8 7 7 6 5 4 4 4 4 4 5 6 8 11 11 11 9 9 9 9 9 9 10 11 11 8 9 10 11 10 10 9 9 8 9 10 11 13 15 16 18 17 17 18 20 20 22 21 19 20 19 19 16 17 18 22 24 26 26 26 25 25 25 24 22 19 17 14 14 14 16 16 16 16 18 20 22 22 23 23 23 22 20 21 24 24 24 24 25 28 29 29 29 31 30 27 27 28 29 28 26 26 26 26 24 23 23 24 26 25 25 26 25 25 26 27 29 29 28 27 26 24 24 23 24 25 25 25 24 22 19 17 14 13 12 13 12 13 14 16 17 19 20 22 23 25 25 24 23 22 24 24 23 22 21 23 22 21 23 24 27 26 28 29 29 30 28 27 26 24 20 18 20 20 20 18 20 21 26 28 28 29 28 28 30 32 32 32 31 30 27 28 26 25 26 25 27 28 27 26 26 28 28 26 26 25 25 24 25 26 
26 27 25 26 26 25 24 28 27 27 25 25 26 26 27 27 27 26 26 27 31 31 30 30 28 26 26 25 25 25 23 23 23 24 24 26 27 24 25 24 22 23 22 24 25 26 26 26 24 21 21 22 23 21 21 21 22 23 23 23 24 23 23 21 20 18 17 15 16 17 19 19 17 17 18 18 18 16 16 15 16 17 16 14 11 9 9 7 7 8 9 11 11 10 12 13 13 14 11 9 8 6 6 7 7 4 0 0 0 0 0 0 0 0 0 0 0 0 0 0 0 0 0 0 0 0 0 0 0 0 0 0 0 0 0 0 0 0 0 0 0 0 0 0 0 0 0 0 0 0 0 0 0 0 0 0 0 0 0 0 0 0 0 0 0 7 121 147 152 154 159 160 159 157 154 154 153 152 150 149 149 148 145 142 141 142 142 140 139 139 138 138 139 138 135 131 130 124 121 115 113 144 153 154 156 158 159 160 161 162 162 163 164 165 165 165 164 164 164 163 162 163 161 157 157 156 154 148 155 161 158 157 157 158 159 160 163 162 160 159 158 158 161 166 169 171 171 171 171 173 174 175 175 173 171 170 170 169 168 169 169 169 171 172 173 173 173 173 173 174 173 172 171 170 171 170 169 168 167 166 167 165 164 162 161 161 162 161 161 160 162 162 159 161 162 160 160 160 160 161 161 160 161 160 161 162 163 164 167 166 167 166 167 165 165 167 168 167 169 168 166 166 166 165 164 163 164 164 163 164 164 163 166 165 166 166 165 164 162 160 158 159 158 158 157 154 155 157 160 160 161 161 161 158 157 158 158 156 158 160 160 160 162 164 164 164 165 165 164 165 163 161 157 147 139 128 122 117 110 102 92 83 76 65 47 26 29 87 134 151 153 153 155 155 155 155 155 158 160 164 166 166 168 168 168 168 165 165 165 165 162 157 154 153 150 147 138 60 5 4 4 4 4 5 3 6 8 8 9 10 10 8 7 5 5 5 5 6 6 6 5 6 9 9 10 10 10 9 10 11 12 10 10 11 11 10 9 8 11 11 10 11 11 10 9 9 10 12 14 15 16 18 19 18 20 22 22 19 16 17 18 17 14 15 16 19 22 24 24 23 23 25 25 24 22 21 18 15 14 13 15 15 15 17 19 21 24 23 23 24 24 23 22 21 24 25 26 25 28 29 30 29 30 33 32 29 30 30 30 27 27 27 29 29 28 25 24 27 27 25 26 26 26 25 26 27 28 30 28 26 26 25 24 24 25 27 28 27 25 22 20 20 18 16 15 14 13 14 15 16 16 18 20 22 25 25 25 24 24 23 23 22 22 21 21 22 22 23 25 26 28 26 28 28 30 30 27 27 25 23 21 21 19 20 19 19 20 22 25 26 29 28 27 28 28 30 31 33 31 29 27 28 29 28 25 25 24 26 28 27 28 29 28 29 27 26 25 24 24 24 
26 25 24 25 26 24 24 26 27 28 25 27 29 28 28 28 27 26 26 28 30 32 33 32 29 28 28 28 27 26 24 23 23 24 23 24 25 25 25 23 23 24 24 27 28 28 30 28 25 22 22 24 23 22 21 21 22 22 22 23 23 21 21 20 19 19 18 16 16 18 19 19 18 18 18 17 18 17 16 15 17 17 15 13 10 9 9 8 7 7 8 9 9 10 10 10 12 14 14 11 6 5 4 4 4 3 0 0 0 0 0 0 0 0 0 0 0 0 0 0 0 0 0 0 0 0 0 0 0 0 0 0 0 0 0 0 0 0 0 0 0 0 0 0 0 0 0 0 0 0 0 0 0 0 0 0 0 0 0 0 0 0 0 0 0 0 108 147 152 155 160 159 160 159 157 157 156 153 151 151 151 149 145 143 145 145 142 140 140 140 141 142 141 141 138 135 134 130 125 119 128 151 154 154 156 157 160 160 162 163 164 165 166 164 165 166 166 165 162 163 164 164 162 159 159 160 159 157 152 153 158 158 153 155 158 158 160 159 159 158 158 160 163 166 170 171 170 172 172 173 173 174 173 171 170 170 170 170 172 171 172 171 172 173 175 174 176 174 174 173 173 174 172 171 170 171 170 168 169 168 168 165 163 161 160 161 163 163 161 162 162 161 160 161 161 160 159 160 160 162 162 160 160 160 162 161 162 162 164 163 164 165 165 165 165 166 168 169 170 168 167 166 165 164 164 163 164 166 166 165 165 165 166 166 165 166 167 166 164 161 161 159 158 157 156 155 156 158 160 163 161 160 159 157 157 156 156 155 157 160 160 162 165 164 163 164 164 164 164 164 161 155 151 136 123 117 111 107 101 93 83 74 64 49 33 71 127 149 155 158 157 157 156 157 155 155 155 158 160 162 165 164 167 168 169 169 167 165 165 163 161 157 154 151 149 148 143 101 8 2 2 4 6 6 7 6 7 8 8 8 7 7 6 4 5 5 7 8 8 8 8 9 10 10 11 9 9 8 9 11 12 11 10 11 12 11 9 8 10 11 10 11 12 10 10 10 11 13 16 16 19 19 18 20 22 24 24 21 17 16 16 14 13 12 13 15 19 21 23 21 23 24 24 22 21 20 19 15 13 12 13 14 15 19 22 23 25 26 25 25 24 23 24 25 27 26 28 28 28 28 30 30 31 33 31 31 30 30 29 27 27 28 31 32 30 25 25 26 29 27 26 26 25 26 27 26 28 30 30 28 28 27 25 25 25 27 28 27 24 23 22 20 20 17 16 17 16 16 16 17 17 18 18 21 22 23 24 24 25 24 23 22 22 20 19 20 22 26 25 26 27 27 27 28 28 27 26 26 24 23 23 23 21 21 21 20 20 22 23 25 26 25 25 25 26 28 30 31 30 28 28 30 29 28 24 23 24 27 28 28 29 29 29 28 27 27 26 24 24 24 
26 25 25 27 27 26 26 27 28 28 26 26 28 30 29 27 27 26 26 27 29 31 33 32 29 28 28 28 28 27 26 24 23 24 24 25 26 26 24 25 24 26 26 27 30 31 31 31 27 24 24 24 22 23 22 22 22 24 23 24 23 22 20 19 19 20 20 19 18 19 20 20 19 19 17 17 17 18 16 16 17 16 14 13 9 9 9 8 8 9 9 8 8 9 9 10 12 12 11 7 5 4 3 2 3 2 0 0 0 0 0 0 0 0 0 0 0 0 0 0 0 0 0 0 0 0 0 0 0 0 0 0 0 0 0 0 0 0 0 0 0 0 0 0 0 0 0 0 0 0 0 0 0 0 0 0 0 0 0 0 0 0 0 0 0 0 91 145 152 155 157 159 159 160 160 158 157 155 152 151 151 150 147 145 146 146 144 141 143 142 143 143 144 143 139 136 134 132 128 125 145 157 157 156 155 156 159 160 162 165 166 168 168 166 166 165 165 165 164 163 163 162 161 162 162 161 159 159 157 153 147 149 152 153 154 156 157 156 158 159 160 161 162 166 169 169 170 170 170 171 173 172 170 169 170 170 171 172 172 173 174 174 174 176 175 175 174 173 173 173 172 172 172 172 172 171 170 169 168 168 167 165 161 160 159 160 162 163 162 162 161 161 161 161 161 161 162 161 162 162 162 161 162 163 164 162 162 162 163 162 163 165 165 167 166 166 167 169 170 168 168 167 166 164 164 163 166 166 167 166 166 166 167 166 165 165 166 165 163 163 160 159 157 156 156 156 157 159 161 163 163 161 159 158 157 156 156 158 160 160 162 163 166 165 164 164 164 163 159 156 151 140 135 125 114 108 104 99 90 84 73 61 50 61 115 149 159 161 160 160 158 157 157 156 156 155 157 159 160 162 165 167 167 168 168 168 165 162 161 162 160 158 154 152 151 150 146 128 39 3 4 6 7 8 8 8 9 11 10 10 7 6 4 4 5 7 7 9 9 8 9 10 12 12 12 9 9 9 10 11 10 9 11 10 11 11 11 10 10 10 10 11 13 12 12 12 14 16 17 18 19 20 21 22 23 23 24 23 20 16 15 14 13 11 12 13 17 22 22 20 20 22 25 23 22 22 19 16 13 12 13 14 17 20 22 23 25 24 24 23 24 24 25 28 29 31 30 29 29 30 31 31 32 32 31 32 31 31 30 28 28 30 32 32 29 25 25 27 27 29 29 28 27 26 27 27 30 31 32 29 28 28 26 25 26 26 26 25 25 23 24 22 20 17 18 17 16 16 15 15 17 17 18 21 21 21 23 24 25 26 25 24 22 20 20 22 22 24 25 25 28 27 29 28 29 28 27 26 24 21 23 22 22 22 21 21 21 22 23 25 26 26 25 25 24 26 28 29 29 27 27 29 29 27 25 24 25 27 28 28 29 32 30 28 27 26 25 24 25 26 
24 24 26 26 25 25 27 28 28 28 28 26 27 28 27 28 26 25 26 28 29 29 31 31 28 29 28 28 28 28 28 26 24 25 26 26 28 26 24 24 25 27 28 28 29 30 31 31 28 25 24 24 22 21 22 21 23 24 25 23 22 22 19 19 20 20 22 20 19 20 20 19 19 17 17 15 16 17 17 15 15 14 13 12 9 10 9 10 9 10 10 9 9 6 7 7 9 8 8 7 4 5 5 3 1 1 0 0 0 0 0 0 0 0 0 0 0 0 0 0 0 0 0 0 0 0 0 0 0 0 0 0 0 0 0 0 0 0 0 0 0 0 0 0 0 0 0 0 0 0 0 0 0 0 0 0 0 0 0 0 0 0 0 0 0 0 70 142 151 153 156 159 160 160 158 157 157 155 153 152 151 151 150 149 148 148 146 145 145 145 145 145 143 143 140 136 135 133 131 135 155 158 159 158 158 159 163 164 166 168 167 169 168 166 166 166 167 166 163 160 160 160 161 162 161 161 160 159 157 156 154 150 148 151 153 153 157 158 158 160 162 161 161 163 166 168 168 170 169 169 169 169 171 169 169 171 173 174 175 176 177 176 176 177 176 176 175 173 173 172 172 172 172 172 173 172 171 169 168 168 166 163 159 159 159 159 161 162 163 163 161 160 162 162 162 163 162 161 163 162 164 164 164 163 163 163 162 162 163 163 164 164 166 167 167 166 167 168 168 168 168 167 167 165 165 164 164 167 168 168 167 167 167 165 165 165 166 165 162 159 158 157 158 157 155 156 158 160 162 162 162 162 160 160 159 157 158 158 160 160 163 163 165 165 164 163 160 156 152 140 137 132 125 118 110 102 97 88 80 71 60 64 108 143 156 162 165 163 162 161 159 157 157 157 157 156 157 158 158 161 165 167 167 168 167 166 163 160 159 159 158 157 155 152 152 152 149 141 88 7 7 8 9 10 10 12 13 13 10 10 8 6 4 6 5 7 8 9 9 9 10 13 13 12 12 11 9 11 11 10 8 8 8 10 11 12 12 13 10 9 11 12 14 15 14 15 16 17 18 20 19 21 23 24 24 23 23 22 20 16 14 13 12 10 11 13 16 19 21 18 20 21 23 23 22 21 17 17 15 15 14 15 15 17 20 20 22 22 22 23 24 24 26 28 29 31 32 30 28 30 31 31 31 31 32 32 31 29 30 30 29 30 29 30 29 26 26 26 28 30 29 28 28 28 28 29 32 33 32 31 28 28 26 23 22 23 24 24 23 21 21 19 19 18 19 16 14 14 14 16 17 18 17 20 22 21 22 25 27 28 28 26 25 23 24 23 24 25 26 27 28 28 28 29 27 28 27 26 26 24 21 21 20 21 21 21 21 21 23 27 26 27 25 26 26 28 28 28 29 27 26 28 28 27 25 26 26 27 28 27 30 31 29 27 25 25 23 23 23 24 
23 23 25 26 25 25 27 28 29 30 29 27 27 28 26 26 24 23 25 25 27 29 31 29 28 28 28 28 27 27 25 24 25 26 26 27 28 27 24 25 26 29 28 30 30 30 31 31 27 25 24 22 23 22 22 21 22 24 23 21 22 21 21 19 21 21 20 21 20 17 18 18 18 18 16 15 16 15 15 14 14 12 10 11 10 10 10 9 10 9 9 7 7 7 6 6 7 8 8 7 6 7 7 4 3 1 0 0 0 0 0 0 1 1 1 1 0 0 0 1 0 0 0 0 0 0 0 0 0 0 0 0 0 0 0 0 0 0 0 0 0 0 0 0 0 0 0 0 0 0 0 0 0 0 0 0 0 0 0 0 0 0 0 0 0 0 43 135 149 153 155 158 158 157 158 156 157 157 156 154 152 153 150 150 150 150 150 148 149 150 149 147 146 145 142 139 137 136 135 145 157 159 159 158 161 163 166 167 168 170 168 169 169 168 167 168 167 164 161 158 157 158 160 161 161 160 161 159 157 158 157 156 155 152 148 151 153 158 160 162 163 161 160 162 165 166 167 169 167 168 169 170 171 169 170 171 175 175 177 178 178 179 179 179 179 176 174 172 170 171 171 172 171 173 172 172 171 169 169 167 164 161 160 159 159 160 162 163 164 163 162 162 163 164 163 163 164 163 164 164 165 166 166 164 163 164 164 165 164 164 163 164 165 166 167 166 167 167 168 168 167 169 168 167 166 166 165 167 169 167 165 166 165 164 164 164 165 163 162 158 157 155 157 156 157 157 158 159 163 163 162 160 160 160 160 159 158 158 159 161 163 162 161 157 155 153 146 141 138 135 130 125 119 112 104 96 90 78 71 84 117 143 152 157 162 165 166 165 164 161 158 159 159 159 160 158 158 159 160 160 164 166 167 168 167 165 163 161 160 158 158 158 157 154 153 154 154 148 127 37 8 10 10 10 12 14 14 13 12 8 8 7 6 5 5 6 7 9 9 10 11 13 15 14 13 12 13 11 10 8 7 7 8 11 12 12 12 14 12 10 12 14 16 16 17 16 15 16 19 21 20 21 24 24 23 23 21 19 18 18 15 13 11 10 12 14 16 19 19 21 22 22 22 20 20 18 16 16 16 16 15 14 14 16 18 19 20 21 22 22 22 24 26 28 28 30 31 29 28 28 28 29 29 30 30 30 30 30 30 31 30 29 30 30 29 27 26 27 28 30 30 30 30 29 30 32 36 34 34 32 30 28 26 23 20 22 22 23 21 19 18 18 17 15 14 13 14 14 15 16 17 19 17 20 23 23 24 25 27 29 27 26 26 25 25 25 25 26 24 25 27 29 29 28 28 27 28 28 27 24 23 23 21 21 21 21 21 21 24 27 27 27 26 29 30 30 29 30 30 27 26 26 28 26 26 25 26 27 26 26 28 28 27 24 23 23 23 24 22 22 
22 24 25 24 23 24 27 30 30 32 31 29 27 27 26 25 23 22 25 24 25 29 30 29 27 27 27 27 26 25 25 24 26 26 28 27 27 25 24 25 27 29 30 28 28 29 29 29 28 24 23 23 24 24 24 23 24 25 24 21 19 19 21 21 22 23 22 20 19 16 16 16 16 15 15 15 14 15 15 14 11 11 11 11 11 10 8 7 10 10 8 6 4 6 6 5 7 8 9 8 7 7 7 5 4 3 1 0 0 0 0 1 2 3 2 1 1 0 1 0 0 0 0 0 0 0 0 0 0 0 0 0 0 0 0 0 0 0 0 0 0 0 0 0 0 0 0 0 0 0 0 0 0 0 0 0 0 0 0 0 0 0 0 0 0 0 22 129 149 154 154 155 156 156 156 157 158 159 157 154 152 151 152 152 153 152 153 152 152 151 152 149 147 147 145 143 141 138 139 153 160 160 160 161 162 167 168 168 169 171 170 169 168 168 167 168 166 161 159 157 156 156 158 159 159 159 159 158 157 157 158 159 158 155 154 154 150 151 157 162 163 162 161 163 166 167 169 171 170 170 171 172 171 170 169 171 174 176 175 176 177 178 179 179 178 176 174 171 171 171 172 171 171 171 171 170 170 170 169 167 163 160 159 160 160 162 163 164 165 163 164 164 165 166 165 164 165 166 168 167 167 168 167 166 166 168 168 167 165 164 164 164 163 165 166 167 167 167 168 167 169 169 168 167 167 167 166 167 167 165 164 166 164 163 162 162 163 162 160 158 158 157 158 160 161 159 159 161 163 164 162 161 162 162 161 159 158 158 157 158 160 160 153 146 138 136 133 131 129 128 124 119 113 105 95 88 86 105 132 149 158 159 159 160 163 166 166 165 164 162 160 160 161 162 162 162 162 162 161 162 163 165 167 166 165 167 164 163 163 163 161 159 158 155 156 156 153 150 140 79 8 8 9 10 10 12 14 11 11 10 9 8 7 6 5 6 8 9 10 11 12 15 17 17 15 14 13 12 10 8 6 7 9 12 12 12 11 11 11 11 12 14 16 16 16 16 18 20 21 22 21 20 22 23 22 21 20 20 19 19 16 15 13 13 15 16 18 21 22 22 23 22 22 19 20 17 14 15 15 17 17 15 15 15 16 17 19 21 20 21 21 23 24 25 26 27 28 28 27 27 27 26 27 27 29 30 30 32 32 31 31 30 29 30 29 29 28 28 28 31 32 31 31 30 31 33 34 33 35 32 29 26 23 21 20 21 21 20 19 18 16 16 15 14 11 13 14 15 17 18 19 19 18 21 22 24 24 26 28 29 27 27 27 26 26 26 26 25 25 24 27 28 28 28 27 27 28 28 25 26 27 27 24 25 23 21 21 23 23 26 26 25 26 27 29 30 30 31 33 31 28 26 26 25 25 25 24 24 24 24 25 26 26 26 24 25 23 22 21 22 
22 23 23 22 23 24 28 31 32 33 33 30 28 27 26 23 22 25 26 26 26 28 29 28 26 27 26 24 25 25 26 27 28 28 29 27 26 23 23 24 26 28 28 27 26 25 27 28 28 26 25 25 26 27 26 25 26 25 21 20 19 20 20 23 24 22 20 20 17 16 15 14 13 11 12 12 11 13 14 13 12 13 12 12 12 10 8 8 10 9 7 4 4 4 5 7 7 8 9 10 8 7 8 8 6 4 4 2 0 0 0 2 3 5 4 3 3 1 1 0 0 0 0 0 0 0 0 0 0 0 0 0 0 0 0 0 0 0 0 0 0 0 0 0 0 0 0 0 0 0 0 0 0 0 0 0 0 0 0 0 0 0 0 0 0 0 5 120 146 152 152 153 154 155 157 157 158 158 157 154 153 153 154 153 154 154 154 155 153 152 152 151 150 148 147 145 143 141 147 159 161 162 162 163 165 167 169 168 170 170 171 170 170 169 170 168 164 161 160 159 157 157 157 156 156 157 159 158 158 159 159 160 159 155 155 157 155 154 152 154 159 163 164 165 166 170 173 174 173 173 174 174 175 173 172 173 174 175 174 176 177 178 179 178 177 176 173 171 172 172 172 172 171 172 173 170 168 169 170 169 165 161 160 161 161 162 162 164 166 165 163 164 166 168 166 166 167 169 169 169 170 171 170 168 169 170 169 168 166 165 166 164 164 164 164 166 166 167 167 167 168 169 168 167 167 167 165 164 164 164 165 164 164 162 161 160 160 160 159 158 158 160 158 162 163 162 161 163 165 165 163 161 164 163 161 159 156 155 153 150 148 147 140 133 130 128 127 124 124 120 117 112 106 97 99 119 140 151 157 161 163 163 163 161 163 166 166 165 164 161 161 163 164 165 165 166 166 165 163 163 163 164 165 165 166 167 166 165 166 166 164 162 161 158 158 156 152 150 145 119 25 8 8 8 9 10 10 9 9 9 8 6 6 4 4 5 6 8 10 12 13 14 16 18 17 15 12 12 11 8 6 7 10 12 12 12 11 11 13 11 11 13 14 14 15 17 18 21 21 23 22 21 21 21 20 21 21 20 21 20 18 18 17 18 19 19 21 22 24 25 24 23 21 21 19 18 15 14 14 16 17 15 15 15 15 17 18 19 19 20 22 22 24 24 24 24 26 26 27 26 28 27 26 28 30 30 29 31 33 32 32 31 32 31 30 32 31 29 28 30 33 32 31 30 32 33 34 32 32 31 28 25 24 22 20 20 21 20 19 18 17 15 14 15 12 12 13 14 16 18 20 21 21 22 22 24 24 27 28 29 28 27 28 27 28 27 27 26 25 27 27 28 26 27 26 27 29 28 28 28 28 26 25 24 25 24 23 23 23 26 25 25 25 28 29 28 29 31 32 33 30 28 26 26 24 22 23 22 22 23 24 26 25 26 25 25 24 23 23 23 
24 25 24 24 23 25 29 33 33 33 32 31 30 28 27 25 25 26 28 29 28 26 26 27 26 27 27 25 25 27 28 28 29 30 28 27 26 23 23 25 26 29 28 25 23 25 25 26 29 28 28 27 28 29 27 26 26 25 22 22 20 21 21 24 22 20 18 18 17 15 15 13 10 9 9 10 10 11 11 11 11 13 13 12 11 9 7 8 8 9 8 5 4 2 4 7 7 6 8 8 8 8 8 8 6 5 4 2 0 0 1 3 4 6 9 7 5 4 1 0 0 0 0 0 0 0 0 0 0 0 0 0 0 0 0 0 0 0 0 0 0 0 0 0 0 0 0 0 0 0 0 0 0 0 0 0 0 0 0 0 0 0 0 0 0 0 0 103 143 149 150 151 152 155 156 157 156 158 158 156 155 154 154 154 154 153 155 158 154 153 153 153 151 149 149 147 146 144 154 161 163 164 165 164 166 168 171 170 171 173 172 173 171 171 171 169 165 162 162 159 158 157 157 159 157 158 160 160 159 160 161 161 159 158 157 157 156 159 158 158 157 156 158 163 166 170 174 175 176 175 175 175 174 173 174 173 175 174 175 177 178 178 179 177 176 173 172 172 173 172 172 172 172 173 174 172 170 171 173 170 168 164 162 161 161 161 161 164 164 162 163 166 165 167 168 167 168 170 170 170 170 172 171 169 168 169 169 168 167 168 168 165 163 163 165 167 167 167 167 167 169 169 169 169 168 167 166 163 162 163 165 165 162 159 158 159 160 161 159 159 159 160 160 162 164 163 164 166 166 166 165 163 162 163 157 153 148 144 141 139 139 136 134 131 128 124 121 120 118 114 109 108 119 137 149 156 159 160 162 164 165 164 165 164 165 166 165 164 165 163 164 166 168 169 169 169 169 168 166 164 165 166 166 165 165 167 167 166 166 166 165 164 162 160 160 159 156 152 149 139 66 6 5 5 7 6 7 6 7 7 8 7 5 4 3 5 7 8 9 12 12 15 17 17 15 12 12 10 11 9 7 8 11 11 12 13 11 11 11 11 12 11 13 13 15 17 19 20 20 21 21 21 20 21 22 22 22 22 22 20 20 21 21 20 20 21 21 23 27 26 24 24 23 21 20 18 16 14 13 16 16 15 14 13 15 16 17 18 19 20 22 22 23 23 24 24 26 26 26 27 27 27 27 30 32 31 32 33 33 34 32 31 32 32 33 32 31 29 29 29 30 31 31 30 31 33 34 32 32 29 26 24 24 22 21 20 21 19 18 19 19 18 18 17 15 12 14 15 16 18 21 22 24 23 24 26 26 28 30 29 28 29 31 29 28 29 29 28 27 28 30 29 27 26 26 25 27 29 28 29 27 26 27 27 27 25 24 23 23 26 26 24 23 26 27 27 29 30 31 33 31 28 26 26 23 22 22 20 20 22 25 25 25 24 26 26 26 25 25 24 
25 25 24 24 25 26 29 32 31 30 29 30 30 31 28 27 26 27 29 27 26 27 24 25 28 27 27 28 28 29 29 29 28 28 29 27 26 25 27 26 25 26 26 25 25 25 27 27 29 28 30 29 29 30 29 28 27 25 24 23 22 22 21 22 20 19 18 17 16 15 14 11 10 10 11 9 9 9 9 9 10 12 13 12 12 10 8 7 6 7 7 4 2 1 5 8 7 6 8 8 8 8 10 9 8 6 6 3 1 0 1 3 5 8 11 10 6 4 1 0 0 0 0 0 0 0 0 0 0 0 0 0 0 0 0 0 0 0 0 0 0 0 0 0 0 0 0 0 0 0 0 0 0 0 0 0 0 0 0 0 0 0 0 0 0 0 0 77 140 147 150 150 153 155 155 155 155 158 157 157 156 155 154 152 154 156 158 159 157 155 156 155 152 150 151 151 151 152 161 163 163 165 165 167 168 170 172 172 172 173 173 172 171 171 171 170 168 165 163 161 158 158 160 158 159 160 160 161 161 160 161 161 161 160 159 157 157 157 158 159 161 161 161 162 160 164 169 175 176 175 174 175 173 173 174 174 176 175 177 178 179 178 178 178 176 173 171 172 174 172 173 172 171 172 175 174 174 175 173 171 169 165 163 162 160 162 164 165 164 162 164 167 167 168 171 170 170 170 169 169 169 170 168 167 167 167 167 166 166 170 168 166 165 165 168 169 168 167 167 168 169 169 170 170 168 167 166 164 164 163 164 161 159 158 158 157 157 160 160 160 158 160 161 162 164 163 164 165 164 162 159 158 155 153 149 144 140 136 136 135 133 132 128 125 124 121 118 116 117 124 137 152 161 164 163 164 164 162 163 163 164 166 167 166 166 167 166 164 165 165 165 167 169 170 171 170 171 171 169 167 166 167 167 167 166 168 168 166 167 166 167 165 165 165 164 161 157 154 150 144 107 15 5 5 5 5 4 3 3 3 6 7 5 3 3 5 8 7 9 11 13 13 16 15 14 12 11 10 9 9 10 8 11 13 14 14 14 13 12 12 11 12 14 14 15 18 19 18 19 22 21 20 20 22 23 23 21 23 24 24 22 22 23 22 22 22 22 26 29 27 25 23 23 23 21 19 17 15 13 14 15 15 13 12 14 14 17 17 18 19 21 21 23 22 24 24 25 25 24 25 27 28 29 32 31 32 32 32 34 33 33 33 33 33 34 33 33 30 28 28 27 30 31 29 30 32 32 32 30 27 27 23 24 24 22 21 21 19 17 18 19 19 18 18 16 15 15 18 19 20 19 21 24 22 22 25 26 29 29 29 28 29 31 30 30 31 33 31 30 31 31 30 30 29 28 27 28 30 30 30 29 28 28 28 26 24 24 22 22 23 25 24 23 24 27 27 30 31 30 31 30 27 25 26 26 24 24 22 20 21 24 25 26 25 25 27 28 25 25 25 
25 25 25 26 26 26 28 30 30 29 28 30 32 31 28 27 26 28 29 27 26 25 24 26 28 28 27 29 28 27 28 29 28 27 28 28 26 25 26 27 26 25 25 25 26 27 28 27 28 28 28 27 29 29 29 27 27 27 26 23 22 21 19 19 18 18 19 17 17 16 14 12 12 12 13 11 10 8 7 7 8 11 10 11 9 9 7 7 7 7 4 4 2 2 4 7 6 5 5 6 8 9 9 9 8 8 9 6 3 2 3 4 4 8 10 9 6 5 3 4 0 0 0 0 0 0 0 0 0 0 0 0 0 0 0 0 0 0 0 0 0 0 0 0 0 0 0 0 0 0 0 0 0 0 0 0 0 0 0 0 0 0 0 0 0 0 0 43 131 145 147 151 154 155 155 155 157 157 159 156 156 154 154 152 156 160 162 163 161 160 159 159 157 155 154 154 153 159 164 165 166 166 168 170 171 174 175 175 172 170 170 170 170 171 171 170 168 166 164 162 159 159 161 160 159 161 164 165 163 162 162 163 164 162 160 159 156 155 156 157 161 163 165 166 166 167 168 169 169 172 173 172 173 175 175 175 175 176 177 178 178 180 179 177 175 172 172 173 174 174 174 172 173 174 175 175 176 175 174 172 170 165 163 162 164 166 167 167 166 162 164 167 168 170 173 173 172 171 170 169 169 170 169 166 166 166 167 167 167 171 169 168 168 168 169 170 170 171 170 170 170 168 168 169 167 166 166 165 165 164 164 163 160 159 158 157 157 157 159 159 157 157 159 159 159 159 158 158 154 152 146 146 144 142 141 137 134 134 133 133 131 128 124 120 119 122 131 144 157 164 168 172 172 170 168 167 165 165 167 167 166 167 167 165 166 163 163 163 163 165 166 168 169 169 169 169 170 172 168 166 166 166 167 167 168 170 169 168 167 168 167 167 168 167 165 162 158 154 152 146 134 55 3 3 2 4 4 3 2 3 5 4 3 1 3 5 7 9 11 12 12 12 14 13 13 12 11 11 8 8 10 11 12 13 14 13 13 15 14 14 13 14 16 16 17 17 19 18 19 22 22 21 21 23 23 22 22 24 26 25 26 25 25 24 24 24 24 26 29 27 25 22 23 24 22 19 18 15 15 15 16 16 13 13 14 15 15 15 17 18 20 22 24 22 22 24 23 25 24 24 25 26 29 29 32 33 32 31 32 31 32 32 32 33 33 33 31 29 27 28 29 30 30 30 30 32 32 30 28 26 26 26 24 24 22 22 19 19 20 20 20 20 19 18 17 17 17 19 19 18 18 19 21 23 23 24 25 27 27 28 27 30 29 31 30 31 32 33 32 32 33 33 33 32 29 29 32 31 32 31 29 29 27 29 27 27 25 24 23 22 24 22 22 24 27 28 29 30 30 30 29 27 26 26 26 25 25 21 20 22 24 24 24 25 26 26 26 25 25 26 
28 26 27 25 25 27 28 29 29 30 29 29 30 30 29 27 27 26 27 26 27 26 26 25 26 25 26 28 27 26 28 30 29 27 27 26 25 23 25 25 24 24 25 24 24 25 25 24 25 25 26 27 28 26 25 24 24 24 23 22 23 21 20 19 18 21 20 18 16 15 13 14 14 12 11 10 10 8 7 8 7 8 7 6 5 5 5 5 5 3 2 1 1 1 4 4 4 5 5 5 7 8 8 8 8 9 10 7 6 5 4 5 5 8 9 8 6 5 5 5 1 0 0 0 0 0 0 0 0 0 0 0 0 0 0 0 0 0 0 0 0 0 0 0 0 0 0 0 0 0 0 0 0 0 0 0 0 0 0 0 0 0 0 0 0 0 0 17 123 141 147 152 153 154 154 156 158 158 158 158 154 154 155 155 157 162 164 165 163 163 161 161 160 159 158 157 157 163 166 168 169 168 170 173 176 174 175 174 173 170 171 171 171 172 171 168 165 165 167 163 161 160 161 162 163 163 167 168 166 166 165 166 164 163 159 157 155 156 157 159 163 164 166 167 169 172 174 174 171 169 167 166 171 173 173 175 174 175 176 177 177 178 177 176 174 172 173 172 173 173 174 174 174 176 174 176 177 178 175 174 170 166 163 165 167 169 169 169 166 165 168 169 169 170 172 173 173 171 170 169 169 170 170 168 167 169 169 168 169 171 171 172 171 170 170 170 172 171 171 170 169 169 168 166 166 165 166 166 165 165 164 163 161 160 157 156 156 156 157 157 155 154 155 151 149 148 147 145 142 141 140 138 138 137 134 133 132 131 131 129 127 126 128 138 148 158 164 170 172 174 173 175 176 173 170 168 167 167 167 168 168 168 167 165 165 163 163 164 164 164 167 169 169 168 167 168 169 169 168 166 166 166 166 167 170 171 171 169 169 170 170 169 169 165 163 160 157 153 152 148 142 99 6 3 3 3 4 3 2 3 3 2 1 0 2 3 7 10 11 11 10 12 14 14 13 12 12 11 9 9 9 12 13 14 14 14 14 15 17 18 17 18 18 18 18 19 18 19 20 22 21 22 22 24 23 23 22 25 26 26 27 26 26 25 26 25 25 26 27 27 25 24 23 24 22 20 19 16 14 17 17 17 15 14 15 15 16 15 17 18 21 23 23 22 21 24 23 22 23 24 25 27 29 28 31 31 31 31 32 31 31 31 32 33 34 33 31 29 28 29 30 31 32 31 31 32 32 29 27 26 27 26 25 24 22 21 21 19 21 21 20 19 18 19 18 16 17 19 18 16 15 16 20 23 21 23 24 26 27 27 29 29 31 32 32 31 33 34 34 33 34 33 35 33 31 31 31 31 31 30 28 28 26 28 28 29 28 25 23 22 22 21 20 22 25 27 29 29 28 29 29 26 26 27 27 26 25 21 21 24 24 24 23 24 25 26 26 25 26 27 
28 28 27 25 25 26 27 28 28 29 28 28 29 31 29 27 27 27 27 27 28 25 23 22 23 24 25 28 28 29 30 31 29 28 26 25 24 23 24 24 24 24 24 23 24 25 23 22 23 25 25 27 27 25 23 21 20 22 22 22 22 21 21 20 19 21 19 16 16 15 14 14 13 12 12 10 8 5 6 5 4 5 6 4 5 4 2 2 2 2 2 0 1 0 1 3 5 5 6 6 7 7 8 8 8 9 10 9 7 4 4 5 5 7 9 10 8 6 7 5 3 0 0 0 0 0 0 0 0 0 0 0 0 0 0 0 0 0 0 0 0 0 0 0 0 0 0 0 0 0 0 0 0 0 0 0 0 0 0 0 0 0 0 0 0 0 0 0 108 140 145 149 152 153 154 157 158 159 158 157 155 157 158 158 159 163 165 166 165 163 163 164 163 162 161 160 162 168 169 169 169 170 171 174 176 175 175 175 172 172 169 169 169 169 169 166 164 165 166 164 162 161 162 164 164 165 167 168 168 167 166 166 165 164 161 158 158 158 161 161 163 165 167 169 171 172 174 175 173 172 172 170 171 169 167 169 169 171 172 173 176 176 176 177 174 172 172 172 171 170 172 172 173 173 173 175 176 175 174 172 170 167 165 166 170 170 170 170 169 167 168 168 169 170 171 172 171 171 170 170 170 169 171 171 171 171 171 169 170 172 173 173 172 170 171 171 172 171 172 171 169 167 166 166 165 165 164 164 164 163 163 163 162 159 154 152 151 150 152 148 147 147 146 146 143 142 140 139 137 137 136 134 135 134 133 129 128 129 131 138 147 156 162 165 169 172 174 175 176 174 173 175 174 172 171 169 167 169 169 169 169 169 167 166 166 163 162 164 164 164 165 167 167 165 164 165 166 166 164 165 165 165 165 167 171 171 170 170 171 172 172 169 166 163 160 157 155 153 152 150 146 127 35 3 2 3 3 3 1 0 0 0 0 0 0 2 6 7 8 8 10 10 15 15 13 12 13 12 11 9 11 11 13 14 15 14 14 18 20 22 21 21 19 18 18 17 18 18 19 21 22 20 21 24 23 23 23 25 27 27 27 27 28 26 25 26 25 26 27 27 26 25 23 22 20 19 18 15 16 16 15 16 16 14 14 15 17 18 20 21 22 23 25 24 23 23 22 22 21 22 24 27 28 27 26 29 30 32 31 32 32 33 35 36 35 34 33 31 30 31 33 34 34 33 33 30 30 28 27 26 25 24 23 22 21 20 23 20 20 22 21 20 19 20 18 17 18 19 17 16 17 18 18 20 22 23 23 24 26 28 28 29 30 33 33 32 34 35 33 32 34 34 34 35 33 33 33 31 29 29 27 26 26 28 29 31 29 25 24 23 21 21 19 20 22 24 28 29 28 28 29 26 25 24 24 23 22 22 23 26 26 25 24 25 26 26 27 27 27 28 
27 27 27 26 25 25 26 27 28 29 27 27 28 30 30 29 30 30 27 25 24 24 22 21 22 23 24 27 29 29 30 31 29 27 25 23 23 23 24 25 24 24 23 24 25 25 24 23 24 25 26 27 25 24 22 20 20 22 24 24 23 22 22 21 20 20 19 16 14 13 14 14 14 13 12 10 8 5 4 5 5 4 5 4 5 5 2 2 3 2 0 0 0 0 0 1 4 5 8 7 8 9 6 8 8 7 8 7 5 4 4 4 5 7 8 9 8 7 7 5 3 3 0 0 0 0 0 0 0 0 0 0 0 0 0 0 0 0 0 0 0 0 0 0 0 0 0 0 0 0 0 0 0 0 0 0 0 0 0 0 0 0 0 0 0 0 0 0 87 136 145 149 152 153 156 157 158 158 158 157 157 158 159 161 163 165 166 169 167 165 166 166 164 162 161 162 166 171 171 170 172 171 172 174 174 174 173 173 172 172 170 169 169 168 168 166 165 165 165 165 164 164 164 165 165 167 168 168 169 168 168 168 165 164 163 161 160 161 162 163 166 168 171 172 172 172 174 174 175 174 174 173 173 173 173 170 168 167 167 167 169 172 175 175 175 172 171 171 170 170 169 170 171 170 171 173 174 174 172 172 170 167 168 169 169 171 172 172 169 168 168 168 170 171 171 171 170 170 170 172 171 172 174 173 172 173 172 173 172 173 172 171 170 169 170 170 169 170 168 167 165 165 164 164 163 163 161 159 158 157 159 157 156 153 146 144 144 143 142 140 139 141 141 140 139 138 137 136 135 133 133 132 133 134 136 139 145 153 159 166 168 172 172 174 175 176 177 176 175 175 174 173 173 171 171 169 167 169 170 171 170 169 167 166 164 161 162 164 163 164 162 163 165 165 163 164 165 164 163 162 162 163 164 167 169 170 170 172 171 171 171 170 167 163 160 157 156 154 153 151 149 142 80 5 2 4 3 1 0 0 0 0 0 0 0 2 3 5 6 8 8 9 12 12 10 11 12 12 12 12 13 13 11 13 15 15 16 19 23 22 24 22 20 18 18 16 18 18 20 22 21 22 22 24 23 23 23 24 26 28 28 28 27 26 25 26 24 26 25 27 26 26 23 22 21 19 17 17 17 17 14 14 15 15 15 17 18 21 22 21 23 24 25 25 24 24 23 22 23 23 24 25 26 23 24 28 29 30 32 34 33 34 35 36 36 35 35 34 33 33 34 33 33 35 34 31 29 29 27 25 23 23 23 22 24 23 22 21 20 21 21 20 18 19 18 18 19 19 15 16 16 15 16 18 21 20 22 23 25 27 28 28 31 31 31 32 33 33 31 31 31 33 34 34 34 33 34 32 29 28 27 26 29 31 31 31 28 25 24 22 23 20 18 19 20 22 26 27 27 29 27 24 24 23 23 22 21 20 20 24 26 26 26 27 29 28 28 27 26 26 
27 27 26 26 26 27 26 27 28 27 26 27 28 30 30 30 30 29 28 24 25 24 22 22 22 23 23 26 30 30 31 30 28 26 26 25 25 25 25 25 25 23 23 23 24 24 25 25 25 27 28 27 25 24 24 23 24 23 24 24 22 22 21 18 18 19 17 16 14 13 13 14 14 14 12 12 9 6 6 7 5 5 5 5 4 3 2 2 3 1 0 0 0 0 0 0 2 5 6 6 8 7 7 8 7 7 6 7 5 5 5 5 5 8 7 8 8 9 6 5 5 2 0 0 0 0 0 0 0 0 0 0 0 0 0 0 0 0 0 0 0 0 0 0 0 0 0 0 0 0 0 0 0 0 0 0 0 0 0 0 0 0 0 0 0 0 0 0 57 132 145 149 153 154 155 158 158 158 159 160 160 162 162 164 166 167 168 171 170 168 168 166 164 164 163 164 169 173 174 172 172 173 171 171 174 173 173 171 172 172 170 170 169 169 169 168 167 167 166 166 164 165 165 165 167 170 169 170 170 170 168 167 166 164 165 163 162 163 164 166 169 170 171 172 172 174 176 175 174 173 172 172 173 174 174 173 171 172 171 170 171 171 171 170 170 170 170 170 170 170 169 169 169 169 169 172 174 172 170 171 169 168 166 166 165 168 170 169 167 169 168 169 169 169 169 169 168 169 170 172 173 174 173 172 171 172 169 169 170 170 169 169 169 168 166 166 164 162 162 161 160 159 159 159 157 154 154 154 151 151 152 153 151 147 144 141 141 139 137 137 138 139 137 137 135 136 135 134 134 136 140 146 152 156 160 165 166 169 171 173 175 175 176 174 177 177 178 177 175 173 172 172 171 171 170 168 169 170 171 170 170 169 169 167 164 163 162 161 163 163 162 162 164 164 162 163 162 161 161 161 160 162 163 166 167 167 170 171 172 171 169 168 167 161 161 159 156 155 153 151 150 148 120 23 5 6 5 2 0 0 0 0 0 0 0 0 1 2 5 6 8 8 10 10 10 10 11 12 12 12 14 14 12 12 16 16 18 20 21 22 24 23 22 20 18 17 18 19 20 21 22 24 24 25 24 23 22 24 25 27 27 28 28 27 27 26 23 23 24 25 27 25 25 23 22 20 19 18 18 15 15 14 16 18 17 17 19 21 21 21 22 24 25 25 24 24 25 24 23 24 25 25 24 23 22 24 27 31 33 35 36 35 35 36 36 36 36 33 33 34 33 33 34 34 33 31 28 29 26 25 23 22 22 23 24 23 23 20 19 19 19 17 18 17 17 18 18 18 16 15 13 14 16 17 18 20 21 24 25 27 28 28 30 30 30 32 32 34 32 32 32 33 33 32 34 34 34 33 29 27 28 29 31 32 31 31 29 26 24 25 24 20 18 20 21 22 24 26 27 26 24 23 23 25 25 23 22 21 20 24 26 27 26 28 28 28 26 26 25 25 
25 26 27 27 28 28 28 28 28 27 26 27 27 28 31 31 30 30 27 25 23 24 23 22 22 24 23 26 27 28 29 28 26 27 27 26 24 26 26 27 26 25 23 23 23 22 24 25 26 26 26 26 26 25 26 25 24 23 24 22 22 20 19 18 15 15 15 14 14 14 14 14 15 15 13 12 10 8 7 7 6 5 4 5 3 3 2 2 2 0 0 0 0 0 0 0 1 3 5 5 5 6 5 5 6 5 6 5 6 6 7 6 6 7 7 7 9 8 8 7 5 3 1 0 0 0 0 0 0 0 0 0 0 0 0 0 0 0 0 0 0 0 0 0 0 0 0 0 0 0 0 0 0 0 0 0 0 0 0 0 0 0 0 0 0 0 0 0 27 126 143 149 153 154 156 157 157 158 158 160 159 161 164 166 166 168 171 172 171 170 170 168 165 165 166 167 170 172 172 173 170 170 170 169 171 172 171 171 170 172 171 172 172 171 171 170 169 169 167 167 165 166 167 167 168 169 168 168 168 168 168 166 166 166 165 166 163 164 168 170 172 172 173 172 171 174 176 175 173 173 172 172 172 173 173 172 172 172 171 172 173 174 175 174 172 171 170 167 166 168 167 167 167 167 170 171 171 171 171 171 170 168 166 163 164 166 167 168 168 169 167 165 165 166 164 165 165 166 166 168 169 171 169 169 168 169 166 165 164 165 164 164 163 162 162 160 157 155 154 154 153 154 153 154 154 154 153 151 149 149 150 151 149 145 144 140 140 137 137 136 137 136 134 136 137 141 146 152 154 157 162 166 167 168 170 170 171 173 173 174 175 176 176 176 177 178 177 177 175 172 170 170 171 170 170 170 170 169 169 169 170 170 169 169 167 164 163 162 163 163 163 162 164 165 163 161 161 159 159 159 160 160 162 166 165 164 167 167 167 166 162 156 152 150 147 147 148 149 151 152 152 151 141 64 7 6 6 4 3 3 0 0 0 0 0 0 0 1 4 6 8 8 8 8 9 10 10 11 13 13 15 13 12 12 14 15 18 18 20 21 25 24 22 20 19 19 20 20 20 21 23 25 26 26 24 24 24 23 24 28 29 30 30 29 27 24 22 22 24 24 25 23 23 24 22 22 21 19 18 16 15 14 15 17 17 17 18 20 21 20 21 23 24 25 24 24 24 23 24 25 26 27 26 25 25 27 29 33 35 34 36 37 36 37 37 38 36 34 33 33 33 33 33 31 31 30 30 29 29 25 23 22 23 24 24 23 21 20 17 16 16 16 15 16 15 16 17 18 16 14 15 17 16 17 18 19 21 24 27 27 28 29 31 31 30 32 33 34 33 32 33 34 33 33 33 31 32 29 29 27 29 30 31 31 32 30 29 28 27 25 24 22 19 20 20 21 25 25 25 25 24 24 23 25 26 24 23 23 23 25 27 27 26 28 28 27 26 26 25 24 
26 26 27 27 27 26 26 27 28 27 28 28 28 29 30 31 30 30 27 26 25 26 22 23 22 22 23 25 27 27 27 25 25 26 28 27 26 27 28 27 27 25 23 22 22 22 23 25 26 27 27 28 28 27 27 27 24 22 21 20 21 19 20 17 14 13 14 14 16 17 15 12 13 13 14 12 10 9 7 6 4 4 4 3 1 1 1 2 0 0 0 0 0 0 0 0 0 0 2 2 2 3 3 4 4 7 7 6 6 7 8 7 6 8 8 7 9 9 9 9 4 3 3 3 2 0 0 0 0 1 0 0 0 0 0 0 0 0 0 0 0 0 0 0 0 0 0 0 0 0 0 0 0 0 0 0 0 0 0 0 0 0 0 0 0 0 0 0 5 117 143 149 154 153 156 158 157 158 159 159 160 161 164 166 166 168 169 169 170 169 170 169 166 165 166 169 171 172 171 170 168 167 168 168 170 172 172 171 171 172 173 172 173 171 170 170 169 169 170 168 168 168 168 167 168 168 166 167 166 166 165 166 167 167 167 168 166 166 170 172 172 172 172 171 171 173 174 174 173 171 171 170 171 173 173 173 173 172 171 173 173 176 176 174 173 176 175 174 173 172 171 169 168 168 169 169 169 169 170 168 169 166 166 164 162 163 165 167 168 169 167 164 165 166 163 163 161 160 162 163 165 166 167 169 167 166 164 165 163 162 160 160 160 159 159 158 155 151 151 151 152 151 152 153 153 152 150 149 148 148 147 147 146 145 144 142 141 140 140 143 147 149 151 153 155 159 164 166 164 165 167 169 171 170 170 172 172 172 172 173 174 176 176 176 176 177 177 176 174 171 169 170 171 170 169 169 169 168 169 169 170 170 169 169 167 163 163 163 164 165 164 166 166 166 164 161 159 156 158 159 160 159 162 159 146 137 134 131 123 124 123 115 104 112 109 113 120 124 138 148 153 153 147 107 13 7 6 5 5 4 2 0 0 0 0 0 0 1 3 7 8 7 8 9 7 9 11 11 11 12 14 13 12 13 15 16 19 20 19 21 23 25 24 21 19 18 18 19 20 21 23 24 25 25 26 26 27 26 27 30 30 30 30 30 29 26 23 22 22 23 22 23 23 24 24 23 21 20 18 16 17 15 15 16 14 14 17 20 20 19 21 23 23 23 22 22 24 23 24 25 25 27 29 31 30 30 32 33 34 34 35 36 38 37 36 35 33 33 31 32 33 32 31 30 31 31 32 31 28 25 24 23 23 25 25 24 22 18 17 16 14 15 16 15 15 18 19 20 18 16 17 17 16 17 19 20 23 26 27 27 28 29 29 31 31 32 33 33 32 32 31 32 34 32 32 29 29 28 29 27 28 28 29 30 30 30 29 27 27 25 25 22 19 20 21 23 25 26 25 24 25 25 25 26 27 27 25 25 24 25 27 26 27 27 27 26 26 24 24 24 
27 26 26 26 26 25 26 27 27 25 26 28 28 28 29 29 28 28 26 27 24 24 24 24 23 23 22 24 26 27 25 25 25 27 28 28 26 28 28 28 26 26 24 23 25 24 26 25 27 28 27 28 28 29 29 27 25 24 22 23 20 20 19 18 16 16 15 15 15 17 16 14 13 12 12 11 10 7 6 5 5 4 3 2 1 0 1 0 0 0 1 0 0 0 0 0 0 0 0 0 1 1 1 2 2 5 7 5 4 7 5 5 7 7 8 8 8 10 10 9 6 4 5 5 4 3 1 1 0 0 0 0 0 0 0 0 0 0 0 0 0 0 0 0 0 0 0 0 0 0 0 0 0 0 0 0 0 0 0 0 0 0 0 0 0 0 0 0 0 104 142 147 150 154 157 161 160 160 161 161 162 163 163 164 164 165 166 166 167 169 168 168 169 168 168 170 172 170 170 169 168 167 168 167 169 170 170 171 173 171 172 172 172 171 170 170 171 170 171 171 169 169 171 168 168 168 167 166 168 167 166 166 167 168 168 168 166 167 169 172 172 171 172 171 172 172 171 171 170 168 170 169 170 172 172 173 173 174 173 171 173 174 173 174 174 174 173 174 173 173 173 174 174 174 177 177 176 174 173 172 168 165 162 161 159 161 161 164 165 167 164 164 163 163 161 159 156 158 159 160 164 165 167 168 165 164 162 163 162 161 159 158 157 157 157 156 153 151 150 152 153 153 155 153 152 151 151 149 148 149 147 149 152 155 156 156 156 156 157 160 161 162 162 162 164 164 166 167 167 167 168 170 171 170 170 172 173 172 172 173 174 176 174 175 174 176 176 176 175 173 172 172 171 169 169 168 167 168 169 170 170 170 170 167 168 164 165 165 166 167 168 168 168 167 164 161 160 159 160 161 162 160 148 100 65 62 75 95 108 108 99 98 84 75 77 74 81 94 108 130 148 154 150 133 42 4 5 5 4 3 0 0 0 0 0 0 0 0 2 8 10 10 10 9 8 9 10 9 10 13 14 15 14 15 15 17 18 19 19 20 24 25 23 20 17 17 19 18 20 21 23 25 27 27 29 29 30 31 30 31 30 31 29 30 28 25 22 20 20 22 22 20 22 24 25 24 22 20 18 18 16 14 13 14 14 16 17 18 19 21 22 24 24 22 22 22 24 24 24 26 27 27 31 33 33 33 34 35 34 34 34 34 35 33 33 31 32 31 31 33 33 33 32 34 32 31 32 30 29 27 25 24 24 24 25 23 21 19 18 16 16 16 16 16 17 20 21 23 22 21 19 18 17 19 20 20 23 26 26 28 29 29 30 32 33 32 33 34 32 33 33 33 33 32 30 30 29 29 29 27 28 29 29 29 28 29 28 26 25 24 23 23 21 23 23 24 25 24 25 25 26 27 26 26 27 27 25 25 24 25 26 25 25 25 25 24 25 25 24 25 
27 28 26 25 27 26 26 26 28 27 27 27 27 27 27 28 28 28 27 26 25 25 25 24 22 20 21 22 25 27 26 27 28 29 29 26 26 27 28 29 29 26 25 25 24 25 25 25 26 27 26 27 29 29 29 27 27 25 23 21 19 19 19 21 20 18 17 14 14 17 16 14 11 10 9 10 9 6 5 5 4 3 1 0 0 0 0 0 0 1 0 0 0 0 0 0 0 0 0 0 0 1 0 0 0 2 3 3 2 3 4 3 5 7 8 8 9 11 10 9 7 8 7 6 6 3 3 1 0 0 0 0 0 0 0 0 0 0 0 0 0 0 0 0 0 0 0 0 0 0 0 0 0 0 0 0 0 0 0 0 0 0 0 0 0 0 0 0 0 82 139 146 150 153 156 159 161 161 163 163 163 163 164 164 164 165 163 162 163 164 164 166 168 167 167 169 172 173 171 170 169 168 169 168 169 170 171 172 173 173 173 173 172 173 172 171 173 172 173 172 172 170 170 170 168 169 169 168 171 171 168 168 169 170 171 171 169 168 169 171 172 172 171 171 170 169 170 169 167 169 170 170 171 172 171 172 173 174 174 172 172 174 173 172 171 170 171 171 171 172 172 172 173 176 178 179 178 178 178 177 175 172 170 169 168 166 167 168 168 167 167 166 162 161 160 158 157 158 158 159 164 167 167 166 163 162 162 162 163 161 160 159 156 156 157 155 154 154 156 158 161 161 163 163 163 164 165 164 162 162 161 163 165 165 166 166 162 162 162 162 165 166 166 165 165 165 168 168 169 168 169 170 171 170 171 171 170 171 173 175 174 174 175 175 173 175 174 175 174 172 172 172 171 170 169 167 167 168 169 169 168 170 169 169 168 167 166 168 168 168 168 168 168 167 164 163 162 162 163 165 160 132 86 77 99 122 136 142 144 141 138 133 125 112 95 77 75 66 73 92 125 146 150 142 86 6 3 4 2 0 0 0 0 0 0 0 0 0 3 6 9 11 10 10 8 7 7 8 10 11 13 14 15 15 14 16 18 20 20 21 22 23 21 19 17 16 18 19 20 22 23 25 27 28 31 31 32 31 32 32 32 31 30 29 28 23 21 21 21 21 21 20 21 24 26 23 22 20 18 17 15 14 14 14 13 14 15 16 18 21 22 24 25 24 24 27 28 27 28 30 30 30 32 35 36 35 35 34 34 32 31 33 33 30 30 29 29 28 29 30 32 33 33 33 33 32 32 30 29 27 24 24 26 26 26 24 22 21 20 19 17 17 18 19 20 23 25 26 25 23 21 19 18 21 21 21 23 26 28 28 29 30 31 33 34 33 33 32 32 33 34 35 34 34 33 30 29 28 27 26 27 27 28 29 28 27 25 25 24 23 24 22 21 22 24 25 25 24 24 24 26 26 26 25 28 27 27 26 25 23 23 23 23 23 22 23 24 24 24 26 
28 29 26 25 28 27 27 27 28 29 28 27 27 28 27 26 26 27 28 26 24 25 26 24 22 21 21 22 24 27 27 28 29 30 30 28 25 25 28 28 28 26 25 26 26 27 26 26 27 27 26 28 28 29 28 27 27 24 24 22 20 20 20 21 20 19 17 16 16 17 14 11 10 10 9 10 9 7 7 5 3 2 0 1 0 1 0 0 0 2 3 2 0 0 0 0 0 0 0 0 0 1 0 0 0 0 2 2 0 0 2 3 6 6 7 8 10 11 10 9 8 9 8 8 6 5 4 2 0 0 0 0 2 0 0 0 0 0 0 0 0 0 0 0 0 0 0 0 0 0 0 0 0 0 0 0 0 0 0 0 0 0 0 0 0 0 0 0 0 53 134 146 149 153 158 160 161 161 162 163 164 164 165 165 164 164 163 161 160 161 159 162 163 164 166 168 171 173 172 171 169 170 170 168 169 169 171 171 173 173 173 175 175 174 173 173 173 172 173 174 172 172 172 169 168 170 170 170 173 172 170 171 173 173 171 171 170 169 169 170 171 172 171 168 167 167 168 167 167 168 170 171 171 170 171 173 173 173 173 172 172 171 171 172 171 170 170 171 171 171 172 170 171 174 176 178 178 177 177 177 177 175 175 174 173 172 171 172 171 171 170 170 168 167 168 168 166 167 166 168 170 174 175 173 173 173 173 173 171 169 169 168 166 166 166 167 164 163 165 167 171 170 170 172 173 173 172 171 171 169 167 166 167 168 167 166 165 165 166 167 168 170 169 167 167 168 168 167 166 168 170 171 171 171 171 170 170 171 172 174 174 174 176 175 175 175 176 175 174 171 169 168 168 168 169 169 168 167 168 168 168 169 169 167 166 167 168 169 168 168 169 169 170 168 169 168 165 165 165 161 126 83 89 117 143 152 152 151 150 151 148 146 144 141 135 127 119 106 91 85 95 122 143 145 121 24 1 2 1 2 1 1 0 2 2 0 0 2 4 7 8 9 10 8 6 5 8 7 7 9 10 12 12 12 14 16 18 20 21 21 23 22 21 19 18 19 19 20 21 22 23 24 27 29 30 32 32 33 32 32 31 30 28 26 26 24 23 22 21 22 22 22 22 23 24 20 19 18 15 17 15 13 15 14 13 12 14 15 18 21 22 25 25 26 28 30 31 30 30 30 30 31 32 34 35 35 35 34 32 31 30 31 29 27 28 27 27 27 27 28 29 31 32 34 32 30 31 28 28 26 24 24 25 25 25 25 24 23 21 20 19 19 20 21 22 25 27 29 27 23 21 18 17 19 20 21 22 24 26 29 29 30 32 33 32 32 31 32 32 32 34 34 36 34 31 31 30 29 27 25 25 27 26 29 29 27 25 25 25 25 23 21 22 21 23 26 26 25 24 24 27 27 25 24 25 27 26 25 23 21 21 23 24 23 21 20 23 25 27 27 
27 26 25 26 27 28 27 27 28 27 26 27 27 27 25 24 24 25 27 27 25 25 25 26 26 23 21 23 25 27 26 28 30 30 30 29 27 26 28 28 28 26 24 25 25 27 27 27 28 26 28 29 28 27 27 26 26 24 23 23 21 20 21 20 19 20 18 17 17 14 13 11 9 10 11 10 10 9 7 5 3 3 0 0 0 0 0 0 0 1 4 2 1 0 0 0 0 0 0 0 0 0 0 0 0 0 0 0 0 1 1 2 5 6 6 9 10 10 9 7 7 7 7 7 6 7 6 3 2 0 1 1 1 1 0 0 0 0 0 0 0 0 0 0 0 0 0 0 0 0 0 0 0 0 0 0 0 0 0 0 0 0 0 0 0 0 0 0 0 25 125 143 148 154 157 160 161 162 162 165 166 167 165 163 163 161 161 161 160 161 160 161 163 163 167 169 171 172 173 171 170 170 170 170 170 170 171 172 175 173 173 175 175 176 174 174 175 173 172 173 172 172 172 170 169 170 170 170 172 173 174 174 173 173 172 171 170 169 170 170 170 169 169 166 164 165 165 167 169 168 169 169 170 169 171 171 172 171 172 172 172 171 170 170 170 169 170 171 171 169 169 169 170 172 174 174 176 176 176 176 178 178 178 177 174 173 173 170 169 170 169 167 168 168 168 169 170 171 171 171 174 177 177 176 177 178 177 176 177 174 173 174 173 172 171 169 167 166 166 169 170 172 171 172 174 175 172 173 173 173 172 171 170 169 169 166 167 166 167 168 170 171 171 168 168 169 167 166 167 169 170 171 170 170 170 170 170 169 170 173 173 173 174 175 174 175 175 175 174 172 169 169 168 168 168 169 167 167 168 168 169 169 165 164 165 166 167 168 170 169 169 169 172 172 171 170 166 166 158 118 95 116 138 151 157 157 156 156 155 155 154 152 151 149 145 142 140 136 132 126 118 117 125 135 130 61 1 2 3 1 2 3 4 5 3 1 0 2 5 6 8 7 7 5 5 5 7 7 7 9 10 11 13 13 15 17 19 19 20 21 23 24 22 21 21 21 19 19 20 20 21 23 26 28 31 33 33 31 29 30 29 28 28 26 25 24 22 21 20 20 21 21 21 21 21 19 17 14 15 15 16 16 16 14 13 13 13 17 19 21 22 25 25 27 28 31 33 32 30 30 31 32 33 34 34 34 32 32 30 30 30 28 26 27 27 26 26 26 27 27 29 28 30 30 30 28 27 26 27 25 24 24 24 24 25 26 24 22 22 22 21 20 22 23 25 26 28 27 25 23 22 20 18 19 21 21 22 26 26 28 28 29 31 30 29 29 29 31 30 31 34 35 35 33 29 30 30 31 27 27 25 25 27 28 29 27 25 24 24 23 21 21 21 20 21 23 26 26 24 24 26 27 24 24 24 24 24 23 22 21 23 23 22 22 21 21 22 25 25 25 
25 24 25 25 24 26 27 27 26 25 24 25 23 23 23 23 22 23 25 26 25 25 26 26 25 23 23 24 26 27 27 29 30 29 28 29 27 26 28 29 27 26 25 24 25 27 27 28 29 26 27 28 27 27 28 26 25 25 25 23 21 20 20 19 19 20 19 16 15 13 11 11 10 12 13 12 12 9 7 6 4 4 1 0 0 0 0 0 0 2 2 1 0 0 0 0 0 0 0 0 1 0 0 0 0 0 1 2 2 1 3 3 6 7 7 7 8 8 8 7 4 5 7 6 5 5 5 5 4 4 2 3 3 1 0 0 0 0 0 0 0 0 0 0 0 0 0 0 0 0 0 0 0 0 0 0 0 0 0 0 0 0 0 0 0 0 0 0 0 0 102 139 147 152 156 159 163 163 164 165 165 165 163 162 162 160 161 160 161 162 160 162 165 166 170 171 172 173 172 171 170 169 170 171 171 169 170 170 171 172 173 176 175 175 174 174 175 173 172 175 173 172 172 171 170 170 170 171 172 175 174 174 172 172 171 170 169 170 169 168 168 168 167 165 164 165 165 165 166 167 168 168 168 168 171 170 169 168 169 169 171 169 168 168 166 166 167 168 168 169 170 172 174 172 173 174 172 173 175 174 176 177 176 175 173 172 171 171 170 173 170 168 167 167 168 170 171 173 171 173 175 177 178 178 179 179 178 177 177 178 177 176 176 173 172 169 169 169 168 169 170 171 173 173 175 175 173 173 176 176 173 173 171 170 171 169 169 168 168 170 171 172 171 169 168 167 166 166 167 169 169 169 169 169 170 170 170 169 170 172 172 170 171 173 174 174 172 173 172 171 170 169 169 169 169 170 169 169 169 169 168 167 166 164 165 166 166 166 168 168 170 172 174 172 171 169 168 162 123 108 130 148 159 162 162 164 162 161 159 158 157 156 156 155 151 149 146 142 140 137 135 133 129 124 119 98 71 50 29 9 2 3 6 5 4 1 2 3 2 4 4 6 7 7 7 7 7 7 8 9 11 13 13 15 16 17 18 19 20 21 24 25 24 23 24 22 21 18 19 21 20 23 25 28 31 32 31 31 27 28 29 29 28 27 25 24 19 19 18 19 20 21 18 18 19 18 16 14 15 15 15 15 16 14 14 12 14 18 19 20 21 24 26 28 31 33 34 34 30 30 32 31 33 33 32 32 31 30 30 29 27 26 24 24 23 25 24 25 27 26 28 27 26 28 28 26 26 26 26 25 24 23 23 23 24 25 24 24 23 24 23 23 24 26 26 26 28 29 28 26 23 20 19 19 21 23 24 27 26 26 27 28 29 30 29 28 29 29 30 31 32 35 34 32 30 32 32 30 29 25 24 23 27 29 28 27 25 23 23 22 21 21 19 19 18 20 23 25 26 24 26 26 26 25 24 23 23 23 21 21 21 22 23 21 20 20 21 24 24 24 
23 23 23 24 25 25 25 25 24 23 24 22 21 20 21 21 21 24 24 25 25 25 26 27 26 24 23 23 23 26 27 27 28 28 27 26 26 28 28 30 28 28 27 27 26 25 26 27 28 26 26 25 26 27 28 28 25 24 24 24 20 20 21 21 20 19 18 15 14 13 13 10 11 12 13 12 11 10 7 6 5 6 5 3 1 0 0 0 0 0 1 0 0 0 0 0 0 0 0 0 0 0 0 0 0 1 3 4 5 2 3 5 6 8 6 7 7 5 6 4 3 4 6 4 2 3 5 4 5 4 3 3 4 4 2 0 0 0 0 0 0 0 0 0 0 0 0 0 0 0 0 0 0 0 0 0 0 0 0 0 0 0 0 0 0 0 0 0 0 0 59 132 145 151 154 157 159 160 162 163 165 164 161 162 163 161 160 160 161 161 162 163 167 170 173 173 172 172 171 170 168 168 169 169 169 169 169 168 169 173 173 175 175 175 173 174 174 174 174 174 175 174 175 173 172 170 172 172 173 173 173 172 171 170 170 172 170 171 170 167 168 168 168 166 164 164 162 163 163 165 165 165 164 167 169 169 167 167 166 166 167 168 169 165 164 166 165 167 168 169 172 173 174 173 172 173 172 173 173 172 173 175 175 174 172 170 169 171 171 173 171 169 167 169 170 171 173 173 172 172 175 176 177 177 178 178 177 178 178 179 177 176 174 172 172 170 169 169 169 170 171 173 174 175 178 176 176 176 177 176 173 173 174 173 172 172 171 169 169 171 173 173 172 169 168 167 167 168 169 169 168 168 167 169 170 170 169 168 168 170 170 170 172 174 173 171 170 170 172 173 171 170 171 171 171 173 172 172 171 170 169 168 167 167 167 167 167 167 169 170 171 173 174 173 171 169 167 143 111 127 150 160 164 166 168 167 165 162 164 164 161 160 160 157 155 154 150 147 146 144 143 143 138 136 132 128 124 118 109 92 71 48 28 9 4 2 2 1 1 2 2 5 8 8 10 8 9 10 11 13 13 14 15 15 17 17 18 19 20 22 25 26 25 23 23 23 20 18 18 20 20 22 25 27 29 30 29 29 27 26 28 29 26 25 21 19 18 17 16 17 18 18 17 17 17 16 17 16 16 17 16 16 17 16 13 13 15 17 18 19 19 22 24 29 31 31 33 32 31 31 31 30 30 31 31 30 29 30 30 29 26 25 23 22 23 25 24 24 26 25 25 25 26 26 27 26 26 25 25 25 26 24 23 22 24 24 24 24 24 23 25 25 27 27 28 28 30 29 27 26 24 23 19 19 20 23 26 28 28 29 28 29 30 30 30 28 27 28 27 28 29 31 30 31 30 32 32 31 28 24 23 25 26 29 28 28 26 24 24 23 21 20 19 17 17 19 21 23 25 25 26 27 26 24 23 21 23 22 22 21 22 22 22 21 20 19 19 20 22 23 
22 23 24 23 23 23 23 23 21 20 22 20 19 19 19 21 22 22 24 24 25 25 25 25 26 23 23 22 24 25 27 27 27 26 24 26 25 27 28 28 28 28 29 28 28 27 25 25 25 24 24 24 23 24 28 28 27 26 25 25 23 22 23 22 20 19 18 16 15 15 14 12 11 10 11 10 11 10 8 9 6 6 7 5 1 0 1 1 0 0 0 0 0 0 0 0 0 0 0 0 0 0 1 0 0 3 6 7 5 3 4 6 6 8 7 6 6 5 4 3 3 5 6 4 4 3 4 2 2 0 0 1 2 4 4 1 0 0 0 0 0 0 0 0 0 0 0 0 0 0 0 0 0 0 0 0 0 0 0 0 0 0 0 0 0 0 0 0 0 0 20 118 143 151 154 156 158 158 160 163 164 163 162 163 164 163 163 163 164 163 163 163 164 169 171 171 171 169 169 166 168 169 168 167 168 167 168 170 171 171 172 174 173 174 174 175 175 175 175 175 177 177 175 175 172 172 171 172 171 172 173 170 170 169 170 171 171 170 169 169 170 169 169 168 167 163 163 163 163 164 164 163 164 165 166 165 166 166 165 165 166 167 166 164 164 165 165 165 167 167 172 172 172 171 172 172 173 172 171 172 173 174 174 173 171 171 169 171 170 170 170 169 168 171 172 173 174 174 172 171 173 176 176 177 177 178 177 177 179 180 178 175 173 173 173 171 171 171 170 171 173 175 175 177 178 178 177 178 178 176 174 174 175 174 172 173 171 169 169 171 174 173 171 169 169 169 168 168 170 169 168 168 168 169 169 169 168 167 169 170 170 170 171 172 170 169 170 172 172 175 173 173 171 171 170 171 173 174 173 171 170 169 168 168 168 166 164 167 169 171 173 173 175 173 171 171 159 123 138 154 163 165 165 167 169 169 168 166 166 165 161 161 161 158 158 157 154 152 150 149 147 146 145 143 141 139 135 133 133 129 124 118 107 89 67 42 18 2 1 3 3 6 8 11 11 11 11 12 12 13 15 15 15 13 16 19 20 20 21 22 24 24 22 21 22 21 20 19 18 19 20 21 23 26 26 29 29 27 25 25 25 25 24 21 20 19 18 18 16 16 18 18 19 17 16 18 18 17 18 18 17 17 17 18 15 15 16 15 15 17 18 21 24 26 30 30 31 30 30 29 28 29 30 32 30 30 29 29 32 30 27 26 25 22 22 24 25 26 27 25 23 24 25 27 27 26 27 26 27 26 25 25 25 24 24 24 23 25 26 27 27 28 29 30 30 31 31 28 27 26 25 24 22 21 23 26 28 29 29 29 29 29 30 32 31 29 27 27 27 27 28 29 28 29 30 31 31 30 27 23 24 25 26 28 29 29 27 25 25 23 22 20 19 17 17 18 21 23 26 25 27 27 24 23 22 21 21 22 22 21 23 23 23 22 20 20 18 19 21 22 
22 24 24 22 22 21 22 22 19 20 20 21 20 19 19 19 21 22 22 24 24 24 24 24 23 23 22 23 23 26 27 27 26 24 24 24 24 27 28 28 28 28 30 28 26 24 23 22 22 21 24 23 23 25 28 30 28 29 27 25 24 24 23 22 21 21 20 20 18 17 15 14 11 9 10 12 11 10 9 8 8 8 6 5 3 3 1 1 1 1 0 0 0 0 0 0 0 0 0 0 0 1 1 1 2 6 7 7 6 5 4 5 6 6 5 5 4 4 4 4 3 5 6 4 4 3 2 1 1 0 0 0 1 2 2 1 0 0 0 0 0 0 0 0 0 0 0 0 0 0 0 0 0 0 0 0 0 0 0 0 0 0 0 0 0 0 0 0 0 0 0 90 138 148 153 155 157 158 160 162 164 164 163 163 163 164 163 163 165 164 162 161 162 165 166 167 169 169 168 168 168 169 169 169 168 168 170 173 173 172 173 172 172 171 171 174 173 175 176 177 178 178 178 177 174 172 172 172 171 172 171 170 169 170 171 172 171 169 169 170 170 172 171 171 167 164 163 163 164 163 162 162 162 163 164 163 164 165 163 163 163 164 163 163 164 165 166 165 168 169 170 171 170 171 173 172 171 169 169 171 174 175 174 172 172 171 170 169 169 170 169 169 170 171 173 172 172 174 172 173 174 176 178 177 177 177 176 177 179 180 176 175 174 173 173 173 174 172 173 175 176 176 177 179 180 177 178 178 178 176 173 174 174 172 171 172 170 169 170 171 173 173 173 172 173 172 170 171 170 168 167 167 166 168 168 169 167 171 172 173 171 170 170 171 170 170 171 173 175 176 174 170 169 169 169 171 172 173 174 172 172 172 170 168 166 164 164 168 170 173 173 173 173 173 171 168 143 134 159 167 166 167 165 168 170 170 168 167 167 165 162 161 163 162 160 159 156 154 151 150 149 149 149 148 146 143 140 138 138 135 134 131 131 128 124 116 101 79 55 31 13 8 9 11 13 13 14 14 13 13 14 13 13 14 16 19 21 21 20 21 22 23 21 20 21 21 20 17 17 17 19 19 23 24 25 27 28 27 25 23 22 21 21 21 20 19 18 19 17 16 17 17 18 18 17 16 17 17 18 18 18 18 18 18 16 15 15 14 15 15 17 20 20 23 26 27 28 29 29 28 28 27 30 30 30 30 30 31 31 30 27 25 24 23 22 24 26 28 26 25 23 23 25 27 28 28 27 28 27 26 26 26 26 25 26 24 26 27 27 29 29 30 32 32 31 31 29 28 28 28 28 26 24 24 26 28 30 29 28 29 30 29 30 30 30 26 25 25 24 25 27 27 28 28 28 29 29 30 28 26 26 27 27 29 28 28 26 27 26 23 21 21 20 19 20 20 20 24 27 27 26 22 21 20 22 21 20 23 24 24 24 23 22 21 20 19 18 19 20 21 
23 25 24 24 23 20 20 20 20 18 19 20 20 19 18 20 22 20 20 21 22 21 22 21 22 22 21 22 24 25 25 26 26 24 25 26 25 26 26 26 28 28 28 28 25 22 23 23 22 22 23 25 26 25 28 29 30 29 28 27 27 27 25 21 21 22 21 20 20 18 16 13 12 12 12 14 12 11 8 8 8 8 7 7 5 4 3 3 1 0 3 2 0 0 0 0 0 0 0 0 0 1 2 4 5 5 7 8 7 7 7 7 5 5 6 5 4 4 5 5 2 4 7 6 3 1 2 3 3 1 0 0 2 3 0 0 0 0 0 0 0 0 0 0 0 0 0 0 0 0 0 0 0 0 0 0 0 0 0 0 0 0 0 0 0 0 0 0 0 0 0 48 131 144 152 154 156 159 161 162 163 163 163 163 164 164 162 162 163 162 159 159 158 159 160 163 166 169 169 170 169 170 170 170 169 170 173 175 172 173 171 172 171 170 172 174 175 174 176 177 178 179 179 177 175 174 172 171 172 174 171 171 169 172 173 173 172 170 170 171 172 173 172 171 168 165 164 164 165 163 160 161 162 162 164 163 163 163 162 162 162 163 161 162 164 166 167 167 167 168 172 173 172 173 173 170 170 169 169 171 175 177 175 173 172 171 169 170 169 169 170 170 169 169 170 170 169 172 173 174 174 174 177 177 177 175 175 175 178 179 176 174 173 173 174 176 176 176 176 175 176 176 177 179 179 180 178 177 178 175 173 172 170 170 171 171 170 167 167 170 174 173 175 173 174 173 172 172 172 170 167 168 166 166 167 168 169 171 172 172 172 171 170 170 169 171 173 174 176 176 174 171 171 171 173 173 172 173 173 172 173 172 170 168 166 165 167 169 171 173 174 172 173 172 171 164 134 148 165 169 169 168 169 170 170 168 168 169 167 165 162 162 164 164 162 160 159 157 154 153 151 151 150 149 147 145 144 142 142 140 137 136 136 136 136 137 133 129 123 112 96 75 51 30 16 13 15 15 14 14 14 12 14 14 17 17 18 19 20 21 22 22 20 20 20 17 15 16 16 17 18 20 22 25 26 28 29 28 25 23 20 20 20 21 20 19 18 17 17 15 15 17 17 18 19 17 17 18 17 17 18 18 20 18 16 15 15 16 17 16 16 20 20 19 20 23 24 27 28 28 29 28 29 29 29 29 29 29 30 28 27 22 21 21 22 24 27 28 25 24 25 25 26 27 29 27 27 28 28 26 26 27 27 26 28 26 25 25 26 29 31 32 32 32 32 30 31 30 29 29 30 27 26 27 28 30 30 30 29 29 30 32 28 28 27 26 24 23 23 22 23 24 26 27 27 27 29 29 29 28 26 26 26 28 27 27 27 27 27 23 21 22 23 23 21 21 21 24 26 25 24 21 20 20 20 21 21 23 25 26 23 23 21 21 19 18 19 20 20 22 
23 25 25 24 21 21 21 19 20 20 19 20 20 18 19 20 19 19 19 19 18 17 19 19 19 21 21 23 27 26 26 25 25 24 25 27 27 27 28 29 29 29 28 27 23 22 22 23 24 24 25 25 26 28 28 29 30 30 27 27 26 26 23 22 21 22 21 20 19 18 17 16 14 15 13 14 13 11 9 9 8 9 9 10 7 6 5 4 3 1 2 2 0 0 0 0 0 0 0 0 1 4 4 5 6 7 7 8 7 7 6 7 6 9 8 8 7 6 5 5 3 5 6 5 4 3 5 4 3 3 3 1 1 0 0 0 0 0 0 0 0 0 0 0 0 0 0 0 0 0 0 0 0 0 0 0 0 0 0 0 0 0 0 0 0 0 0 0 0 0 0 14 117 143 151 154 156 157 159 161 163 162 160 161 161 161 159 158 159 158 156 155 157 158 161 163 166 169 170 170 170 170 171 172 173 173 176 177 174 173 173 174 171 171 172 173 174 173 174 176 179 179 180 178 175 174 171 172 173 173 173 173 171 173 174 174 171 171 172 174 173 173 173 170 169 166 166 167 165 162 161 161 164 163 164 164 163 163 162 162 162 162 161 162 163 165 167 166 166 169 172 174 172 171 171 170 171 170 171 172 174 177 175 174 173 173 172 170 169 169 170 169 169 167 169 169 168 170 173 172 172 174 175 177 177 175 174 175 177 176 176 173 171 174 176 178 178 176 176 175 176 177 177 178 178 178 177 175 175 173 173 171 169 168 170 171 169 167 166 168 173 173 172 171 171 172 172 173 173 172 171 170 168 167 167 169 171 172 171 171 171 171 170 168 170 171 172 173 173 176 175 174 174 173 173 173 173 172 172 173 172 172 172 169 168 168 169 171 172 173 172 172 171 172 171 160 141 161 172 170 168 168 170 170 170 170 169 169 166 165 163 164 165 166 163 162 161 160 158 155 152 150 150 150 149 148 146 146 144 141 138 139 139 141 143 141 141 141 139 139 138 133 127 111 89 64 41 23 16 14 13 14 15 15 15 15 18 17 19 21 22 20 19 19 18 17 14 14 15 17 18 19 19 22 26 29 27 26 25 22 19 18 19 20 21 19 18 18 17 16 15 16 18 17 16 15 15 18 18 18 17 18 18 18 17 15 14 14 15 16 16 17 19 19 19 21 24 27 27 26 27 26 28 30 29 29 31 31 31 27 24 22 21 21 22 24 26 27 25 25 27 26 27 28 29 27 26 28 27 27 26 27 27 25 27 26 26 25 27 28 30 32 31 30 30 31 30 30 31 31 28 28 26 27 28 31 33 31 29 30 31 32 31 29 27 25 23 22 22 22 22 23 25 25 27 26 28 29 29 28 26 26 25 27 27 26 26 27 26 26 23 23 24 23 21 21 22 23 25 25 23 21 20 20 20 20 20 22 23 24 23 23 22 21 21 21 22 21 21 22 
24 25 26 24 21 20 20 21 20 19 19 16 16 16 16 17 18 19 18 17 16 14 15 17 19 18 21 24 26 25 25 25 24 25 25 27 28 31 31 32 32 31 28 25 21 19 20 22 24 25 26 26 28 28 30 31 30 30 27 25 25 24 22 20 21 21 20 19 19 19 18 17 16 13 13 13 14 14 13 10 10 11 10 12 10 9 8 7 7 5 3 2 1 1 0 0 0 0 0 1 4 5 4 4 5 6 7 6 7 6 6 7 9 10 11 11 9 8 8 8 6 5 5 4 4 4 5 6 6 5 5 2 1 0 0 0 0 0 0 0 0 0 0 0 0 0 0 0 0 0 0 0 0 0 0 0 0 0 0 0 0 0 0 0 0 0 0 0 0 0 0 0 87 139 148 153 156 158 159 160 162 161 159 159 159 157 155 155 157 157 157 156 158 159 162 164 167 169 170 169 169 171 172 172 174 174 177 177 174 174 173 172 171 169 171 172 173 172 173 177 179 179 179 176 174 171 170 172 174 175 175 173 174 175 175 172 172 172 173 173 173 173 173 172 170 168 167 165 164 161 159 160 163 163 163 164 163 163 163 162 162 162 162 164 164 165 166 167 165 167 170 171 171 170 171 171 172 174 174 174 175 176 176 175 174 175 173 171 169 168 167 167 167 168 168 169 167 170 172 172 171 172 175 178 177 175 174 175 176 175 173 173 172 172 175 176 176 176 175 175 176 177 177 176 177 177 176 175 174 173 172 172 170 169 171 170 169 167 166 168 169 171 171 172 171 171 173 173 174 173 171 169 168 170 169 170 171 172 171 171 174 172 170 169 169 170 171 171 173 175 177 176 175 175 174 173 174 173 173 173 171 172 173 171 170 169 170 170 173 172 172 172 172 172 172 158 146 166 174 172 169 169 170 169 169 170 168 168 167 165 168 167 166 166 165 163 163 160 158 155 152 150 150 153 151 150 148 147 145 143 142 140 142 143 144 144 145 146 148 149 147 147 147 145 140 134 123 105 80 52 27 15 15 16 15 16 18 18 18 21 21 21 19 17 18 15 14 14 15 16 18 17 18 20 24 25 24 24 24 22 18 17 19 19 21 20 18 17 16 15 16 16 16 16 15 13 14 18 18 18 19 19 19 17 16 15 14 14 16 17 15 17 22 21 21 22 24 27 29 26 24 23 27 30 30 30 29 30 28 27 25 25 23 23 23 24 24 25 25 26 26 27 27 27 27 27 27 28 27 26 26 27 27 25 26 26 26 27 26 27 28 29 29 29 29 30 29 30 31 30 30 29 28 28 30 31 32 30 28 30 31 32 31 29 28 27 24 23 23 24 24 24 24 24 26 25 27 28 28 27 26 26 24 26 25 24 25 26 25 24 22 22 23 23 20 19 19 22 24 23 23 22 22 20 20 20 21 23 24 24 24 24 24 23 24 23 23 21 21 23 
24 25 26 24 22 20 20 19 17 16 16 15 14 14 14 15 16 17 16 14 12 13 14 15 17 17 20 23 24 25 25 25 23 23 23 26 29 30 31 32 32 30 27 25 20 18 20 22 25 26 26 27 29 30 30 29 29 28 26 23 23 24 21 20 19 19 19 18 17 17 19 18 16 15 16 17 18 16 14 14 11 10 11 13 11 11 10 9 8 6 3 3 3 1 0 0 0 0 0 2 4 4 6 5 6 7 7 6 7 8 7 8 9 10 10 10 9 9 9 6 7 5 5 5 5 7 8 8 7 5 4 2 1 0 0 0 0 0 0 0 0 0 0 0 0 0 0 0 0 0 0 0 0 0 0 0 0 0 0 0 0 0 0 0 0 0 0 0 0 0 0 0 42 131 146 150 154 157 159 160 160 160 159 160 159 157 156 156 158 158 156 156 158 161 165 166 168 169 169 168 168 171 173 175 175 176 177 177 175 175 173 172 172 170 171 173 173 173 173 177 178 178 177 178 175 172 171 173 175 174 176 175 174 175 173 172 172 171 171 171 171 173 173 173 170 170 167 165 164 161 160 161 163 163 164 165 164 163 165 163 161 161 163 164 164 163 166 165 165 167 167 170 169 170 171 173 175 175 177 177 176 177 177 176 175 175 175 171 169 168 168 166 168 169 169 169 168 169 170 172 171 174 174 175 176 176 176 176 175 175 174 173 172 171 174 175 174 173 174 175 176 175 176 176 177 177 176 175 175 176 174 174 174 172 172 171 172 168 166 166 166 168 169 170 171 171 172 172 172 171 169 170 170 171 170 171 171 172 173 171 173 172 170 169 169 168 170 170 172 175 177 175 174 174 174 175 175 175 175 175 175 175 174 174 172 170 169 170 171 171 171 172 172 173 172 156 152 170 177 175 172 171 170 171 170 169 168 168 168 168 169 167 168 167 165 165 164 162 159 157 153 152 152 155 155 152 150 149 148 146 146 145 144 144 145 147 147 149 152 154 152 154 154 153 151 150 147 144 138 128 110 84 56 31 18 18 19 18 17 18 19 19 17 16 16 17 14 14 15 17 16 14 14 17 22 21 22 22 21 19 18 17 16 19 19 19 18 17 15 15 15 15 15 14 13 11 13 16 17 19 20 19 20 18 18 16 16 16 15 15 16 19 22 22 19 21 25 26 27 26 24 24 26 29 29 29 29 27 26 26 26 26 25 23 22 23 23 23 23 25 24 26 26 25 27 26 28 28 27 25 25 25 26 26 26 27 26 29 28 27 28 27 27 29 29 30 30 30 31 30 32 30 28 29 31 30 29 28 28 29 28 30 31 29 29 26 25 23 24 26 25 23 22 24 25 25 27 28 27 27 27 25 25 25 26 24 23 24 23 22 21 21 21 21 19 16 19 22 24 23 23 22 23 21 20 21 22 22 21 23 23 24 24 25 23 21 21 20 21 23 
24 25 25 25 23 21 21 21 18 16 15 12 12 12 12 13 15 15 15 13 10 10 11 13 16 17 20 22 21 23 22 22 22 20 23 26 28 31 31 32 31 28 25 22 21 19 18 20 22 25 26 26 26 28 29 28 31 29 26 24 23 21 19 19 19 16 16 15 15 17 18 18 17 17 18 19 19 18 17 16 13 13 13 15 15 13 11 10 10 7 5 4 2 1 0 0 0 0 2 4 6 6 6 8 8 9 8 6 9 10 8 8 7 9 11 9 8 8 7 5 5 5 6 6 8 9 9 9 7 6 5 3 2 0 0 0 0 0 0 0 0 0 0 0 0 0 0 0 0 0 0 0 0 0 0 0 0 0 0 0 0 0 0 0 0 0 0 0 0 0 0 0 9 111 143 148 152 155 156 159 159 161 160 160 159 160 160 158 158 156 154 155 159 162 163 166 168 169 169 171 171 172 174 175 175 176 177 178 177 176 176 175 174 172 171 174 174 175 176 178 177 178 177 177 174 173 172 173 174 175 174 174 174 175 173 172 173 172 171 168 171 173 174 173 171 170 167 165 164 161 161 164 166 167 167 166 164 163 164 162 161 161 162 163 164 165 165 165 167 167 169 171 171 172 174 177 176 176 177 178 178 178 177 176 176 176 174 172 169 168 167 167 168 168 169 169 168 169 170 173 174 172 173 174 175 176 175 176 176 174 175 173 172 172 173 174 174 174 175 176 176 176 174 175 178 178 178 178 179 179 178 175 174 173 173 172 170 168 166 166 166 167 168 168 168 170 170 170 169 169 169 170 172 171 171 172 171 173 174 174 174 173 171 170 170 169 171 172 173 174 175 174 176 176 174 175 176 176 178 176 176 175 176 174 174 171 169 169 171 173 172 171 172 172 173 158 154 174 179 177 174 172 172 173 171 169 168 168 168 168 167 166 167 166 166 165 165 162 162 158 156 154 155 155 156 154 152 153 152 151 149 147 147 146 148 148 150 152 155 156 156 156 157 156 156 156 154 153 150 148 144 139 129 114 88 57 31 17 16 17 18 18 17 17 17 17 15 13 14 15 13 12 12 15 17 18 20 20 18 17 17 16 16 17 17 18 19 16 13 15 16 15 15 15 12 10 12 16 19 21 21 21 20 19 19 17 16 16 14 16 18 19 19 19 18 20 21 24 25 26 25 26 26 29 28 27 26 26 26 25 25 24 24 23 22 22 21 22 22 23 24 26 25 27 27 27 29 28 26 25 23 24 25 26 26 28 29 30 29 28 28 28 29 28 30 32 30 29 29 29 31 30 30 28 29 30 29 29 29 29 28 29 28 29 28 27 26 24 25 25 26 24 22 21 25 26 27 28 28 27 25 24 26 27 27 25 24 22 23 23 20 18 17 18 17 16 19 22 22 23 23 23 22 21 21 22 21 20 21 24 24 26 25 24 22 20 19 20 21 23 
23 23 23 24 23 23 22 21 19 16 13 11 11 10 10 11 13 13 12 12 11 10 11 12 15 17 20 21 18 20 21 22 21 22 25 26 28 29 28 27 27 25 23 23 21 20 21 21 22 25 25 26 27 29 30 29 29 28 26 25 23 21 18 17 15 14 15 15 13 14 14 15 16 16 19 21 20 20 18 16 14 15 15 17 18 15 13 11 10 9 7 6 3 3 2 1 1 2 4 6 8 10 9 10 10 10 9 9 10 11 10 9 10 11 10 8 6 6 5 6 7 8 7 9 9 10 10 10 8 6 4 3 1 0 0 0 0 0 0 0 0 0 0 0 0 0 0 0 0 0 0 0 0 0 0 0 0 0 0 0 0 0 0 0 0 0 0 0 0 0 0 0 0 75 135 143 148 151 153 157 158 160 159 160 161 162 161 160 157 155 156 157 160 161 161 163 165 167 169 170 170 171 174 175 175 177 177 177 177 177 177 175 175 175 174 174 174 177 179 179 178 178 176 175 174 173 172 172 174 174 173 172 174 173 172 172 172 171 172 170 172 174 175 173 170 166 166 166 165 163 164 167 168 171 170 168 167 165 164 163 162 163 162 163 165 166 165 166 168 170 169 170 173 175 178 177 176 177 178 179 179 177 176 178 178 175 174 172 170 169 169 167 167 169 170 169 170 169 172 172 174 173 173 174 175 177 179 179 177 174 175 174 174 173 173 176 175 174 174 175 176 175 175 178 180 181 181 181 182 180 179 178 176 175 173 172 169 168 167 166 166 167 168 168 168 168 169 169 166 169 169 168 170 171 170 172 172 173 173 173 173 171 170 170 169 171 172 172 173 172 174 175 176 176 176 175 177 179 179 178 176 177 178 177 176 175 172 171 172 172 173 171 172 171 173 162 148 172 179 178 176 172 174 174 172 170 168 168 169 168 167 166 166 165 163 163 164 164 163 160 159 158 156 156 155 154 155 156 156 153 153 150 149 149 150 152 152 154 157 158 157 157 158 157 156 157 158 157 155 152 151 151 149 146 141 132 115 88 56 32 21 20 20 20 18 16 14 11 13 15 13 10 11 10 13 14 16 17 17 15 16 15 15 15 15 17 19 16 15 15 14 15 16 14 15 13 14 19 21 22 23 22 20 20 19 19 16 16 16 19 20 20 19 18 18 17 20 24 25 25 26 25 26 27 27 27 27 26 26 26 25 24 23 22 21 22 23 24 22 21 23 24 27 28 29 31 31 29 29 26 25 25 26 26 27 27 29 30 29 31 30 31 31 30 30 30 28 28 28 30 32 29 28 28 29 29 30 30 30 29 28 27 26 26 27 25 24 22 23 24 25 26 25 26 26 28 28 27 27 26 26 27 27 29 28 26 25 24 23 22 19 16 16 16 16 17 19 21 22 22 23 23 22 20 19 20 18 18 21 24 25 24 24 24 21 20 18 19 21 22 
21 21 22 22 21 23 22 21 20 17 12 12 10 10 10 10 11 13 11 10 9 10 12 14 15 17 20 20 19 19 21 23 23 22 23 24 25 25 26 27 25 23 22 21 20 21 21 22 23 25 26 26 27 29 29 28 27 27 25 24 23 19 18 15 14 13 14 13 13 13 14 16 15 16 18 20 22 20 18 16 14 15 17 18 18 16 13 12 12 11 10 8 6 3 4 4 5 5 6 8 10 11 11 9 9 11 12 10 9 11 12 11 10 10 10 8 6 7 8 10 8 9 9 9 10 10 11 10 9 8 5 1 0 0 0 0 0 0 0 0 0 0 0 0 0 0 0 0 0 0 0 0 0 0 0 0 0 0 0 0 0 0 0 1 0 0 0 0 0 0 0 0 0 32 123 139 144 148 152 154 157 160 162 162 163 162 159 157 157 158 157 160 161 161 163 163 164 166 168 169 168 170 171 173 175 175 177 176 177 178 177 176 177 176 174 175 176 177 179 178 176 176 176 174 174 173 172 174 174 174 172 172 173 173 171 171 172 172 172 172 172 175 174 172 170 169 167 169 167 167 166 168 169 172 172 168 168 165 166 166 166 166 165 165 167 169 168 169 171 172 169 169 171 173 175 176 176 178 179 179 176 175 175 178 178 176 174 173 171 171 169 169 170 170 169 169 168 169 170 170 173 174 173 175 176 177 178 179 177 176 175 176 176 174 174 175 176 175 176 178 178 177 177 179 180 182 182 182 181 180 179 179 176 174 173 173 172 170 168 167 167 168 168 170 167 167 169 169 168 168 167 169 171 170 170 170 170 171 172 171 170 170 170 170 171 173 174 173 172 171 172 174 174 175 177 178 178 180 181 179 179 179 179 178 178 176 174 173 174 174 173 171 171 172 172 168 145 165 175 176 175 174 175 177 174 170 168 168 168 167 167 166 166 164 164 163 164 165 162 163 164 161 160 159 158 157 157 157 157 156 154 152 152 152 154 154 155 157 157 158 159 158 159 156 155 157 159 159 158 156 156 155 155 153 153 151 148 142 135 119 92 61 32 18 16 16 13 11 12 13 10 9 9 8 10 12 14 16 17 15 14 14 15 14 15 14 14 14 14 15 14 14 14 14 15 14 17 19 21 23 24 22 20 18 19 19 18 18 20 21 22 21 21 19 16 17 20 21 24 24 25 24 25 25 26 25 25 25 27 25 25 24 22 22 23 22 23 21 19 21 22 24 25 29 32 33 33 32 29 27 28 29 29 26 27 28 28 28 29 31 31 33 32 31 30 28 28 28 30 31 30 31 29 28 28 29 32 33 31 30 28 26 24 26 26 25 23 23 23 26 28 27 27 27 27 30 29 29 28 27 28 26 27 28 26 26 25 24 22 20 18 16 16 18 17 18 21 22 23 23 23 22 21 20 20 18 17 18 21 21 22 21 22 22 21 19 17 18 19 21 
19 18 20 20 20 21 21 20 18 16 12 12 13 12 10 9 11 11 10 9 9 11 13 15 16 19 19 19 17 18 19 22 21 20 21 22 22 23 26 26 24 22 21 21 22 22 21 23 24 27 27 26 28 29 29 27 26 26 25 24 22 18 16 15 13 13 13 12 11 13 14 16 16 16 18 18 22 22 20 18 16 16 16 16 17 15 14 13 13 13 11 11 8 6 5 6 5 5 7 9 11 11 10 10 10 12 12 10 10 11 13 13 11 10 10 10 10 10 12 11 10 10 8 8 10 11 9 8 9 9 5 1 0 0 0 0 0 0 0 0 0 0 0 0 0 0 0 0 0 0 0 0 0 0 0 1 0 0 0 0 0 0 1 1 0 0 0 0 0 0 0 0 0 2 96 134 141 146 151 154 156 159 160 162 162 160 159 157 159 157 158 161 164 166 165 165 166 165 167 167 168 170 171 173 175 175 177 175 176 177 175 176 177 176 174 174 175 176 177 176 176 175 176 176 176 173 173 173 173 172 171 171 170 169 170 169 171 172 174 173 174 175 175 173 172 171 170 171 169 168 167 168 170 174 173 170 170 168 168 169 170 170 169 167 169 170 169 170 171 171 169 168 168 171 176 176 177 179 180 178 177 174 173 174 176 174 172 172 171 170 169 170 170 170 171 172 170 169 170 171 172 173 173 174 175 177 180 178 178 176 176 177 175 176 176 177 178 178 180 180 181 179 180 180 180 181 181 181 180 180 180 177 176 174 176 173 173 170 167 168 168 169 169 169 167 168 170 169 168 169 169 169 170 170 168 168 168 171 170 171 169 170 171 171 173 174 175 174 173 172 172 174 177 178 178 178 177 180 181 181 180 180 178 179 178 175 176 175 175 173 173 171 172 173 173 171 154 155 171 172 173 171 172 174 172 171 169 169 168 166 166 167 165 165 166 166 167 166 165 165 165 163 162 161 160 160 160 159 159 160 157 154 153 154 154 154 156 157 158 158 159 159 159 157 156 157 159 160 159 159 158 159 160 160 159 158 156 153 153 150 144 133 112 76 39 15 12 11 12 10 10 9 9 9 10 13 15 17 16 15 15 14 13 13 14 15 14 16 15 13 13 13 14 15 16 16 19 20 20 24 25 22 20 19 19 21 20 19 21 21 21 20 21 18 16 16 19 21 21 23 25 25 25 24 25 24 26 25 25 26 26 24 23 23 23 23 25 24 21 22 23 24 26 31 32 33 34 31 29 29 30 31 32 30 27 28 29 30 31 32 31 32 31 30 31 28 28 29 31 31 31 31 31 29 27 27 31 33 31 29 27 24 26 27 26 26 26 26 27 28 27 28 28 28 28 30 27 28 28 28 26 26 28 26 27 27 26 25 22 20 18 17 16 18 17 19 22 25 24 23 21 21 19 17 17 18 16 18 18 19 21 22 23 22 21 17 17 17 19 18 
17 16 17 18 19 19 19 19 18 17 16 16 16 13 13 11 13 14 12 12 12 14 16 16 16 16 17 16 17 17 16 19 18 18 19 19 19 21 24 24 22 21 20 21 22 22 23 23 24 26 25 26 27 29 27 26 25 26 24 23 22 19 16 15 15 15 14 12 12 13 14 15 15 16 17 19 21 22 19 19 18 17 16 17 17 16 14 13 14 13 14 12 10 8 7 8 7 9 10 11 11 12 10 11 11 14 12 10 11 13 14 15 13 12 13 14 11 9 9 10 9 10 9 8 10 10 9 9 8 7 5 1 0 0 0 0 0 0 0 0 0 0 0 0 0 0 0 0 0 0 0 0 0 0 0 2 0 0 0 0 0 0 0 0 0 0 0 0 0 0 0 0 0 0 49 123 139 146 151 154 156 157 158 160 159 159 160 159 157 158 160 162 166 168 169 170 167 167 168 167 168 170 171 172 176 175 175 174 174 175 175 175 177 175 175 173 174 176 175 175 175 175 175 175 177 176 175 174 173 172 170 170 168 168 169 170 172 174 175 176 177 176 175 174 173 173 170 169 168 165 164 167 172 175 173 170 170 170 170 170 171 171 170 169 169 170 170 171 172 170 169 167 170 171 175 176 178 179 180 179 177 175 173 174 174 172 172 170 169 169 167 169 172 171 171 172 172 171 170 169 170 171 172 173 174 177 179 179 180 178 178 177 174 175 177 178 179 179 178 179 179 179 179 179 179 180 181 180 180 180 179 178 176 176 179 177 175 172 169 167 168 170 169 168 169 170 171 171 170 169 168 168 170 169 169 169 167 168 169 170 169 169 171 173 172 174 177 177 176 174 174 177 179 178 177 176 177 180 181 180 180 180 178 178 178 177 177 175 174 174 173 173 173 174 175 174 168 141 155 165 167 166 168 170 170 168 169 169 168 165 167 166 165 164 167 168 170 169 166 166 164 162 162 162 160 162 163 164 162 161 161 157 156 156 155 155 156 157 158 159 160 160 160 159 157 159 160 160 160 160 160 160 160 162 163 163 161 159 158 155 152 151 145 139 122 90 53 21 10 9 10 10 11 12 12 14 15 17 16 14 14 14 14 15 14 16 15 15 13 12 12 13 15 15 16 18 20 20 21 24 24 23 21 20 21 20 18 17 19 21 21 21 20 19 16 17 19 20 21 23 26 26 24 23 21 22 23 25 25 25 26 26 25 25 24 25 26 25 25 24 25 25 27 30 31 32 30 29 29 30 30 30 30 28 26 26 28 30 31 32 32 30 29 30 30 29 28 29 30 31 33 32 31 29 27 27 30 30 29 27 26 24 25 27 27 28 27 27 29 29 27 28 27 26 29 28 28 28 27 27 27 26 26 26 27 26 27 24 22 22 20 18 17 18 17 19 22 24 25 22 21 19 17 16 16 15 15 16 18 17 19 21 21 21 19 16 16 17 16 16 
17 18 18 18 18 18 19 18 18 17 16 18 18 15 14 15 15 17 17 17 16 18 17 17 18 17 16 14 14 13 13 14 17 17 18 17 17 18 19 20 20 20 19 20 22 23 21 21 23 23 24 23 24 25 22 21 23 24 23 23 23 21 17 17 16 16 14 12 12 13 13 15 16 15 16 17 19 19 18 17 16 18 17 17 17 17 17 14 13 13 13 12 12 10 9 9 11 12 14 13 12 13 13 12 15 14 14 11 11 14 14 15 14 15 15 14 11 9 8 9 9 10 9 9 9 11 10 10 9 7 4 1 0 0 0 0 0 0 0 2 0 0 0 0 0 0 0 0 0 0 0 0 0 0 0 0 0 0 0 0 0 0 0 0 0 0 0 1 1 0 0 0 0 0 6 86 135 145 150 152 155 157 157 157 159 161 160 158 158 159 163 165 168 170 171 170 168 168 169 170 171 169 169 171 173 173 174 174 174 174 175 176 176 175 173 172 173 175 173 173 173 174 174 176 176 176 174 173 173 171 171 169 168 169 171 173 174 174 177 179 178 176 176 174 173 172 170 167 165 164 164 168 172 174 175 172 169 170 168 171 170 171 170 170 170 171 172 172 172 171 169 169 169 172 176 179 180 181 181 180 177 176 175 175 173 171 170 170 168 168 169 170 170 170 170 169 170 171 170 169 170 172 173 175 176 176 178 178 178 178 178 177 177 176 178 179 179 179 179 180 179 179 178 177 178 179 181 181 180 179 179 178 176 179 179 178 176 173 171 168 168 170 170 170 171 171 171 172 171 171 171 170 170 170 170 168 168 168 170 170 169 168 169 172 174 176 178 178 176 175 177 177 178 178 177 178 176 179 179 179 180 179 178 177 176 177 177 176 175 174 173 175 174 174 176 176 175 161 131 146 154 155 160 164 166 165 165 167 164 162 162 163 164 166 167 169 169 169 167 166 164 161 163 162 162 162 164 165 163 164 164 162 160 160 158 157 157 158 158 161 160 161 161 160 160 161 162 160 160 159 160 160 162 163 164 163 163 162 160 159 156 156 153 151 146 140 127 104 69 32 13 14 14 13 14 14 15 17 16 16 17 15 15 15 15 16 15 14 14 10 11 13 16 16 18 18 20 21 20 23 26 24 21 18 19 19 18 19 19 20 19 18 19 17 17 17 18 21 21 24 26 25 22 19 20 20 23 24 25 26 28 28 27 27 25 27 28 27 25 25 27 26 27 30 30 30 29 30 30 29 29 29 27 26 25 27 27 28 31 33 31 29 29 31 29 28 28 30 31 33 34 32 31 30 30 30 28 29 28 26 27 24 25 27 28 27 27 27 28 29 26 26 26 27 28 29 28 26 25 25 26 26 27 26 26 26 26 24 22 21 21 19 18 17 18 19 22 21 21 19 17 18 18 18 17 17 15 15 15 16 17 19 20 19 17 17 16 18 17 16 
19 18 17 19 20 20 20 19 19 17 18 17 16 15 13 15 14 15 16 16 17 17 18 18 18 16 16 15 13 11 11 13 14 15 15 15 17 16 17 17 17 18 20 21 22 22 22 20 20 20 21 22 22 21 19 20 22 22 23 23 22 22 20 17 17 17 15 13 13 13 14 14 15 14 15 15 15 15 13 13 15 15 17 17 17 17 18 16 14 14 14 13 12 11 12 11 11 13 15 16 15 17 15 15 17 16 15 13 12 14 15 16 15 14 15 14 12 10 8 10 11 11 11 10 8 9 10 9 9 6 3 1 0 0 0 0 0 0 1 4 3 2 0 0 0 0 0 0 0 1 1 2 3 2 2 1 0 0 0 0 0 0 0 0 0 0 0 0 0 0 0 0 2 2 1 31 115 142 149 152 155 157 158 158 161 162 161 160 159 162 165 169 171 173 173 172 169 170 170 172 171 169 170 172 172 172 173 172 172 173 173 174 173 174 171 172 173 172 170 171 171 172 174 173 174 175 174 173 171 170 169 170 169 171 173 175 176 176 177 177 176 176 174 173 171 171 169 166 165 165 166 168 172 175 174 171 169 168 167 169 169 170 171 170 170 170 171 172 173 172 171 171 172 175 178 180 181 182 181 181 177 176 176 173 171 170 170 169 168 169 170 170 169 168 167 168 168 169 170 171 172 174 176 177 177 177 179 178 178 178 178 180 179 178 178 178 179 179 180 182 181 181 179 178 178 180 180 179 179 178 178 178 178 178 179 178 177 175 173 171 169 170 171 169 170 170 170 170 171 172 172 171 171 171 172 170 170 169 170 169 170 170 170 172 174 176 177 175 175 175 176 176 177 178 176 177 179 181 180 180 179 179 178 177 176 176 177 175 173 173 174 175 175 173 175 176 176 173 161 136 128 132 141 149 153 156 158 158 158 158 158 159 162 163 166 168 167 166 164 163 164 164 164 163 163 162 164 165 166 166 167 166 163 163 163 161 159 158 158 160 160 161 161 162 164 163 162 161 160 159 160 161 162 163 163 164 164 164 162 162 162 161 158 155 152 151 147 144 135 118 89 52 22 16 16 15 16 17 17 18 16 17 16 16 16 16 13 14 13 10 12 13 16 16 16 18 18 20 22 22 25 24 20 19 19 20 18 19 19 17 17 18 18 18 17 17 19 20 21 24 23 24 23 20 21 20 23 24 25 27 29 29 29 29 29 29 30 29 26 26 26 25 27 30 30 31 30 32 31 30 28 28 26 27 27 28 27 27 31 32 30 29 31 30 31 28 28 29 31 34 35 33 32 30 30 31 29 30 28 27 26 26 27 29 28 28 28 27 28 27 27 28 27 29 30 28 27 25 24 23 24 24 24 25 25 25 25 26 25 24 22 20 19 17 18 21 21 18 17 15 13 17 18 18 17 17 15 14 17 17 17 18 18 18 18 16 18 20 20 19 
19 18 19 20 21 22 21 20 21 20 18 17 18 14 11 12 14 14 15 16 18 18 17 19 17 15 13 13 12 10 11 12 13 15 14 17 18 16 15 15 16 17 18 20 21 20 19 17 17 19 21 20 19 18 17 18 19 21 23 23 21 20 19 18 19 18 17 15 13 13 13 14 13 12 13 11 10 11 13 13 14 16 15 16 16 16 18 16 15 16 14 15 15 13 12 13 13 14 15 16 18 19 18 17 18 16 16 14 12 14 15 16 15 14 14 14 13 11 12 13 14 12 10 10 9 8 10 8 9 7 4 2 3 2 3 1 1 0 2 4 4 2 1 0 0 0 0 0 0 0 1 1 1 2 1 1 0 2 1 0 0 0 0 0 0 0 0 0 0 0 0 2 4 4 5 5 68 133 146 151 155 156 157 159 162 162 162 161 161 166 169 170 171 172 171 171 171 170 170 170 170 171 171 173 174 172 173 170 170 171 171 174 175 174 172 171 173 171 170 171 171 172 171 172 173 174 174 172 172 169 171 170 170 170 174 176 175 174 174 176 176 174 172 172 171 168 169 168 165 165 166 168 171 173 174 172 169 168 167 168 168 169 169 168 167 168 171 173 173 172 172 174 174 177 178 180 182 182 182 180 177 174 173 171 170 170 169 170 170 169 169 171 171 169 168 169 169 171 173 173 174 175 176 177 177 177 177 177 178 178 178 180 181 180 180 179 182 183 183 181 181 181 181 179 180 181 181 179 178 178 178 179 179 178 179 179 178 177 174 173 172 172 170 169 170 170 171 171 172 173 174 174 173 173 173 173 172 171 170 170 169 169 169 171 173 176 175 175 174 175 174 175 175 175 176 177 177 180 181 179 180 180 179 176 175 174 174 173 172 171 174 174 175 174 175 174 175 174 173 171 165 154 146 137 131 134 139 143 145 149 153 156 156 158 160 161 163 164 164 164 165 164 164 163 163 164 166 168 169 170 170 168 165 165 166 164 163 162 163 162 163 163 163 165 166 164 164 162 162 161 161 162 163 163 163 163 165 164 164 164 163 162 161 157 155 156 154 153 152 149 144 134 105 61 21 15 14 16 18 19 18 18 18 16 16 15 14 14 13 13 12 13 14 15 16 16 18 19 20 22 22 22 19 19 19 20 20 18 19 16 17 18 18 17 17 17 18 19 21 22 23 23 25 23 23 23 23 25 28 28 29 29 29 30 30 30 29 28 27 25 26 24 25 28 28 30 32 31 32 31 29 27 27 26 25 25 28 26 29 31 33 30 33 32 30 29 29 31 32 34 34 34 33 32 31 30 29 30 27 26 28 28 29 30 28 30 29 29 29 28 28 30 30 31 29 28 26 25 24 24 23 23 23 23 23 24 26 26 25 24 23 21 21 22 21 22 21 18 16 16 15 17 17 18 17 15 15 16 18 18 19 18 18 18 17 17 17 20 20 19 
18 17 19 20 20 22 22 20 20 21 18 18 17 13 9 10 11 13 12 14 17 16 17 19 18 14 12 12 12 11 10 12 13 14 15 15 15 14 14 14 15 16 19 22 21 18 17 15 15 18 19 17 16 15 15 18 19 20 22 22 21 19 17 17 19 20 16 14 13 14 14 16 14 12 11 10 9 9 14 16 16 17 15 15 16 16 16 15 14 13 13 14 14 15 13 12 14 14 16 18 19 19 19 18 18 17 16 16 16 14 16 15 15 13 12 13 13 12 13 15 13 13 11 10 8 8 9 9 10 8 4 3 3 4 3 2 2 1 0 2 1 1 2 0 0 0 0 0 0 0 0 0 0 1 2 1 0 2 0 1 0 0 0 0 0 0 1 2 2 2 1 1 4 4 5 5 21 104 142 150 153 156 155 158 160 161 162 162 165 170 171 170 170 172 172 171 170 169 167 168 168 169 170 171 172 173 173 173 172 172 172 174 174 173 172 170 172 170 170 170 169 169 169 171 172 174 174 174 172 171 170 171 170 171 173 173 172 173 173 174 174 172 171 172 171 170 170 167 165 164 166 168 171 173 176 175 173 171 169 167 168 169 169 168 167 169 171 173 172 172 173 174 174 175 177 180 181 183 180 179 175 173 171 170 170 170 170 171 170 169 171 170 172 171 171 171 171 174 176 176 175 174 175 175 176 175 175 175 178 179 180 182 183 183 183 183 185 184 183 182 182 182 181 180 181 183 180 179 179 179 180 180 181 180 180 180 180 178 177 174 172 171 168 170 171 170 170 172 172 173 176 175 175 175 175 174 173 172 170 170 169 169 169 169 171 172 174 176 175 175 176 176 174 174 174 175 176 178 180 179 179 180 179 177 175 173 173 172 171 172 174 174 173 173 173 172 173 174 173 174 173 168 167 166 164 155 142 131 126 131 137 142 146 150 152 154 157 160 162 164 164 164 164 163 164 165 166 169 170 170 171 169 166 166 166 165 165 166 167 167 167 166 167 167 166 165 165 164 163 163 163 165 165 164 163 165 165 165 166 166 165 163 163 161 160 160 159 159 158 157 155 153 148 135 98 49 15 15 17 20 19 19 18 17 18 16 14 13 13 13 13 15 14 17 19 17 17 18 18 19 19 20 19 17 19 19 19 18 17 16 17 20 17 17 16 15 15 18 20 24 23 23 24 24 25 26 24 25 27 26 26 26 26 29 30 29 28 27 26 25 26 25 26 26 29 30 31 29 31 31 32 31 29 28 26 25 25 26 29 32 31 31 32 32 30 30 31 33 34 35 36 35 33 30 30 30 30 29 29 29 29 29 30 28 28 30 30 28 28 28 29 31 32 31 30 28 27 27 26 25 25 22 20 21 22 24 25 25 26 26 26 24 24 25 23 23 20 18 18 16 17 17 17 17 17 15 14 15 17 18 18 18 17 17 19 18 19 20 19 18 
16 18 19 20 20 20 20 18 17 18 18 17 15 12 10 8 9 10 11 14 16 18 18 18 19 16 14 14 13 10 10 12 11 12 13 12 13 12 11 13 15 17 19 21 19 16 16 14 15 17 19 17 16 14 15 17 17 19 20 19 19 19 16 16 19 19 17 14 14 13 13 14 14 13 11 11 11 12 17 19 19 18 15 16 18 16 17 15 12 11 12 13 15 16 15 14 14 16 17 19 18 18 18 19 19 19 18 17 17 17 17 14 13 13 12 11 11 12 14 13 12 11 10 9 7 7 8 7 9 7 5 4 3 2 2 4 3 2 1 2 2 2 2 0 0 0 0 0 0 0 1 0 1 1 1 1 1 0 1 0 0 0 1 1 0 0 0 2 0 2 3 2 3 4 5 5 5 47 126 145 151 153 155 157 160 163 164 166 170 171 171 170 171 170 169 170 170 167 166 166 167 168 168 170 172 172 174 176 175 175 174 174 173 171 171 169 170 169 168 169 168 168 169 171 172 172 171 173 173 171 170 170 170 170 169 170 169 171 171 171 171 170 170 170 169 170 170 168 166 167 168 171 172 174 175 175 174 172 172 171 171 171 171 169 168 169 169 171 169 169 169 170 170 173 176 178 180 181 180 178 176 173 172 170 168 170 170 172 170 169 171 170 170 170 171 171 173 175 175 175 173 173 174 176 175 174 175 177 178 179 181 183 184 185 185 184 184 183 181 182 183 183 180 180 181 181 181 180 180 183 182 181 180 180 179 179 179 179 177 174 173 171 170 171 172 172 171 173 172 171 174 176 175 174 175 175 175 173 173 172 171 170 167 169 169 171 172 175 176 177 177 177 175 174 175 176 178 178 178 177 178 179 178 177 176 173 171 170 171 171 173 172 172 172 172 171 171 172 173 172 171 167 168 168 167 166 165 162 158 149 136 126 124 131 137 141 147 153 157 159 159 161 162 163 163 165 167 169 171 173 172 170 167 166 165 165 166 168 170 168 168 168 169 169 168 167 166 166 165 163 164 165 165 166 163 165 167 168 168 169 167 166 165 163 160 163 162 163 163 162 160 160 159 155 148 130 89 41 18 19 19 19 19 19 19 17 14 15 15 14 14 15 15 18 18 18 16 15 18 20 19 19 19 18 18 17 16 17 17 17 19 18 15 15 15 14 14 17 20 23 25 23 26 25 25 27 26 27 27 25 25 25 25 26 27 28 26 27 26 25 25 28 28 27 27 28 30 31 31 32 32 33 30 29 30 28 28 28 29 31 30 29 30 31 31 31 30 32 33 36 35 34 33 31 30 30 29 31 30 29 28 26 27 27 28 29 30 29 30 29 31 31 33 30 29 29 30 29 27 26 25 22 19 21 22 24 24 25 26 26 26 26 24 25 22 21 18 17 17 18 17 17 17 16 16 14 14 15 15 17 19 18 16 17 17 18 18 21 19 18 
17 18 17 18 18 16 16 16 16 14 14 13 13 11 9 8 7 10 12 14 15 16 16 16 17 16 15 16 13 11 12 12 11 13 12 11 9 11 12 13 14 15 19 18 16 15 16 14 15 17 18 17 14 15 14 15 16 16 17 17 17 17 16 17 19 20 18 16 14 12 12 13 13 14 13 13 13 15 19 19 21 19 17 16 17 17 17 16 12 13 12 14 14 16 15 16 15 16 16 17 20 18 18 19 20 21 20 19 18 17 16 14 12 12 10 9 9 11 11 12 12 11 8 8 8 7 7 5 5 5 4 4 3 3 4 3 2 2 2 2 3 3 2 2 0 0 0 0 0 0 1 1 1 1 2 2 3 2 0 0 0 0 2 1 0 0 0 0 0 1 1 3 5 6 7 6 6 9 83 139 148 150 152 156 159 162 165 169 172 174 173 171 171 171 170 170 168 167 168 167 168 169 169 171 171 171 175 177 179 178 175 172 170 169 170 168 166 165 165 167 166 167 169 169 169 169 168 169 169 170 170 170 169 168 168 168 170 169 171 171 171 171 170 169 168 169 169 169 169 170 172 173 172 173 174 175 174 173 172 171 172 171 173 172 170 167 167 168 168 168 168 169 170 173 174 176 180 181 181 179 176 174 173 171 168 167 169 171 171 169 169 170 169 170 171 171 172 173 172 171 172 172 174 174 175 175 175 177 179 180 181 185 186 187 185 185 183 182 181 181 182 181 180 179 180 181 182 180 183 184 182 180 179 178 178 179 179 177 176 174 173 171 170 171 172 173 171 171 172 172 173 174 174 174 175 174 174 174 174 172 170 170 168 167 167 171 173 176 176 178 178 178 177 176 177 176 176 176 175 175 177 177 178 176 174 172 170 169 170 171 171 172 171 170 171 170 169 169 170 169 168 168 168 167 168 165 163 161 162 161 160 159 147 126 107 110 122 134 143 148 152 155 156 157 160 163 166 167 168 171 169 168 165 167 165 165 167 169 169 170 169 170 168 170 170 168 167 167 165 165 165 166 167 167 168 168 170 170 168 169 168 166 165 166 164 164 163 164 165 165 167 165 163 161 159 155 146 128 87 39 19 16 16 18 18 18 16 17 17 17 16 17 18 20 19 16 14 14 16 19 18 20 19 19 18 16 16 18 19 18 18 16 14 13 15 17 15 17 21 23 24 25 26 26 26 26 28 28 27 26 24 24 23 24 25 25 26 26 25 24 27 30 29 29 28 30 30 32 32 33 32 31 30 30 31 29 28 27 29 30 30 31 30 30 29 28 30 31 33 33 33 34 34 33 30 30 30 31 31 29 27 25 26 26 27 29 30 29 29 29 31 33 33 31 30 30 30 30 29 27 25 22 20 21 21 22 24 27 26 27 25 24 24 23 21 20 17 16 17 19 18 17 17 15 16 15 15 15 15 17 18 17 17 15 15 16 17 19 17 18 
17 16 17 16 16 15 14 15 15 12 11 12 10 10 8 9 9 9 13 14 15 16 14 15 16 15 15 15 12 11 13 12 12 13 12 11 11 10 12 14 14 14 16 15 14 14 15 15 15 16 18 16 14 15 15 14 15 16 17 15 14 14 15 16 17 18 18 17 14 12 13 15 14 13 13 14 14 15 18 18 20 19 17 18 18 20 19 17 15 14 14 14 15 16 18 17 16 16 17 20 22 22 20 19 21 21 21 20 19 18 18 15 14 12 9 9 11 10 12 11 10 10 8 9 9 8 6 7 7 7 6 4 3 4 3 2 2 3 2 1 3 2 2 1 0 0 1 0 0 0 1 1 2 2 2 4 4 2 1 0 0 0 2 1 1 0 0 0 0 1 2 4 6 8 11 8 8 6 29 112 141 146 147 152 158 160 164 170 172 174 174 175 174 173 170 171 170 170 170 169 170 169 170 170 172 174 176 180 179 178 174 173 171 169 168 167 163 161 163 164 165 164 166 165 165 166 166 168 170 170 170 169 168 168 169 170 171 171 170 169 169 169 170 169 169 170 172 171 170 170 171 173 173 174 177 176 175 174 172 171 172 173 172 173 169 166 165 167 168 168 168 169 168 171 174 176 179 181 181 180 176 173 172 170 170 170 170 170 172 170 170 168 171 172 173 170 170 170 170 169 170 171 173 173 173 174 177 179 180 181 183 185 185 185 185 185 184 181 179 179 180 179 177 180 178 181 181 180 180 180 180 181 181 180 179 179 178 177 175 171 171 171 169 171 174 173 172 172 172 171 171 173 174 174 175 174 175 175 174 172 170 169 168 167 167 169 173 176 177 178 178 178 178 177 176 175 176 175 174 174 175 176 176 175 173 171 169 170 171 171 170 170 169 169 170 168 168 169 168 167 168 167 168 166 167 164 163 162 163 162 162 163 161 153 131 91 56 73 94 115 127 137 144 148 153 156 160 161 165 166 166 165 163 164 165 165 166 167 170 172 172 172 171 170 171 171 169 169 168 167 166 166 166 169 170 172 172 170 169 167 168 167 167 169 167 166 166 167 169 171 172 168 166 162 162 161 157 155 149 127 81 28 17 18 19 19 16 17 16 16 17 17 19 19 20 16 14 15 18 20 21 21 20 20 18 18 16 17 17 17 16 16 16 14 16 19 17 18 21 23 23 25 26 26 27 26 27 28 29 28 25 25 26 26 25 26 26 25 24 25 27 30 29 28 29 29 31 32 33 32 33 33 31 30 31 29 28 29 29 29 30 30 29 29 29 27 28 29 31 33 33 35 34 32 31 29 31 30 28 28 26 26 25 26 28 30 28 28 28 29 32 31 32 31 29 31 31 32 29 27 25 22 20 20 21 21 24 24 25 25 23 20 22 22 20 19 18 18 18 18 19 17 17 15 15 15 15 15 16 15 15 15 16 16 17 18 18 18 17 18 
19 18 16 16 17 15 15 16 15 14 12 11 10 9 9 10 12 11 13 14 14 15 13 13 14 15 15 12 10 10 13 12 12 12 14 11 10 10 12 15 14 14 16 15 15 17 14 15 15 16 16 16 16 16 13 13 14 15 17 14 14 15 15 16 17 19 19 18 15 14 14 16 15 14 14 14 15 16 18 18 18 17 18 19 20 21 21 20 18 16 16 16 16 17 17 18 18 16 18 19 21 23 22 22 22 23 21 21 19 17 18 17 15 13 12 12 12 12 12 10 11 9 8 11 10 9 8 10 8 9 7 6 5 3 4 2 2 4 4 1 2 2 2 1 0 0 2 0 0 0 0 1 2 2 1 2 2 3 1 0 0 0 1 0 0 0 1 0 0 0 2 5 7 10 10 10 10 8 4 59 130 141 145 148 153 159 166 172 174 175 177 177 175 172 172 172 173 172 172 172 170 170 171 172 173 174 176 179 180 177 176 174 173 170 168 165 162 161 162 165 165 165 163 163 163 164 167 169 171 170 169 168 166 168 170 170 169 170 169 169 168 169 171 169 168 168 171 170 170 170 171 172 173 176 178 178 175 172 172 171 174 172 173 170 168 166 167 168 168 167 168 168 168 170 173 176 177 179 179 177 174 173 171 170 170 170 170 170 172 172 171 171 172 174 174 170 168 169 170 168 170 171 171 171 173 176 176 178 180 181 183 184 186 186 184 184 182 179 178 179 179 178 177 178 178 179 179 177 178 178 179 181 182 179 179 178 178 176 174 172 172 172 172 172 175 174 172 174 172 172 174 173 174 175 175 176 177 176 176 175 171 169 168 165 166 169 172 174 176 179 179 179 177 176 175 173 174 174 174 174 174 174 174 174 173 171 170 170 170 171 169 168 167 169 169 169 170 169 170 170 169 168 170 168 168 167 166 164 162 162 161 160 161 161 150 120 70 36 10 28 51 77 102 120 132 143 148 151 155 158 159 160 160 161 162 164 164 166 168 172 173 173 173 171 170 170 170 170 169 169 167 167 169 171 173 173 171 170 168 168 168 168 168 170 169 169 169 170 171 172 173 170 169 169 167 165 162 160 162 157 147 114 48 17 17 17 17 14 14 16 18 17 17 16 15 15 14 14 17 19 20 20 21 21 20 19 17 17 16 18 17 16 15 16 18 20 19 18 21 23 25 26 25 26 26 27 27 28 29 29 28 28 29 28 27 28 27 25 24 25 26 26 26 26 28 29 30 30 31 31 31 31 29 28 29 28 29 29 27 28 30 29 30 29 28 29 28 28 29 30 32 31 30 29 28 29 29 29 28 27 26 25 26 27 27 28 27 28 28 30 33 32 31 30 31 31 31 29 28 27 25 22 22 22 22 22 23 23 24 24 22 19 21 21 21 21 20 19 19 19 19 19 16 16 15 16 16 15 16 15 16 17 15 17 19 19 21 21 19 20 
19 18 15 17 19 18 18 18 16 15 14 13 11 11 11 13 16 13 14 13 12 13 12 13 12 14 13 13 10 11 13 12 12 12 10 9 9 10 12 14 15 16 17 16 18 18 18 17 15 15 16 16 15 15 15 15 14 16 16 15 16 17 18 17 18 19 19 18 16 13 13 16 15 15 14 13 15 17 20 20 17 16 17 19 20 21 20 21 21 20 18 17 18 19 18 18 16 15 17 17 20 21 22 23 23 26 25 23 21 20 19 20 18 16 13 14 15 16 15 13 12 12 11 10 9 9 9 8 9 11 10 9 8 6 7 6 5 6 3 0 2 3 1 1 1 1 2 2 1 0 0 0 1 1 1 1 2 2 2 1 0 0 0 0 1 0 1 1 1 2 3 6 8 11 11 10 10 9 7 17 96 135 141 147 151 158 170 173 176 177 176 176 174 172 173 174 173 173 173 172 171 171 171 173 174 176 177 178 179 177 176 175 172 168 165 164 162 162 162 163 164 165 164 163 165 166 168 171 169 167 166 165 166 167 169 168 168 170 168 168 171 171 171 169 167 168 170 170 171 171 173 173 174 176 177 176 173 170 170 172 173 171 171 169 166 164 165 164 165 165 167 167 167 169 172 173 175 176 176 175 174 173 172 170 169 170 171 170 171 171 171 172 174 175 175 172 170 170 170 170 172 171 170 171 172 175 176 176 179 180 180 182 186 185 184 185 182 178 177 178 179 178 177 177 177 177 177 175 176 178 180 179 179 178 176 176 177 176 176 174 175 174 173 174 174 174 174 174 174 173 173 173 175 176 177 179 178 179 178 176 173 170 167 165 165 168 171 173 176 179 178 178 178 175 174 173 173 173 173 173 173 173 173 172 172 169 167 169 168 169 168 168 168 168 168 170 172 172 170 169 168 169 170 170 170 169 166 164 163 162 161 160 160 160 159 144 101 58 9 0 1 4 15 37 63 89 111 127 137 143 148 152 154 155 158 160 162 163 165 168 171 173 173 170 171 171 171 171 172 170 169 169 171 172 173 173 172 169 167 167 168 169 171 172 171 172 172 173 172 173 173 173 174 173 169 167 166 165 164 164 161 155 129 66 18 15 16 14 13 16 15 14 15 15 13 13 12 14 15 17 19 18 18 19 21 21 18 17 17 20 21 19 18 16 19 19 21 20 22 24 25 27 26 27 27 26 27 26 28 29 29 29 29 29 28 28 27 25 23 24 23 25 25 24 25 27 28 29 28 29 31 30 29 28 27 28 29 29 27 27 27 28 29 27 28 28 29 28 28 29 28 29 28 29 28 27 28 28 29 27 25 25 25 26 26 26 26 28 29 29 30 31 30 31 31 32 31 29 27 25 25 24 24 25 24 24 23 24 23 23 22 21 22 23 23 22 22 21 20 20 20 18 17 15 14 15 14 15 15 17 18 17 18 17 18 19 22 21 19 19 
20 18 17 18 19 19 19 20 18 16 14 13 14 14 15 16 14 12 12 13 13 13 12 11 12 14 13 14 13 12 11 11 10 9 8 7 7 9 12 14 15 16 16 18 18 19 19 18 16 16 15 15 17 17 16 17 17 16 18 16 18 20 19 19 17 17 18 17 14 13 13 13 12 13 14 13 14 17 20 21 18 15 15 18 22 23 22 22 22 23 22 21 22 22 20 18 17 16 18 19 20 21 22 24 25 26 24 23 23 20 22 22 21 18 16 17 17 15 15 14 13 13 13 10 10 9 8 10 11 12 11 10 11 10 10 8 6 4 3 1 2 1 1 0 0 2 1 1 0 0 0 0 0 0 0 0 0 1 1 0 0 0 0 1 2 3 2 1 3 3 4 6 9 10 13 14 12 12 10 9 41 112 134 142 148 161 172 175 177 176 176 175 175 175 175 174 173 173 172 173 171 171 172 175 175 176 177 177 176 175 175 173 173 170 166 165 165 164 163 163 164 165 166 166 166 166 169 169 167 166 164 165 166 167 166 166 167 167 168 169 171 172 171 169 168 169 172 172 171 173 173 175 175 175 174 173 170 169 171 170 170 170 168 168 166 165 164 162 161 162 164 165 166 168 170 171 172 173 173 173 172 173 172 169 168 169 170 169 169 170 171 173 173 175 173 173 172 173 172 172 171 170 169 170 173 176 176 175 176 178 178 180 183 184 183 183 182 178 178 178 177 178 178 176 176 176 175 176 176 177 177 178 177 176 174 175 176 177 176 176 175 175 174 173 175 175 175 175 176 174 175 175 176 179 178 179 179 178 178 176 174 171 167 166 166 169 172 174 176 178 178 177 179 175 174 173 174 173 173 174 173 173 173 170 169 167 165 167 167 169 169 169 169 169 171 170 172 170 170 168 168 169 169 169 169 167 168 166 165 163 161 158 160 159 158 154 130 89 28 0 2 3 2 0 0 4 23 50 77 102 120 132 138 141 145 150 154 157 160 163 166 170 169 168 168 170 171 170 170 169 169 170 171 172 173 172 170 169 169 169 171 171 175 174 173 175 176 173 173 174 174 176 176 174 171 169 169 169 167 167 167 164 159 144 91 24 16 16 13 15 13 12 12 12 10 10 10 11 12 16 15 15 16 18 19 20 19 17 19 20 22 20 18 19 19 21 22 22 23 26 25 26 26 26 25 25 26 27 27 28 28 29 30 28 28 27 25 23 23 23 22 22 24 26 27 27 27 28 28 29 29 28 28 27 24 27 28 26 25 25 26 27 27 26 26 27 28 28 28 28 30 28 28 27 27 26 28 28 28 26 26 26 27 26 27 25 26 26 26 27 26 27 29 32 31 31 30 29 25 25 27 27 27 25 26 25 24 23 23 25 23 23 23 23 24 23 22 19 20 20 20 17 16 13 13 14 14 15 15 16 17 18 18 18 19 20 22 22 20 20 
21 18 16 19 20 19 19 19 19 16 15 16 15 15 14 14 13 12 13 14 14 12 12 12 13 13 14 14 15 14 14 11 9 9 9 6 7 9 12 13 14 15 16 16 16 17 16 15 13 14 14 16 18 18 18 18 19 18 19 19 18 19 19 17 17 17 16 15 14 13 13 13 13 12 12 12 13 16 18 18 17 14 15 20 21 22 24 23 22 23 22 23 25 25 25 22 20 20 21 21 20 22 22 21 22 21 22 22 21 21 21 21 21 19 18 17 16 15 14 13 13 13 14 14 11 10 10 12 14 14 13 12 12 12 10 7 6 4 4 1 1 0 0 0 0 0 0 0 0 0 0 0 0 0 1 0 0 0 1 0 0 0 0 1 1 1 2 1 1 4 6 7 9 11 14 15 15 14 12 11 10 65 115 134 144 163 170 174 178 176 179 179 176 176 174 174 174 174 173 172 171 172 173 176 177 178 178 177 177 176 176 175 175 171 166 166 165 166 164 164 165 167 168 168 165 165 167 167 166 165 164 165 164 164 164 163 163 165 166 168 170 171 170 169 170 172 174 175 174 174 173 173 173 172 172 170 170 169 170 168 167 168 167 168 165 164 163 161 161 163 164 164 166 167 168 168 168 170 170 170 170 171 170 169 168 167 168 169 168 170 171 173 173 173 172 173 173 175 175 173 172 172 169 171 175 176 175 175 177 178 179 179 181 183 182 183 182 180 178 178 177 178 176 175 173 174 176 177 176 176 175 177 176 175 175 175 177 177 176 177 177 177 176 175 175 175 177 179 178 178 177 176 177 179 181 179 176 176 176 176 173 170 169 168 168 169 171 174 176 176 178 178 178 177 174 173 172 172 173 173 173 172 170 166 167 166 166 165 168 169 170 170 168 170 171 171 171 170 168 169 168 169 168 169 167 167 167 165 164 162 160 158 159 159 158 157 144 108 52 0 1 5 2 0 0 0 0 0 0 15 50 95 113 111 122 133 141 147 151 157 161 164 165 166 166 165 165 166 169 167 168 169 170 170 171 171 171 171 171 172 173 175 176 175 176 175 175 174 173 175 176 176 176 174 172 170 170 171 171 171 172 170 167 162 151 107 34 17 15 15 15 14 13 11 9 8 8 10 11 13 15 14 16 17 17 18 19 19 19 20 20 20 20 19 19 21 22 23 24 24 24 24 23 25 26 25 26 26 26 27 29 28 29 27 26 26 24 23 21 22 21 22 24 25 25 27 28 29 28 25 25 27 27 26 24 24 25 24 25 23 23 24 25 26 26 25 25 26 28 29 29 30 29 28 27 26 27 27 27 27 27 26 28 26 27 25 24 25 25 25 25 27 29 31 31 30 30 28 25 25 27 27 27 26 26 26 25 25 26 26 25 24 23 23 23 22 22 22 21 20 17 17 15 13 14 15 16 17 16 17 18 19 20 20 21 20 21 20 20 20 
20 19 17 18 19 19 17 18 17 17 14 14 13 13 15 15 14 12 12 13 13 12 12 11 12 13 14 15 18 17 15 12 11 10 10 8 8 10 12 12 12 13 15 16 15 16 16 15 14 15 15 17 19 20 20 19 17 18 17 17 17 17 17 15 14 15 15 14 15 13 13 12 13 13 14 13 14 15 15 14 14 16 18 20 21 22 23 22 22 24 24 24 25 25 25 24 22 23 23 22 21 21 21 19 20 21 20 21 21 21 20 20 20 19 17 15 15 14 13 11 11 13 13 13 11 11 11 14 16 15 16 15 13 10 10 9 7 5 4 1 0 0 0 0 0 0 0 0 0 0 0 0 0 0 0 0 1 1 2 1 1 2 0 0 0 0 2 2 2 4 6 7 8 12 14 15 16 15 14 11 11 16 69 114 138 164 169 173 175 177 178 179 177 176 175 173 173 174 173 173 172 172 173 175 177 176 178 177 177 176 176 176 176 172 167 167 167 167 166 165 165 167 168 166 164 164 164 165 165 165 164 163 161 162 161 161 161 163 165 167 170 171 170 171 171 172 174 175 175 174 173 172 172 171 170 168 168 169 169 167 168 168 167 168 167 165 162 161 162 163 163 164 164 166 167 164 166 167 168 168 169 169 169 169 168 170 169 168 169 171 173 173 173 174 173 173 174 176 176 176 175 172 169 170 174 177 177 177 179 178 178 179 181 182 182 183 183 183 179 177 177 178 177 176 173 173 176 177 177 176 176 177 176 177 176 177 177 177 177 178 177 177 177 177 178 177 180 180 179 179 176 177 178 180 180 178 177 176 176 174 174 171 168 169 170 172 171 173 174 175 177 176 176 175 174 173 171 172 173 173 171 169 167 166 166 166 166 168 169 170 171 170 169 168 170 169 168 169 169 167 167 167 167 169 167 167 166 165 163 162 159 157 158 157 157 159 156 131 81 38 12 2 1 0 0 0 0 0 0 0 23 99 130 75 49 81 108 125 137 144 151 156 160 161 161 161 163 165 166 166 166 167 168 169 170 171 172 172 173 174 175 177 178 178 178 175 175 173 172 175 176 177 178 175 173 172 172 173 173 174 173 172 169 166 161 156 125 54 16 16 16 15 12 10 9 9 9 9 11 11 14 14 13 13 15 17 18 18 20 21 21 21 22 22 20 22 22 24 24 24 23 24 23 24 25 25 25 25 26 27 27 27 27 26 24 25 24 22 18 18 19 20 24 24 25 27 27 28 26 25 24 25 25 23 23 22 22 23 24 21 22 23 24 24 23 23 23 26 28 30 30 29 26 26 26 26 27 28 28 27 27 27 28 27 25 25 24 24 23 25 27 28 29 30 32 31 28 28 27 28 27 27 28 26 27 27 27 28 30 28 26 25 24 22 23 23 22 22 19 17 17 17 14 13 17 18 17 18 17 17 18 19 19 21 19 19 20 19 20 21 
22 20 20 20 20 19 19 18 18 16 15 16 14 14 14 15 15 12 10 10 10 10 11 11 14 15 17 19 21 19 16 13 12 11 10 10 10 10 11 12 11 14 16 15 15 15 16 17 17 16 15 17 19 20 20 19 16 17 16 17 16 13 13 12 11 11 13 14 15 14 14 13 13 14 15 13 14 15 14 14 14 17 18 20 23 24 24 23 25 25 24 25 26 26 26 26 24 25 24 23 22 21 21 20 19 19 20 19 20 21 20 21 20 18 17 15 15 15 14 11 12 12 12 12 11 12 12 14 16 18 16 16 13 13 11 11 7 3 2 1 0 0 0 0 0 0 0 0 0 0 0 0 0 0 0 1 1 2 2 2 2 1 0 0 0 0 0 1 3 3 5 6 9 12 13 14 15 15 13 12 11 10 15 65 133 167 170 173 175 176 177 179 177 175 173 172 172 173 174 173 171 173 173 175 177 177 178 178 177 176 175 175 174 170 168 169 169 170 170 168 167 167 166 165 163 163 163 163 164 163 162 162 159 160 161 161 163 163 165 166 168 169 170 170 170 172 173 174 174 174 173 171 171 171 170 168 168 168 168 168 167 168 167 167 166 164 163 162 161 163 162 164 164 165 164 165 165 166 167 167 169 167 167 171 171 171 172 170 170 172 173 173 174 173 173 174 175 177 178 177 176 173 170 171 175 179 178 180 179 177 176 178 180 182 183 182 183 182 180 178 178 178 176 174 173 173 176 176 176 176 175 177 178 177 178 179 178 179 178 179 178 177 178 177 178 179 180 180 181 180 178 179 177 179 180 179 178 177 177 176 173 171 169 170 172 173 173 172 174 175 174 171 173 172 173 174 172 173 173 172 170 166 166 165 165 167 167 169 169 168 171 171 171 169 169 168 166 168 168 166 165 166 167 169 169 169 165 164 163 163 161 159 159 158 159 160 161 147 106 52 19 0 0 0 0 0 0 0 0 0 0 78 132 99 0 0 21 51 83 111 129 140 145 149 153 156 160 163 165 166 165 166 167 169 170 172 173 176 177 176 177 180 181 179 179 177 175 173 172 174 175 177 179 177 175 175 175 176 176 175 173 171 169 167 165 163 160 142 59 15 14 11 9 8 8 9 8 8 8 10 10 10 11 12 14 16 18 18 20 21 21 21 21 23 22 22 24 24 23 23 23 26 26 26 26 25 25 26 27 27 27 27 26 24 24 25 23 21 17 18 19 21 23 25 26 26 25 25 25 25 23 23 24 22 22 23 20 21 22 21 20 21 22 23 23 23 22 27 29 30 29 27 26 25 26 27 28 27 30 30 28 27 28 28 25 25 25 24 24 27 27 29 29 30 30 31 31 31 30 29 28 28 29 27 28 29 28 28 28 27 26 26 24 22 22 22 21 21 20 19 18 17 16 15 19 21 21 21 21 18 18 17 17 17 17 18 18 18 18 20 
23 22 22 23 23 22 22 20 20 19 18 19 19 17 16 16 14 11 10 9 9 11 12 13 15 17 19 21 21 21 19 16 14 13 13 10 11 11 11 12 12 13 16 14 14 16 18 17 17 17 18 19 18 20 21 18 18 16 14 15 14 13 13 12 10 11 14 16 14 14 14 13 13 13 15 15 15 15 17 16 15 16 19 20 23 24 25 24 25 25 24 24 26 26 25 24 25 23 24 25 24 23 24 23 22 21 20 20 22 21 21 20 20 20 19 16 16 16 14 13 12 13 13 13 13 12 13 12 15 17 17 14 14 13 12 9 7 4 2 0 0 0 0 0 0 0 1 2 1 0 0 0 0 0 0 1 2 1 2 3 2 0 0 0 0 0 0 0 1 3 5 6 9 11 13 13 15 14 12 10 9 9 7 24 140 168 170 171 172 173 177 176 175 173 171 172 173 174 175 172 172 174 174 175 178 179 179 180 178 176 176 174 172 169 168 169 171 171 170 169 167 168 167 165 163 164 163 162 164 163 162 160 161 162 162 163 164 166 165 165 168 169 170 169 169 171 171 173 173 173 174 172 172 171 172 170 168 168 169 169 167 168 166 166 166 164 163 161 161 163 163 163 163 164 164 165 167 166 167 168 168 166 166 170 172 173 172 172 172 174 175 174 176 175 175 174 177 177 177 178 176 174 172 173 175 179 179 179 179 178 178 179 180 181 181 182 182 181 181 180 179 177 176 174 173 173 175 176 176 176 176 176 179 179 180 180 180 181 180 180 179 178 178 179 180 181 180 181 181 181 179 178 178 178 178 177 177 177 177 175 174 172 171 174 175 173 173 172 175 175 173 171 171 172 171 172 173 172 172 171 167 165 164 166 167 166 165 166 166 167 169 169 168 168 168 166 166 166 165 166 165 166 168 170 170 170 168 166 165 164 163 162 161 160 161 162 162 158 126 67 29 1 0 0 0 0 0 0 0 0 0 58 128 118 12 0 0 0 0 22 53 85 109 126 136 145 152 158 160 162 163 163 165 169 172 173 176 178 178 177 178 180 181 179 179 178 176 175 174 176 177 178 179 179 176 175 176 177 175 176 174 174 172 169 167 165 165 164 132 33 11 7 7 8 8 8 8 7 8 6 7 8 10 11 14 14 17 17 18 19 22 20 22 23 23 24 25 25 24 23 23 26 27 26 25 25 26 25 28 28 27 26 24 22 23 22 22 19 17 19 20 22 24 27 27 27 27 25 23 22 22 22 23 22 21 20 18 18 20 18 19 21 21 21 21 21 22 25 27 27 27 25 24 26 27 28 27 27 28 30 29 28 29 28 26 25 25 25 25 25 26 28 29 29 31 31 30 31 30 30 31 31 30 29 28 28 26 26 26 27 25 23 23 21 22 22 21 20 20 19 21 21 20 19 20 21 22 21 22 20 19 18 16 13 14 13 13 15 17 21 
25 24 24 25 24 23 24 23 22 21 20 21 20 19 17 15 13 12 10 8 9 12 14 15 17 18 19 22 22 22 21 17 16 16 15 12 12 12 11 11 11 14 16 16 16 17 19 20 19 19 19 19 19 21 20 18 16 14 12 13 12 11 12 11 12 13 15 17 15 14 11 12 14 15 16 16 17 17 18 18 16 18 18 20 23 24 24 24 24 24 22 23 24 25 23 22 21 22 24 25 25 24 26 25 23 23 23 23 25 26 24 23 22 21 20 17 17 17 14 13 15 14 14 14 13 13 15 15 14 15 14 12 11 11 9 8 4 1 0 0 0 0 0 0 0 0 2 3 3 0 0 0 0 0 0 0 0 1 1 2 0 0 0 0 0 0 0 0 0 2 4 6 8 11 12 12 12 12 11 9 9 8 8 41 153 167 169 170 171 173 174 174 174 173 173 172 172 173 175 174 174 175 174 174 175 176 178 178 178 175 173 173 171 169 170 172 173 173 170 170 169 169 168 167 166 162 161 163 164 166 163 163 164 166 166 166 167 166 166 166 168 168 168 167 168 168 170 172 172 173 174 173 171 171 173 172 170 170 171 169 166 167 167 165 167 165 162 162 162 164 165 163 163 164 165 165 166 166 167 167 168 167 168 170 173 174 174 174 175 175 175 176 177 176 174 174 176 176 177 178 176 175 175 175 176 179 179 179 180 179 177 178 179 180 181 180 180 181 179 180 178 178 176 174 172 175 175 174 175 175 175 177 179 181 182 183 183 184 183 182 182 181 180 180 182 183 182 182 180 179 179 178 178 179 179 178 178 177 174 174 173 172 170 172 174 174 173 175 176 177 176 172 171 170 169 170 173 173 171 171 168 165 164 165 164 164 163 164 165 166 167 167 168 168 168 165 164 165 165 165 167 168 169 170 170 170 169 168 167 167 167 164 164 162 162 163 162 161 141 103 39 0 0 0 0 0 0 0 0 0 0 38 118 126 35 0 0 0 0 0 0 2 21 51 85 114 133 143 148 152 155 160 163 168 170 173 175 175 177 177 178 178 178 178 177 177 177 175 176 177 180 181 181 180 177 176 176 176 175 175 176 174 173 169 169 167 168 166 161 110 18 6 7 9 8 7 10 8 6 6 5 6 10 11 12 13 15 16 17 19 20 21 23 24 24 26 25 25 25 24 25 27 25 25 24 24 25 27 29 28 27 25 24 22 23 22 21 20 19 20 21 22 25 28 28 28 27 25 26 23 21 21 21 21 20 19 18 17 17 17 17 20 20 19 20 21 21 24 24 25 26 25 25 27 27 25 26 26 27 29 28 29 29 27 25 24 25 25 24 23 25 27 28 30 30 29 28 28 28 30 30 31 30 28 28 27 25 25 24 24 22 22 22 20 19 21 19 21 20 20 20 22 21 22 21 22 21 20 20 20 18 17 15 11 12 11 13 15 18 23 
26 26 27 26 25 24 25 24 24 24 22 21 19 18 17 16 14 13 10 10 10 12 14 16 18 20 20 22 24 25 23 22 18 17 15 14 12 12 12 11 11 12 15 18 19 20 19 21 22 21 20 19 20 21 21 19 18 15 14 13 13 12 11 12 11 13 16 16 16 14 12 12 14 16 19 20 19 18 19 17 17 18 18 18 19 23 21 22 23 23 22 22 23 24 22 22 22 22 25 25 24 23 25 25 25 27 26 26 28 27 26 25 25 24 21 18 17 17 15 15 15 14 14 14 13 14 15 14 15 15 12 10 9 7 7 4 2 0 0 0 0 0 0 0 0 1 2 4 2 0 0 0 0 0 0 0 0 0 0 1 0 0 0 0 0 0 1 0 0 2 5 7 8 10 10 10 10 10 11 10 8 7 8 71 160 166 169 170 173 174 175 174 173 173 173 173 174 175 175 176 175 174 173 173 174 175 177 176 175 175 175 173 173 173 174 176 176 173 172 171 168 169 169 168 165 164 164 164 167 169 167 165 166 169 169 168 167 167 167 168 169 169 169 166 166 167 170 172 172 175 176 174 171 172 172 170 170 170 169 168 166 166 167 166 167 166 165 163 161 163 164 162 161 162 165 167 166 166 166 168 169 169 170 172 174 175 174 175 176 176 175 177 177 177 175 173 174 174 176 177 178 176 175 174 175 177 179 179 180 180 179 178 179 180 180 178 181 182 181 181 179 178 176 174 174 174 175 176 175 176 177 178 180 182 183 184 186 184 183 183 184 183 182 183 184 182 181 180 180 179 179 178 178 179 179 178 179 178 174 174 172 171 170 172 173 173 174 174 177 178 177 175 174 171 168 169 172 171 170 168 165 163 162 165 163 162 163 164 165 167 166 166 167 167 167 165 165 165 165 164 165 168 170 170 170 171 171 168 169 168 169 169 167 165 163 164 163 161 149 110 64 3 0 0 0 0 0 0 0 0 0 19 101 128 61 0 0 0 0 0 0 0 0 0 2 30 65 99 121 134 144 151 155 161 165 168 170 172 175 175 177 176 175 176 178 177 176 176 177 177 180 182 182 181 179 178 177 176 176 176 176 174 174 169 169 170 169 170 168 158 93 8 7 7 7 7 8 9 6 4 4 6 9 10 11 12 15 16 17 17 19 20 22 26 25 25 25 26 25 26 24 24 23 24 23 23 25 27 27 26 24 25 24 24 25 24 23 21 21 22 22 23 25 26 28 26 26 24 24 23 23 23 23 22 21 18 17 17 17 16 16 18 19 20 19 20 20 23 22 24 25 25 24 26 26 25 26 27 26 26 27 27 27 26 24 26 24 24 23 23 23 25 25 27 28 26 26 26 26 26 27 28 28 27 27 26 24 25 23 22 19 19 20 19 18 19 18 19 20 21 20 21 22 21 21 21 20 21 22 21 18 19 16 12 12 13 14 16 20 24 
25 25 25 26 26 26 26 26 26 25 23 21 20 18 16 15 14 13 12 11 10 11 14 18 20 21 22 24 25 27 26 23 21 17 17 16 13 13 12 11 12 14 14 18 19 19 20 23 25 23 22 21 23 24 23 20 19 18 16 14 14 13 13 13 13 14 16 15 16 15 15 15 18 18 19 18 18 18 17 17 15 16 17 18 17 18 18 19 19 20 20 19 21 22 23 24 26 25 27 27 24 24 25 24 26 30 28 27 27 26 26 27 27 25 23 20 17 17 16 16 16 15 14 14 13 13 13 14 14 12 10 9 6 4 3 2 2 2 0 0 0 0 1 2 1 1 2 4 2 0 0 0 0 0 0 0 0 0 0 0 0 0 0 0 0 0 1 2 2 4 5 6 7 7 9 8 8 8 10 10 9 8 9 103 164 169 170 172 174 176 176 174 173 173 174 175 175 175 174 175 176 174 173 172 173 173 174 174 174 175 175 175 176 175 175 176 177 175 173 172 171 171 171 169 166 166 166 168 170 172 171 170 169 170 170 170 171 170 169 169 170 170 168 166 166 168 171 172 173 175 175 174 172 171 172 171 169 168 167 166 165 165 166 167 167 167 165 162 163 163 164 162 161 162 164 167 165 165 167 167 169 170 171 171 173 175 175 174 174 175 176 175 175 175 175 174 174 174 175 178 179 178 176 175 175 177 178 180 180 179 180 178 177 180 178 177 181 181 182 180 177 178 176 173 173 173 174 177 178 178 179 179 179 179 182 184 186 185 183 184 183 184 183 183 183 183 181 181 181 180 179 178 177 178 180 179 179 178 174 173 174 173 171 171 171 172 173 174 176 176 175 176 172 170 169 168 169 168 167 166 164 163 163 164 164 163 162 166 166 166 169 168 166 166 165 167 166 165 164 164 166 168 169 170 170 170 170 169 168 169 169 168 165 164 162 164 163 162 159 131 73 18 0 0 0 0 0 0 0 0 0 0 83 130 90 0 0 0 0 0 0 0 0 0 0 0 0 14 42 77 109 130 141 149 156 162 164 167 170 172 173 173 175 174 176 177 176 175 177 178 179 181 181 180 180 180 178 177 176 175 177 177 173 172 171 170 171 172 170 166 150 62 5 6 7 6 5 7 5 6 5 7 10 12 12 14 16 19 18 17 17 20 22 24 25 23 24 25 25 24 22 21 24 26 24 24 25 27 27 27 25 25 25 25 27 26 24 22 22 22 22 22 22 24 26 26 24 22 22 23 24 22 22 20 21 20 19 19 17 17 17 17 18 20 21 19 21 22 22 25 26 25 24 23 24 24 25 25 26 25 26 27 26 26 26 26 24 23 23 22 21 23 23 26 26 24 25 25 25 26 29 28 28 28 26 25 24 24 22 20 18 18 19 17 17 17 17 19 21 21 20 20 20 19 21 19 20 21 23 23 22 21 18 14 15 16 17 18 21 24 
23 24 25 25 26 26 27 26 26 25 23 21 20 17 16 17 15 15 13 13 12 12 17 20 22 22 23 24 24 25 25 23 19 18 18 17 15 12 12 10 11 12 14 17 18 20 20 23 23 23 23 23 24 24 24 22 21 20 19 18 16 15 15 13 11 12 14 14 14 15 17 18 21 19 20 17 16 15 13 14 13 14 15 16 16 16 15 15 17 19 18 19 21 22 25 27 26 26 27 28 27 26 25 25 27 28 27 25 23 25 27 27 27 26 22 19 20 21 20 19 17 16 14 13 12 12 12 13 12 12 10 7 5 2 2 1 0 0 0 0 0 1 2 1 0 0 1 2 0 0 0 0 0 0 0 0 0 0 0 0 0 0 0 0 0 0 1 4 4 5 6 6 5 7 7 7 6 8 10 10 9 8 18 135 167 171 172 173 174 176 177 176 173 175 177 178 177 175 174 173 173 173 173 172 174 172 174 173 175 177 176 174 174 175 175 177 176 176 174 174 173 172 171 170 169 169 168 169 172 174 174 172 171 172 173 173 172 172 170 171 173 171 170 168 169 171 174 173 173 175 174 173 171 171 171 171 171 168 166 166 164 164 166 167 166 165 164 164 165 165 166 165 163 162 165 166 165 165 166 167 169 170 169 170 173 173 175 175 176 176 177 175 174 174 174 174 174 173 177 179 180 177 176 175 176 175 176 178 177 178 179 178 177 178 178 179 179 180 181 179 176 176 176 174 173 173 174 176 177 179 179 180 179 179 181 183 184 186 183 181 183 183 183 181 182 183 183 182 183 181 178 178 177 178 180 181 181 179 176 175 176 173 173 175 174 175 176 175 175 174 173 174 171 169 168 167 166 165 165 164 163 163 164 164 165 163 163 165 166 168 169 168 167 166 167 168 167 166 165 164 166 167 167 167 170 170 170 169 168 169 169 167 165 164 161 163 162 163 163 143 89 41 1 0 0 0 0 0 0 0 0 0 62 130 112 4 0 0 0 0 0 0 0 0 0 0 0 0 0 4 26 58 94 124 141 151 157 162 166 168 169 172 173 173 175 177 176 177 177 178 179 180 181 181 181 179 179 179 177 177 178 177 175 173 170 170 170 172 172 169 163 137 36 5 6 6 6 6 7 7 8 10 12 11 11 15 17 19 19 18 18 20 22 23 24 23 22 23 23 22 21 21 24 25 25 26 26 27 28 27 25 24 24 27 28 26 24 23 22 23 23 22 22 22 22 24 22 23 22 21 23 22 22 22 22 20 21 19 17 16 18 19 19 21 22 19 19 21 23 24 23 23 23 23 22 23 24 24 25 26 26 28 27 26 26 25 25 24 23 22 22 22 23 24 22 22 23 23 26 27 29 29 28 28 27 25 25 22 21 18 18 18 19 19 17 16 17 19 19 19 17 17 17 18 19 20 22 23 23 23 23 21 19 16 16 19 18 19 22 24 
24 23 24 25 24 24 25 26 25 25 22 21 20 18 16 16 15 16 16 15 14 15 18 20 21 21 22 23 23 24 24 23 21 19 18 17 17 13 12 10 10 11 13 17 19 20 20 21 24 23 22 21 23 24 23 22 23 20 21 19 17 16 17 14 13 14 15 15 15 16 18 20 21 21 19 17 15 15 13 12 12 10 12 13 14 13 12 13 15 17 16 19 20 24 27 27 27 27 29 29 27 26 26 27 26 28 27 26 24 26 25 26 24 23 22 21 22 21 21 19 17 15 14 13 12 11 10 11 12 11 8 7 6 2 1 2 0 0 0 0 2 3 3 3 2 1 1 3 1 0 0 0 0 0 0 0 0 0 0 0 0 0 0 0 0 0 1 3 3 5 6 4 5 5 4 4 5 8 10 10 11 9 41 152 168 171 173 174 174 174 177 177 177 177 177 178 177 175 174 175 175 174 174 174 176 175 175 173 175 177 176 175 174 175 175 175 176 176 175 173 172 171 171 171 171 170 170 172 174 176 176 173 172 174 175 174 174 175 174 175 176 174 172 169 172 173 173 172 174 174 175 173 171 170 171 170 172 169 168 167 166 166 166 167 166 165 165 167 168 167 167 164 163 164 165 166 167 166 166 167 167 169 168 169 169 171 174 176 175 175 177 175 174 173 173 174 175 174 176 178 177 176 175 174 174 174 174 176 176 177 179 179 176 177 176 177 177 178 179 179 175 175 176 175 175 175 175 176 176 177 178 177 178 177 178 180 182 181 180 181 181 181 182 181 183 184 185 183 184 183 180 178 179 180 182 181 181 180 179 177 178 177 177 177 177 177 177 175 175 171 170 171 170 167 166 165 165 166 167 165 164 164 165 164 164 162 163 165 167 168 168 169 169 167 167 168 168 166 167 166 165 166 166 165 168 171 172 171 168 169 169 167 165 163 161 161 158 159 161 151 107 59 12 0 0 0 0 0 0 0 0 0 41 124 125 24 0 0 0 0 0 0 0 0 0 0 0 0 0 0 0 1 15 52 94 125 141 152 158 162 166 169 172 174 176 176 176 175 177 177 178 179 180 180 178 178 178 178 178 179 178 177 175 174 172 171 172 174 173 171 169 163 112 9 9 8 9 8 7 8 11 12 11 11 13 14 16 18 18 19 18 19 21 22 23 23 22 21 23 23 24 22 24 24 25 27 27 28 29 28 26 26 27 26 27 27 25 24 24 23 23 23 21 22 22 22 22 22 22 23 23 22 22 22 23 22 21 20 20 18 19 21 21 23 23 21 21 22 22 23 21 22 21 21 22 23 25 24 26 25 27 29 29 28 26 24 24 21 22 23 23 21 22 22 21 22 24 24 25 25 27 29 30 30 28 25 24 23 23 20 19 20 20 19 17 16 15 17 16 16 16 17 17 19 21 21 24 24 25 25 24 23 20 19 20 20 20 20 23 24 
23 23 23 24 24 25 24 24 25 24 22 21 19 18 16 14 14 15 16 14 15 17 18 20 21 22 23 22 21 21 24 24 22 21 18 17 16 14 13 11 10 12 14 16 19 20 21 23 23 22 20 22 23 23 22 21 21 20 21 21 18 17 16 15 15 16 17 18 17 18 18 21 19 19 18 17 15 14 14 12 13 11 11 12 13 13 12 11 13 16 16 17 19 23 27 27 28 29 29 28 27 26 25 26 25 25 26 27 26 25 24 24 21 20 20 21 21 21 21 19 15 13 13 14 12 10 11 12 11 9 10 9 5 2 3 3 2 1 0 2 2 4 5 4 1 0 0 1 2 0 0 0 0 0 0 0 0 0 1 0 0 0 0 0 0 0 1 3 4 6 5 5 5 5 5 4 6 7 10 10 10 10 71 160 167 170 171 172 173 174 175 176 176 175 175 176 176 176 176 177 178 177 177 177 177 178 176 175 176 178 179 177 175 176 176 177 176 175 174 172 172 172 171 171 171 171 172 174 176 178 178 177 175 176 175 176 174 174 174 177 178 176 174 171 172 173 172 171 172 172 174 174 173 170 171 170 171 171 170 167 165 166 166 167 166 164 164 167 169 167 167 165 166 167 168 168 169 168 168 167 168 168 168 170 171 171 173 174 174 174 175 174 172 172 173 174 173 175 175 174 173 173 173 173 174 173 175 174 176 176 176 176 176 176 175 175 176 177 176 176 176 177 176 175 175 176 175 176 176 176 176 176 177 176 176 178 181 181 181 182 180 181 182 182 182 183 183 183 184 185 182 181 181 182 182 182 181 180 179 179 179 178 176 176 178 178 177 175 173 170 170 170 169 166 167 166 166 168 169 166 166 166 167 166 165 164 164 165 167 168 166 167 168 167 168 169 168 165 165 163 163 165 167 165 167 169 171 169 168 167 167 166 164 162 160 158 156 159 159 154 121 70 17 0 0 0 0 0 0 0 0 0 26 118 131 50 0 0 0 0 0 0 0 0 0 0 0 0 0 1 3 3 2 3 18 53 95 126 143 153 159 164 171 174 175 175 174 175 175 174 175 178 180 180 178 177 178 177 177 178 178 177 174 173 172 172 172 174 174 173 172 170 153 42 10 11 11 11 10 10 11 11 12 12 13 16 17 17 17 16 16 17 19 21 23 22 22 21 21 24 23 24 24 25 25 26 29 28 28 27 26 27 27 26 27 27 26 24 23 24 24 23 22 21 21 21 21 22 23 22 22 22 22 22 24 22 22 20 19 20 21 22 22 23 24 22 22 24 23 21 22 22 22 20 21 23 24 25 24 25 25 26 27 25 25 24 22 22 22 22 22 21 21 21 21 22 24 24 26 26 27 28 29 28 28 25 25 24 23 20 19 20 19 19 18 15 16 14 16 16 15 16 17 18 20 22 23 25 25 25 24 23 22 19 19 21 20 20 22 24 
23 22 22 24 23 23 23 24 25 23 24 21 19 18 16 15 16 16 16 15 16 17 17 19 22 22 22 22 21 22 23 25 22 22 19 17 17 17 17 14 13 14 15 17 19 21 22 21 22 21 22 22 23 22 21 22 21 20 19 19 18 16 17 16 17 18 19 21 19 19 18 19 17 17 16 15 13 12 13 13 13 13 13 15 15 14 12 11 13 14 16 16 18 21 24 27 27 27 28 27 26 27 26 26 27 26 27 26 25 22 22 21 19 20 19 21 23 21 20 20 17 14 13 14 13 12 10 12 11 10 9 10 6 4 5 4 4 2 2 2 2 4 5 4 2 0 0 1 1 0 0 0 0 0 0 0 1 0 1 0 0 0 0 0 0 0 2 3 4 5 4 4 5 6 6 5 6 7 9 11 10 11 102 164 169 171 171 171 172 173 175 176 175 174 174 174 176 176 177 178 179 179 180 179 179 180 180 179 179 179 180 179 178 178 178 178 178 177 173 171 171 171 169 170 171 172 174 176 176 179 179 178 176 175 176 174 173 173 174 177 178 176 172 171 170 170 168 168 171 173 173 173 172 170 169 168 169 170 168 167 166 165 165 166 165 164 164 167 168 168 168 167 167 168 170 171 170 170 168 168 168 167 168 171 171 172 173 174 174 174 174 172 172 173 174 174 173 174 173 172 172 172 173 175 174 173 172 175 177 176 175 176 176 175 174 175 174 175 176 175 175 176 177 175 174 176 175 176 176 176 176 176 176 177 177 181 183 182 182 182 181 182 182 182 183 183 183 183 185 184 184 183 182 183 183 182 181 180 179 177 176 177 176 176 177 177 175 175 172 172 172 171 172 171 169 169 169 171 170 169 167 168 168 168 169 166 165 167 165 165 166 167 167 168 168 166 166 165 166 165 164 166 165 165 167 167 169 168 167 164 164 164 162 160 158 156 156 157 158 155 134 78 13 0 0 0 0 0 0 0 0 0 18 106 132 76 0 0 0 0 0 0 0 0 0 0 0 0 0 1 1 2 3 3 3 3 19 56 98 127 143 156 166 171 173 174 172 173 175 175 176 178 181 181 181 178 179 178 176 178 177 177 175 174 171 172 173 175 176 176 176 176 171 92 11 11 11 11 12 12 12 11 12 13 13 15 16 16 14 13 14 16 19 24 25 23 23 22 22 23 23 25 25 26 26 28 28 27 27 28 27 27 27 26 26 27 24 22 24 23 24 23 21 21 20 19 20 22 24 25 24 21 21 20 21 20 20 21 20 22 23 22 24 24 23 23 22 24 25 23 22 23 21 21 20 21 21 22 22 24 23 23 24 24 24 23 22 23 24 21 20 19 21 22 24 23 24 25 26 27 27 27 28 28 26 25 26 24 22 21 20 19 20 20 18 17 15 15 16 16 15 14 16 19 20 21 24 24 23 23 24 24 22 20 19 19 20 21 23 23 
25 23 22 23 21 22 22 23 23 23 24 22 20 20 19 18 18 19 18 19 17 17 15 18 21 20 20 22 23 23 24 24 24 23 21 21 20 19 20 18 19 17 18 19 20 21 22 22 22 23 23 23 23 23 22 24 24 21 19 17 17 17 17 16 17 18 20 20 20 18 17 18 17 16 16 15 13 13 13 12 12 13 13 15 15 13 11 11 13 13 14 15 17 20 23 25 25 24 24 25 26 27 27 26 27 26 25 25 24 24 23 23 21 18 18 21 22 22 23 20 16 12 13 13 13 13 11 11 10 11 10 10 8 7 6 5 4 2 0 1 1 1 4 3 3 0 0 1 1 0 0 0 0 0 0 0 0 0 1 1 0 0 0 0 0 0 0 2 4 6 4 5 6 4 4 5 6 8 10 10 9 12 125 166 170 171 170 171 173 173 173 174 173 173 175 175 177 178 178 179 180 179 180 179 179 181 183 182 181 181 181 180 180 179 180 180 179 178 174 171 171 169 169 169 171 173 177 177 178 180 179 178 177 175 174 173 172 173 174 176 177 174 171 170 169 169 169 170 172 171 173 171 172 170 169 168 168 168 168 167 165 166 164 165 164 163 164 166 169 169 170 169 168 169 172 171 171 171 170 170 170 169 171 171 171 171 171 172 173 174 172 173 173 174 174 175 175 174 173 172 171 171 171 174 173 172 170 173 175 177 177 176 175 174 173 174 173 175 176 175 175 174 173 172 173 174 175 175 175 175 176 178 179 178 178 181 182 182 181 181 181 183 183 183 182 183 184 185 187 185 185 183 182 181 181 179 178 178 177 174 176 177 175 176 175 175 174 174 171 172 173 174 174 173 172 174 173 173 170 168 168 168 167 168 169 167 166 167 168 166 168 169 167 167 166 166 165 167 167 166 165 164 165 165 166 167 167 168 166 163 163 162 160 158 157 157 156 157 157 156 142 88 31 0 0 0 0 0 0 0 0 0 1 93 133 102 0 0 0 0 0 0 0 0 0 0 0 0 0 1 2 3 2 3 3 2 3 4 22 62 106 134 152 161 166 170 173 173 177 176 178 179 180 180 180 179 179 179 177 178 177 176 176 174 174 174 173 176 177 179 180 179 177 140 20 10 11 10 11 12 11 11 13 13 12 13 15 14 13 13 15 17 21 23 24 23 22 24 22 23 24 25 26 27 26 27 26 26 26 25 26 25 24 25 26 24 23 22 23 22 22 20 20 19 21 21 21 22 24 24 22 21 19 18 20 20 20 19 19 20 21 22 23 26 24 23 22 23 24 25 23 23 22 21 21 19 21 19 19 20 23 23 23 22 22 20 21 23 22 20 20 21 23 23 24 26 25 24 24 25 28 28 28 28 25 25 25 25 22 22 22 20 20 21 20 19 18 17 16 17 14 13 15 17 19 21 22 22 23 21 21 22 21 18 17 17 18 22 23 24 
22 21 21 21 21 22 21 21 19 20 22 21 21 21 20 18 19 21 19 17 16 15 14 17 18 21 22 22 24 24 24 25 25 25 23 23 22 22 24 22 20 19 19 20 22 22 22 22 22 22 23 23 24 25 25 25 26 23 22 20 19 18 17 16 17 18 19 21 19 17 19 19 16 16 14 14 14 12 14 14 13 14 15 17 14 12 11 10 11 11 14 17 18 19 21 22 22 22 23 25 25 26 25 24 24 24 24 24 25 26 26 25 22 20 20 21 22 24 23 19 16 12 12 13 14 14 12 11 13 11 11 11 10 8 6 6 4 3 3 2 2 3 4 5 3 0 0 2 1 2 1 0 0 0 0 0 0 0 0 0 0 0 0 0 0 0 1 3 3 3 3 2 4 3 2 2 4 8 10 9 9 22 141 166 171 172 171 171 172 174 173 173 173 172 173 173 177 179 179 179 179 179 179 179 179 180 183 182 181 182 182 181 182 182 181 182 181 176 173 170 170 170 169 169 172 174 176 177 178 178 178 175 176 175 175 174 172 172 173 175 174 173 172 171 169 169 171 173 172 172 172 172 170 169 170 169 168 167 166 166 165 165 164 165 164 165 166 168 168 169 169 170 169 169 171 171 171 172 171 173 170 171 172 172 171 171 170 170 172 172 172 171 173 174 175 174 175 174 172 172 173 171 173 173 172 171 170 172 175 177 175 175 173 171 171 171 173 174 174 174 172 170 169 170 172 173 173 172 175 175 176 177 177 177 179 182 182 181 181 181 181 182 182 182 184 184 185 186 188 186 184 183 181 180 178 178 175 175 172 173 175 176 175 174 176 176 175 173 172 174 176 176 174 174 174 175 174 173 169 167 168 167 165 167 167 166 166 167 169 169 169 169 168 168 167 167 167 167 166 166 166 165 165 166 168 167 166 167 166 162 161 161 160 160 159 157 158 158 157 155 147 110 50 0 0 0 0 0 0 0 0 0 0 81 133 116 8 0 0 0 0 0 0 0 0 0 0 1 3 3 2 2 3 2 4 4 2 2 3 5 38 89 125 147 158 166 171 174 177 178 179 181 182 182 180 179 179 180 179 177 178 176 177 176 174 175 175 176 178 181 181 180 179 165 53 11 10 10 11 11 12 12 13 13 12 14 14 14 13 14 17 19 20 22 23 21 21 23 23 24 25 26 27 27 26 27 26 26 25 24 25 26 25 24 24 25 23 22 22 22 19 19 19 19 20 21 21 21 22 24 21 19 18 18 18 19 19 18 19 21 21 19 20 21 21 22 21 22 25 26 23 23 22 20 19 17 17 17 19 20 21 21 21 19 19 19 22 23 22 21 21 22 22 24 25 25 25 23 22 23 26 28 26 25 24 21 23 23 21 21 19 18 19 22 23 21 19 17 16 16 15 14 14 17 19 22 22 23 23 22 22 21 20 18 14 15 18 22 22 23 
19 20 22 22 21 21 20 20 20 21 21 21 21 20 19 18 19 18 17 15 14 14 15 17 19 21 24 23 24 24 24 24 23 23 22 23 22 24 24 25 23 23 20 20 21 20 20 19 20 21 22 23 24 24 26 27 26 25 25 23 21 20 16 16 16 18 20 20 19 18 19 19 17 18 14 13 14 13 15 15 15 16 16 16 14 11 11 11 12 13 16 16 18 20 22 21 21 20 22 23 24 25 24 22 22 23 24 25 25 25 26 25 23 21 21 22 23 24 23 20 15 14 14 14 15 13 13 13 12 12 12 11 10 8 6 7 5 4 4 6 5 6 6 5 4 2 1 0 0 1 1 0 0 0 0 0 0 0 0 0 0 0 0 0 0 2 4 3 2 0 0 0 0 1 0 1 4 8 9 7 6 38 152 170 172 173 172 172 173 174 174 174 173 172 172 172 174 177 179 179 178 179 179 180 177 178 179 179 181 183 184 183 183 183 181 181 180 176 174 174 171 170 171 173 174 176 176 177 178 178 177 175 175 177 174 173 172 172 174 176 174 172 173 171 170 169 172 173 174 174 174 172 171 170 170 169 166 166 165 165 166 165 163 163 165 167 168 169 169 169 169 169 169 169 169 169 170 171 173 172 171 173 172 173 172 170 169 168 171 172 170 170 172 174 174 174 173 174 172 172 174 175 173 174 172 171 171 174 174 175 176 174 170 169 170 171 170 172 172 171 170 168 169 169 171 171 171 171 172 174 176 175 176 178 179 180 181 181 180 179 179 181 180 181 184 183 183 185 187 186 183 181 180 178 177 177 173 172 171 172 172 174 175 176 177 179 177 175 174 175 176 176 175 174 176 176 174 172 171 169 169 167 164 167 167 167 167 167 169 170 169 169 169 170 169 170 170 170 168 167 167 167 167 166 167 166 166 166 165 160 159 160 161 163 160 159 159 158 158 157 152 122 71 10 0 0 0 0 0 0 0 0 0 58 130 127 25 0 0 0 0 0 0 0 0 0 2 3 3 3 2 1 0 0 2 2 3 2 2 1 1 21 73 117 142 157 166 171 176 177 178 182 184 182 180 179 179 177 178 177 178 177 176 175 176 176 176 176 179 180 182 181 180 176 106 12 13 13 12 12 13 12 12 13 12 15 15 14 13 13 14 15 18 20 21 23 22 22 23 25 27 27 27 27 24 24 25 26 26 25 27 27 25 24 23 23 21 20 20 19 18 15 17 17 19 19 20 18 19 20 20 17 17 15 16 18 19 19 20 21 21 19 18 18 19 22 22 21 24 26 25 23 21 20 18 16 17 17 19 20 21 20 19 18 18 20 23 24 22 21 22 22 24 26 25 25 23 24 23 23 25 28 26 24 22 20 21 21 19 19 18 18 19 24 23 21 19 15 16 16 15 14 15 18 19 21 22 22 20 20 21 20 20 18 15 15 18 20 20 20 
19 19 21 22 22 21 22 21 20 21 20 18 20 19 17 17 17 16 14 14 15 14 14 17 20 20 21 22 24 22 23 23 22 21 21 22 22 25 27 27 25 24 24 20 21 20 19 20 19 20 23 25 25 25 26 27 27 26 24 24 22 21 19 18 18 18 20 22 21 21 21 20 20 19 17 16 16 16 16 15 16 16 18 15 15 12 12 11 11 14 16 18 19 20 22 21 19 20 22 24 25 24 25 24 25 24 25 24 26 25 24 23 22 20 20 20 21 22 23 20 17 14 14 14 14 13 14 14 13 13 12 12 12 10 7 7 5 6 5 6 6 8 7 6 6 4 1 0 0 0 1 0 0 0 0 0 0 0 0 0 0 0 1 2 1 2 1 1 0 0 0 0 0 0 0 1 3 7 7 6 6 59 159 171 173 174 175 174 173 174 174 173 174 172 171 171 174 177 178 178 177 177 176 175 175 177 179 180 183 184 185 185 184 183 182 181 181 179 177 175 173 173 173 175 176 177 176 178 180 179 179 177 176 174 173 173 173 173 177 180 177 175 174 171 171 170 171 173 173 174 176 173 171 173 171 168 166 166 166 167 166 165 163 164 167 170 171 171 170 169 170 169 168 168 168 170 171 171 173 173 172 172 172 172 172 172 170 170 169 169 169 170 172 171 171 171 173 173 173 172 174 174 174 174 174 172 173 172 171 172 173 171 169 168 169 169 170 170 171 170 169 167 168 170 172 171 170 172 172 174 175 176 175 177 176 178 179 179 178 177 176 177 178 180 181 183 182 181 184 182 180 179 179 178 178 177 176 173 172 172 171 173 174 176 178 178 178 176 174 174 176 176 176 176 176 175 175 172 173 171 171 168 166 166 168 168 168 168 170 172 170 171 170 168 168 169 170 170 170 170 169 169 168 168 166 166 166 167 164 162 161 162 163 163 162 161 161 160 158 158 156 135 77 2 0 0 0 0 0 0 0 0 0 37 124 133 52 0 0 0 0 0 0 0 0 0 3 3 3 2 1 0 0 0 0 1 1 0 1 2 2 3 9 51 104 135 151 163 171 176 180 182 183 184 181 179 178 178 177 176 176 175 176 177 178 177 177 179 180 182 183 182 182 180 148 28 14 15 14 14 14 13 13 14 12 14 14 14 13 12 12 12 15 18 22 24 22 21 21 24 25 26 27 25 25 25 25 25 24 24 26 26 25 23 23 22 21 20 19 19 15 14 15 15 16 18 19 18 21 18 18 17 17 15 16 17 19 19 21 21 20 20 20 20 19 20 21 22 24 24 24 23 22 20 18 19 19 18 19 17 18 17 16 18 18 21 22 22 23 23 23 24 27 25 24 24 24 23 24 24 26 26 26 23 21 21 21 20 21 20 19 18 21 24 22 21 19 17 17 17 17 15 15 17 18 20 21 22 19 18 19 20 20 19 15 16 17 20 19 20 
21 20 21 21 23 22 22 21 20 21 19 18 17 17 17 16 17 17 14 13 13 13 13 17 19 21 21 23 22 21 20 21 20 20 19 21 23 25 25 26 25 26 24 20 19 20 20 23 21 21 25 26 26 26 27 27 28 27 26 25 24 23 21 20 20 20 22 22 22 22 22 22 22 20 21 19 20 18 16 15 17 16 16 16 15 15 13 14 13 15 16 18 21 21 22 21 19 21 24 27 27 28 26 25 26 25 26 25 25 24 24 22 20 19 19 18 20 21 21 20 17 15 14 14 13 14 15 14 13 14 14 12 11 11 8 8 7 6 4 7 7 6 6 6 5 5 3 1 0 0 0 0 0 0 1 0 0 0 0 0 2 4 4 4 2 1 0 1 0 0 0 0 0 0 0 2 4 7 7 8 8 84 165 172 175 175 174 174 175 175 174 174 173 172 170 171 173 177 178 178 177 175 175 175 175 179 182 182 182 182 183 184 183 184 182 183 182 179 179 178 175 174 174 175 176 176 174 177 180 179 179 176 175 174 173 173 175 176 179 179 177 176 175 173 171 169 168 169 170 172 174 173 171 172 170 170 166 167 167 167 168 166 166 167 170 171 172 171 171 171 171 170 168 166 168 169 171 172 174 174 173 173 173 173 171 170 169 169 168 169 170 170 172 171 169 170 172 173 174 171 174 175 174 173 172 171 173 173 170 170 170 170 168 168 168 169 168 169 171 170 170 167 168 170 171 170 171 173 171 173 175 175 175 175 175 176 178 177 176 175 175 176 177 179 182 180 180 181 181 181 178 178 180 179 180 178 178 175 175 173 172 173 176 176 178 177 176 176 174 174 177 179 178 175 175 176 177 176 175 172 170 170 169 168 168 169 170 170 171 174 173 171 171 169 170 171 173 173 170 168 170 170 168 169 166 165 167 165 164 163 162 162 162 162 161 161 160 160 156 157 156 140 85 10 0 0 0 0 0 0 0 0 0 26 118 138 77 0 0 0 0 0 0 0 0 0 1 0 2 2 0 1 0 0 0 0 0 0 0 2 2 2 4 9 35 99 132 150 164 171 178 179 179 180 180 180 180 179 178 176 176 176 177 178 179 179 178 179 181 183 184 183 184 183 168 52 15 14 12 12 13 13 12 12 11 12 14 14 15 12 10 12 13 17 21 22 21 22 22 25 25 27 25 22 23 23 23 22 22 23 25 24 23 22 21 21 20 17 17 17 13 12 13 14 16 18 18 18 20 20 18 16 17 17 19 19 17 18 20 22 22 24 24 21 22 22 24 24 24 21 20 20 20 20 18 20 20 18 17 14 16 16 17 17 18 19 20 20 22 22 22 23 24 24 24 23 22 21 24 25 26 26 23 23 22 24 23 23 23 21 20 21 24 24 22 20 19 18 18 18 17 15 16 19 21 22 21 21 20 19 19 21 20 20 18 18 19 20 21 21 
22 21 22 22 23 24 23 22 21 21 18 18 17 17 17 17 16 15 15 14 13 13 15 17 19 20 22 23 22 20 19 17 17 17 18 20 21 23 24 25 26 26 24 20 20 20 22 24 23 24 25 27 27 28 29 28 29 27 28 28 29 26 23 22 23 23 23 23 24 24 24 23 23 20 22 22 21 20 18 17 17 16 16 15 12 13 13 16 15 15 19 20 21 22 20 19 20 22 27 28 28 28 27 26 27 27 28 26 25 24 22 21 19 19 18 18 18 21 21 21 19 18 15 14 14 14 15 14 14 14 13 11 10 11 10 9 7 6 6 7 7 7 6 6 5 5 4 2 0 0 0 0 0 0 0 0 0 0 0 0 2 4 5 4 2 0 0 0 0 0 0 0 0 0 1 5 6 7 8 8 10 108 167 174 176 175 174 176 175 175 173 172 171 169 168 169 172 177 179 177 175 175 176 177 177 180 180 181 181 181 182 182 181 182 183 182 181 179 181 181 178 176 177 177 178 175 174 176 177 179 178 174 176 175 174 175 176 179 178 177 175 174 173 172 170 169 167 166 168 170 171 171 171 172 171 169 169 168 169 170 170 169 168 169 171 172 173 172 170 170 170 169 169 169 168 169 171 172 175 175 173 173 174 173 171 171 170 168 168 169 170 170 172 170 168 168 171 173 174 173 176 175 173 171 172 171 171 172 170 169 169 170 169 168 168 168 169 168 171 171 169 167 166 169 170 171 171 172 173 174 175 176 175 173 173 174 175 175 175 174 175 175 176 179 181 179 180 179 178 179 181 182 181 180 180 180 179 178 177 176 176 177 176 178 178 176 175 175 175 176 177 177 177 176 175 177 178 178 176 174 171 172 172 171 170 170 169 170 171 173 172 171 170 171 171 172 175 174 170 168 170 170 170 169 167 167 166 165 166 164 161 161 162 161 162 162 162 161 158 158 155 142 97 30 0 0 0 0 0 0 0 0 0 7 102 139 101 0 0 0 0 0 0 0 0 0 0 0 0 0 0 0 0 0 0 0 0 0 0 2 3 2 5 7 8 36 104 135 151 162 169 173 174 176 177 181 180 179 179 178 176 178 178 180 180 180 179 181 183 185 186 185 185 184 173 60 12 13 11 10 10 10 9 10 10 11 13 15 14 12 9 12 15 15 19 20 21 22 23 25 26 26 25 21 21 20 20 20 20 21 21 22 20 20 20 20 18 17 16 15 14 15 15 16 17 17 19 20 20 19 18 18 18 19 18 20 16 17 20 22 23 25 24 23 22 22 24 23 22 21 18 18 19 18 17 19 19 18 17 14 15 16 17 18 17 16 16 18 20 21 22 22 21 22 22 22 21 20 21 22 22 21 22 23 23 23 23 24 24 23 24 24 25 23 22 20 21 20 20 20 19 17 17 19 21 20 21 22 21 19 19 22 21 21 20 20 21 20 21 24 
20 20 21 22 22 24 24 22 21 21 20 17 17 16 15 16 15 15 14 14 14 14 15 18 21 21 21 21 21 19 17 16 16 17 16 16 18 21 26 27 26 25 24 20 18 20 23 23 23 25 26 27 28 29 31 31 30 30 30 31 28 27 25 24 24 27 28 26 26 24 23 21 21 21 21 21 21 20 19 19 18 17 17 13 11 13 14 16 18 18 19 21 19 21 20 20 22 24 27 27 28 28 29 29 29 28 27 25 23 23 21 22 20 18 17 19 21 23 21 22 20 19 16 15 16 15 16 17 16 15 14 12 10 10 9 9 9 7 6 6 6 7 7 7 4 3 3 1 0 0 1 3 3 3 0 0 0 0 0 0 2 2 3 3 2 0 0 0 0 0 0 1 0 0 2 7 7 9 9 10 16 131 168 173 176 175 174 175 176 175 173 172 172 170 169 169 172 174 176 177 177 177 179 177 179 179 178 178 179 177 177 178 179 178 179 180 179 180 182 183 182 179 177 178 177 176 175 175 176 178 177 175 175 176 177 176 176 177 176 174 174 173 171 170 170 167 165 164 166 169 169 171 171 173 171 170 171 171 171 171 170 169 169 169 170 172 173 171 169 168 169 168 169 167 167 168 170 173 175 175 174 173 174 173 171 173 171 170 170 171 172 172 172 170 169 170 172 174 174 173 174 173 171 172 171 172 171 171 169 169 169 169 170 170 170 169 168 168 169 169 166 165 166 168 170 170 171 172 173 174 173 174 173 171 170 171 172 173 173 172 173 174 176 177 178 179 177 178 178 179 181 182 181 179 179 179 179 179 179 179 179 177 176 178 178 176 176 177 178 177 176 176 176 176 177 178 179 180 176 174 173 173 172 172 170 170 170 171 173 174 173 171 170 171 171 171 172 172 172 169 171 172 169 166 164 164 165 165 165 164 164 163 163 161 160 160 159 159 158 157 155 146 110 55 1 0 0 0 0 0 0 0 0 2 93 142 121 11 0 0 0 0 0 0 0 0 0 0 0 0 0 0 0 0 0 0 0 0 0 2 3 3 5 4 7 6 39 109 136 149 160 167 170 174 177 178 177 178 177 177 176 178 181 183 184 184 182 185 186 186 185 185 185 184 173 60 9 8 9 8 8 8 9 10 10 9 11 13 13 12 10 12 14 14 18 20 22 23 24 25 25 25 24 21 20 19 18 18 18 18 20 21 19 18 18 17 18 17 16 16 17 16 16 16 17 19 20 21 20 19 19 19 18 18 19 19 18 19 22 23 23 23 23 21 22 23 23 23 23 21 17 17 18 17 16 17 17 16 16 17 18 18 17 17 16 17 15 17 19 20 22 23 21 21 22 22 19 18 19 20 19 19 22 24 25 25 26 25 25 24 23 23 25 22 21 20 21 22 19 19 18 16 15 17 17 16 17 20 19 19 19 23 23 21 23 22 23 22 20 21 
20 21 21 21 21 23 21 21 21 20 18 18 18 17 15 17 16 16 14 14 13 14 15 20 22 21 21 20 20 18 18 17 18 17 16 17 18 21 25 28 27 25 23 21 20 21 22 22 23 24 26 27 30 31 32 32 32 30 31 31 30 27 25 24 25 28 30 27 28 27 25 23 22 22 21 20 21 20 20 21 20 18 16 15 13 13 14 16 18 19 20 19 20 21 19 21 23 25 26 26 26 27 29 29 30 29 28 27 24 22 23 22 19 18 17 18 22 22 21 22 22 21 17 14 13 14 16 17 16 15 14 12 9 9 9 10 9 7 5 4 4 6 7 7 6 6 5 3 1 2 3 6 5 3 1 1 0 0 0 0 0 1 1 1 1 0 0 0 0 0 0 1 2 3 4 7 8 10 9 9 25 142 166 171 173 174 172 172 171 173 172 171 171 170 170 172 173 174 176 177 178 178 180 177 178 179 180 177 178 177 174 175 177 178 179 180 178 179 182 183 182 179 179 178 178 178 178 176 177 175 174 174 175 176 175 175 173 174 174 173 172 170 169 169 167 165 164 165 166 168 170 172 173 172 172 171 172 171 171 170 171 169 168 169 170 170 170 169 169 168 168 169 168 169 169 169 170 171 174 174 174 173 174 173 172 172 173 171 172 172 173 175 174 173 171 171 173 174 174 173 173 173 172 171 170 170 170 170 169 169 169 169 172 173 171 169 169 169 169 169 167 165 165 166 169 169 170 171 172 171 170 172 172 170 168 168 169 169 170 169 174 175 176 176 176 177 176 177 178 179 180 180 178 177 177 176 179 180 181 180 179 177 176 176 177 177 177 178 178 178 178 178 179 180 180 180 180 180 177 175 172 172 172 173 171 171 172 173 174 175 175 171 170 169 169 169 172 172 171 171 172 170 167 163 163 162 163 164 165 164 163 161 161 159 159 158 158 158 156 155 153 150 118 57 0 0 0 0 0 0 0 0 0 0 73 144 134 29 0 0 0 0 0 0 0 0 0 0 0 0 0 0 0 0 0 0 0 0 0 2 1 3 2 3 5 5 3 43 116 135 148 160 167 172 174 174 175 176 179 177 175 178 181 184 185 186 186 187 186 186 184 183 181 180 169 59 3 4 8 8 7 7 8 8 9 8 11 10 12 11 11 9 12 13 16 17 20 22 23 24 23 23 22 19 17 17 18 17 16 17 18 19 19 18 17 16 16 18 17 18 17 16 16 17 20 21 21 21 20 20 19 19 17 17 18 18 18 18 20 22 22 21 21 21 22 22 22 23 21 18 15 15 15 15 14 15 14 15 14 15 15 17 17 17 17 19 17 17 18 20 21 20 19 20 20 20 18 17 17 19 20 22 26 27 27 27 27 27 26 24 23 22 23 23 22 21 21 21 20 20 19 17 15 16 16 16 17 19 20 20 20 22 22 22 22 21 22 19 19 20 
21 23 22 22 22 22 22 22 21 20 19 19 18 17 18 17 16 17 16 15 14 14 17 21 21 22 21 21 22 19 18 20 18 18 16 18 19 23 24 26 27 24 21 22 22 23 23 23 23 24 27 26 29 30 32 33 33 31 32 34 30 27 25 27 27 29 29 28 29 28 28 25 25 24 21 21 21 21 21 22 21 17 15 14 15 14 15 17 17 18 19 19 21 18 19 21 23 26 26 26 27 28 29 31 31 29 29 27 25 23 23 24 20 19 20 21 22 22 21 21 20 19 16 12 13 13 14 15 15 13 12 11 11 9 8 8 8 5 3 3 4 5 7 9 8 7 6 4 4 3 4 4 3 1 2 0 0 0 0 0 0 0 0 1 0 0 0 0 1 0 2 3 3 3 5 6 8 9 8 8 34 148 166 169 174 173 171 172 171 173 172 172 171 172 170 173 174 174 176 178 179 178 177 177 178 178 178 179 178 177 175 175 176 178 181 180 179 181 181 182 181 180 180 178 178 179 178 176 175 174 174 174 174 173 173 172 172 173 173 172 171 171 170 169 166 165 166 168 168 170 172 172 174 174 173 172 173 172 171 171 171 170 170 170 171 170 168 169 169 169 169 170 170 169 169 169 171 172 173 174 174 173 173 174 175 175 173 172 173 174 174 174 174 173 172 171 172 173 173 172 171 172 172 170 170 169 171 170 170 170 171 171 172 173 172 169 167 167 168 170 169 167 167 167 168 169 169 170 170 169 169 170 171 168 164 167 169 168 169 169 171 173 174 175 175 175 175 175 177 177 176 174 174 173 174 175 177 180 180 179 178 176 177 179 179 180 181 180 178 176 178 179 181 181 182 180 179 178 177 174 172 171 173 173 174 175 175 174 177 177 174 171 168 169 170 171 173 172 170 170 169 166 163 162 162 162 162 163 162 162 162 160 158 160 159 160 159 157 155 155 153 152 126 63 13 0 0 0 0 0 0 0 0 0 64 141 140 50 0 0 0 0 0 0 0 0 0 0 0 0 0 0 0 0 0 0 0 0 0 0 1 2 2 2 3 3 3 4 79 130 138 151 162 168 171 172 173 174 178 179 178 180 182 183 185 186 188 188 188 189 185 183 179 176 166 62 0 2 5 8 8 7 7 8 9 10 10 11 11 9 8 9 9 12 14 16 19 20 22 22 21 20 19 15 14 16 16 15 15 15 17 17 17 17 16 16 17 19 18 18 17 17 17 18 20 21 22 22 20 20 20 18 18 17 17 17 18 17 20 22 22 20 20 22 21 22 24 23 21 18 15 14 13 14 14 13 13 13 13 14 15 16 16 17 18 19 19 18 20 19 19 17 16 17 19 20 17 17 17 19 21 23 25 28 28 27 27 29 28 26 24 22 22 22 21 20 22 21 20 21 20 18 17 15 16 16 18 20 19 21 21 23 22 22 22 21 20 19 20 20 
23 24 24 24 24 24 24 23 24 22 21 20 19 19 19 17 17 16 16 15 15 15 17 19 21 21 22 22 23 22 22 21 19 18 18 20 21 22 22 23 24 24 23 23 24 23 23 23 24 23 25 27 28 29 30 31 32 30 31 33 31 29 28 29 29 29 29 28 28 30 29 26 26 25 24 23 22 23 21 21 21 19 17 15 15 15 15 16 15 17 20 18 20 18 19 20 23 26 26 27 28 29 30 31 32 30 29 27 25 23 23 24 23 21 21 21 23 24 23 21 17 16 14 13 12 12 12 13 13 12 11 12 11 8 7 7 5 4 3 5 6 8 8 8 7 7 6 4 4 3 3 4 3 2 1 1 0 0 0 0 0 0 0 0 0 0 0 1 2 3 4 4 4 3 4 5 6 6 6 7 41 149 166 170 173 173 172 170 172 174 175 175 173 172 172 173 174 174 176 179 180 179 178 178 178 178 180 181 179 176 176 176 177 181 181 180 180 180 181 182 181 179 180 179 179 178 178 176 175 174 174 174 174 173 172 171 173 173 173 173 171 171 170 169 168 168 169 168 170 169 171 173 173 175 174 173 172 172 171 170 170 170 171 172 171 171 170 170 171 171 170 168 169 169 170 171 173 174 174 174 173 173 174 174 175 174 174 176 176 174 175 173 173 172 171 172 173 173 172 172 173 172 170 169 169 170 171 170 169 171 172 172 173 173 172 169 167 167 167 168 168 168 168 167 168 169 169 170 169 169 170 170 168 165 163 166 168 169 168 168 169 170 172 173 173 172 173 174 175 173 173 171 171 171 171 173 175 178 181 182 181 180 181 182 182 182 183 180 177 176 177 179 179 179 180 180 179 178 176 175 173 174 174 174 175 175 176 175 176 176 174 173 172 171 171 174 174 173 169 167 167 165 163 162 164 163 162 163 163 163 161 159 158 161 161 162 161 158 155 154 151 151 133 79 6 0 0 0 0 0 0 0 0 0 58 137 141 66 0 0 0 0 0 0 0 0 0 1 0 0 0 0 0 1 0 0 0 0 0 1 2 2 2 2 3 3 1 1 34 118 135 143 158 166 170 170 171 174 176 179 180 182 182 183 185 187 186 188 187 186 184 183 180 176 166 70 0 2 5 6 8 8 7 8 11 12 13 11 10 8 6 6 9 12 14 16 18 19 20 20 19 19 16 14 12 13 14 14 15 15 15 15 15 17 18 18 18 18 19 18 18 18 17 18 20 21 24 24 22 22 21 20 19 15 15 16 18 18 18 21 21 20 19 21 21 22 23 23 22 20 16 15 14 15 13 13 12 13 14 14 15 16 17 17 17 18 18 18 18 17 17 15 15 16 17 17 17 19 20 22 23 24 26 25 27 27 29 29 29 27 23 24 23 22 20 21 23 22 22 23 21 19 18 16 17 17 18 19 19 20 22 23 24 23 22 20 21 21 22 23 
26 26 27 26 25 26 25 26 25 24 23 23 21 21 21 19 18 16 15 15 17 16 17 19 20 22 24 23 23 24 22 21 21 21 22 22 22 21 22 22 23 24 22 21 22 23 22 22 23 23 25 26 27 27 29 30 30 29 31 33 31 29 29 29 31 30 29 28 29 28 29 27 27 26 25 24 24 25 24 21 20 21 19 17 16 16 16 15 16 16 18 18 20 19 20 21 23 25 26 27 30 31 31 32 32 32 30 27 24 24 24 24 23 20 20 21 22 23 22 20 18 16 14 13 13 13 12 11 10 9 10 9 11 10 8 8 6 5 5 4 5 7 8 7 6 8 7 4 3 4 4 5 3 4 3 3 2 1 0 1 1 1 1 1 1 0 1 2 3 4 6 6 5 4 4 5 4 2 4 5 46 152 165 169 171 172 172 171 173 176 177 175 174 174 174 174 175 174 176 178 179 180 181 180 180 179 182 184 182 178 178 177 178 180 180 178 177 179 179 181 179 178 179 178 180 178 178 176 173 174 173 174 175 174 173 174 173 175 175 174 171 171 170 171 169 168 169 168 168 169 171 173 174 174 174 171 170 171 170 168 169 169 170 171 171 169 169 170 170 172 171 170 170 170 172 173 175 175 175 175 174 174 174 174 175 173 173 175 175 175 175 174 173 172 172 171 172 173 173 171 172 172 171 169 169 169 169 169 169 171 171 171 171 170 169 169 167 166 166 166 166 169 169 167 167 167 169 168 167 168 169 168 166 165 164 165 166 167 166 167 168 170 172 172 170 169 171 170 170 170 170 169 169 169 169 172 175 178 182 182 183 182 183 183 182 182 183 180 177 176 175 177 178 178 180 180 181 181 179 179 177 175 175 174 176 175 176 175 176 177 175 173 172 171 171 173 173 172 170 169 168 167 165 165 165 164 164 164 163 163 162 160 161 162 164 164 164 161 157 154 152 152 140 94 17 0 0 0 0 0 0 0 0 0 43 131 141 78 0 0 0 0 0 0 0 0 3 3 1 0 0 0 0 0 0 0 0 0 1 3 5 6 4 3 2 2 0 0 1 82 131 139 152 163 168 169 171 175 176 178 180 181 180 183 185 185 186 186 187 186 184 184 182 178 169 75 4 4 6 7 9 8 7 8 10 11 11 9 6 5 5 6 9 9 11 14 17 16 18 18 17 17 15 14 13 12 14 14 14 13 16 16 16 17 19 19 18 19 17 17 20 19 18 19 21 23 24 25 23 22 21 20 18 15 15 18 18 16 17 18 19 19 20 21 21 21 23 24 22 21 17 16 16 16 15 14 13 13 16 16 15 15 16 15 16 16 16 15 16 16 16 15 16 15 17 18 18 21 22 23 24 26 25 25 26 27 29 29 29 26 26 25 25 24 21 21 23 24 25 25 23 22 20 18 17 17 17 16 18 20 22 23 22 23 22 22 23 23 24 24 
27 28 28 27 25 25 24 24 25 25 24 25 24 20 20 20 17 16 16 16 15 17 19 21 20 22 22 24 24 24 22 22 22 22 21 22 21 20 20 21 23 22 21 21 21 21 21 21 21 23 24 25 25 25 27 29 30 29 32 32 29 27 28 28 28 30 29 28 29 29 29 29 29 27 26 26 25 23 23 20 20 23 22 18 17 16 17 15 16 17 19 18 19 21 20 21 22 24 26 28 29 30 31 32 31 31 28 25 23 22 22 22 21 20 18 21 23 24 23 19 17 16 17 15 14 13 10 9 8 8 7 7 9 11 11 8 9 7 5 5 5 5 5 5 6 7 7 6 4 5 4 5 5 3 5 7 5 3 1 2 2 2 2 3 1 1 1 3 4 6 7 6 6 3 2 2 2 1 2 4 59 156 166 168 172 174 173 173 174 177 178 176 174 175 177 176 175 176 178 180 180 181 181 181 180 180 182 182 182 179 179 179 178 178 179 179 178 179 179 180 181 178 177 176 177 178 176 175 171 170 172 174 175 174 174 175 175 174 175 173 172 172 172 172 170 168 168 168 168 170 169 172 172 172 171 170 171 172 172 169 169 169 169 170 170 167 168 169 171 172 172 173 173 172 172 174 175 174 175 175 174 173 174 174 174 172 172 173 175 176 175 175 174 173 173 171 173 174 173 172 173 172 170 170 168 166 169 169 169 169 168 168 169 167 167 167 167 167 166 165 167 168 168 168 167 166 166 167 166 166 166 166 164 163 164 166 165 165 166 166 169 170 170 171 171 167 169 171 168 168 165 166 167 167 167 170 175 179 181 182 182 181 183 182 180 181 183 180 177 174 174 177 177 178 178 181 181 181 181 180 179 176 176 175 175 176 173 172 174 175 175 173 171 169 170 172 171 171 170 168 167 167 167 166 166 165 165 166 165 165 164 162 160 162 164 166 166 165 160 156 154 153 147 103 36 0 0 0 0 0 0 0 0 0 32 123 141 87 0 0 0 0 0 0 0 0 2 0 0 0 0 0 0 0 0 0 0 1 1 3 5 4 4 3 2 2 0 0 0 37 126 135 145 160 166 169 171 175 177 178 181 182 182 182 186 184 184 185 185 185 184 183 182 179 173 84 8 6 8 9 7 8 7 8 9 7 5 5 4 3 4 5 8 9 11 12 15 14 13 14 15 18 16 15 13 14 13 13 11 12 13 15 18 18 19 18 17 16 16 16 17 17 18 21 23 23 24 23 22 22 22 20 18 18 17 18 18 17 17 19 18 18 19 20 22 25 25 26 25 22 19 17 16 17 15 15 16 17 18 16 15 14 15 15 14 14 14 15 14 15 16 15 16 17 18 18 21 23 23 23 26 26 26 25 27 28 29 30 28 26 25 25 25 24 22 24 24 24 26 27 26 24 21 21 19 18 18 18 17 20 21 22 21 21 21 21 22 22 24 25 
28 29 28 27 26 26 23 24 25 27 26 26 23 20 18 19 19 17 18 18 17 18 20 21 21 21 21 23 23 23 22 21 22 22 22 21 21 23 20 21 20 21 21 20 21 20 19 21 22 21 22 23 23 24 26 30 29 30 32 31 28 27 27 27 27 28 27 27 30 31 31 31 29 30 28 28 26 23 20 21 23 26 24 21 17 18 18 18 18 18 18 17 17 20 21 22 24 25 26 26 28 29 29 30 30 29 27 24 21 21 22 22 21 20 20 23 25 24 21 18 17 16 16 14 12 13 10 8 8 10 8 6 7 9 10 8 8 9 6 4 4 6 6 6 6 8 6 6 5 4 6 5 5 4 6 7 6 3 3 3 1 3 2 2 2 0 1 2 4 4 5 5 5 3 1 0 0 0 0 2 69 158 169 172 174 177 175 174 175 175 177 175 175 177 179 177 176 175 176 178 180 183 183 183 182 181 183 183 180 180 180 179 179 179 180 180 180 181 181 181 182 181 178 178 175 175 175 175 171 172 172 173 172 173 173 172 173 173 174 173 173 172 172 172 172 170 170 170 170 169 170 172 172 170 170 170 171 173 173 170 169 170 170 170 170 169 169 170 170 172 173 172 172 173 172 172 173 174 174 173 173 172 172 173 172 173 172 172 174 175 175 175 175 173 171 170 172 174 174 172 171 170 171 171 169 167 169 169 169 167 166 167 166 166 164 166 166 167 166 166 167 168 168 166 165 165 166 165 164 163 163 162 161 161 162 165 163 163 163 166 168 169 169 170 170 168 168 168 167 165 164 164 165 166 166 169 175 177 179 180 181 181 182 180 180 183 184 182 178 176 176 176 177 177 177 180 182 181 182 181 180 178 177 175 176 174 173 172 172 174 174 173 170 169 169 169 170 168 169 166 166 166 166 167 166 166 165 167 166 166 165 163 161 163 166 166 167 165 161 157 156 154 150 113 48 0 0 0 0 0 0 0 0 0 16 110 137 99 0 0 0 0 0 0 0 0 0 0 0 0 0 0 0 0 0 0 0 0 0 2 2 3 4 3 2 0 0 0 0 22 121 136 142 155 163 167 172 175 179 179 182 183 181 181 183 185 185 186 185 184 183 183 183 180 174 81 9 7 7 7 7 7 7 7 7 5 4 2 3 1 2 5 7 8 9 13 14 13 11 13 14 14 16 16 14 15 13 13 12 12 13 15 17 17 17 17 17 16 14 15 15 17 20 22 24 24 24 24 23 22 21 21 21 20 20 20 20 19 20 20 20 19 20 21 25 26 26 26 25 23 20 17 17 18 19 19 18 18 17 16 15 16 14 15 14 14 14 14 14 16 17 18 20 20 21 20 21 24 24 24 27 27 27 27 27 27 29 30 28 27 25 25 26 26 24 25 25 27 27 28 27 24 22 22 21 21 22 22 22 20 20 21 20 21 20 19 20 23 24 26 
26 27 27 25 25 25 24 23 26 29 29 27 24 20 18 20 20 20 19 20 19 17 18 20 21 22 22 24 24 24 25 25 23 22 22 20 21 22 20 20 21 21 21 20 20 20 19 19 20 20 20 22 21 23 27 29 28 28 30 28 26 25 25 25 26 25 26 26 27 29 29 29 30 30 31 29 26 23 22 21 24 25 25 22 20 22 21 20 21 20 17 17 18 17 21 21 24 25 25 26 26 28 28 29 28 27 25 24 21 21 22 22 22 22 23 26 27 24 22 18 18 16 15 14 13 11 9 10 10 9 8 6 6 8 8 6 7 7 5 2 4 5 7 6 6 8 7 5 6 5 5 6 6 7 8 7 7 6 4 2 1 1 2 1 0 0 0 1 3 3 5 6 5 4 2 1 0 0 1 3 81 160 170 174 176 176 177 176 174 176 175 176 176 177 177 175 175 174 176 178 181 182 183 184 183 184 185 183 181 181 179 179 179 179 180 180 180 180 180 179 180 180 178 177 176 176 177 176 174 172 172 172 171 170 170 169 171 172 173 172 172 172 173 172 172 170 170 172 172 171 170 169 171 171 170 171 172 173 172 171 169 170 170 171 171 170 171 171 171 172 171 171 171 172 172 172 173 173 173 172 172 170 171 173 172 171 173 173 174 175 176 174 174 173 172 172 172 172 174 172 173 172 173 171 170 168 168 169 168 168 167 166 166 165 165 165 166 167 167 166 166 167 168 165 164 164 164 163 161 160 158 161 161 161 160 160 161 162 164 165 167 167 169 169 167 167 167 169 167 164 164 164 164 166 166 168 173 177 178 179 180 179 181 181 179 180 180 180 180 179 179 176 176 177 177 178 181 181 182 183 181 179 177 175 176 175 173 173 173 175 174 172 170 169 168 168 168 168 167 167 167 168 168 168 166 165 166 168 168 166 163 163 161 161 163 164 162 162 161 159 159 157 153 124 47 2 0 0 0 0 0 0 0 0 1 97 135 105 0 0 0 0 0 0 0 0 0 0 0 0 0 0 0 0 0 0 0 0 0 0 1 1 1 1 0 0 0 0 0 16 120 140 142 149 160 168 173 176 179 180 182 181 180 181 184 187 187 187 187 185 184 185 183 180 171 67 8 9 8 9 6 7 5 6 5 3 3 2 0 0 0 2 5 6 9 12 13 10 8 12 13 14 14 16 16 15 14 12 13 13 14 16 17 17 16 16 16 15 15 15 14 17 19 21 21 21 23 23 22 23 22 22 20 20 21 21 21 21 21 21 21 20 21 23 26 26 27 27 25 23 21 20 19 20 20 18 16 15 15 15 17 17 16 16 14 14 16 17 18 20 21 21 21 22 22 21 21 21 22 24 25 27 27 26 27 27 28 29 28 26 25 26 24 25 25 25 25 25 26 25 26 26 24 23 24 25 26 25 25 22 21 21 21 22 21 20 22 23 24 24 
25 25 24 25 25 26 26 27 28 31 30 28 25 23 21 22 23 21 22 20 18 18 21 23 23 22 24 25 26 27 27 26 25 24 22 20 22 22 19 21 21 22 21 21 19 20 19 19 18 20 21 22 23 24 26 27 27 27 27 26 26 23 24 24 25 23 24 26 25 27 28 27 29 29 30 29 28 24 23 23 24 25 24 23 21 23 23 21 22 20 18 18 19 20 21 21 23 26 27 28 29 29 29 29 29 27 27 25 24 24 23 24 23 22 23 25 27 23 20 19 16 15 14 15 12 10 9 8 8 8 6 6 7 5 5 5 6 7 5 3 5 7 6 7 8 10 10 9 8 8 7 8 7 8 7 7 6 6 5 2 3 2 1 2 0 0 0 0 2 3 7 7 5 5 6 3 4 2 4 5 95 163 170 171 174 175 175 176 176 177 177 176 177 177 176 175 173 173 176 178 180 182 183 183 184 184 184 184 181 179 179 179 178 180 180 180 180 180 180 178 178 178 178 176 176 178 179 177 177 175 171 169 170 169 168 169 168 171 173 173 173 173 175 173 172 172 172 174 173 172 170 170 172 171 171 170 171 173 173 172 171 171 170 171 171 170 170 172 173 172 170 169 169 171 172 173 174 174 173 174 173 173 173 172 173 172 172 172 173 176 175 174 174 172 172 172 172 171 172 172 173 173 174 173 172 169 168 169 169 168 166 165 165 166 166 167 169 168 168 167 166 167 166 164 165 165 164 162 160 158 159 160 161 160 159 158 159 159 162 163 164 164 166 166 165 165 166 167 167 166 164 163 163 165 166 168 173 177 178 178 179 179 179 179 177 177 178 179 179 180 178 177 177 177 179 180 182 183 184 184 183 180 177 175 176 176 176 175 175 175 172 170 168 168 167 167 168 170 170 168 169 169 170 168 167 167 167 168 167 165 164 162 161 160 162 163 163 163 162 161 160 159 155 132 59 17 0 0 0 0 0 0 0 0 0 89 134 111 1 0 0 0 0 0 0 0 0 0 0 0 0 0 0 0 0 0 0 0 0 0 0 0 0 0 0 0 0 0 0 10 116 143 144 148 159 168 171 175 178 180 181 181 179 180 184 187 189 188 189 189 188 188 186 181 166 50 8 9 9 10 7 6 5 6 5 2 2 0 0 0 0 0 4 6 9 12 12 9 8 11 12 13 14 15 14 13 12 11 11 12 12 15 18 18 17 16 14 14 16 15 14 16 19 20 19 20 21 21 23 23 22 21 21 21 20 22 22 23 23 22 21 22 22 23 26 26 28 29 29 26 23 23 21 19 18 16 16 14 15 15 17 18 17 15 14 16 18 20 21 21 22 23 21 22 24 21 21 21 21 21 25 27 26 25 27 28 29 28 27 24 24 24 23 25 25 24 23 25 25 25 26 26 25 24 26 26 28 28 27 24 22 21 24 23 22 22 22 24 24 23 
24 25 25 24 25 26 26 27 29 31 29 28 26 24 22 23 23 23 23 21 20 23 23 25 25 23 23 25 28 28 28 26 25 22 23 22 22 22 21 21 22 22 22 19 19 19 18 19 19 19 20 23 25 24 26 28 28 28 28 26 25 24 23 23 23 24 25 25 25 26 28 28 30 29 31 32 31 28 24 24 25 26 25 23 22 22 22 20 20 21 20 20 21 22 24 23 23 25 27 29 31 33 32 30 29 30 28 27 26 23 23 24 22 22 23 23 25 23 21 19 17 16 15 14 12 10 9 7 8 6 4 4 5 5 6 5 5 5 3 3 7 8 9 9 11 11 11 11 11 8 8 9 9 9 9 7 8 7 6 5 5 4 2 2 2 0 0 1 4 6 7 7 6 8 7 7 7 7 6 6 104 163 170 171 171 172 173 174 177 176 178 177 175 176 175 176 175 173 176 179 181 182 182 182 182 183 182 182 180 179 179 180 180 182 180 180 179 179 179 178 180 179 177 176 175 177 177 176 176 175 173 170 170 169 168 170 169 171 172 173 173 175 175 174 174 174 175 175 174 173 172 170 171 171 171 171 171 171 171 171 170 168 170 170 170 169 169 171 172 170 169 168 169 170 170 171 172 174 175 175 173 173 170 171 172 171 171 172 173 175 174 174 173 173 174 173 172 172 172 172 171 172 172 172 171 170 170 171 169 169 167 166 165 166 167 167 167 169 168 166 167 167 165 165 165 164 164 162 161 159 158 161 160 158 157 156 157 158 159 160 161 161 163 165 165 165 167 168 166 165 164 164 164 165 165 168 172 175 177 176 178 178 179 178 177 177 178 179 178 177 177 177 175 178 180 182 181 182 184 182 183 181 180 178 177 176 175 174 174 173 171 168 167 168 170 170 171 171 173 172 170 170 171 169 168 168 166 167 166 165 165 162 161 162 162 163 163 164 163 162 162 161 157 134 69 11 0 0 0 0 0 0 0 0 0 82 133 116 8 0 0 0 0 0 0 0 0 0 0 0 0 0 0 0 0 0 0 0 0 0 0 0 0 0 0 0 1 0 0 6 112 144 146 148 159 167 172 176 178 181 181 182 182 182 186 188 188 188 188 188 188 188 187 183 160 29 8 9 9 11 9 6 6 5 4 3 1 0 0 0 0 0 3 5 8 11 10 8 8 9 11 12 14 12 12 12 11 10 10 10 12 14 16 17 18 17 15 16 17 14 12 12 14 16 17 18 18 20 22 22 21 21 20 20 19 22 23 24 23 23 21 22 24 25 26 27 27 28 30 28 27 26 23 19 17 16 15 15 15 15 15 16 15 14 15 17 20 21 23 23 23 22 21 22 23 21 18 19 19 21 25 27 24 25 26 28 28 28 25 22 22 22 23 23 24 24 25 26 26 27 27 26 24 24 25 27 27 26 26 25 23 24 26 26 24 23 23 23 23 24 
25 24 23 24 26 26 26 27 27 30 30 27 25 24 23 22 23 24 22 22 24 26 27 26 25 25 24 24 26 28 28 26 24 23 24 23 23 22 21 21 21 22 21 19 19 18 19 19 18 18 19 23 24 25 26 28 29 28 26 25 25 25 23 24 23 24 25 26 25 27 29 29 29 30 30 32 31 29 26 27 28 28 25 24 22 21 21 20 19 19 20 21 23 23 25 26 26 27 28 31 33 34 33 33 31 29 29 27 24 22 22 24 21 21 21 23 24 21 20 20 19 17 16 15 12 11 9 7 6 5 4 3 4 4 4 4 4 5 4 7 9 10 10 10 10 12 10 10 10 10 10 10 11 11 10 9 10 9 7 7 5 3 4 4 3 1 2 4 5 6 7 7 7 8 7 7 6 7 6 6 106 163 169 170 169 171 173 176 176 175 177 177 176 176 177 177 176 177 177 180 181 181 180 181 182 181 181 179 181 179 179 181 180 182 182 180 180 180 179 179 179 178 176 175 174 176 176 175 176 174 172 171 170 170 169 170 171 173 172 174 175 176 176 177 176 176 177 175 174 173 171 171 171 172 172 172 172 173 172 170 168 167 167 168 168 169 170 169 170 168 167 167 168 169 170 171 173 175 175 174 173 171 169 170 172 171 172 175 175 175 175 174 173 174 175 175 173 172 172 172 172 173 172 171 172 170 171 171 169 169 168 166 166 165 166 166 166 168 167 167 167 166 165 165 165 165 164 163 162 160 158 159 159 156 155 154 155 155 157 160 161 162 164 165 167 166 167 166 164 163 165 165 164 165 165 168 171 174 175 174 178 179 179 176 176 176 177 177 176 175 174 174 174 176 180 180 180 182 183 183 182 180 180 178 177 176 174 173 172 172 171 170 170 171 172 172 172 173 173 171 170 170 171 170 169 168 166 166 166 166 165 165 163 162 165 165 164 164 164 163 162 161 157 138 83 9 0 0 0 0 0 0 0 0 0 70 130 121 17 0 0 0 0 0 0 0 0 0 0 0 0 0 0 0 0 0 0 0 0 0 0 0 0 0 0 2 1 2 1 14 122 146 146 147 157 165 171 175 178 180 183 184 183 184 184 183 185 186 187 187 187 188 187 182 145 15 7 8 9 10 9 6 5 6 4 2 1 1 1 1 3 2 4 6 6 7 6 6 6 6 8 10 10 8 9 12 11 10 11 11 11 12 14 15 16 17 15 16 16 13 13 12 12 13 16 17 19 20 21 21 21 20 21 20 19 22 24 23 22 20 21 23 24 25 26 26 27 28 29 29 28 27 22 20 19 18 16 16 15 14 13 13 13 14 16 18 20 21 22 22 22 22 22 23 22 21 20 18 21 22 25 24 25 24 25 28 28 27 26 25 25 25 23 25 27 26 27 27 26 26 25 24 22 23 23 23 26 26 26 26 25 25 25 25 24 24 26 26 27 26 
26 23 23 23 24 26 28 28 28 29 30 29 27 24 23 24 24 23 23 24 25 26 26 26 25 25 24 24 24 26 26 25 25 26 23 23 24 22 21 20 20 21 19 17 18 19 18 18 18 18 20 22 24 24 25 27 28 28 27 27 26 26 24 24 24 24 24 27 27 26 29 31 30 31 31 32 29 28 26 26 27 28 27 25 23 21 21 21 19 21 22 22 24 24 26 28 26 27 28 31 34 35 33 34 31 31 29 28 24 21 22 23 21 21 23 22 20 20 18 18 18 17 16 15 12 12 10 7 5 3 3 0 2 2 4 5 4 6 7 9 11 11 11 10 11 10 9 7 8 9 11 10 11 10 10 11 11 11 8 7 4 3 5 5 4 4 4 6 7 7 7 8 7 8 7 7 6 5 5 7 107 163 167 168 169 171 173 176 175 175 176 177 178 178 178 178 175 176 177 180 180 180 180 180 182 181 182 181 182 181 180 181 181 182 182 180 180 180 180 178 178 178 178 177 176 176 177 175 174 173 173 171 171 173 172 172 172 175 175 174 175 176 176 177 176 175 174 173 174 173 173 170 171 172 173 173 172 173 173 169 168 166 165 166 167 169 169 168 168 166 165 165 166 167 170 172 174 176 176 173 172 170 170 171 171 172 173 174 173 173 174 175 174 174 174 174 173 173 173 172 171 172 172 172 173 172 172 170 169 169 168 167 166 165 165 165 165 166 166 165 166 165 164 164 163 162 161 162 162 160 159 158 158 154 153 154 155 156 156 159 161 164 166 165 166 166 166 165 163 163 166 168 166 166 166 168 171 172 173 174 176 177 177 176 175 175 175 174 174 173 173 172 173 176 177 178 178 182 182 183 181 180 178 177 176 174 174 172 171 172 172 172 172 175 175 173 172 172 172 173 173 172 172 170 169 168 166 166 165 164 165 167 164 163 164 165 164 164 163 162 160 159 158 143 90 14 0 0 0 0 0 0 0 0 0 56 128 122 22 0 0 0 0 0 0 0 0 0 0 0 0 0 0 0 0 0 0 0 0 0 0 0 0 0 0 0 1 4 2 30 133 146 143 145 156 163 169 174 179 181 183 185 186 185 183 183 184 187 189 188 187 186 185 179 123 7 6 6 8 9 8 6 4 6 5 4 3 3 3 4 5 2 1 3 5 5 5 5 4 6 5 7 6 6 8 10 11 10 10 11 11 13 14 14 15 14 13 14 14 15 13 11 13 13 15 18 21 20 21 20 22 22 21 18 19 21 23 22 19 19 21 24 24 26 27 26 28 29 30 30 28 26 24 22 22 21 18 17 17 14 13 15 15 13 14 17 18 19 19 20 21 21 22 22 21 20 19 19 20 22 23 23 24 23 24 26 28 28 28 28 28 28 27 28 29 29 29 27 26 27 25 24 21 21 21 22 23 25 26 26 25 25 24 24 25 25 27 26 28 27 
25 24 25 25 27 28 28 29 26 27 28 28 27 25 24 25 25 25 25 23 24 25 24 25 25 24 24 26 26 27 26 26 26 26 24 23 23 22 22 20 20 19 18 18 17 17 19 19 20 18 20 22 23 24 25 26 27 29 28 27 26 25 24 24 23 25 24 26 27 26 29 30 29 29 31 30 28 27 25 25 25 26 28 26 25 24 24 21 21 21 23 25 26 25 26 27 28 29 32 34 36 34 34 34 33 30 30 28 25 21 21 21 20 21 21 23 21 19 17 16 15 16 16 14 12 11 9 8 5 1 0 0 1 2 3 4 5 7 8 9 12 12 11 10 11 11 9 6 6 7 8 8 8 9 9 11 10 9 8 6 4 5 5 5 4 5 7 9 10 9 8 7 7 7 6 6 6 8 6 8 109 163 167 169 173 173 176 175 176 176 175 176 176 177 179 178 176 176 178 179 178 177 178 180 181 182 183 182 182 183 183 182 183 184 182 180 179 178 179 177 177 178 180 177 176 176 176 175 174 176 176 176 175 174 173 174 176 176 177 176 175 175 175 175 174 173 170 171 171 172 170 172 172 173 173 171 172 172 170 169 167 166 167 167 167 168 168 167 166 164 164 165 165 165 168 171 174 177 175 172 170 169 170 170 169 170 171 172 172 171 172 173 173 172 172 173 173 172 173 173 171 171 172 173 173 171 171 169 169 169 169 167 166 164 163 163 163 164 164 163 163 161 160 161 160 161 161 161 162 161 158 156 155 152 153 154 155 156 157 159 162 166 167 166 165 165 166 166 163 163 167 167 166 165 167 168 170 170 171 173 173 174 175 175 175 175 175 173 173 172 172 172 173 173 174 177 178 179 180 181 180 177 176 176 176 175 174 171 170 171 171 173 174 176 176 174 171 172 172 173 172 171 170 171 170 168 168 166 166 166 165 165 165 164 165 164 163 163 162 162 160 161 160 149 101 25 0 0 0 0 0 0 0 0 0 48 126 122 20 0 0 0 0 0 0 0 0 0 0 0 0 0 0 0 0 0 0 0 0 0 0 0 0 0 1 2 3 3 3 52 140 146 144 146 155 163 168 175 179 181 184 184 184 183 183 184 187 191 190 188 190 187 184 178 90 6 6 6 5 6 5 4 4 4 5 4 3 2 1 2 4 1 0 1 5 5 4 3 3 3 3 5 6 7 6 9 10 10 11 10 11 13 14 14 16 16 14 15 13 14 12 11 12 13 16 20 21 22 20 20 22 22 22 19 17 20 21 21 19 18 19 21 23 26 27 27 28 30 30 30 28 26 25 22 21 21 20 19 17 16 15 15 16 14 15 16 18 18 19 20 20 21 23 22 22 21 20 20 20 22 23 23 22 23 22 24 26 26 28 29 29 29 29 29 30 30 29 28 28 28 27 23 22 21 22 22 23 24 27 27 27 26 25 26 25 26 27 26 27 28 
24 26 27 29 29 30 29 29 28 28 29 30 28 25 25 27 28 28 27 25 25 25 25 26 26 25 25 27 28 27 26 26 27 26 26 25 24 23 24 22 22 21 20 22 21 19 21 22 21 18 20 20 22 22 23 26 29 31 30 28 27 26 24 24 25 25 26 26 27 28 28 28 29 29 29 29 27 25 23 22 22 25 25 26 23 24 24 21 23 24 26 28 28 27 27 28 30 32 33 34 34 34 33 34 32 29 29 28 25 22 21 21 21 23 23 22 22 20 17 17 16 16 16 14 13 10 10 7 3 2 2 1 3 4 4 6 6 7 7 8 10 10 10 10 8 8 6 4 4 5 5 7 6 8 10 11 9 8 6 5 4 4 6 7 6 5 7 11 11 11 8 8 8 8 7 6 7 7 7 7 110 161 167 172 174 175 176 177 177 178 176 175 176 177 177 178 177 177 177 177 179 178 179 180 181 183 182 182 184 184 182 181 182 183 181 180 178 179 180 179 178 179 180 178 177 177 177 178 177 179 180 178 178 174 174 175 178 178 178 178 175 175 174 174 174 173 170 170 171 171 171 171 170 170 170 169 168 169 168 167 166 166 167 167 167 168 168 167 164 164 163 164 165 166 169 170 173 175 174 170 171 170 171 170 172 170 169 170 171 170 170 172 172 171 172 172 172 172 173 172 171 172 172 172 170 171 169 168 168 168 168 167 165 163 163 162 162 165 163 163 162 159 158 158 157 159 160 160 162 161 159 158 154 151 153 153 155 155 156 160 162 165 166 166 166 165 167 167 164 165 166 167 165 164 166 167 167 168 170 171 172 172 173 173 172 172 172 172 172 172 171 170 170 171 172 174 176 177 177 177 177 177 175 175 175 174 173 171 170 170 171 173 175 176 175 173 171 171 172 172 170 169 169 170 170 169 168 167 167 166 164 165 164 164 163 164 163 162 164 163 161 160 160 152 96 19 0 0 0 0 0 0 0 0 0 50 126 121 19 0 0 0 0 0 0 0 0 0 0 0 0 0 0 0 0 0 0 0 0 0 0 0 0 2 3 2 2 4 5 94 148 147 146 147 154 163 171 176 179 181 184 184 184 184 185 187 190 191 192 190 191 189 185 174 60 6 6 4 3 3 4 5 4 3 3 4 2 1 0 0 2 0 1 1 3 3 1 1 2 3 4 6 8 7 8 11 12 11 10 10 11 12 12 14 14 15 15 15 13 13 12 12 11 14 16 18 19 20 19 19 20 22 21 17 15 17 16 19 19 18 21 24 25 25 26 28 29 28 27 28 26 24 22 21 22 21 22 22 20 19 17 17 16 17 16 17 17 18 21 22 22 24 23 22 21 22 24 22 23 24 22 23 21 22 21 22 22 23 26 28 29 28 27 29 30 30 29 28 27 26 26 25 24 25 25 23 24 25 27 28 27 28 27 28 27 25 26 27 26 24 
27 28 29 29 29 31 29 29 29 31 31 32 29 28 29 29 31 31 29 26 26 25 24 25 26 25 25 26 27 28 27 27 28 27 27 25 25 24 26 23 22 22 24 25 24 22 21 23 22 19 20 20 21 22 24 27 29 28 27 28 28 25 24 25 27 27 27 28 28 29 29 30 30 28 29 28 27 23 22 21 21 23 24 26 24 23 25 23 23 24 26 28 28 26 27 28 29 32 33 32 31 31 31 32 31 29 27 25 24 22 21 22 24 26 24 23 22 21 17 15 15 15 15 15 14 11 13 10 7 4 4 4 6 6 8 9 9 9 8 8 9 11 10 9 8 6 6 3 4 5 5 7 7 10 11 10 9 8 6 4 4 5 8 8 8 8 9 11 12 11 10 11 9 8 6 6 6 7 7 8 110 163 170 174 174 175 175 177 177 179 178 178 177 176 177 179 177 176 175 178 180 179 179 179 181 181 182 183 185 184 182 180 181 182 182 182 178 179 180 178 178 179 178 178 178 177 178 179 179 182 182 180 178 176 177 178 179 179 180 178 176 174 174 173 173 172 171 171 170 171 170 169 169 167 166 167 166 167 167 167 166 166 167 168 169 168 167 165 164 164 165 164 164 165 167 170 172 174 174 171 172 172 171 172 171 170 169 170 168 169 170 170 171 170 171 172 173 172 175 174 170 169 171 171 170 171 169 167 168 167 167 164 165 163 163 165 165 163 162 160 159 160 158 158 155 157 158 159 158 159 159 158 154 151 152 153 153 155 157 161 163 164 165 163 165 165 166 164 164 164 166 165 164 164 164 164 163 163 167 169 171 171 171 172 171 171 170 171 172 172 168 169 168 169 169 170 171 172 173 174 175 176 174 173 172 171 171 171 171 171 172 173 174 175 175 173 171 170 171 170 169 169 169 169 171 169 169 169 169 167 165 164 165 163 162 161 162 161 163 164 162 163 162 154 105 31 3 0 0 0 0 0 0 0 0 48 127 122 19 0 0 0 0 0 0 0 0 0 0 0 0 0 0 0 0 0 0 0 0 0 0 0 0 1 2 3 3 4 21 128 149 148 148 149 158 165 171 175 179 183 184 185 186 185 187 189 191 192 191 192 191 189 185 166 40 8 6 4 1 1 4 4 3 3 3 2 2 0 0 0 1 2 1 1 1 1 0 0 3 4 5 7 8 7 8 10 13 13 12 10 11 12 11 11 13 14 14 13 13 12 14 13 12 12 13 15 17 19 17 18 19 19 19 16 13 14 16 17 19 19 21 24 25 26 26 27 27 26 26 25 24 24 22 24 24 24 23 24 22 20 18 17 19 20 18 16 17 21 24 25 24 23 24 23 22 24 25 24 23 25 24 22 21 20 18 18 20 23 24 26 26 26 27 28 28 29 30 28 27 26 26 25 26 28 27 25 25 26 28 29 29 29 28 28 28 27 26 26 26 24 
27 29 29 29 29 30 31 32 31 31 32 33 32 32 32 32 34 33 31 27 26 25 25 25 26 26 26 26 26 27 28 27 27 28 28 27 27 26 27 25 23 24 25 25 23 23 23 23 22 21 20 20 21 21 24 27 27 27 26 27 27 26 26 28 28 27 28 28 30 30 30 29 29 29 28 28 26 24 23 20 19 21 24 24 24 24 24 24 24 25 28 27 28 26 26 27 29 28 30 32 30 29 32 33 30 28 26 23 22 21 23 25 25 26 24 24 22 20 18 15 14 14 15 15 13 13 14 12 9 7 6 6 7 7 8 9 11 12 12 10 9 10 11 9 8 6 6 7 7 7 7 9 9 10 10 9 8 7 6 3 3 6 9 10 10 9 10 11 10 10 9 10 8 7 7 8 8 9 8 8 111 166 171 174 174 176 177 178 179 179 179 178 177 176 178 179 179 177 176 177 178 179 179 179 180 182 182 183 183 183 180 179 180 181 182 181 179 177 178 178 179 179 178 178 178 179 180 181 181 181 180 178 178 178 179 180 180 180 182 179 175 174 175 174 173 172 171 169 169 170 170 168 167 165 166 167 166 165 167 165 167 167 168 170 169 168 167 165 163 164 165 164 163 163 166 168 170 173 172 172 172 173 172 171 171 169 170 169 169 168 169 168 169 171 172 174 175 174 175 173 171 169 172 173 171 172 172 168 167 165 165 164 163 164 165 167 167 163 161 160 158 160 161 158 155 156 158 156 158 158 158 157 155 152 152 153 153 154 156 159 161 161 162 162 162 164 165 163 162 164 165 165 164 163 163 162 162 164 166 167 169 169 170 170 170 170 168 170 172 170 169 169 168 168 168 169 171 172 172 173 173 173 171 170 168 167 168 171 172 171 172 171 173 174 174 175 170 168 169 171 170 169 169 170 172 171 171 171 169 169 166 164 164 164 164 162 161 161 161 162 163 164 163 157 114 21 0 0 0 0 0 0 0 0 0 53 126 121 19 0 0 0 0 0 0 0 0 0 0 0 0 0 0 0 0 0 0 0 0 0 0 0 0 0 0 0 2 3 53 142 150 148 148 152 162 167 171 176 181 184 185 185 187 186 187 189 191 192 192 190 189 187 183 151 20 5 5 1 0 0 0 1 1 0 0 1 3 3 3 1 2 3 3 2 2 1 0 2 3 4 6 8 7 7 7 10 12 13 11 10 9 10 11 11 12 12 12 12 11 11 13 13 11 10 11 12 14 16 17 18 18 18 17 16 13 13 15 16 18 21 22 24 25 27 25 26 26 28 28 27 24 24 23 24 26 26 25 25 22 21 18 18 19 20 18 17 17 20 23 23 22 20 21 23 25 27 27 25 23 25 23 21 21 20 18 17 18 21 24 27 25 25 26 27 28 30 32 30 28 27 27 27 27 28 28 24 24 27 28 29 29 30 28 29 28 28 27 25 24 25 
27 28 30 29 30 30 32 32 33 34 33 35 34 33 33 33 34 34 32 28 27 28 27 25 27 27 27 26 25 25 26 26 28 29 28 29 28 29 28 28 27 27 25 25 22 22 22 22 22 22 20 22 22 23 23 25 27 27 26 28 29 29 28 28 28 26 28 28 29 29 30 30 30 29 29 29 27 24 21 20 20 19 23 23 22 24 24 25 25 26 27 27 26 25 24 26 28 26 29 33 31 31 31 32 30 27 25 22 22 22 24 26 27 26 24 22 20 18 17 15 13 13 14 14 12 13 15 13 10 8 8 8 7 8 10 10 13 13 13 13 12 11 12 11 9 7 9 9 9 11 9 9 10 9 9 10 8 8 7 4 4 7 11 11 12 11 10 10 10 8 10 11 9 8 8 9 10 11 11 11 115 165 169 172 173 176 176 179 179 179 179 175 176 177 179 182 180 178 177 175 175 177 178 178 177 179 180 180 182 181 181 181 183 184 184 182 179 178 178 178 179 180 180 179 177 179 180 182 181 182 180 179 178 178 179 180 180 179 181 180 177 176 175 175 172 171 169 167 168 168 169 168 168 166 167 167 168 166 166 166 167 168 169 170 170 168 168 167 165 164 164 164 163 163 165 167 170 171 172 172 172 172 172 173 172 171 171 171 170 169 169 168 168 169 172 174 174 175 173 174 172 172 173 172 172 171 170 169 167 163 164 164 164 164 164 165 164 164 161 161 160 161 159 157 157 157 157 157 158 159 159 157 155 153 152 153 153 154 155 156 158 160 160 161 162 163 162 163 162 162 163 164 164 162 162 161 162 165 165 167 167 168 168 168 167 167 167 169 170 170 168 167 166 167 167 168 168 170 170 171 171 171 168 167 167 167 168 170 171 171 171 171 173 173 172 173 170 168 170 171 170 169 170 171 172 171 172 173 172 170 168 166 165 164 165 164 163 162 163 163 164 163 163 155 119 43 0 0 0 0 0 0 0 0 0 50 125 120 19 0 0 0 0 0 0 0 0 0 0 0 0 0 0 0 0 0 0 0 0 0 0 0 0 0 0 0 0 2 96 149 148 147 148 155 165 169 174 178 181 185 186 187 185 185 186 188 190 191 190 189 188 186 180 124 8 4 2 1 0 0 0 0 0 0 0 0 2 6 6 5 6 4 2 2 2 1 1 3 5 4 5 6 7 6 5 8 10 10 10 9 8 9 8 8 9 10 9 9 8 6 8 7 8 8 8 9 14 17 18 18 18 19 19 18 16 14 15 16 18 22 23 24 24 27 25 26 26 28 27 27 24 22 21 21 23 23 25 24 21 20 19 18 20 20 19 18 18 18 19 19 17 17 20 22 25 25 25 24 24 24 24 22 23 22 19 16 18 19 23 25 26 25 26 27 29 30 32 29 28 29 29 27 28 28 27 25 24 27 26 27 29 29 28 29 30 29 27 26 25 27 
28 28 28 28 29 31 31 32 33 33 35 37 36 35 33 33 32 32 33 30 28 28 27 27 27 29 29 27 28 27 28 28 29 29 29 29 30 28 27 28 29 28 27 26 23 21 21 21 20 21 22 22 22 23 25 25 25 24 25 28 28 28 27 27 28 28 27 28 29 28 30 30 28 28 28 29 26 25 23 23 20 21 22 22 22 24 25 26 26 25 26 25 23 22 24 27 27 27 28 30 31 30 29 30 29 28 26 24 23 22 23 26 26 25 24 22 20 18 16 15 14 12 12 13 12 14 16 13 11 10 9 10 8 9 12 13 15 14 14 13 12 13 13 12 12 10 9 8 9 11 11 10 10 10 10 10 8 9 7 6 6 7 11 11 12 12 9 9 9 9 12 11 12 11 11 11 13 14 12 14 116 166 169 172 175 176 176 177 178 177 175 174 176 178 178 178 177 175 174 172 173 176 178 178 177 177 177 178 179 180 181 182 183 183 183 182 181 179 179 179 181 180 179 179 179 180 180 182 183 182 180 179 178 177 179 179 179 179 179 180 179 176 173 172 169 169 168 165 167 167 168 167 168 167 169 169 168 167 167 167 169 169 169 169 170 171 169 168 165 165 166 164 162 162 163 166 169 169 170 171 171 172 171 172 173 173 172 171 171 171 170 169 167 170 170 172 173 173 172 172 174 173 173 172 172 172 170 168 166 165 165 163 163 163 162 162 164 164 162 161 160 160 159 158 158 158 158 158 158 160 158 157 153 153 154 154 154 153 153 154 156 159 159 162 162 162 162 163 162 162 162 162 163 162 163 163 163 164 165 166 166 164 164 163 164 165 167 167 167 167 167 164 161 163 164 164 166 168 167 167 168 168 168 166 167 168 169 170 171 171 171 170 172 170 171 171 169 169 171 170 169 170 170 171 170 170 172 171 170 172 170 167 166 164 165 164 163 163 164 165 165 164 163 157 127 61 0 0 0 0 0 0 0 0 0 57 126 118 16 0 0 0 0 0 0 0 0 0 0 0 0 0 0 0 0 0 0 0 0 0 0 0 0 0 0 0 0 21 126 149 148 148 150 158 166 171 174 178 180 183 185 185 184 185 187 187 189 190 189 187 187 184 171 75 6 3 3 1 0 0 0 0 1 0 0 0 2 5 7 6 7 6 4 2 1 1 2 4 4 3 3 4 5 5 4 5 8 9 9 9 9 8 5 5 6 6 5 5 3 2 2 4 6 7 8 11 14 17 19 19 20 19 19 17 16 14 17 18 20 23 22 22 26 26 26 27 28 27 26 25 23 22 22 22 22 23 23 23 20 19 18 19 20 19 20 19 18 19 17 18 18 18 18 19 21 23 22 24 23 24 25 24 25 23 19 17 18 19 22 25 25 26 26 30 31 32 32 31 29 30 29 28 27 27 27 27 26 26 24 26 28 28 28 28 29 30 29 28 27 27 
28 28 28 29 30 31 31 31 32 33 35 37 35 34 33 33 33 33 31 30 28 27 26 26 27 31 31 29 30 30 30 30 30 29 29 30 30 29 28 30 29 29 28 27 24 21 21 22 21 21 19 20 21 22 24 24 24 25 27 28 29 28 26 26 26 27 26 26 28 28 30 29 28 27 27 27 26 26 25 24 22 23 22 24 23 24 25 25 26 25 25 24 23 23 26 27 28 28 29 29 29 30 28 28 28 28 28 25 24 23 24 24 24 23 23 21 20 17 16 15 13 13 13 13 14 15 15 13 10 11 12 11 9 11 12 15 14 14 14 13 12 11 12 12 11 11 11 8 9 10 10 10 10 10 9 9 10 11 9 8 8 9 11 11 11 10 9 8 10 10 9 11 12 13 12 14 15 15 14 15 117 165 169 174 175 174 174 174 174 174 174 173 174 176 176 175 174 173 171 173 174 176 177 176 175 174 176 178 178 178 180 181 182 184 183 182 182 181 180 180 179 180 180 181 181 182 182 183 182 181 181 179 178 178 177 179 178 178 178 179 178 174 173 171 167 168 168 167 167 168 168 169 170 168 170 170 169 168 167 168 171 170 168 168 169 168 168 165 162 164 165 163 161 159 163 165 167 168 170 169 170 171 171 170 172 173 171 171 171 172 171 169 167 169 170 170 172 173 172 172 174 174 174 172 171 171 169 167 165 164 164 163 162 163 161 161 160 161 161 161 160 159 158 157 160 160 159 158 158 159 158 157 156 156 156 155 154 154 153 154 155 158 159 162 164 163 161 163 163 161 161 162 165 166 165 163 162 162 162 163 163 162 164 161 161 164 164 164 165 164 164 161 160 160 164 165 165 166 166 164 166 166 166 165 166 167 167 168 170 171 171 170 171 170 170 168 169 168 170 170 170 169 169 170 171 170 171 171 171 172 171 168 167 166 165 164 164 165 163 164 164 164 164 160 134 62 0 0 0 0 0 0 0 0 0 52 126 118 13 0 0 0 0 0 0 0 0 0 0 0 0 0 0 0 0 0 0 0 0 0 0 0 0 0 0 0 0 74 143 150 150 149 150 158 165 171 176 178 179 183 183 183 183 185 185 184 186 187 187 185 185 181 153 29 5 4 4 3 2 0 1 1 2 0 0 0 3 6 6 7 7 8 6 4 3 3 3 3 4 3 2 3 4 4 3 5 7 9 10 8 8 9 5 4 4 5 3 2 1 0 0 1 4 5 9 12 15 15 17 18 19 19 19 17 16 16 18 20 22 22 21 23 26 27 28 29 27 25 25 25 27 25 24 24 22 21 21 21 19 17 16 18 19 19 18 18 17 19 16 17 20 20 19 19 21 21 23 24 27 27 27 26 24 21 20 18 18 20 22 23 25 27 28 31 31 32 33 30 30 31 29 29 28 27 27 27 26 25 24 25 27 27 28 30 31 31 31 30 29 28 
28 27 28 29 30 31 32 32 31 34 35 36 34 33 33 34 32 33 31 31 30 28 28 30 30 31 32 31 30 30 31 30 31 29 30 28 28 27 28 28 28 28 27 25 22 21 20 21 22 20 19 19 21 22 23 24 25 25 26 28 29 27 27 26 26 26 25 24 26 28 29 28 26 24 27 27 27 28 27 26 23 22 22 22 24 24 23 24 24 24 23 24 23 22 24 25 25 26 27 26 27 28 26 28 28 29 28 25 24 23 24 23 22 23 23 21 20 18 18 17 13 13 14 13 15 15 13 11 10 11 10 9 9 10 12 15 15 15 13 12 14 12 13 13 12 10 10 10 10 11 12 12 12 10 9 10 12 12 11 9 10 11 12 12 11 11 11 10 9 9 9 10 12 12 14 15 16 14 14 16 115 166 170 174 174 174 172 172 172 172 171 171 172 172 174 175 175 173 173 174 174 175 175 174 173 174 175 176 177 178 179 179 182 182 180 180 180 179 180 178 180 181 181 180 181 183 182 182 182 182 180 180 180 179 178 178 178 177 177 177 177 174 173 170 169 169 171 170 169 169 170 169 169 169 170 172 170 168 168 168 171 170 168 168 168 165 163 162 161 160 160 161 159 160 162 166 167 167 168 169 170 170 171 172 171 171 173 172 172 172 171 170 167 168 169 172 173 173 172 173 174 174 174 171 170 171 169 168 165 164 162 161 161 160 158 157 156 158 161 160 158 157 157 159 161 162 161 159 159 160 159 156 158 159 158 157 157 155 155 157 158 159 160 161 163 162 163 163 163 161 162 163 165 166 166 164 162 162 163 163 163 161 162 160 160 161 162 161 161 162 162 160 159 159 162 165 167 166 165 164 165 164 165 166 165 164 165 167 168 170 170 172 171 170 170 167 167 167 169 168 169 168 169 171 172 171 170 171 171 172 171 170 169 167 165 165 165 164 161 162 163 164 163 160 135 65 0 0 0 0 0 0 0 0 0 64 128 114 5 0 0 0 0 0 0 0 0 0 0 0 0 0 0 0 0 0 0 0 0 0 0 0 0 0 0 0 19 122 149 151 151 150 150 157 163 169 175 178 180 183 182 181 182 184 185 185 184 185 185 185 184 180 115 10 5 4 6 6 4 2 2 4 3 0 0 0 5 8 8 9 9 7 6 4 5 4 5 4 2 3 2 3 5 4 4 5 6 7 8 7 6 7 5 3 4 4 3 3 1 0 0 1 3 8 11 13 14 15 15 18 18 20 19 19 17 18 19 19 21 23 21 25 28 28 29 29 26 26 26 26 28 26 24 23 22 21 20 20 19 16 16 17 17 19 18 17 18 18 18 19 19 19 20 21 23 23 25 28 31 30 27 27 25 23 21 22 20 20 23 23 25 26 29 31 34 34 33 32 30 31 28 28 28 27 27 28 26 26 27 27 29 28 29 29 30 31 31 31 30 29 
28 27 30 31 31 33 34 33 31 32 33 34 33 33 32 31 32 33 33 33 29 28 30 30 30 32 32 29 29 30 32 32 31 30 29 29 27 27 26 27 26 26 26 26 23 21 20 18 20 21 19 21 22 23 24 23 25 27 28 29 28 29 27 28 25 25 24 24 24 27 29 28 27 26 28 28 29 30 28 26 25 25 23 23 25 24 23 22 23 23 23 23 23 22 24 23 24 25 23 23 26 26 26 26 25 27 26 26 23 24 22 23 23 22 23 22 21 19 17 17 15 14 14 13 13 14 12 11 11 10 10 10 9 11 13 14 16 18 15 13 13 12 11 13 12 11 11 12 13 13 14 14 13 12 11 10 10 12 12 10 11 12 11 11 12 11 10 9 10 8 9 9 10 13 13 15 15 15 16 17 112 167 169 172 175 174 173 172 172 172 171 171 171 172 174 174 177 175 175 175 173 174 174 174 173 173 174 176 175 176 176 179 180 179 177 178 179 177 179 179 180 181 182 181 182 182 183 182 182 182 181 179 179 177 177 177 176 176 176 176 174 172 173 170 169 169 171 172 172 171 172 170 169 171 171 171 169 167 166 166 169 168 167 167 166 164 162 161 159 159 160 161 159 158 161 163 166 168 168 170 171 170 172 171 171 171 173 174 173 172 173 171 169 169 170 173 173 173 171 171 174 173 171 170 169 169 168 165 163 161 161 161 160 159 158 157 155 156 160 159 159 158 157 158 160 161 162 160 160 160 158 157 158 158 157 157 156 155 157 158 159 160 161 160 163 163 162 163 163 163 163 164 165 167 166 166 165 163 163 162 161 161 160 159 159 161 162 162 162 162 161 159 156 157 159 163 165 165 165 164 164 166 166 164 163 163 164 167 167 169 169 169 169 168 168 167 167 168 169 168 168 169 169 171 171 170 170 171 171 171 170 170 169 167 165 165 163 163 161 161 162 164 163 162 141 61 0 0 0 0 0 0 0 0 0 65 129 107 0 0 0 0 0 0 0 0 0 0 0 0 0 0 0 0 0 0 0 0 0 0 0 0 0 0 0 0 74 144 150 150 150 148 151 157 163 168 174 176 179 181 181 183 183 184 184 183 182 182 183 184 184 171 60 8 6 5 6 6 4 3 3 4 3 2 1 4 6 7 9 10 8 8 8 6 7 6 7 6 4 4 3 4 4 3 4 4 6 7 7 7 6 5 5 4 4 4 4 1 2 3 2 4 7 10 13 14 15 14 17 19 17 17 17 18 19 19 19 20 23 23 22 25 27 28 29 30 26 26 27 27 27 26 23 21 20 20 21 22 19 18 17 16 16 18 17 17 19 20 19 19 20 20 22 23 24 27 29 31 31 29 29 28 27 25 23 24 23 25 26 25 26 29 30 33 32 34 33 32 31 32 30 28 27 27 27 26 26 26 27 28 29 29 30 29 29 30 31 34 32 29 
27 29 29 31 31 31 31 30 31 31 32 35 34 32 30 31 33 35 33 31 29 27 29 28 29 31 31 30 30 32 33 33 31 30 30 29 29 28 26 26 27 26 25 25 22 20 19 19 21 22 23 24 24 24 24 24 27 29 29 29 29 29 28 28 26 26 27 25 26 27 28 29 29 30 30 31 31 31 28 26 26 26 25 25 27 27 23 24 23 22 20 20 20 21 24 23 23 23 23 22 23 25 24 23 23 26 24 25 24 23 25 24 23 23 23 23 22 20 19 18 17 16 15 14 13 13 13 12 12 13 12 10 11 11 12 14 18 19 16 12 12 11 11 12 14 13 11 12 13 13 15 14 14 11 11 10 11 12 12 12 11 10 9 11 11 10 9 10 9 8 9 10 12 12 12 12 14 14 14 17 111 166 170 172 172 173 173 172 172 172 172 174 172 172 174 174 177 176 175 176 174 174 175 174 174 172 174 175 174 176 176 177 178 177 178 177 178 179 179 180 181 182 183 183 183 185 185 183 182 183 181 178 177 177 176 176 176 175 175 177 176 172 173 172 170 171 172 174 174 172 172 171 170 171 172 171 168 166 165 166 168 168 166 164 165 163 161 161 160 161 162 162 159 160 161 164 167 170 170 169 170 171 171 171 172 172 175 175 174 172 173 172 169 168 170 171 171 171 171 170 172 171 169 167 167 166 164 162 162 161 160 160 158 158 158 156 155 155 158 158 157 156 156 158 159 161 161 162 161 160 159 159 158 157 157 157 156 156 157 158 159 160 161 161 161 162 162 163 162 162 164 163 163 166 168 168 167 164 163 161 161 160 160 160 160 161 161 162 162 163 161 158 155 155 156 159 163 164 165 165 164 166 165 164 163 163 162 166 168 169 168 169 167 167 167 169 169 170 170 170 168 167 168 170 172 171 169 169 170 170 168 168 167 167 166 165 164 162 161 160 161 163 164 162 139 56 0 0 0 0 0 0 0 0 0 72 130 99 0 0 0 0 0 0 0 0 0 0 0 0 0 0 0 0 0 0 0 0 0 0 0 0 0 0 0 18 121 146 148 150 149 148 153 158 161 166 171 174 177 179 181 182 184 184 184 182 180 180 181 183 181 145 20 8 7 5 5 7 7 6 6 6 5 3 1 5 7 7 6 8 9 9 9 8 7 9 8 6 5 5 4 4 3 3 3 4 6 6 7 8 7 7 7 5 4 5 4 2 3 3 4 7 9 10 13 14 14 15 15 17 17 17 17 21 21 19 20 23 24 25 24 26 27 27 28 30 28 28 28 28 28 26 24 22 22 22 23 23 21 20 18 17 15 16 18 17 17 18 18 19 20 22 25 27 27 28 29 29 29 27 28 27 27 27 25 25 25 27 28 29 30 30 32 32 33 34 33 34 33 32 30 28 28 27 28 25 25 25 25 25 27 29 29 29 29 31 33 32 30 28 
26 28 28 29 28 29 29 28 30 30 32 34 34 33 31 32 34 36 35 32 28 26 27 27 28 30 32 32 31 31 33 32 31 30 29 31 29 27 27 25 26 26 24 24 23 21 20 22 23 26 25 25 23 24 25 26 29 30 31 31 30 31 30 29 28 28 27 28 28 29 30 30 30 33 32 32 32 30 28 26 26 26 26 28 28 28 25 25 23 22 21 20 19 20 20 22 21 20 21 22 21 23 22 23 23 24 24 24 23 22 23 24 25 24 24 23 23 22 21 21 20 17 15 16 16 17 16 14 14 13 13 12 13 13 11 12 17 18 15 13 12 13 12 14 14 12 12 13 13 15 14 13 14 13 13 14 15 15 15 13 10 8 9 11 11 11 9 8 6 8 10 11 12 13 11 10 11 14 15 17 106 164 168 170 171 173 174 174 173 174 174 173 172 173 173 173 175 175 173 173 173 174 174 172 172 171 172 174 174 175 176 176 176 176 177 177 180 181 181 181 182 183 184 184 183 184 184 182 183 183 181 179 179 176 175 175 175 174 174 176 175 173 173 172 171 172 176 175 174 172 171 170 170 170 169 170 168 167 166 168 169 167 165 164 162 161 161 161 162 162 162 160 159 161 163 166 168 168 168 169 170 172 173 174 175 174 174 174 173 172 171 173 171 171 170 169 169 171 171 171 170 169 167 166 165 163 162 163 161 161 161 160 157 157 157 156 154 155 155 155 156 154 155 158 159 160 160 160 161 161 158 158 158 158 157 157 158 158 160 159 159 161 160 160 160 160 162 162 162 162 164 162 163 167 167 167 164 161 160 161 162 161 160 159 160 160 161 161 163 162 159 157 154 153 156 158 161 162 163 164 165 164 166 164 162 162 162 164 166 167 168 167 167 167 169 170 170 171 171 170 169 166 168 170 170 169 168 167 167 168 167 167 166 165 164 163 164 162 162 160 160 161 164 162 138 57 0 0 0 0 0 0 0 0 0 72 132 90 0 0 0 0 0 0 0 0 0 0 0 0 0 0 0 0 0 0 0 0 0 0 0 0 0 0 0 73 141 147 147 149 148 150 153 157 159 164 168 173 175 178 179 182 183 183 182 179 178 179 180 179 172 90 11 7 7 5 4 7 6 8 7 7 6 5 4 6 8 7 6 6 7 9 9 8 7 8 8 6 4 3 2 3 1 2 1 2 6 7 8 9 8 7 7 4 4 3 3 2 2 2 4 6 7 10 11 12 12 12 14 16 18 19 19 21 21 21 22 23 23 23 24 26 27 28 30 32 31 31 30 28 28 26 25 26 25 24 24 23 20 20 19 16 16 17 17 17 17 19 19 20 22 22 26 27 26 27 26 26 26 24 25 27 26 28 27 27 28 30 32 32 32 30 33 33 33 35 36 36 35 33 32 30 29 27 27 26 23 24 24 24 25 26 27 28 29 29 32 30 29 26 
27 28 28 27 27 26 24 26 28 29 30 31 32 33 34 35 36 35 33 31 27 26 26 28 29 29 29 31 31 30 31 30 29 30 31 31 29 26 25 26 27 26 25 25 23 23 23 23 24 25 26 26 25 25 26 27 29 30 31 33 32 32 31 30 28 30 29 29 30 30 32 32 32 33 34 33 32 31 28 27 27 28 28 30 28 27 26 25 23 22 21 19 18 17 19 19 19 21 19 21 20 21 21 23 23 25 23 23 21 21 19 21 22 23 23 23 24 24 23 22 22 19 16 17 18 19 18 16 16 13 14 14 14 14 10 11 13 15 13 14 13 14 14 15 14 13 14 14 15 16 15 14 15 15 14 16 17 17 17 15 12 8 9 10 10 11 9 7 6 7 9 12 12 12 11 11 12 16 15 16 101 162 167 169 172 173 173 172 173 175 175 174 171 172 174 173 174 173 172 172 172 173 173 170 170 170 172 172 174 175 176 177 178 179 179 179 180 182 180 181 181 181 183 183 183 183 182 181 182 181 181 180 179 177 174 173 173 172 172 173 174 172 173 172 172 173 174 174 175 172 169 169 168 167 167 168 169 169 169 168 168 167 165 164 162 162 162 160 161 162 161 159 161 163 165 167 169 169 167 167 170 172 175 177 175 175 173 174 173 173 173 171 171 171 170 167 168 170 170 171 169 167 165 165 163 162 162 163 162 161 161 160 159 158 156 154 153 153 153 154 156 156 157 158 159 161 161 162 160 159 158 157 158 158 159 159 159 159 160 160 160 161 160 159 160 161 161 163 164 163 163 161 161 163 163 162 162 160 160 163 163 162 160 160 160 161 160 160 161 161 156 154 154 152 154 157 159 161 162 162 164 163 163 162 162 163 163 162 164 165 166 168 168 168 169 170 169 170 170 169 168 167 168 169 169 167 166 165 166 166 167 165 163 164 163 163 163 164 164 162 161 163 165 162 140 60 7 0 0 0 0 0 0 0 0 89 132 74 0 0 0 0 0 0 0 0 0 0 0 0 0 0 0 0 0 0 0 0 0 0 0 0 0 0 27 125 145 147 148 148 147 149 154 157 160 165 169 172 173 177 177 178 181 180 179 178 177 178 178 176 155 37 10 6 6 6 6 5 6 6 7 7 8 6 7 8 7 8 8 7 7 10 9 8 6 6 6 4 4 4 2 2 0 2 1 3 5 9 9 9 9 7 5 5 4 2 3 2 3 2 3 3 5 8 12 11 10 11 15 16 18 19 21 24 25 24 21 22 23 23 25 26 28 29 30 32 33 32 31 28 29 28 26 28 28 27 27 26 22 20 19 16 17 16 17 17 15 16 16 18 21 23 26 27 26 25 23 25 24 24 23 25 26 26 27 27 29 30 32 31 32 31 32 33 33 34 38 38 35 33 31 31 30 30 28 26 25 25 26 25 25 25 24 25 26 28 29 29 27 26 
27 27 27 25 24 24 25 26 27 29 29 31 31 32 34 36 34 33 32 31 29 26 28 29 29 28 30 30 31 30 31 31 31 31 31 31 29 27 25 26 26 25 27 25 25 25 25 24 23 24 27 27 26 25 28 28 28 30 31 33 33 32 31 31 30 30 31 30 31 30 32 33 33 34 35 33 33 30 29 29 29 31 31 31 28 28 26 25 25 23 21 19 17 15 16 17 17 19 19 20 22 22 23 23 23 23 21 22 21 18 18 19 21 22 22 22 25 26 25 24 23 22 19 18 18 18 18 18 17 16 15 16 14 13 10 10 12 12 12 13 11 12 15 16 14 13 14 16 16 15 13 13 14 14 14 16 17 18 19 17 12 11 10 11 11 10 10 9 7 9 10 12 12 13 14 13 13 12 14 14 95 158 164 168 171 172 172 170 170 173 175 173 171 171 173 173 174 173 172 169 170 172 173 174 173 172 174 173 174 175 176 176 178 179 178 178 179 181 181 180 179 178 179 182 181 181 182 182 181 180 180 179 177 173 171 170 171 170 170 171 172 174 174 173 174 175 175 174 172 171 169 167 167 167 166 166 168 169 170 168 168 166 165 165 162 161 162 161 159 161 161 160 163 165 166 166 167 168 167 169 171 173 175 175 174 173 172 173 173 174 173 173 171 171 170 169 167 168 168 166 165 163 164 165 165 163 162 164 163 162 162 162 162 160 157 155 154 154 153 155 157 157 158 158 158 161 163 162 160 158 156 158 157 159 159 159 160 160 162 163 164 163 160 161 161 161 162 162 162 162 162 161 160 160 162 162 163 161 162 162 162 160 159 160 160 161 160 158 159 158 154 153 153 152 155 158 159 159 159 161 161 161 162 163 163 163 162 160 161 162 166 169 168 167 168 168 168 166 168 168 167 167 166 165 167 167 165 163 163 164 163 164 164 164 162 163 163 164 164 163 162 163 165 163 143 66 1 0 0 0 0 0 0 0 0 99 132 58 0 0 0 0 0 0 0 0 0 0 0 0 0 0 0 0 0 0 0 0 0 0 0 0 0 1 95 142 146 146 147 146 145 150 155 159 162 165 170 172 173 176 176 177 178 180 179 178 177 177 177 172 110 9 7 6 6 5 3 2 2 3 6 8 9 8 9 9 7 8 9 7 6 9 10 7 5 3 4 4 3 3 3 0 2 3 2 5 6 8 8 8 7 5 3 3 3 3 2 1 1 1 2 4 5 9 11 11 11 12 15 16 17 19 21 24 24 23 21 23 24 25 25 27 28 28 29 31 34 34 31 30 30 28 27 28 28 29 28 26 22 19 18 17 16 15 15 14 15 15 16 18 20 23 24 25 26 25 25 24 25 24 25 26 26 26 25 26 29 30 31 29 31 31 32 33 32 34 36 37 36 33 32 30 32 32 29 28 28 26 26 24 24 24 24 23 23 23 25 27 27 27 
27 26 25 26 26 25 26 26 27 30 31 30 31 32 33 33 33 34 31 31 29 28 30 30 29 29 30 30 29 31 32 30 30 31 31 31 31 30 27 27 26 26 28 26 25 25 24 23 23 22 25 26 27 27 27 28 27 28 31 32 31 31 30 32 32 31 32 32 33 33 34 34 34 34 33 32 31 32 29 29 30 32 32 32 29 28 28 27 26 23 21 19 18 15 17 18 18 19 20 21 22 22 22 24 24 21 20 20 20 18 18 17 18 20 20 22 23 23 22 21 23 23 22 19 19 19 20 18 18 17 16 16 14 12 10 12 13 14 15 14 13 13 14 15 15 15 15 17 14 13 10 9 12 15 16 17 18 19 19 17 13 13 13 13 13 11 9 7 8 9 10 11 13 13 14 13 12 11 11 13 92 156 162 165 168 168 169 168 169 172 174 172 171 171 171 172 173 173 172 172 173 174 174 174 173 174 174 172 172 175 177 178 178 179 178 178 179 180 179 178 176 176 177 178 179 179 181 182 180 179 179 177 174 170 170 169 167 169 169 169 172 172 173 173 173 174 174 174 170 170 168 167 165 166 164 165 166 169 169 167 166 168 168 166 165 164 163 163 162 163 163 162 164 165 166 167 167 168 168 169 171 173 174 173 173 172 171 170 171 172 172 170 169 170 171 170 168 166 165 165 164 164 164 165 164 164 163 164 163 163 161 163 161 159 159 157 156 156 156 156 158 158 158 159 161 162 164 163 162 161 159 160 160 161 159 159 161 160 162 164 164 162 161 161 160 160 161 163 163 164 163 160 159 161 162 163 163 162 161 160 158 158 159 159 159 159 159 159 159 158 157 154 154 154 156 159 158 160 159 161 160 162 162 163 163 163 162 160 161 162 164 166 166 167 168 167 164 166 168 166 165 162 163 163 165 165 164 162 162 164 164 164 164 162 161 163 164 166 166 165 163 164 164 161 142 71 0 0 0 0 0 0 0 0 14 112 130 41 0 0 0 0 0 0 0 0 0 0 0 0 0 0 0 0 0 0 0 0 0 0 0 0 0 59 133 143 144 143 143 143 144 150 157 160 163 166 169 171 174 174 174 175 177 179 178 176 177 176 175 152 35 5 5 5 4 4 2 0 1 5 7 8 9 9 8 9 9 9 9 8 7 9 8 7 5 3 3 3 4 4 4 3 2 2 2 4 5 8 8 6 4 3 3 4 4 2 1 0 0 1 1 4 6 8 11 12 14 14 15 16 18 20 21 23 24 23 23 24 25 24 24 24 28 29 29 31 34 31 31 31 30 30 28 28 27 28 28 26 22 21 17 17 15 13 12 13 14 16 17 19 20 21 22 25 24 25 25 26 25 25 26 27 26 27 26 27 29 30 30 30 30 32 32 32 33 34 36 38 38 36 32 31 31 31 31 31 32 28 28 25 25 23 22 21 21 21 23 24 26 27 
25 25 25 25 27 27 27 26 27 28 30 30 29 30 31 31 31 31 32 31 31 30 30 30 32 30 31 29 30 30 31 29 30 30 31 34 33 31 30 29 28 27 26 27 27 26 24 23 23 22 24 26 27 27 28 28 29 28 30 32 30 29 28 28 29 30 31 34 36 37 39 39 38 36 35 31 31 31 30 31 29 29 30 31 29 27 28 28 26 24 21 20 18 18 19 19 19 21 21 21 20 23 23 23 24 23 23 22 19 17 17 18 18 20 20 19 20 21 20 20 21 23 22 22 21 19 20 17 18 17 17 17 16 14 14 13 14 17 16 16 13 13 14 16 16 15 15 15 14 11 8 8 10 14 16 16 17 18 19 18 15 15 14 14 14 12 9 6 7 7 9 9 12 13 14 14 12 11 11 13 86 153 160 163 164 164 167 169 170 172 172 173 171 169 170 173 173 173 173 174 175 177 175 174 173 172 173 172 173 176 177 179 180 181 179 178 177 176 175 174 175 175 173 175 175 176 178 181 179 178 178 176 174 171 170 169 167 168 167 169 170 171 171 170 172 173 174 173 171 169 166 166 164 162 163 162 165 167 167 167 167 168 169 170 168 166 165 164 164 165 165 164 165 166 167 167 169 170 167 170 172 173 173 173 173 173 170 169 169 170 170 169 168 170 169 168 169 168 166 165 164 165 164 165 165 165 164 165 164 164 162 163 161 160 159 157 157 158 157 158 159 160 159 160 162 163 165 166 166 164 162 162 162 160 160 161 160 160 161 162 162 160 159 158 158 159 161 163 164 165 164 162 161 162 163 162 162 162 161 158 157 157 159 159 159 158 157 159 159 160 158 157 156 156 157 158 160 159 160 160 161 160 161 162 163 164 162 161 161 160 163 164 164 164 166 166 164 166 166 165 163 162 163 164 166 165 165 163 162 163 164 164 163 162 161 163 164 165 164 165 164 164 163 160 140 72 0 0 0 0 0 0 0 0 18 120 130 27 0 0 0 0 0 0 0 0 0 0 0 0 0 0 0 0 0 0 0 0 0 0 0 0 32 121 140 142 143 143 142 143 148 153 158 161 163 168 170 170 172 173 173 174 176 176 177 175 174 173 167 85 7 5 5 5 4 5 3 0 2 5 7 8 9 8 8 10 11 10 9 9 8 9 8 5 5 4 3 2 3 4 4 3 1 2 2 3 5 8 9 7 6 4 4 3 2 1 0 0 0 1 2 5 6 7 12 14 16 15 15 15 18 20 23 24 22 22 21 23 26 25 23 23 25 28 30 32 34 33 32 32 32 33 31 30 29 29 28 27 25 21 17 15 13 13 12 14 16 17 19 21 20 21 22 25 26 25 24 24 25 24 26 27 27 26 28 29 30 29 30 30 30 31 33 34 34 36 38 38 39 36 34 32 31 31 32 34 34 32 30 26 24 22 21 21 20 21 21 23 25 25 
24 24 23 23 25 25 25 25 25 27 26 28 28 28 30 29 29 29 31 31 30 31 31 31 31 31 31 31 29 30 30 30 30 29 32 33 32 33 32 30 29 27 27 26 26 25 22 21 22 23 25 25 27 28 28 30 30 31 30 29 28 27 26 26 29 32 33 36 37 40 40 40 38 37 36 34 32 32 32 29 29 28 28 29 27 27 27 27 27 27 24 21 21 20 19 21 22 23 22 21 20 20 20 22 23 25 22 21 19 18 18 19 22 21 21 21 21 21 22 22 22 23 22 21 20 20 18 16 17 18 21 20 19 16 15 15 15 15 17 16 16 15 16 17 16 15 15 15 13 9 9 9 11 13 15 15 16 18 18 19 16 15 15 16 15 12 8 6 5 6 9 10 13 13 13 11 9 9 9 11 63 148 156 159 160 162 164 166 170 171 170 171 170 169 169 172 172 175 174 175 175 176 175 175 174 172 172 170 171 173 176 178 180 181 180 179 176 176 175 174 172 172 173 172 172 174 178 178 176 175 176 177 175 173 170 168 167 167 168 167 168 170 171 171 171 171 172 171 168 167 167 166 162 161 162 161 163 165 167 168 166 168 169 169 169 168 166 163 165 168 169 169 167 166 167 169 169 169 168 169 171 171 171 171 171 171 170 168 169 169 168 168 167 166 168 168 168 170 168 166 164 166 166 165 165 165 164 165 165 164 162 162 161 159 159 159 159 158 159 159 161 162 162 161 163 163 165 166 167 166 165 164 162 161 160 161 158 159 160 158 159 158 158 157 158 159 162 163 164 164 163 163 164 165 163 163 161 161 159 157 156 157 158 158 159 157 157 158 160 160 159 158 157 157 157 158 160 160 161 162 161 160 162 161 163 164 163 162 160 159 159 161 161 162 164 165 164 164 165 165 164 164 164 165 164 162 162 162 161 161 163 163 164 163 162 163 161 162 162 162 161 161 161 159 139 67 0 0 0 0 0 0 0 0 36 129 128 19 0 0 0 0 0 0 0 0 0 0 0 0 0 0 0 0 0 0 0 0 0 0 0 19 110 137 141 142 142 143 141 143 149 155 159 161 165 168 169 169 169 170 173 174 174 173 174 173 170 169 132 17 6 5 3 2 3 3 3 2 3 5 8 8 7 7 8 10 12 10 8 8 8 8 7 7 5 4 3 4 4 5 5 2 2 1 3 3 5 8 8 7 6 3 2 2 2 2 0 1 0 2 4 6 8 10 12 15 16 17 16 16 19 21 22 23 22 20 21 23 24 25 22 22 24 29 31 34 35 34 34 34 34 33 32 30 29 28 29 28 26 23 19 16 15 13 13 14 16 19 20 20 22 23 26 27 27 28 25 24 24 25 24 26 26 27 27 30 30 31 32 31 32 33 33 34 35 37 36 37 38 37 36 33 30 30 32 35 34 33 30 28 24 22 22 21 20 21 22 23 24 24 
23 23 21 24 24 22 22 22 22 22 24 26 26 28 28 29 30 30 30 31 30 29 30 29 30 30 28 28 28 28 29 29 31 30 30 31 32 34 31 29 27 26 24 26 26 25 24 22 23 24 24 25 26 26 27 29 31 30 29 28 27 28 27 26 29 33 35 36 37 39 40 39 39 39 36 35 31 31 29 27 27 28 28 29 28 26 27 27 27 26 27 25 23 23 21 22 22 22 22 20 18 18 19 21 23 21 20 19 19 19 20 23 23 23 23 23 23 23 22 23 21 21 23 21 19 19 18 17 17 20 21 21 21 20 17 18 18 17 18 17 16 16 15 16 18 17 16 15 12 11 10 11 13 13 15 13 14 16 19 18 18 16 14 14 13 11 7 6 6 7 9 11 13 11 11 10 9 10 10 9 38 137 152 157 158 161 162 165 167 169 169 170 170 169 170 171 172 174 173 173 175 176 176 175 173 172 171 171 170 173 175 178 180 181 180 178 177 176 174 172 172 172 174 173 172 172 175 174 174 175 176 177 175 173 170 168 167 168 166 167 168 168 170 169 170 171 169 168 166 165 165 165 162 161 163 162 163 166 166 167 165 167 168 169 170 169 166 164 165 168 171 170 166 168 170 170 171 170 168 168 171 171 170 170 169 170 169 169 168 168 168 166 165 167 168 169 168 168 168 166 165 166 166 166 166 166 165 164 164 165 163 161 159 161 161 161 161 161 161 161 163 164 162 163 164 164 165 165 166 165 163 163 162 161 161 159 158 158 159 158 158 157 158 157 159 160 161 163 162 163 162 164 167 165 165 163 162 161 158 156 155 154 156 155 156 156 157 158 159 161 162 160 158 158 158 158 158 159 159 160 161 160 160 159 162 163 163 162 160 158 159 160 162 161 163 163 162 163 164 164 165 165 165 163 164 163 163 161 160 160 162 163 164 164 164 163 161 161 160 162 161 161 159 158 140 57 0 0 0 0 0 0 0 0 55 135 122 7 0 0 0 0 0 0 0 0 0 0 0 0 0 0 0 0 0 0 0 0 0 0 10 100 136 140 141 141 141 141 140 145 150 155 159 162 165 168 170 169 166 168 170 172 172 171 171 171 170 154 48 2 3 3 2 1 2 3 2 2 3 4 6 6 6 6 8 11 12 12 9 8 8 9 8 7 6 6 6 7 6 5 4 3 2 2 3 4 6 8 8 6 6 3 2 2 2 2 2 1 0 2 4 7 9 12 14 14 15 15 17 17 19 20 21 22 21 18 20 23 23 23 23 22 25 28 32 33 36 36 34 33 34 33 32 30 28 28 28 27 27 24 20 18 16 14 14 16 17 19 22 22 23 25 28 30 30 29 28 25 25 25 25 26 26 26 27 29 31 32 33 33 33 34 35 35 34 37 35 36 36 36 37 34 30 30 32 34 34 31 30 29 25 24 22 22 21 21 21 23 23 24 
23 23 22 25 23 21 21 20 20 22 23 25 25 25 28 28 28 29 28 30 28 26 26 27 26 27 27 27 27 26 28 29 30 29 29 31 32 33 31 29 27 27 24 25 25 24 23 22 23 25 26 26 26 27 28 30 31 31 29 28 28 27 25 26 27 31 35 37 37 38 39 38 37 37 33 32 29 28 28 28 28 29 30 30 27 26 28 27 27 28 28 26 24 24 23 23 23 22 21 19 19 19 18 20 21 22 21 21 22 22 21 24 23 25 24 24 24 24 22 22 23 22 22 20 21 20 20 17 17 20 20 21 23 22 20 20 21 20 20 19 18 15 16 16 18 18 17 14 13 13 12 12 12 13 14 14 14 16 18 18 18 15 13 12 11 9 6 6 6 7 7 9 10 10 12 10 11 10 11 9 20 125 152 155 156 160 162 163 165 166 168 170 170 170 171 171 172 172 173 173 176 176 176 174 174 172 173 172 172 174 177 179 180 181 180 179 178 174 173 172 173 173 175 173 172 174 174 173 174 175 176 177 174 173 171 168 167 167 166 167 167 168 168 170 170 169 169 168 166 166 168 166 164 161 162 163 163 165 166 167 167 168 170 171 172 171 169 166 167 167 169 168 166 167 169 170 170 170 169 169 171 171 171 170 169 170 168 168 168 166 167 164 166 167 167 166 166 167 167 166 165 165 165 166 166 164 164 164 166 165 165 161 160 161 162 162 163 161 162 163 164 164 164 165 164 165 166 166 167 166 164 164 163 162 162 160 159 158 159 157 158 157 158 158 159 160 161 162 160 159 162 163 166 166 164 165 163 162 159 155 154 154 154 154 155 155 156 158 158 161 161 160 156 158 158 158 159 159 160 160 159 160 160 159 161 161 161 162 160 159 158 159 161 161 162 162 160 162 164 164 164 165 164 162 161 161 161 160 158 159 159 162 162 163 164 163 161 160 160 162 161 160 160 158 136 40 0 0 0 0 0 0 0 0 67 133 105 0 0 0 0 0 0 0 0 0 0 0 0 0 0 0 0 0 0 0 0 0 0 0 87 133 139 141 142 141 139 140 141 144 150 154 157 161 164 167 168 166 166 167 168 168 169 168 168 167 164 100 2 1 0 1 1 0 0 0 0 2 3 4 4 5 5 6 9 10 10 9 8 8 9 8 8 8 6 7 8 7 5 3 2 4 3 3 2 4 7 8 7 5 5 3 3 2 2 2 1 1 1 3 6 7 10 14 15 15 15 15 16 18 19 19 20 20 21 21 22 22 22 21 22 23 25 28 31 33 33 33 33 34 34 35 34 32 30 29 28 27 27 25 21 19 18 17 16 16 17 20 22 24 25 27 28 29 31 30 29 28 25 25 27 28 26 25 27 29 32 35 35 37 38 35 35 34 35 36 36 36 37 36 35 32 30 31 33 34 35 30 29 29 28 24 24 23 22 20 21 21 22 23 
21 22 23 23 23 21 21 22 21 22 24 23 22 23 25 27 27 28 26 27 27 24 24 24 25 25 26 26 26 25 27 29 30 30 30 33 33 32 31 31 28 27 23 23 24 23 22 20 23 25 27 27 27 27 27 30 30 32 29 27 29 27 25 24 27 29 33 35 36 37 36 37 36 33 32 29 28 27 28 27 27 30 31 30 28 29 28 28 29 29 29 27 25 25 24 23 24 24 21 19 19 20 18 19 20 22 23 23 25 26 24 24 24 25 25 24 25 25 24 24 23 21 21 20 21 21 19 16 18 19 21 22 24 22 21 21 20 21 20 19 18 16 16 18 19 17 17 13 14 13 14 13 12 13 13 13 14 16 17 18 18 14 12 11 10 7 5 5 5 5 4 7 11 10 11 10 11 11 9 9 12 104 152 155 155 158 160 160 162 165 167 170 169 168 168 169 169 172 175 175 176 177 175 175 175 174 173 172 173 175 177 179 179 179 178 178 177 174 171 173 174 172 173 174 172 171 171 173 175 176 177 176 175 173 170 167 167 167 167 166 165 165 165 165 167 169 169 169 167 166 167 166 163 162 162 163 164 165 166 166 167 169 170 170 171 170 169 167 168 167 168 167 165 165 166 167 168 169 169 170 171 171 172 171 169 169 168 169 167 165 164 164 163 164 166 164 163 164 165 167 167 165 164 163 163 164 164 165 166 166 164 162 161 162 163 163 164 162 163 164 166 166 165 166 167 166 167 167 168 166 166 166 166 163 163 162 161 161 162 158 156 157 159 160 161 161 161 161 160 160 161 163 165 166 164 164 165 165 160 158 158 156 156 156 155 157 156 158 160 160 160 157 156 156 156 157 159 159 160 160 159 158 159 160 159 159 161 160 160 158 159 160 161 162 163 163 162 162 164 164 164 164 163 161 159 160 158 157 157 156 158 158 158 160 161 161 160 159 160 161 162 162 161 161 136 37 0 0 0 0 0 0 0 0 82 134 79 0 0 0 0 0 0 0 0 0 0 0 0 0 0 0 0 0 0 0 0 0 0 76 131 138 140 139 139 137 136 138 143 146 151 154 159 162 165 168 167 166 165 165 166 168 168 166 165 164 137 24 0 0 0 0 0 0 0 0 0 0 1 4 5 4 6 5 8 8 8 9 9 9 7 7 6 6 6 4 4 2 3 1 1 2 3 2 2 3 4 6 6 5 3 2 2 3 2 1 1 2 3 4 6 7 11 14 15 16 16 17 18 20 19 19 19 20 23 24 24 24 22 22 23 23 25 28 29 31 31 31 32 33 34 35 36 33 31 29 29 27 27 26 23 22 19 18 17 18 19 20 22 25 27 30 30 32 33 31 30 27 25 25 26 27 25 25 26 28 32 36 38 39 38 36 36 35 36 35 36 37 37 35 34 32 30 29 32 33 33 32 32 32 29 26 25 23 22 19 19 19 20 22 
19 20 22 22 23 22 22 22 21 21 21 22 21 22 24 25 25 25 25 26 26 24 24 24 26 25 26 25 25 27 28 30 31 31 31 34 34 33 31 30 28 27 24 25 23 21 21 21 23 24 27 29 28 27 27 29 29 30 30 29 28 28 25 24 25 28 32 35 35 35 35 35 34 32 32 30 29 28 28 28 25 26 29 31 28 30 29 31 30 29 28 27 26 26 25 24 25 24 22 21 20 19 20 20 22 25 24 24 25 27 26 27 28 27 26 25 23 23 22 20 21 19 20 21 22 21 18 16 18 20 21 20 20 19 19 18 18 20 19 20 18 18 18 18 19 18 17 16 16 16 15 13 12 13 14 14 15 16 17 19 18 15 12 10 10 7 4 5 4 2 3 6 9 9 8 8 9 9 10 8 8 76 146 155 157 159 159 159 161 162 165 166 167 165 166 167 169 172 175 176 176 177 177 176 176 175 174 174 176 176 178 179 180 180 180 179 177 174 171 173 175 173 173 174 172 172 172 173 176 174 174 175 173 172 169 167 166 167 167 165 164 164 164 166 166 167 169 170 167 166 165 163 163 161 162 162 162 164 166 166 165 166 169 169 170 170 169 167 168 167 167 166 164 165 165 164 165 166 168 169 170 172 171 169 169 168 168 167 167 166 164 162 162 162 163 163 162 162 163 166 166 166 164 163 163 165 165 166 166 165 163 162 163 164 166 165 165 162 162 164 166 167 169 169 169 169 170 170 170 169 168 169 168 167 165 163 162 161 163 160 157 159 161 162 161 160 162 162 162 161 162 165 166 166 164 164 165 165 162 159 158 158 158 158 159 158 158 158 159 159 158 156 155 155 155 155 158 159 161 160 160 157 158 160 159 159 160 161 160 160 160 161 162 163 164 162 163 162 162 163 162 161 159 160 158 156 156 156 156 157 157 157 158 158 159 161 159 159 159 159 162 162 163 162 136 44 0 0 0 0 0 0 0 0 95 134 54 0 0 0 0 0 0 0 0 0 0 0 0 0 0 0 0 0 0 0 0 0 81 127 136 138 139 140 138 136 134 137 141 145 151 154 157 163 164 166 165 164 163 162 164 165 165 165 163 152 60 0 0 0 0 0 0 0 0 0 0 0 1 3 4 4 7 6 7 7 8 7 6 5 4 5 6 5 3 4 2 0 0 0 0 1 1 0 0 1 3 5 5 5 4 3 2 3 2 1 3 3 2 5 6 7 11 13 17 17 19 19 17 17 18 19 19 20 22 24 23 24 23 24 25 26 26 28 28 30 30 30 31 33 35 35 35 34 33 31 30 29 30 28 25 23 21 18 18 18 19 19 22 28 29 30 30 33 33 31 30 28 25 26 27 26 26 25 29 32 34 37 38 37 36 37 36 36 36 34 36 37 36 34 34 33 31 30 31 31 32 32 31 30 28 26 23 21 19 17 18 18 20 20 
18 19 20 23 23 22 21 21 20 20 21 21 20 21 22 23 23 23 24 25 25 22 21 23 26 26 26 26 26 27 27 29 32 31 32 34 35 35 32 31 28 27 26 24 25 23 22 21 22 25 27 28 25 25 27 29 31 30 30 31 29 27 26 27 27 28 31 33 33 33 31 32 32 33 33 31 30 30 30 28 24 26 28 29 28 27 28 30 30 29 29 28 25 25 25 26 28 26 25 23 22 22 22 23 23 25 27 26 28 28 26 28 27 27 27 26 24 22 20 18 18 17 18 20 23 21 18 18 19 21 21 19 20 18 17 18 18 20 21 21 20 20 19 19 21 21 20 20 20 19 15 12 12 14 14 15 16 17 18 19 17 15 11 9 9 6 5 3 3 4 3 4 7 7 7 6 6 9 9 8 7 51 141 155 156 158 159 158 160 160 163 163 164 164 164 168 170 172 175 177 178 177 177 177 175 175 175 175 176 176 180 182 182 182 182 182 177 175 174 174 174 174 173 173 173 173 173 174 174 173 172 173 173 172 169 167 166 166 164 163 163 163 165 166 168 169 168 167 166 164 164 163 163 162 162 162 165 165 166 166 166 166 168 167 168 168 168 167 167 168 166 166 166 166 164 164 164 165 166 168 170 171 171 169 169 167 167 166 165 165 163 163 162 161 161 162 162 161 162 164 166 165 165 164 164 165 167 167 166 164 163 164 164 166 166 167 166 164 163 164 167 170 170 170 170 170 172 173 172 171 172 170 169 167 165 163 162 162 162 160 160 159 161 161 161 161 163 162 163 163 164 165 167 166 165 165 166 165 163 160 158 157 156 158 160 159 158 159 159 159 159 156 155 154 154 154 157 158 161 160 159 157 158 159 157 157 157 159 161 161 161 161 162 163 163 163 162 160 160 160 160 159 157 157 156 155 155 155 155 157 158 157 158 159 160 160 160 158 159 159 160 161 162 160 126 27 0 0 0 0 0 0 0 8 106 127 26 0 0 0 0 0 0 0 0 0 0 0 0 0 0 0 0 0 0 0 6 84 129 135 137 139 138 137 136 134 134 138 141 145 150 155 156 160 162 162 162 162 161 160 162 163 163 163 158 105 0 0 0 0 0 0 0 0 0 0 0 1 4 6 5 7 5 4 4 5 5 4 3 3 3 4 3 2 2 3 1 0 0 0 0 0 2 1 0 2 2 4 5 3 3 3 4 5 5 4 4 3 1 4 4 7 10 15 17 17 19 17 17 18 17 17 18 18 20 23 23 24 23 23 23 25 28 29 30 32 32 30 30 31 33 33 35 33 34 34 31 31 31 29 27 24 20 19 18 19 21 21 25 28 32 32 30 31 33 32 29 29 27 27 27 27 26 27 30 33 33 34 36 37 37 35 34 36 36 35 36 36 35 34 33 33 31 31 32 32 31 31 31 29 24 24 22 18 16 15 16 17 18 18 
19 20 20 22 22 22 20 20 20 23 22 22 21 21 21 21 21 21 23 24 25 22 21 22 24 25 25 25 25 26 25 27 29 30 31 33 35 35 32 30 27 26 25 25 25 25 25 25 23 25 26 27 25 25 28 30 31 30 29 28 28 26 27 27 28 29 30 32 31 31 30 30 30 30 31 31 30 31 31 30 27 26 27 28 26 25 28 28 29 29 29 28 25 25 26 26 26 26 25 24 24 26 24 25 25 25 27 28 29 29 27 27 27 27 27 26 23 20 18 16 17 17 16 19 21 21 19 20 20 21 21 21 21 19 19 19 19 20 21 21 21 22 19 20 21 23 22 22 21 17 15 13 12 13 15 15 18 19 18 20 19 15 10 8 8 7 5 4 4 3 2 4 5 7 5 4 4 6 7 8 8 31 129 152 156 157 156 159 160 160 162 162 162 163 164 166 169 171 175 177 178 176 177 176 174 174 175 175 175 177 180 180 181 181 180 181 178 174 175 175 174 173 173 173 173 174 173 172 172 172 171 171 172 171 169 166 165 163 163 164 162 162 164 166 167 166 165 165 165 164 162 163 163 163 162 162 165 166 165 165 165 166 167 167 168 168 167 168 166 166 165 165 166 166 165 164 164 164 164 166 170 171 171 167 166 165 165 164 164 164 164 161 160 160 161 161 162 161 164 164 165 165 165 165 165 165 166 167 166 165 165 167 167 169 169 169 168 168 167 167 170 170 169 170 170 172 173 173 172 173 172 170 169 166 166 163 162 163 162 159 158 159 160 160 160 161 164 163 163 164 165 165 167 168 167 166 167 165 161 158 157 156 156 155 157 157 156 157 158 160 159 158 157 156 156 156 156 159 161 161 158 158 158 158 157 157 156 159 160 160 160 161 161 161 162 161 159 159 158 158 159 157 157 155 154 155 156 156 155 159 159 159 160 160 160 159 158 158 157 158 157 158 158 157 116 10 0 0 0 0 0 0 0 18 120 117 6 0 0 0 0 0 0 0 0 0 0 0 0 0 0 0 0 0 0 12 93 127 134 135 136 136 135 134 133 133 136 140 143 148 151 154 155 157 160 160 161 161 161 159 160 162 161 158 133 19 0 0 0 0 0 0 0 0 2 3 4 5 6 5 5 6 5 4 3 3 2 1 2 2 2 3 1 0 1 1 2 0 0 0 0 0 3 3 1 3 5 5 4 4 3 4 5 4 4 5 4 2 2 2 3 6 10 14 16 17 19 17 18 18 18 17 18 18 20 22 23 23 23 25 25 28 29 29 30 33 32 32 30 31 32 33 34 34 34 33 31 31 31 29 28 26 23 19 19 19 19 21 25 27 29 31 31 33 33 33 32 30 28 28 27 27 26 29 31 32 31 32 35 35 35 33 33 35 36 36 35 35 35 34 32 31 30 30 31 31 30 31 29 25 22 20 20 18 15 15 15 16 18 18 
20 20 18 19 22 23 21 22 23 24 23 21 19 20 21 21 21 23 23 23 22 21 20 22 23 22 23 24 24 24 22 24 27 28 28 30 34 33 31 30 26 24 24 23 24 25 24 24 25 24 23 24 25 27 30 31 31 31 28 27 27 26 28 28 28 29 29 30 31 31 30 30 29 27 29 29 29 30 31 30 28 27 28 27 24 24 26 26 26 26 26 24 24 25 26 26 27 27 26 27 25 25 26 25 25 25 28 29 28 29 29 27 26 27 26 24 21 19 17 17 15 15 16 18 22 20 20 20 21 21 22 20 19 19 20 21 22 22 23 23 23 21 21 20 22 23 22 21 20 18 14 12 13 15 16 17 18 18 19 19 18 14 10 8 9 7 6 6 6 5 5 5 5 6 6 5 3 4 6 7 9 12 103 148 154 156 157 159 160 159 160 161 161 162 165 165 169 170 173 176 177 176 177 175 175 176 176 174 175 175 176 177 178 177 178 179 176 173 175 176 176 174 173 172 172 171 171 171 171 171 170 171 170 170 166 163 163 162 162 164 163 164 163 164 163 164 163 164 164 163 163 163 162 162 163 163 165 165 165 163 165 165 167 167 167 166 166 166 165 166 166 166 167 166 164 162 162 163 164 165 168 169 167 165 163 163 164 164 164 163 162 161 160 161 159 161 161 162 162 163 165 165 165 167 167 166 166 167 166 166 167 168 170 169 171 170 172 172 170 170 171 173 171 171 172 174 175 174 172 171 170 169 169 167 165 163 162 161 160 158 157 157 158 160 161 162 164 163 163 164 165 166 165 167 167 166 166 164 162 160 158 157 156 155 156 156 157 158 159 160 159 158 157 156 157 158 158 160 161 160 158 157 157 157 155 155 154 156 157 159 160 160 160 160 160 160 159 157 156 157 157 157 156 154 152 151 154 154 155 157 159 158 159 157 158 158 156 156 155 156 155 155 156 153 106 0 0 0 0 0 0 0 0 43 131 102 0 0 0 0 0 0 0 0 0 0 0 0 0 0 0 0 0 0 20 101 127 131 134 133 133 133 133 132 132 135 138 141 146 150 150 152 155 156 159 160 161 162 162 162 161 161 160 143 54 0 0 0 0 0 0 0 0 0 3 4 4 3 4 5 5 6 4 1 0 0 0 1 3 1 1 0 1 0 0 2 2 0 0 0 1 1 2 4 2 2 3 3 4 5 4 5 5 4 3 3 4 2 2 4 5 7 9 13 17 17 17 18 17 18 18 18 19 19 22 22 24 24 24 24 26 29 31 31 31 34 33 31 31 31 32 33 33 33 33 32 31 31 30 31 30 28 23 20 19 19 18 19 22 26 28 28 32 35 35 34 33 33 31 29 29 28 29 30 30 30 29 31 32 32 33 33 33 35 36 34 34 34 35 33 31 29 28 28 29 29 28 27 26 23 20 19 18 15 15 15 15 16 18 20 
21 19 19 20 23 23 23 23 23 25 22 20 20 22 21 22 22 22 20 20 20 19 20 20 22 23 21 23 21 21 20 22 25 27 26 30 32 32 31 29 25 23 24 23 22 23 23 23 23 22 22 22 25 27 30 29 29 30 29 29 27 27 27 26 25 26 28 30 31 32 31 30 29 27 27 27 30 31 31 29 27 28 28 25 23 23 23 21 21 22 21 21 21 23 25 27 27 27 26 26 25 24 24 25 24 24 26 27 26 27 28 27 25 26 25 25 25 21 21 18 15 16 16 19 22 23 21 21 21 21 22 20 19 19 19 22 23 24 26 28 25 22 22 20 21 22 21 20 19 17 17 15 15 17 18 17 17 18 17 17 17 14 10 8 9 6 5 6 6 7 6 6 6 6 6 4 3 3 5 6 7 6 68 143 155 156 155 156 158 157 158 161 161 162 164 164 168 168 170 173 175 175 175 176 176 177 178 175 174 174 174 175 174 174 175 178 175 173 173 175 175 174 173 171 172 171 170 170 170 172 170 168 168 167 165 161 161 162 164 165 166 164 164 163 161 161 164 164 166 165 164 164 163 163 163 162 164 165 164 162 163 163 167 167 167 165 165 166 165 165 164 164 164 163 163 160 161 162 163 163 164 166 164 163 162 162 163 164 162 161 161 161 160 161 161 161 161 162 163 164 165 166 165 165 165 166 165 165 165 166 168 170 171 173 173 174 174 172 171 172 173 174 174 175 176 176 175 175 173 171 170 169 168 166 165 161 157 158 157 157 154 157 159 161 163 164 165 164 164 165 166 165 164 165 164 163 164 164 163 163 160 159 158 156 156 157 158 159 159 159 159 158 157 156 156 157 159 162 162 160 157 156 153 153 154 153 153 154 156 158 160 160 161 160 158 158 156 154 154 154 155 155 155 155 152 152 153 155 156 156 157 158 156 155 155 154 154 154 154 153 154 155 156 153 101 6 0 0 0 0 0 0 0 77 132 74 0 0 0 0 0 0 0 0 0 0 0 0 0 0 0 0 0 51 110 128 131 133 133 133 132 133 132 131 135 137 140 144 147 149 149 152 155 156 156 159 162 163 161 161 160 160 147 68 0 0 0 0 0 0 0 0 0 2 4 4 2 3 5 4 4 4 2 1 0 2 3 2 3 2 2 1 2 0 0 0 1 0 1 0 0 1 3 4 3 1 2 2 3 5 5 5 4 2 3 3 5 4 4 6 8 10 11 14 14 16 19 17 15 17 17 19 21 21 21 24 25 26 25 26 27 29 30 30 32 33 32 32 33 34 34 32 33 33 32 32 32 31 31 30 29 26 22 18 18 19 20 22 24 27 27 29 34 36 35 35 34 33 32 32 32 31 32 31 32 32 31 31 33 34 33 33 33 36 36 35 34 35 34 32 29 28 26 25 25 27 27 28 25 22 23 22 19 16 16 15 16 17 19 19 
20 21 21 21 22 21 21 21 21 23 22 20 21 22 21 21 21 20 18 18 18 19 20 21 21 22 22 22 22 22 20 22 23 25 27 30 30 30 30 28 26 24 23 22 21 22 23 22 22 22 22 22 24 28 30 30 27 29 28 27 26 27 24 25 24 24 29 31 33 34 33 32 31 29 29 30 32 33 31 31 30 28 26 24 22 21 19 18 20 19 20 20 21 23 25 28 27 28 26 26 24 24 23 24 23 24 23 23 23 24 25 26 26 27 27 28 25 23 21 19 17 18 19 21 21 24 24 24 23 23 23 21 20 19 20 22 23 25 27 29 26 24 22 20 20 22 22 21 21 19 20 17 16 16 17 18 18 17 16 16 14 10 8 7 8 7 7 7 7 8 7 7 7 7 5 4 2 2 3 4 7 6 34 131 152 153 155 157 157 157 157 159 160 161 163 165 167 167 169 171 173 174 174 174 174 174 176 176 174 172 172 173 172 172 173 174 174 171 170 172 172 173 172 171 172 171 171 170 170 169 168 166 167 167 164 162 162 165 166 166 168 167 164 164 163 163 164 164 167 166 164 165 165 165 162 161 162 163 162 161 162 163 166 168 166 166 166 167 166 165 165 163 164 163 162 161 160 159 161 161 161 162 163 161 160 161 161 161 160 161 161 161 162 161 160 161 160 160 161 162 165 167 166 165 166 166 164 164 166 167 169 172 172 174 175 175 175 174 171 171 174 177 176 177 178 176 176 175 173 170 168 167 165 165 164 161 159 158 158 156 157 158 159 161 165 165 164 165 166 166 165 166 166 165 164 163 164 165 164 164 162 160 159 159 158 159 160 160 159 159 157 157 156 155 156 157 159 160 161 159 156 155 152 152 153 153 153 154 156 158 160 160 160 160 160 157 155 155 154 154 153 154 155 156 153 152 152 154 154 153 156 156 155 153 154 154 154 154 153 153 152 156 156 151 85 0 0 0 0 0 0 0 1 109 125 27 0 0 0 0 0 0 0 0 0 0 0 0 0 0 0 15 81 121 129 130 132 134 134 134 133 134 132 136 140 142 143 143 144 146 149 152 153 154 155 158 159 160 159 159 157 149 75 0 0 0 0 0 0 0 0 0 0 2 4 3 0 1 3 4 2 2 1 1 3 4 3 3 4 4 4 4 2 2 0 0 1 1 1 0 0 0 3 4 3 1 0 3 4 4 3 3 4 4 5 6 6 5 7 8 11 11 11 13 14 19 18 17 18 20 19 21 22 22 23 24 25 26 26 26 27 28 29 29 30 32 32 33 36 35 34 31 31 34 36 35 34 32 31 31 30 26 22 20 20 20 21 24 26 28 29 30 33 34 36 33 33 32 32 34 35 33 32 33 35 34 33 33 35 35 34 32 33 36 37 37 35 35 35 31 29 27 26 23 24 25 28 27 26 23 23 23 19 17 16 17 18 18 17 19 
20 22 22 22 21 21 22 21 20 21 19 20 21 20 20 20 19 19 17 19 18 20 19 21 23 21 22 21 22 21 21 22 23 25 27 29 29 30 28 27 26 23 22 21 21 22 23 23 23 24 26 22 23 27 28 28 27 28 28 27 27 27 24 25 24 25 28 31 32 33 32 32 31 30 30 30 32 33 31 30 30 28 25 22 20 18 17 16 18 18 20 20 21 22 23 25 27 26 27 26 23 22 22 23 23 22 23 23 22 22 23 25 28 29 29 28 26 26 22 20 19 19 20 21 20 23 24 26 24 25 25 25 22 21 21 23 23 25 28 28 26 24 21 21 21 23 24 23 21 19 17 14 14 16 18 20 20 17 15 15 11 10 9 8 8 7 7 7 7 7 7 7 5 5 3 2 1 1 2 3 3 5 11 103 147 151 153 155 156 156 157 159 159 161 163 165 165 164 165 167 169 170 172 171 171 172 174 173 172 171 171 170 169 170 171 171 170 169 169 170 171 173 172 172 169 170 170 169 170 168 168 166 166 168 166 164 164 164 166 168 168 166 166 165 165 165 166 167 167 168 167 167 166 165 164 162 161 162 161 161 161 163 165 168 167 166 167 167 166 165 165 165 164 164 162 161 159 159 160 159 158 160 163 161 160 160 160 160 161 162 162 162 162 160 159 160 160 160 160 161 164 165 167 168 168 166 167 167 168 169 170 172 173 173 175 175 175 174 173 173 177 179 178 176 176 177 177 175 172 170 167 166 164 163 163 162 160 159 159 159 160 161 160 162 164 164 164 165 166 166 166 167 167 167 165 164 166 167 166 164 163 162 162 162 162 161 163 163 159 158 157 155 157 156 155 155 155 158 158 156 154 152 151 151 152 153 154 155 156 157 158 159 160 159 159 158 158 156 153 154 154 155 155 154 154 154 153 153 153 151 152 153 154 154 153 154 153 154 154 154 155 156 157 149 69 0 0 0 0 0 0 0 25 124 95 0 0 0 0 0 0 0 0 0 0 0 0 0 0 0 47 107 127 131 131 131 131 133 133 134 131 132 134 138 142 143 143 142 144 146 149 151 152 153 155 156 156 156 155 155 147 88 0 0 0 0 0 0 0 0 0 0 1 1 2 0 0 1 2 2 2 2 1 0 1 2 1 2 3 4 3 1 2 0 0 0 0 0 0 0 0 0 1 3 4 0 0 0 3 5 5 5 7 10 8 8 8 8 9 9 12 10 11 14 17 19 19 20 20 21 22 24 25 25 24 26 26 27 28 28 27 28 28 29 29 31 32 33 35 35 35 32 32 36 38 38 36 33 32 31 32 28 24 22 23 22 23 24 26 28 30 31 33 36 34 33 33 32 31 33 36 35 35 35 35 36 35 34 34 34 34 33 33 36 37 36 36 34 32 30 28 27 26 25 23 26 27 28 27 26 26 22 20 18 18 19 19 20 18 18 
20 20 19 21 21 20 22 20 19 21 20 19 20 19 18 19 17 17 17 18 19 19 20 20 21 20 21 23 23 23 22 23 23 25 26 25 27 27 25 23 22 21 22 21 20 22 26 25 28 27 26 23 23 25 25 26 27 27 28 29 28 27 27 25 25 25 28 30 31 31 31 30 30 31 30 31 32 32 28 28 29 26 25 23 20 17 15 16 18 19 21 21 22 22 24 25 25 26 26 27 23 23 22 22 22 22 21 24 23 23 24 26 27 28 30 27 27 26 23 21 20 21 23 24 22 24 25 25 24 26 27 27 26 24 25 25 23 23 25 25 25 25 23 21 23 26 26 25 22 20 18 14 14 18 19 20 18 18 15 14 10 9 11 9 8 7 8 5 4 4 4 6 4 1 0 0 0 0 2 3 3 4 6 65 140 149 152 155 155 155 157 159 161 161 163 164 164 165 164 165 165 168 170 171 170 171 172 171 171 168 167 167 166 167 169 170 168 166 166 169 170 172 172 170 169 169 170 171 169 166 166 166 167 169 166 166 166 164 166 167 167 167 165 165 165 164 165 165 166 167 167 166 167 167 163 162 162 163 162 162 162 162 165 167 167 165 166 166 165 165 164 164 166 164 162 161 159 158 160 158 157 159 162 160 159 159 161 161 160 161 161 161 161 159 158 160 160 160 161 162 163 166 169 168 168 167 168 169 170 172 172 173 175 175 177 177 175 174 174 175 177 178 176 175 175 176 176 175 172 170 167 165 165 164 164 161 160 158 160 160 160 161 162 162 164 164 162 165 166 165 165 166 167 166 167 165 166 167 167 167 165 166 166 165 163 163 163 163 159 158 157 156 157 157 156 154 155 156 154 155 153 152 152 151 151 153 154 155 157 157 157 157 157 156 154 155 156 155 154 154 155 155 154 153 152 153 152 151 153 152 153 153 154 154 154 154 155 155 154 153 155 156 156 142 57 0 0 0 0 0 0 0 53 123 40 0 0 0 0 0 0 0 0 0 0 0 0 0 42 94 120 129 132 134 134 133 131 133 133 132 131 132 136 141 144 145 145 145 145 146 149 151 152 154 155 154 155 154 153 147 97 1 0 0 0 0 0 0 0 0 0 0 0 0 0 0 0 0 2 2 2 1 0 0 0 1 0 0 0 1 0 0 0 0 0 0 0 0 0 0 0 0 3 4 4 1 0 0 2 3 6 6 9 11 11 10 10 10 10 11 12 10 13 15 19 20 19 19 19 22 23 27 26 26 27 28 29 29 28 28 26 26 27 26 28 30 31 33 35 36 35 33 34 36 37 39 37 35 32 33 31 29 27 26 24 25 25 24 26 27 30 31 33 35 34 33 34 33 33 33 36 36 35 35 35 37 36 34 34 35 34 33 33 35 35 35 34 33 31 28 28 29 27 26 24 25 25 26 27 26 24 22 20 19 20 18 20 20 19 18 
19 19 19 19 18 19 21 21 21 21 20 19 20 18 17 17 17 17 17 18 18 19 20 21 19 19 22 24 25 25 24 23 23 25 24 24 25 24 22 20 20 21 21 20 21 25 26 26 28 27 26 21 22 24 23 23 25 27 29 29 27 26 28 27 24 25 27 27 27 29 28 29 29 31 31 31 30 31 29 27 27 26 23 22 19 15 14 15 16 19 20 23 24 23 23 25 26 26 26 27 24 22 22 23 22 20 21 23 23 24 24 26 26 27 29 27 26 25 23 21 22 23 23 24 25 25 26 25 24 25 27 28 28 25 26 24 23 23 24 25 26 25 25 24 25 26 27 24 22 20 19 16 16 19 18 18 17 16 14 13 11 11 10 9 7 6 7 4 3 2 2 1 0 0 0 0 0 0 2 2 2 3 5 32 127 147 150 153 154 155 156 158 161 162 163 163 164 163 164 165 165 168 168 168 168 169 170 171 169 167 165 166 167 165 168 168 168 166 165 167 168 170 170 169 169 169 171 170 170 166 166 164 166 166 167 167 166 166 166 167 166 167 166 165 165 164 165 166 165 165 164 166 166 165 163 162 162 164 163 163 162 163 164 166 168 167 167 165 164 164 163 163 163 162 163 162 161 160 159 159 159 159 158 157 157 159 160 162 161 159 160 160 159 159 160 160 160 159 163 163 164 166 168 169 169 167 166 169 170 171 172 175 177 179 179 177 175 173 175 174 175 175 174 174 172 174 174 174 172 170 167 166 165 164 164 160 160 160 160 160 162 164 164 164 166 165 164 166 166 165 163 163 164 165 166 166 168 168 170 168 169 169 169 166 163 164 164 161 159 159 156 159 159 158 158 157 155 156 153 153 153 152 152 149 150 152 155 156 157 156 156 156 154 153 153 154 155 155 155 155 156 156 154 152 151 151 152 153 153 154 155 155 155 155 155 154 157 156 154 155 156 155 154 137 36 0 0 0 0 0 0 0 95 102 0 0 0 0 0 0 0 0 0 0 0 0 43 95 118 128 130 132 133 135 136 133 132 132 131 130 131 136 140 141 143 145 145 145 146 150 149 152 152 155 155 154 153 154 147 109 9 0 0 0 0 0 0 0 0 0 0 0 0 0 0 0 0 0 0 1 1 0 0 0 0 0 0 0 0 0 0 0 0 0 0 0 0 0 0 0 0 1 4 3 2 0 0 0 3 3 6 8 9 11 11 12 11 10 11 10 12 11 10 14 17 19 20 19 20 22 23 25 26 25 26 27 30 30 27 25 26 23 23 24 24 29 30 32 34 35 33 32 34 36 37 38 37 35 32 33 33 30 28 26 24 25 24 25 27 28 29 32 33 33 31 31 32 33 34 33 35 36 37 35 34 34 35 35 34 33 32 32 32 35 34 35 33 32 30 29 29 29 27 24 23 24 25 25 25 24 24 22 19 19 19 19 18 19 20 19 
19 19 19 18 17 20 21 20 19 19 19 18 18 16 15 16 17 18 17 18 17 17 20 21 19 18 21 23 26 26 25 23 23 23 23 21 21 20 20 19 20 20 21 21 23 26 27 27 28 27 24 20 20 22 22 22 24 27 28 28 27 26 25 24 23 24 23 24 24 27 27 28 28 28 28 28 29 28 27 24 23 24 23 20 17 15 14 14 15 17 20 22 22 22 21 21 23 23 25 25 24 23 24 24 22 21 20 23 24 23 24 24 25 25 25 24 24 22 22 24 23 24 25 25 26 26 28 27 26 26 28 28 27 25 23 22 22 24 24 26 26 28 27 26 26 26 25 25 23 22 19 18 16 17 17 16 16 16 15 13 12 11 10 9 6 6 5 2 1 0 0 0 0 0 0 0 0 2 3 1 0 3 3 9 101 142 147 150 152 155 156 159 161 164 164 164 163 163 165 165 165 166 166 164 166 168 168 169 168 167 167 167 167 167 168 169 168 166 165 166 167 167 168 170 169 169 169 169 169 167 166 164 164 165 167 167 166 165 164 166 166 167 166 165 166 168 167 166 165 165 165 165 166 164 162 163 165 165 163 162 162 163 163 167 168 168 168 166 165 164 163 163 162 161 161 162 161 161 158 158 158 157 157 156 155 158 159 161 161 161 162 162 161 161 162 161 160 161 163 164 165 165 169 170 170 167 167 169 171 173 173 175 178 179 178 176 176 175 175 174 172 172 172 172 173 173 172 172 171 169 167 164 164 163 164 163 161 161 162 163 164 164 164 165 166 165 165 164 166 164 163 162 163 164 165 166 168 169 168 169 169 170 169 166 165 164 162 161 158 156 157 160 160 159 159 158 156 156 155 154 154 153 152 150 149 150 153 155 155 153 153 153 153 152 153 154 155 156 154 155 156 155 154 151 152 151 153 155 156 157 157 156 156 158 156 156 157 156 153 153 154 155 153 127 32 0 0 0 0 0 0 10 104 49 0 0 0 0 0 0 0 0 0 0 44 95 119 126 129 131 131 132 134 135 134 133 131 131 132 132 135 138 141 142 145 147 146 145 147 149 150 150 151 153 155 154 152 147 111 16 0 0 0 0 0 0 0 0 0 0 0 0 0 0 0 0 0 0 0 0 0 0 0 0 0 0 0 0 0 0 0 0 0 0 0 0 0 0 0 0 0 1 4 3 2 1 0 0 4 5 5 7 7 8 9 10 9 7 8 10 10 9 10 13 17 19 20 19 21 22 24 26 27 27 26 26 28 28 27 25 24 22 22 22 23 26 28 30 32 32 32 31 33 35 36 38 36 34 34 35 33 31 28 26 25 25 25 25 27 29 30 32 33 31 30 31 32 34 35 35 36 36 37 35 33 33 33 33 34 32 31 31 34 35 34 33 31 32 32 31 31 31 29 26 26 26 25 24 24 23 22 20 18 18 20 20 19 20 20 19 
19 21 19 19 19 20 18 18 17 17 18 17 17 15 16 17 19 19 18 18 17 17 18 19 19 18 20 22 23 23 23 23 21 21 22 19 18 18 18 18 19 20 21 22 23 26 29 28 28 26 26 23 22 21 22 22 22 24 26 26 25 25 24 23 22 20 22 21 23 25 24 25 26 27 26 26 27 27 26 24 24 23 22 20 18 15 16 15 15 18 20 22 22 21 19 19 21 23 25 25 25 25 25 25 23 21 18 19 21 22 22 23 24 26 24 24 23 23 23 23 24 23 23 25 26 27 28 26 27 27 29 28 26 24 23 24 23 25 26 27 28 29 27 25 27 27 25 24 25 22 19 17 16 16 15 15 17 15 13 11 11 10 9 8 6 4 2 1 0 0 0 0 0 0 0 1 1 2 0 0 0 1 2 3 62 135 144 148 151 153 155 157 162 163 164 164 163 162 164 163 164 166 165 165 166 167 167 167 167 167 167 167 167 167 166 166 165 167 166 167 168 168 168 168 168 169 167 168 168 167 165 163 163 165 164 165 165 163 164 164 165 166 165 166 166 168 168 166 165 164 164 164 166 165 163 162 162 162 164 163 162 162 162 163 166 165 165 165 163 163 162 163 160 159 159 159 159 159 158 159 157 156 156 156 155 158 158 160 160 161 163 164 163 164 164 162 162 162 164 166 166 167 167 169 169 168 169 172 174 175 175 175 176 177 176 175 174 173 173 171 172 172 172 171 172 174 173 170 169 168 167 165 163 163 162 161 161 163 163 163 163 163 165 164 166 166 165 165 164 164 164 163 162 163 164 167 170 171 169 169 171 170 167 167 166 164 161 160 158 155 156 158 160 159 159 160 159 158 156 157 158 155 154 150 147 148 150 151 152 150 150 150 152 152 153 154 155 154 154 154 155 155 154 153 152 153 156 156 157 158 158 157 157 158 159 158 157 155 152 153 153 152 149 111 19 0 0 0 0 0 0 50 96 1 0 0 0 0 0 0 0 8 50 95 117 126 130 132 133 133 133 134 134 135 133 130 131 131 132 133 136 140 143 144 146 149 148 147 148 148 147 148 149 151 153 152 143 94 10 0 0 0 0 0 0 0 0 0 0 0 0 0 0 1 0 0 0 0 0 0 0 0 0 0 0 0 0 0 0 0 0 0 0 0 0 0 0 0 0 0 0 1 4 3 2 2 0 2 5 5 5 6 7 7 7 8 6 5 5 8 9 11 13 15 16 18 20 20 22 23 25 27 26 26 28 27 28 28 26 25 25 22 21 21 24 25 26 27 28 30 30 30 32 35 36 36 35 35 34 34 33 31 28 27 26 24 26 26 29 30 32 31 32 33 32 32 34 35 34 35 35 37 37 36 31 31 31 31 32 30 29 30 31 32 32 30 31 33 31 32 31 31 30 29 28 28 27 25 25 25 22 19 18 19 19 20 18 19 20 20 
21 23 22 21 22 19 19 18 20 18 18 17 17 15 14 16 18 19 17 17 17 17 18 18 17 18 19 21 21 22 23 21 21 21 22 18 16 18 19 18 20 22 24 23 24 26 29 28 26 24 23 21 21 21 19 19 21 22 23 25 24 23 22 23 22 21 20 22 23 24 21 19 19 22 23 24 24 26 25 23 23 23 23 21 19 17 16 17 17 20 20 21 21 20 20 21 22 23 25 26 26 26 25 24 23 21 17 18 19 19 20 21 21 24 23 25 25 24 24 26 24 23 24 27 27 28 29 27 27 28 29 28 26 25 25 25 24 25 27 29 30 29 26 26 26 26 24 24 24 21 18 19 18 16 16 15 15 12 11 10 11 10 9 8 6 5 2 0 0 0 0 0 0 0 1 1 2 2 1 0 0 2 2 2 26 121 140 146 151 153 155 157 159 161 164 165 164 162 164 164 164 165 164 166 166 166 167 167 167 167 165 164 164 164 165 165 165 164 166 165 167 167 168 168 169 169 168 167 167 165 163 163 164 164 164 164 164 163 163 163 165 165 164 163 164 166 166 166 162 163 163 163 165 163 160 160 159 161 162 162 160 159 159 161 164 162 162 163 162 163 162 159 159 160 158 157 157 157 157 156 154 153 154 155 156 157 159 159 160 161 163 164 165 165 165 165 163 163 165 166 166 167 168 170 171 171 171 173 174 174 175 175 176 176 175 174 173 173 172 172 173 171 172 172 173 174 172 170 169 169 167 165 164 162 162 162 162 163 162 162 163 164 164 167 167 167 165 165 165 165 165 163 164 163 164 168 171 172 172 171 172 169 165 165 165 165 162 160 157 156 158 160 161 162 160 160 160 159 158 158 159 155 153 150 147 148 150 151 150 148 148 149 151 152 153 154 154 153 153 153 153 155 153 153 155 157 159 158 158 157 157 157 157 156 157 157 154 151 151 152 152 151 145 79 3 0 0 0 0 0 0 68 52 0 0 0 0 0 0 5 52 98 120 126 128 130 134 134 134 135 134 135 134 134 133 130 131 133 136 137 139 142 143 145 147 147 148 146 145 146 148 147 148 149 148 135 70 0 0 0 0 0 0 0 0 0 0 0 0 0 0 0 0 0 0 0 0 0 0 0 0 1 0 0 0 0 0 0 0 0 0 0 0 0 0 0 0 0 0 0 0 1 1 1 2 1 1 2 4 6 5 6 6 5 6 6 5 5 4 7 11 12 13 16 17 20 20 22 22 25 26 27 27 28 28 27 28 28 26 25 25 24 22 22 23 23 26 27 29 30 30 30 31 33 33 34 35 36 36 35 34 32 30 26 26 25 27 29 32 31 32 34 34 36 34 33 34 35 35 34 34 36 37 35 30 29 30 30 31 32 30 30 31 31 31 31 31 30 30 31 30 29 29 29 30 30 28 26 26 25 24 22 21 19 18 17 17 18 19 21 
24 25 26 24 22 21 19 19 21 19 19 19 17 16 14 16 17 18 19 19 19 21 19 17 17 18 19 21 23 22 22 22 21 20 20 18 18 19 20 21 22 24 25 25 23 24 26 25 23 22 22 20 20 19 17 18 20 21 22 23 22 23 22 23 21 20 17 20 21 19 19 18 17 18 20 22 23 25 24 21 23 23 22 22 20 20 18 17 18 19 20 21 20 19 21 21 23 23 26 26 25 27 25 22 21 20 18 19 20 19 19 19 19 21 22 24 26 26 27 28 25 26 26 28 28 29 28 29 29 29 31 30 28 28 25 25 23 24 26 29 30 28 26 25 25 25 24 24 22 20 20 18 16 13 13 13 13 11 11 10 9 8 9 6 6 3 1 0 0 0 0 0 0 0 0 1 2 2 1 1 1 2 2 0 5 94 134 141 147 152 152 156 158 161 163 166 166 165 166 166 166 165 164 164 165 165 165 167 166 166 164 163 162 163 164 164 164 163 165 163 164 165 168 169 170 169 169 167 166 163 161 161 162 163 163 164 162 163 161 164 164 163 161 161 162 163 164 164 162 162 162 163 163 161 159 159 159 160 160 160 160 158 158 160 160 160 162 161 162 160 159 159 159 159 159 158 157 156 154 152 153 152 153 155 156 158 160 159 162 163 164 164 165 165 165 166 166 166 166 166 167 166 168 170 171 173 173 172 172 172 173 173 175 175 174 173 172 172 172 171 172 171 173 174 173 174 173 170 169 169 167 166 164 163 162 162 161 162 163 162 164 166 167 169 169 167 167 166 166 165 167 167 166 166 167 170 175 175 174 173 170 168 165 165 165 163 162 160 158 156 158 160 161 161 161 161 162 159 157 157 157 155 152 152 149 148 150 151 149 148 148 148 149 151 153 153 153 153 153 151 152 152 152 154 157 158 158 158 159 158 158 156 154 154 155 154 151 150 150 153 151 152 136 44 0 0 0 0 0 0 4 50 2 0 0 0 0 0 43 92 120 126 129 131 134 135 136 139 138 137 136 136 135 133 133 133 133 138 141 140 141 144 144 146 146 146 144 144 146 147 148 148 147 144 125 49 0 0 0 0 0 0 0 0 0 0 0 0 0 0 0 0 0 0 0 0 0 0 0 0 2 2 0 0 0 0 0 0 0 0 0 0 0 0 0 0 0 0 0 1 0 0 0 1 2 1 1 2 4 5 5 5 6 5 5 4 5 6 6 9 11 13 14 16 19 20 21 21 24 26 29 28 28 28 29 28 28 29 27 26 25 25 22 23 24 23 25 27 31 32 30 30 31 32 34 35 37 38 37 36 34 34 31 28 28 27 27 29 31 32 34 35 36 37 36 36 35 35 32 32 32 33 34 32 32 30 30 29 31 31 30 28 30 31 30 30 29 29 29 28 29 29 28 28 28 29 28 27 27 26 25 23 23 21 19 17 17 18 20 23 
25 26 27 25 26 24 22 21 20 20 19 18 17 17 17 17 19 19 19 20 19 20 19 17 18 19 21 20 22 22 23 22 20 19 19 18 17 18 19 21 22 25 26 25 24 22 22 21 21 21 19 19 19 18 15 18 18 18 20 20 22 23 23 24 23 22 19 18 18 19 18 17 17 17 17 20 24 24 23 21 22 24 24 23 21 19 17 15 16 18 21 22 21 21 21 23 25 24 25 23 24 26 26 23 21 20 19 20 20 20 19 19 19 20 22 25 25 26 25 25 26 24 25 28 29 30 29 31 30 29 31 31 30 28 27 24 23 23 27 29 30 27 26 26 25 24 26 25 24 20 17 16 14 11 10 12 13 12 9 8 7 8 9 7 6 4 2 0 0 0 0 0 0 0 0 1 3 3 3 3 1 3 2 0 0 41 120 137 143 149 152 155 157 161 163 164 165 166 166 165 166 163 164 163 164 165 165 165 164 163 162 161 161 163 164 164 164 162 162 162 163 164 166 168 168 167 167 168 165 162 161 160 159 161 162 162 161 163 162 163 163 161 157 157 159 160 162 162 162 164 164 163 162 160 160 160 159 159 159 160 160 158 159 159 160 160 161 162 162 160 159 160 161 161 161 160 158 156 154 154 154 154 153 153 155 156 159 160 163 164 165 166 167 165 165 165 167 167 167 166 167 167 167 169 171 172 172 173 173 174 172 171 174 174 174 172 173 172 171 171 170 171 172 173 173 173 171 170 170 170 167 166 164 162 161 161 160 160 161 163 164 167 168 168 170 169 168 167 167 168 168 168 169 170 171 175 177 176 175 174 170 168 167 166 165 165 164 162 158 157 159 162 162 161 159 159 159 158 157 156 155 154 152 151 150 148 150 150 149 149 149 149 149 151 152 152 152 151 153 152 152 152 153 156 156 157 156 157 156 158 157 153 153 151 153 153 152 151 151 153 153 150 119 28 0 0 0 0 0 0 1 8 0 0 0 0 5 62 111 126 129 131 132 134 137 137 138 140 140 140 139 138 137 135 135 137 137 138 141 141 141 142 142 144 145 144 144 145 146 146 146 144 143 110 25 0 0 0 0 0 0 0 0 0 0 0 0 0 1 1 1 0 0 0 0 0 0 0 0 0 2 1 0 0 0 0 0 0 0 0 0 0 0 0 0 0 0 0 1 1 2 0 0 0 0 1 2 2 3 2 3 5 6 5 5 4 3 5 7 10 13 13 14 16 17 19 21 20 24 25 27 27 27 28 29 27 27 28 28 28 27 24 25 25 23 24 26 29 31 31 31 30 30 31 33 37 38 37 37 36 35 33 33 30 29 29 28 29 30 31 34 34 36 36 38 37 36 34 32 31 31 32 34 32 33 31 29 29 31 31 30 28 27 27 27 27 27 28 28 26 27 28 26 27 27 28 28 28 27 27 26 26 23 20 18 17 19 20 22 24 
23 24 26 27 28 25 23 20 20 19 19 19 17 18 19 19 20 20 20 19 19 20 19 19 19 19 20 21 22 24 23 21 20 20 17 17 16 17 19 21 23 24 23 22 24 21 21 20 20 19 18 18 18 17 17 19 17 18 19 20 21 21 23 22 21 20 20 18 19 19 17 18 19 19 18 20 22 23 24 23 23 24 24 24 22 19 15 13 14 17 19 21 21 21 21 22 22 23 24 23 25 26 26 24 22 20 20 21 21 22 20 21 22 23 24 25 24 25 25 24 23 24 26 28 30 30 31 31 31 30 30 31 28 27 27 25 23 25 28 29 30 28 25 24 23 23 26 25 22 19 17 14 12 10 10 11 13 11 8 9 8 8 9 8 7 5 4 2 0 0 0 0 0 0 0 2 3 4 5 3 2 2 3 2 0 3 89 130 139 145 151 156 157 160 160 162 163 164 164 163 164 163 162 162 163 165 164 162 161 162 161 161 160 162 163 165 163 162 162 161 161 162 164 163 164 165 165 165 163 161 160 159 159 159 160 161 162 162 162 161 161 159 157 156 157 159 160 161 163 162 163 162 162 161 160 160 159 160 158 161 162 159 159 159 159 160 161 161 161 161 161 161 162 162 163 161 159 159 157 155 155 156 153 154 155 157 158 159 161 162 164 164 163 162 164 165 167 166 166 166 167 168 168 169 170 172 172 172 173 173 171 170 173 172 172 173 172 171 171 171 172 171 173 173 174 171 171 170 169 168 167 165 163 161 161 161 158 158 161 162 164 165 167 169 170 169 168 167 168 168 167 170 172 173 174 177 178 177 175 174 171 169 168 167 166 167 167 164 160 160 160 162 162 159 158 158 158 159 157 155 155 153 152 150 149 147 147 148 147 149 150 150 150 151 151 151 151 150 151 151 153 154 155 156 156 156 155 155 157 156 154 152 150 150 151 153 152 153 154 153 153 146 88 12 0 0 0 0 0 0 0 0 0 0 0 32 79 118 127 129 131 132 132 134 138 139 138 140 141 141 141 139 139 139 139 141 140 137 140 140 140 140 141 142 143 143 143 145 146 147 145 136 93 10 0 0 0 0 0 0 0 0 0 0 0 0 0 0 0 1 0 0 0 0 0 0 0 0 0 0 2 0 0 0 0 0 0 0 0 0 0 0 0 0 0 0 0 2 3 3 2 1 0 0 1 2 1 1 2 3 2 4 4 5 4 4 5 7 7 11 12 12 14 15 18 20 20 21 21 23 26 27 27 28 26 26 26 27 28 28 26 25 26 26 26 27 28 29 30 30 30 31 30 33 34 35 36 35 34 35 34 33 33 32 30 30 29 30 29 31 31 33 35 35 36 37 37 36 33 32 32 32 31 33 33 30 29 31 30 29 28 25 24 26 27 25 26 28 28 26 26 27 27 26 25 25 25 26 26 27 26 24 23 20 18 18 20 21 22 22 
22 26 28 27 27 23 20 19 18 18 17 18 16 16 17 18 18 19 19 20 20 21 21 20 20 19 21 23 23 24 24 22 20 17 16 18 16 17 18 20 21 24 23 22 23 21 22 21 21 19 17 16 17 17 16 18 18 18 20 20 20 19 19 19 19 20 21 20 19 19 19 19 21 21 21 22 24 25 26 25 23 23 24 22 22 21 17 15 14 15 18 20 20 19 19 21 22 23 24 25 27 26 26 25 23 21 21 22 23 21 22 23 24 24 24 25 23 24 25 24 23 24 25 27 29 29 31 33 31 29 30 30 29 27 26 24 24 25 27 29 30 29 26 24 22 24 23 22 19 17 15 13 12 9 9 8 8 7 6 6 6 6 6 7 8 7 6 4 3 0 0 0 0 0 1 3 4 6 5 3 2 2 2 1 0 0 38 118 137 145 151 155 157 158 159 159 161 161 160 162 162 162 161 161 160 162 162 161 162 161 162 162 163 164 164 164 163 161 161 160 160 161 161 160 163 162 163 163 162 161 160 159 159 160 160 161 161 162 161 160 159 158 157 157 157 159 160 160 160 158 159 161 161 161 160 159 160 160 160 161 160 159 157 158 160 162 163 162 162 163 162 162 163 164 163 162 162 162 160 157 156 156 155 155 154 155 157 159 159 159 160 162 162 161 163 165 166 165 165 165 166 167 169 169 170 171 172 172 172 171 170 170 172 172 171 171 171 170 170 170 170 171 171 170 172 171 169 170 168 166 165 164 162 161 159 159 157 157 160 163 164 165 167 168 168 169 168 167 170 170 170 171 173 174 176 177 178 177 176 175 172 169 167 168 167 169 169 167 163 162 162 161 161 158 160 160 159 158 157 156 153 152 152 150 149 148 147 148 148 148 150 150 150 150 151 150 150 148 151 152 152 154 153 154 153 154 156 156 155 154 153 150 149 150 151 153 152 153 153 152 151 138 58 0 0 0 0 0 0 0 0 0 0 0 34 94 125 128 130 133 133 132 132 134 138 138 139 140 139 140 143 144 143 142 142 142 141 139 139 139 139 138 139 142 144 144 144 145 147 146 131 67 0 0 0 0 0 0 0 0 0 0 0 0 0 0 0 0 0 0 0 0 0 0 0 0 0 0 0 0 0 0 0 0 0 0 0 0 0 0 0 0 0 0 0 0 1 4 4 4 3 2 2 2 2 2 1 2 2 3 3 2 4 3 4 4 4 4 7 9 11 11 12 17 19 20 21 21 22 23 25 24 25 27 25 25 25 25 24 25 26 25 26 26 27 27 29 30 29 27 30 30 31 32 32 33 34 35 33 34 35 35 34 32 32 30 29 28 27 29 29 31 34 34 34 35 36 38 35 34 35 34 32 33 32 29 29 29 28 28 25 26 25 25 25 26 27 27 28 26 27 26 26 25 24 22 23 24 26 27 25 23 21 19 18 19 22 22 22 21 
23 26 27 28 26 22 18 16 17 17 17 18 17 16 16 16 17 18 19 20 21 21 22 22 21 20 22 23 24 24 23 21 20 16 16 16 15 15 16 16 19 22 22 20 20 21 20 19 17 16 15 15 15 16 14 14 16 17 18 17 17 17 16 15 17 19 19 19 19 18 20 22 24 23 22 23 25 26 25 24 23 22 22 22 21 21 19 16 14 14 16 18 18 17 18 18 21 23 23 24 24 25 25 23 21 20 21 21 22 23 23 23 23 24 24 24 24 26 27 26 26 25 26 27 27 30 32 32 31 30 30 28 29 27 25 24 24 25 27 27 28 28 27 25 23 22 21 22 20 18 17 14 10 8 8 5 5 4 4 6 5 7 7 7 6 6 5 2 0 0 0 0 0 0 0 2 5 5 4 2 1 2 2 3 2 3 8 88 133 143 149 152 153 154 155 158 159 159 159 161 161 160 160 159 160 161 162 162 161 162 162 163 165 164 164 164 162 160 160 160 161 161 160 160 161 161 163 161 161 160 159 158 159 159 160 159 160 159 159 160 159 157 154 155 157 159 158 157 158 156 157 158 159 160 159 159 159 158 159 160 159 158 156 157 158 162 164 163 164 164 162 162 164 164 163 163 162 161 160 158 157 157 155 155 153 154 156 158 157 156 157 159 161 161 161 165 166 164 164 164 165 167 168 168 168 169 170 171 172 172 172 170 170 170 168 168 169 169 169 169 170 170 168 169 169 168 169 170 167 165 163 163 161 158 158 157 157 158 161 164 165 165 166 165 166 166 167 169 170 171 170 171 172 174 177 178 178 177 177 175 171 169 167 168 167 168 169 168 168 165 163 162 162 158 158 158 157 154 154 153 152 152 150 150 151 150 149 148 149 148 150 148 147 150 150 149 149 148 151 152 150 151 150 149 151 153 155 156 155 154 152 151 150 152 153 152 153 153 151 151 150 126 24 0 0 0 0 0 0 0 0 0 5 56 103 126 131 132 133 135 133 133 134 135 137 138 139 139 140 141 145 146 145 144 143 144 143 139 140 140 140 138 139 142 145 146 145 145 143 120 42 0 0 0 0 0 0 0 0 0 0 0 0 0 0 0 0 0 0 0 0 0 0 0 0 0 0 0 0 0 0 0 0 0 0 0 0 0 0 0 0 0 0 0 0 0 3 4 5 3 6 6 5 4 3 2 3 4 3 4 5 3 5 3 4 3 3 4 7 9 11 14 16 17 19 21 22 24 24 23 23 25 26 26 23 22 24 25 26 25 26 27 26 27 27 28 29 30 29 28 28 29 30 32 31 32 33 34 34 36 35 34 34 33 32 31 31 29 29 29 29 31 31 32 33 33 36 37 36 34 35 34 32 31 30 28 28 27 26 27 27 26 26 26 25 25 26 28 28 26 25 27 27 25 25 23 21 23 25 25 24 23 22 20 20 20 22 22 22 22 
23 26 26 26 25 21 19 18 18 19 18 16 16 15 16 17 19 19 18 18 20 20 21 23 23 21 23 25 25 23 22 19 19 17 15 16 14 14 14 14 15 18 19 19 17 16 17 16 15 16 15 15 14 15 15 13 14 16 16 16 15 15 14 13 14 16 17 16 19 19 21 23 27 25 26 25 26 25 22 21 20 22 22 22 19 19 17 14 13 14 16 16 16 16 16 18 19 20 21 20 21 21 22 21 21 19 19 21 21 23 23 21 22 24 25 23 25 26 26 26 26 27 26 27 28 30 31 33 30 29 28 26 28 27 25 23 24 25 26 26 26 27 24 23 23 21 22 22 20 17 15 13 9 9 6 5 5 5 6 6 6 7 7 7 7 5 4 2 0 0 0 0 0 0 0 2 4 4 3 1 2 2 2 0 0 2 3 41 116 138 145 148 150 151 154 154 155 156 156 159 158 159 161 160 160 159 162 161 159 159 159 160 162 164 163 162 160 159 161 161 161 160 160 159 161 162 162 161 160 158 158 158 159 160 158 158 158 159 159 159 158 156 153 155 155 156 155 156 157 157 157 159 158 158 158 157 156 158 159 159 159 157 157 157 159 162 163 162 162 164 163 161 163 165 164 163 163 163 159 158 158 157 157 154 153 154 154 155 156 156 158 159 159 161 160 163 166 166 165 165 166 168 167 167 168 169 169 170 172 173 172 169 170 169 167 166 169 170 169 168 167 167 167 169 169 169 170 169 165 163 163 161 159 159 157 156 158 159 162 163 164 164 164 164 165 166 167 168 168 170 171 170 172 176 178 178 179 177 177 176 173 170 168 169 171 171 171 170 168 166 164 163 161 159 157 156 155 155 154 153 151 151 151 152 153 152 150 150 147 148 149 150 150 149 150 148 147 148 150 150 150 149 148 149 149 152 153 155 153 154 152 153 152 152 151 152 153 152 152 151 145 85 0 0 0 0 0 0 0 0 0 6 55 104 126 131 133 134 134 135 133 131 134 135 137 137 139 141 143 145 147 148 147 145 144 143 143 141 138 139 139 140 143 144 145 145 144 132 89 16 0 0 0 0 0 0 0 0 0 0 0 0 0 0 0 0 0 0 0 0 0 0 0 0 0 0 0 0 0 0 0 0 0 0 0 0 0 0 0 0 0 0 0 0 0 1 3 6 5 4 7 8 6 5 3 1 3 4 3 5 5 2 5 5 4 3 2 4 5 8 10 14 18 19 21 23 22 23 22 22 23 23 25 24 23 23 25 25 26 25 26 28 27 26 25 26 27 28 27 27 29 29 30 31 31 32 33 34 34 33 34 31 31 31 32 34 33 30 28 30 30 30 31 31 32 32 34 36 34 34 32 32 32 28 27 25 25 25 26 27 28 25 25 25 25 25 25 27 26 26 26 28 26 26 26 25 22 23 24 23 23 22 21 22 21 21 20 21 23 24 
22 22 25 25 24 22 20 20 21 19 18 18 18 17 17 19 19 17 16 18 19 20 21 21 23 22 23 23 24 23 22 21 20 17 15 14 12 13 12 14 15 19 19 17 14 12 13 14 14 13 12 13 12 14 15 15 13 15 16 16 16 14 13 13 14 15 16 17 20 21 22 23 25 26 27 25 25 25 23 22 20 21 20 20 19 19 17 14 12 13 14 15 15 15 17 18 18 18 18 17 19 19 20 21 21 19 20 20 22 25 24 22 21 22 23 23 24 24 26 26 27 26 26 29 29 29 30 31 29 28 26 26 26 28 25 24 25 24 24 26 24 22 23 24 23 23 23 24 21 18 15 13 12 11 8 6 4 6 6 7 6 5 4 4 5 5 3 1 0 0 0 0 0 0 0 1 1 0 0 1 1 1 0 0 0 2 2 7 79 127 139 144 146 147 149 152 152 155 155 157 158 158 159 158 158 158 161 160 158 156 155 157 159 161 161 161 160 160 160 161 161 160 159 159 159 160 161 161 160 160 159 158 158 160 158 157 158 157 157 156 155 153 153 153 154 154 154 156 156 157 159 159 158 157 156 156 156 157 159 159 158 157 157 158 160 162 162 163 163 164 162 162 162 164 162 162 162 161 160 157 157 156 155 154 154 155 155 155 156 156 156 158 160 160 162 163 167 168 167 166 166 165 167 168 167 167 165 167 170 172 169 168 169 169 169 168 170 169 167 165 165 165 167 170 171 169 168 166 165 164 164 163 161 159 157 157 157 160 161 163 164 166 165 166 166 166 167 167 167 168 169 170 171 175 177 178 178 177 176 177 174 170 169 169 171 172 170 168 168 165 163 162 161 157 155 154 155 155 152 152 150 151 151 151 151 153 150 149 148 149 150 151 150 150 149 148 146 148 150 150 150 149 149 149 150 151 152 153 153 154 155 156 154 152 153 153 153 154 153 153 138 37 0 0 0 0 0 0 0 0 0 48 102 129 133 132 133 134 133 131 131 132 134 135 136 139 140 143 145 148 149 151 149 147 145 144 142 140 139 137 140 143 144 144 143 135 109 40 0 0 0 0 0 0 0 0 0 0 0 0 0 0 0 0 0 0 0 0 0 0 0 0 0 0 0 0 0 0 0 0 0 0 0 0 0 0 0 0 0 0 0 0 0 1 1 1 3 5 3 4 4 6 7 6 4 2 3 4 4 4 5 7 6 8 7 4 2 5 7 10 10 14 16 18 20 21 23 22 22 22 20 21 24 24 22 23 23 25 25 25 24 25 26 26 24 25 27 30 31 30 30 31 30 29 30 30 30 30 32 32 31 29 28 31 33 34 33 31 30 30 30 30 30 32 29 29 33 33 30 30 30 30 30 27 26 25 25 24 23 25 25 24 24 25 24 24 24 25 26 26 27 28 28 28 27 25 24 22 23 21 22 20 20 20 20 19 19 20 23 22 
21 21 21 20 20 21 19 19 18 18 19 20 19 19 18 20 18 17 17 19 18 19 18 19 20 21 21 21 22 23 22 21 20 17 16 14 13 13 13 15 16 16 17 14 12 12 12 11 10 9 10 12 13 14 16 14 15 15 15 15 16 16 13 13 13 14 16 19 20 22 24 25 25 25 24 24 24 23 24 22 20 20 22 22 21 19 17 14 13 13 14 14 14 13 16 17 18 16 17 17 18 19 21 20 20 19 19 19 22 23 23 22 22 24 24 23 23 25 25 26 24 25 25 27 27 28 29 28 27 26 27 26 27 28 27 24 24 25 24 23 22 21 21 25 25 24 24 23 21 20 16 14 14 11 8 7 6 6 7 6 6 3 2 2 3 3 1 0 0 0 0 0 0 0 0 0 1 0 0 0 0 0 0 0 0 0 1 3 28 99 132 139 142 144 146 149 151 151 153 154 156 157 157 158 158 157 158 157 156 155 156 156 157 158 158 160 159 159 159 161 161 160 157 157 157 159 159 160 160 160 158 158 158 159 157 158 155 157 155 155 155 154 153 153 152 152 153 153 155 156 159 157 156 155 157 158 157 158 159 161 159 157 157 160 160 162 163 164 164 163 161 161 160 163 161 160 160 159 158 157 156 156 156 156 156 156 157 157 158 158 159 160 161 161 163 164 167 168 167 166 165 164 165 167 166 165 164 165 166 167 166 168 168 169 169 169 168 167 167 166 165 165 166 167 168 167 164 164 164 165 165 164 162 161 158 158 158 160 162 162 163 166 166 168 167 166 166 165 165 169 170 170 172 173 177 176 176 176 177 176 173 170 168 170 172 171 170 168 167 163 164 163 160 158 157 156 154 153 153 151 148 149 150 150 150 149 148 148 149 150 151 150 150 151 152 149 148 149 149 150 150 149 149 150 150 151 153 155 156 157 157 155 155 154 154 154 156 156 156 150 105 1 0 0 0 0 0 0 0 0 44 100 128 134 134 132 133 131 126 129 134 134 135 136 139 141 143 145 147 148 151 152 150 148 146 142 140 139 139 139 140 143 143 137 118 59 2 0 0 0 0 0 0 0 0 0 0 0 0 0 0 0 0 0 0 0 0 0 0 0 0 0 0 0 0 0 0 0 0 0 0 0 0 0 0 0 0 0 0 0 0 0 1 1 2 2 3 4 4 5 4 6 7 5 3 2 4 3 5 4 6 7 7 7 8 4 5 7 8 11 10 11 14 17 18 20 23 21 21 20 19 19 23 23 21 22 23 24 25 24 24 25 26 24 24 25 29 32 33 32 32 32 30 29 28 29 28 30 31 33 31 29 29 30 31 33 33 31 29 28 28 29 29 29 29 28 28 29 27 28 29 29 27 26 24 24 23 23 21 22 23 22 23 23 24 22 24 25 25 26 29 30 29 28 26 25 23 20 21 20 20 19 18 18 17 17 19 21 23 23 
21 20 20 19 18 17 17 17 18 20 21 22 20 20 19 19 18 19 19 19 19 19 19 21 21 20 20 21 22 22 21 19 20 18 18 16 16 13 15 15 13 15 16 15 13 12 10 10 10 8 10 11 13 16 16 16 15 14 14 16 16 15 12 10 12 13 16 19 19 21 23 24 23 23 24 24 24 24 22 20 20 21 22 21 21 19 17 15 13 14 13 13 11 11 12 15 15 16 14 15 18 19 21 20 17 19 18 19 20 20 18 20 22 24 26 24 24 25 24 23 23 23 24 26 26 26 28 28 27 27 27 26 27 28 25 24 22 21 20 19 21 21 22 25 24 24 22 21 22 20 17 15 13 12 8 7 6 6 6 5 3 2 1 2 1 2 1 1 0 0 0 0 0 0 0 0 0 0 0 0 0 0 0 0 1 1 0 2 3 49 113 133 139 140 141 144 147 149 151 153 156 155 156 157 156 155 156 157 156 157 155 155 156 157 159 162 161 161 161 161 160 160 157 156 157 158 158 159 159 159 157 157 158 157 157 156 156 157 156 156 156 155 154 151 149 148 150 153 154 156 157 156 154 156 157 158 157 158 160 162 158 157 158 159 159 160 163 163 163 163 162 160 162 163 162 161 159 158 158 156 157 158 156 157 157 158 158 158 160 160 159 160 162 164 164 162 164 166 167 165 164 163 164 165 164 163 163 164 164 166 166 168 169 167 167 166 166 167 166 165 165 165 164 164 164 164 164 163 164 164 163 163 163 162 160 159 159 161 162 162 163 165 166 166 168 167 166 165 165 167 169 170 172 174 175 175 173 173 174 174 171 168 169 169 171 171 170 167 165 163 164 163 161 158 158 157 155 155 153 153 151 149 150 149 147 148 148 148 151 150 150 151 152 152 153 151 150 151 152 152 150 149 149 149 149 152 155 156 157 159 159 157 156 155 154 155 154 155 153 138 46 0 0 0 0 0 0 0 11 36 89 124 135 135 133 131 129 131 134 135 138 138 137 141 144 145 145 147 149 149 150 150 149 146 142 141 141 139 140 140 140 138 125 82 13 0 0 0 0 0 0 0 0 0 0 0 0 0 0 0 0 0 0 0 0 0 0 0 0 0 0 0 0 0 0 0 0 0 0 0 0 0 0 0 0 0 0 0 0 0 0 2 4 4 3 3 4 4 5 5 5 5 5 6 5 4 5 4 5 5 6 8 9 8 6 6 6 7 9 10 10 11 14 17 19 21 22 22 23 20 18 18 21 22 21 22 23 23 23 25 26 26 25 25 25 27 28 32 33 31 30 31 28 28 29 29 30 30 33 33 31 30 29 28 29 29 31 30 30 29 29 29 30 29 27 26 26 26 26 27 29 29 28 24 23 23 21 21 20 21 21 20 21 21 22 24 25 26 27 28 28 28 27 27 26 24 21 20 20 20 18 17 19 18 19 20 23 24 23 23 
21 20 20 18 17 16 18 17 17 19 20 22 20 19 20 21 19 19 18 20 20 20 20 21 21 21 22 22 22 22 20 19 18 17 16 18 16 14 14 14 13 14 16 15 13 13 10 11 12 10 10 11 13 15 16 15 16 15 15 16 17 14 12 11 11 14 17 17 18 20 21 21 21 23 24 25 25 22 21 19 20 21 20 19 20 21 17 15 14 13 12 12 13 12 11 13 13 13 13 15 16 17 19 19 18 20 19 19 19 17 17 18 22 26 25 24 23 24 25 23 22 23 23 24 25 26 28 28 29 29 28 28 27 24 24 22 20 19 18 19 20 21 21 20 20 20 19 21 20 18 16 12 11 12 9 8 7 7 6 5 4 1 2 1 2 2 3 2 0 0 0 0 0 0 0 0 0 0 0 0 0 0 0 0 0 0 0 1 1 6 73 121 134 134 136 142 145 147 150 153 153 154 154 155 154 154 156 157 157 157 156 153 155 157 160 160 161 162 162 161 159 158 157 156 157 157 157 157 158 158 156 157 157 156 156 156 156 157 155 155 154 154 152 149 147 147 151 153 153 155 155 155 154 155 155 156 157 158 160 161 159 156 156 157 158 160 162 162 161 163 163 160 162 163 163 163 161 160 159 158 160 159 159 159 159 157 158 159 159 159 159 160 163 164 162 162 165 164 165 163 163 162 163 161 161 160 160 162 163 166 166 168 169 167 164 163 164 166 165 166 164 164 162 165 165 164 165 165 164 164 164 163 162 162 160 161 162 162 161 162 162 163 164 165 166 166 166 165 167 167 170 171 171 172 173 173 170 171 172 171 169 166 168 170 172 170 169 166 164 162 164 163 162 162 159 158 156 155 155 155 153 151 151 151 149 148 149 148 149 151 151 151 152 151 152 152 152 153 153 154 151 150 150 150 151 153 156 155 157 158 160 159 156 155 155 155 154 153 147 95 0 0 0 0 0 0 0 0 34 67 114 136 136 134 132 132 131 134 137 138 138 139 141 143 146 147 147 148 148 149 148 148 145 143 140 140 143 142 141 138 130 96 29 0 0 0 0 0 0 0 0 0 0 0 0 0 0 0 0 0 0 0 0 0 0 0 0 0 0 0 0 0 0 0 0 0 0 0 1 0 0 1 1 0 0 0 0 0 0 0 1 3 4 4 4 6 6 5 5 5 4 5 6 9 8 6 6 4 3 4 5 7 7 5 4 5 7 5 7 10 10 13 15 17 21 22 24 24 24 21 19 19 21 21 22 22 23 22 23 24 26 24 24 25 25 27 28 30 30 28 26 26 25 28 31 31 31 32 33 32 32 29 28 28 27 28 28 28 27 29 28 28 28 27 27 27 26 27 26 26 27 28 28 24 24 22 21 20 17 17 18 18 19 21 24 26 27 27 27 27 27 27 28 26 26 23 20 20 21 20 18 18 18 18 18 21 23 25 23 22 
21 21 20 18 18 18 19 20 18 19 21 22 22 21 20 18 17 18 20 21 20 20 21 22 21 21 22 23 22 23 22 20 20 18 18 18 17 17 14 15 16 16 16 15 13 12 11 12 12 10 11 11 14 15 13 11 13 14 15 15 16 15 13 12 13 14 16 16 17 19 21 21 23 24 25 25 26 24 20 19 17 17 17 18 17 18 17 15 13 11 10 10 11 10 12 12 12 12 14 15 15 18 18 18 19 20 19 17 18 18 17 17 21 24 23 22 22 22 24 23 24 23 23 23 25 27 30 30 30 29 28 29 25 25 24 22 19 19 19 19 18 19 19 17 18 17 17 18 18 15 12 11 11 12 11 9 7 6 5 6 4 2 2 1 3 3 3 3 2 0 0 0 0 0 0 0 0 0 0 0 0 0 0 0 0 0 0 0 0 0 20 91 126 131 133 138 142 145 147 150 152 152 154 154 153 153 156 158 157 157 155 154 155 155 157 159 160 160 159 160 157 156 156 156 156 156 156 156 156 155 155 157 156 154 154 155 155 154 154 154 154 152 150 148 146 148 151 154 153 154 154 155 154 155 156 158 157 157 161 161 157 156 156 157 158 160 161 161 162 163 163 161 163 164 164 164 161 160 160 161 161 162 162 161 159 159 159 159 159 160 158 161 162 162 162 162 163 164 164 162 162 161 163 161 160 161 160 162 163 164 166 168 166 163 161 160 162 162 162 163 163 165 163 166 168 168 166 165 164 163 165 164 163 161 163 161 162 161 160 161 162 165 165 165 165 164 163 165 166 167 169 171 171 172 172 171 169 170 170 169 168 167 167 170 172 171 168 165 163 163 162 163 161 163 161 159 158 157 157 157 156 153 152 152 150 149 149 150 149 150 152 152 151 152 152 152 153 154 155 154 154 152 151 152 152 152 156 157 157 157 158 158 156 157 155 154 153 151 126 24 0 0 0 0 0 0 0 15 54 100 133 140 140 137 136 136 136 137 138 138 139 140 143 145 146 147 147 146 145 145 145 143 142 142 141 141 140 139 129 104 47 0 0 0 0 0 0 0 0 0 0 0 0 0 0 0 0 0 0 0 0 0 0 0 0 0 0 0 0 0 0 0 0 0 0 0 0 0 1 3 1 1 1 0 0 0 0 0 0 0 0 3 5 5 6 7 6 5 5 4 3 4 9 11 10 9 8 7 5 4 4 5 5 4 5 5 4 4 5 6 9 12 15 18 20 24 24 24 23 23 21 19 20 18 20 22 23 24 22 25 26 25 24 25 26 26 28 28 28 29 28 27 26 29 32 31 31 32 33 32 31 30 29 27 26 26 26 27 26 27 27 27 26 28 27 27 27 27 26 26 27 29 28 26 25 23 21 18 16 17 16 17 19 22 26 27 27 28 28 28 28 26 24 24 24 21 20 19 20 20 19 18 20 19 20 22 25 26 23 22 
20 21 20 19 18 18 19 18 16 18 20 20 21 20 20 18 17 18 19 22 22 19 20 22 22 21 21 22 21 21 22 20 20 19 19 20 20 19 19 16 15 15 14 14 13 12 9 10 9 8 10 12 14 13 12 11 9 11 13 15 13 13 13 12 12 13 14 16 17 20 23 24 23 24 25 24 24 23 19 16 15 16 16 17 15 15 15 12 11 11 8 10 11 11 12 13 12 13 14 15 17 18 18 19 20 18 17 17 17 17 18 19 21 22 20 20 22 22 23 23 23 23 22 23 26 29 30 30 29 30 29 27 24 23 22 20 19 18 18 17 17 18 18 16 15 16 16 15 14 12 11 9 9 10 10 8 7 7 7 7 5 3 2 2 3 2 1 2 0 0 0 0 0 0 0 0 0 0 0 0 0 0 0 0 0 0 0 0 0 0 0 39 105 125 131 135 139 143 147 149 151 152 152 153 154 153 156 157 158 156 156 154 153 155 156 157 154 154 154 154 153 153 153 155 156 155 154 154 153 154 155 156 155 154 154 154 151 153 153 154 154 151 149 148 147 147 150 152 152 152 153 156 156 155 156 156 157 157 159 159 155 154 155 156 157 160 163 162 161 163 164 163 164 163 162 162 162 161 162 162 162 163 163 161 160 159 159 159 161 159 158 159 161 162 162 161 163 163 162 162 163 161 161 161 161 162 161 163 163 164 165 167 165 163 161 161 163 163 162 162 163 164 165 167 169 169 168 166 164 164 164 163 162 161 161 160 161 162 162 161 163 164 165 163 165 164 162 162 164 165 168 170 171 173 172 171 170 170 168 168 166 164 167 170 172 170 167 165 164 163 163 162 161 163 163 161 160 158 157 158 156 154 153 153 152 151 151 150 149 149 151 152 152 154 154 154 156 156 156 155 155 155 153 152 152 155 157 157 158 158 158 157 157 156 154 153 152 142 59 2 1 4 6 10 13 15 25 51 83 125 144 145 144 141 140 139 141 139 137 137 139 141 143 144 144 143 144 143 142 142 143 142 141 141 138 134 122 91 39 0 0 0 0 0 0 0 0 0 0 0 0 0 0 0 0 0 0 0 0 0 0 0 0 0 0 0 0 0 0 0 0 0 0 0 0 0 0 0 0 2 1 3 3 0 0 0 0 0 0 0 0 1 4 5 4 4 4 5 6 5 4 4 8 10 10 11 10 9 7 5 4 4 3 5 5 4 6 5 6 7 10 12 14 16 19 24 25 26 24 22 22 22 22 21 21 21 24 23 23 24 27 28 26 25 25 24 25 26 27 29 28 27 28 29 28 27 28 30 32 32 30 30 28 25 23 24 26 27 28 28 28 28 26 27 27 26 26 25 26 24 26 27 25 25 25 24 23 18 17 17 17 19 21 23 25 26 27 28 27 28 26 24 23 22 21 19 19 19 19 20 21 20 21 21 21 23 25 26 24 21 
20 18 19 19 16 15 16 17 16 17 18 20 20 21 18 17 16 18 20 21 21 20 23 24 22 22 23 22 21 22 22 20 19 22 22 22 22 21 19 17 14 13 12 13 10 9 9 9 9 10 12 12 13 13 11 8 8 9 12 11 10 10 10 10 12 13 14 16 17 21 23 24 23 22 22 23 21 22 18 14 13 14 15 14 16 14 14 12 10 9 8 10 9 10 11 12 12 13 16 16 17 18 18 19 19 19 17 18 18 18 17 19 18 19 19 19 20 19 21 21 22 22 22 22 24 28 28 28 29 28 27 26 24 21 19 19 18 19 18 17 18 17 17 15 15 16 15 15 14 13 10 8 9 8 9 6 5 5 6 6 4 2 2 3 1 2 0 0 0 0 0 0 0 0 0 0 0 0 0 0 0 0 0 0 0 0 0 0 0 0 0 3 64 113 123 131 135 142 146 148 150 150 150 152 154 153 155 155 155 155 153 154 152 154 153 152 150 150 149 148 149 151 152 153 154 153 152 154 154 155 155 154 154 153 153 152 152 153 153 153 151 150 149 149 148 147 149 150 152 151 153 157 156 154 154 154 155 155 158 157 156 156 157 156 158 160 161 160 159 161 163 163 163 162 161 163 164 162 161 162 162 162 164 162 159 158 159 160 161 160 160 160 162 163 163 162 163 164 164 164 165 165 163 163 163 162 160 161 163 163 164 166 164 163 162 162 163 164 163 163 163 165 167 169 170 169 167 165 164 164 163 161 161 160 160 159 161 162 162 162 162 162 163 163 165 164 163 162 165 167 170 169 171 172 172 171 169 169 169 168 167 166 168 170 172 170 168 167 166 165 164 163 163 160 161 161 161 160 159 157 157 155 155 154 152 150 149 150 149 149 151 153 153 153 154 156 157 156 156 158 157 156 154 152 151 156 159 158 159 158 158 158 157 157 153 152 147 110 31 25 24 26 29 33 38 41 52 82 112 140 147 147 146 144 142 142 143 141 138 136 137 139 141 139 141 140 139 138 138 141 141 140 138 133 115 75 23 0 0 0 0 0 0 0 0 0 0 0 0 0 0 0 0 0 0 0 0 0 0 0 0 0 0 0 0 0 0 0 0 0 0 0 0 0 0 0 0 0 0 1 3 3 3 2 1 0 0 0 0 0 0 0 2 3 3 3 5 6 7 5 6 4 7 8 11 12 10 9 7 5 4 5 5 6 7 8 9 9 8 9 10 13 14 16 19 22 25 25 24 23 23 23 22 22 21 22 24 23 24 26 26 28 26 25 24 24 24 25 27 29 27 27 28 27 28 27 27 27 29 28 27 26 26 23 22 23 25 25 26 28 27 27 27 26 26 26 26 23 24 24 26 26 25 25 26 23 20 17 18 19 18 20 21 21 23 26 26 28 26 26 26 23 22 22 21 20 21 20 20 22 23 22 21 20 22 24 26 25 24 21 
19 17 17 17 14 14 13 13 15 17 18 20 21 20 19 17 16 16 18 19 20 22 24 24 23 23 24 22 23 22 23 22 22 24 23 22 20 18 17 15 13 13 12 11 9 7 8 9 9 12 12 14 13 15 13 10 8 9 10 11 9 8 8 9 10 12 13 15 16 20 21 22 20 20 22 22 21 21 19 15 15 15 14 15 15 16 15 12 9 9 7 8 8 8 9 12 13 13 13 15 16 18 17 19 19 19 16 17 18 17 16 19 17 16 16 16 16 18 20 22 23 23 22 21 23 25 26 27 25 24 24 24 23 18 17 15 16 17 16 16 17 16 16 14 12 14 13 13 14 12 10 10 10 8 8 6 3 4 6 5 4 3 0 0 0 0 0 0 0 0 0 0 0 0 0 0 0 0 0 0 0 0 0 0 0 0 0 0 0 0 0 0 15 84 114 123 131 138 142 145 147 148 149 150 153 153 152 153 154 152 153 151 151 151 150 148 147 148 150 148 149 150 151 152 153 152 153 155 155 155 153 154 152 154 153 154 154 153 154 152 150 148 148 147 146 146 149 152 151 150 153 155 156 154 152 152 153 156 158 158 159 158 158 157 158 158 158 160 160 159 163 162 162 163 164 166 166 165 164 163 162 161 161 160 159 157 160 161 160 159 158 160 161 163 164 164 162 163 163 162 163 164 163 163 161 161 161 159 162 163 163 165 165 165 166 165 166 165 163 165 165 166 167 169 168 167 165 164 162 163 162 160 159 158 158 158 159 161 161 161 160 160 162 164 164 164 164 164 166 169 170 170 171 172 171 171 169 166 166 168 167 167 168 170 172 172 171 170 168 167 165 163 161 159 161 162 162 161 159 157 158 156 155 153 150 150 149 150 150 151 152 153 153 153 153 155 157 158 159 160 159 157 154 152 153 154 156 158 158 158 158 157 156 156 153 150 130 55 45 45 44 47 51 56 61 67 75 97 125 145 149 149 148 147 146 146 144 141 138 137 137 137 137 136 137 137 136 136 138 139 138 130 109 64 13 0 0 0 0 0 0 0 0 0 0 0 0 0 0 0 0 0 0 0 0 0 0 0 0 0 0 0 0 0 0 0 0 0 0 0 0 0 0 0 0 0 0 0 0 1 2 1 2 2 1 0 0 0 0 0 0 0 1 3 2 2 4 5 4 6 6 5 6 8 11 11 10 8 5 4 4 4 6 8 8 8 10 10 9 11 12 14 17 16 17 21 25 26 25 24 23 24 25 23 23 22 25 25 25 26 25 25 24 23 24 22 22 25 28 27 27 27 27 26 26 26 25 26 25 25 23 22 23 21 21 23 24 24 24 24 25 26 24 25 25 25 25 23 25 24 26 26 26 23 24 21 17 15 17 17 18 19 19 21 22 23 26 26 26 26 26 24 21 21 21 21 20 21 21 22 23 23 23 20 22 25 25 22 22 20 
19 17 16 17 14 12 11 10 14 16 19 18 18 17 17 18 18 16 16 17 18 21 24 24 24 22 23 23 23 24 22 23 23 24 22 22 20 17 16 14 13 12 12 11 10 7 9 8 10 11 12 12 12 14 13 14 13 12 11 10 9 8 9 9 8 8 11 12 12 15 17 18 17 18 19 20 20 21 19 18 17 16 17 17 16 15 14 12 10 7 8 7 6 5 7 11 12 12 12 13 15 17 17 18 21 20 19 18 18 15 16 18 17 16 15 15 15 16 18 21 23 21 21 21 22 25 24 25 22 19 17 18 17 16 16 15 16 16 15 15 15 15 14 13 12 11 12 13 13 13 11 10 8 7 6 5 4 3 4 4 3 2 1 0 0 0 0 0 0 0 0 0 0 0 0 0 0 0 0 0 0 0 0 0 0 0 0 0 1 0 0 0 0 33 98 117 125 133 137 141 145 147 148 150 151 150 150 151 152 151 150 150 149 148 147 146 147 149 150 149 149 149 149 151 153 151 154 156 155 154 153 154 154 153 154 155 156 153 153 151 149 147 145 145 144 145 147 149 150 150 152 154 155 151 151 152 154 156 157 159 160 159 156 156 155 156 157 158 159 160 161 161 162 162 165 168 169 168 166 165 162 161 161 160 158 159 161 161 160 161 160 161 161 162 162 160 159 161 159 159 161 163 161 162 161 161 160 160 161 163 163 164 164 164 166 166 164 164 165 165 164 164 165 165 164 164 164 162 162 163 162 161 159 158 159 160 159 160 160 161 160 159 162 164 166 168 167 166 167 169 169 170 172 170 168 167 166 164 163 164 165 166 168 171 172 172 172 170 168 168 167 164 161 162 162 161 161 161 159 159 157 157 155 153 152 150 151 151 153 153 153 153 154 153 154 156 159 160 160 161 160 159 155 153 155 155 156 155 157 157 157 158 157 156 155 148 94 64 64 63 64 67 69 73 76 81 93 113 132 147 150 149 148 147 146 145 142 141 139 138 134 133 133 133 133 136 136 134 131 121 94 47 6 0 0 0 0 0 0 0 0 0 0 0 0 0 0 0 0 0 0 0 0 0 0 0 0 0 0 0 0 0 0 0 0 0 0 0 0 0 0 0 0 0 0 0 0 0 0 1 2 1 2 2 1 1 0 0 0 0 0 0 0 1 1 0 2 3 5 6 5 6 7 8 9 11 10 8 5 5 4 5 7 8 9 9 10 11 14 13 15 17 16 18 17 19 23 25 26 26 26 26 27 25 24 24 25 27 25 25 24 22 22 20 21 23 23 24 26 26 25 26 25 26 24 25 23 23 22 22 22 21 21 20 21 21 23 23 23 20 21 21 21 21 24 23 22 23 24 27 27 25 23 21 22 20 16 14 16 16 16 18 21 22 21 22 24 25 26 26 25 22 22 24 24 22 23 21 21 22 23 23 22 21 22 23 25 21 21 21 
21 19 17 19 16 12 10 11 13 15 17 17 16 16 17 18 17 16 15 16 17 20 23 23 24 21 21 21 22 23 21 21 22 24 22 22 19 16 14 12 13 12 13 11 10 9 9 10 10 11 10 10 12 13 15 16 14 12 13 9 7 8 9 8 7 7 7 6 8 10 13 14 16 16 17 18 17 20 18 16 15 16 16 16 15 14 14 13 10 7 8 8 7 7 7 11 12 12 12 13 15 16 16 18 21 20 17 17 16 16 17 19 17 14 13 13 13 15 17 17 18 18 19 20 20 23 22 21 18 16 14 14 14 15 14 14 15 14 14 15 13 12 13 11 12 11 13 14 13 12 10 9 8 7 5 5 4 4 4 6 5 2 2 0 0 0 0 0 0 0 0 0 0 0 0 0 0 0 0 0 0 0 0 0 0 0 0 0 1 2 0 0 1 4 58 104 116 125 132 137 141 143 146 147 147 147 147 148 148 148 148 146 146 146 145 145 147 149 149 149 151 149 149 151 152 151 153 154 154 151 151 151 151 152 152 154 154 153 152 151 149 147 144 143 144 145 149 151 149 148 150 151 152 151 151 151 153 154 156 157 159 159 156 155 154 155 156 156 160 160 161 161 162 163 167 169 170 170 168 165 164 162 162 160 159 161 161 162 162 163 162 161 160 158 158 159 159 159 159 158 158 161 159 160 159 161 161 161 161 162 163 161 161 162 162 163 161 163 163 163 162 161 162 162 161 161 162 162 162 162 161 161 161 160 161 159 159 159 159 160 161 160 163 166 166 169 169 168 170 169 170 170 170 168 166 165 164 162 161 161 163 164 167 170 173 173 173 169 167 167 168 165 162 162 162 162 161 161 159 159 159 156 155 154 154 154 153 152 154 154 155 157 157 156 156 158 159 160 161 161 160 158 156 155 155 155 153 152 152 152 155 157 156 157 154 137 84 82 80 78 78 80 83 86 89 92 103 120 136 148 148 148 146 145 144 142 139 137 135 132 129 127 128 131 131 130 119 94 57 21 0 0 0 0 0 0 0 0 0 0 0 0 0 0 0 0 0 0 0 0 0 0 0 0 0 0 0 0 0 0 0 0 0 0 0 0 0 0 0 0 0 0 0 0 0 0 0 0 0 3 3 3 4 4 2 0 0 0 0 0 0 0 0 0 0 0 1 3 5 7 7 8 8 8 8 10 9 6 5 4 5 4 7 9 10 10 12 14 14 14 16 15 17 17 19 20 23 26 27 27 26 27 27 27 27 26 27 25 25 24 22 22 20 21 24 24 22 23 25 26 25 26 25 24 23 22 22 21 21 21 23 23 22 19 20 21 20 21 21 19 19 20 21 20 20 21 20 21 23 26 26 25 21 21 20 19 17 15 15 17 19 20 21 22 23 24 26 28 27 27 26 26 25 24 24 23 23 21 21 21 21 21 20 20 20 22 22 21 22 22 
23 21 19 17 16 14 12 13 13 13 14 14 14 15 17 16 14 15 15 14 18 21 22 22 21 21 21 20 21 19 17 16 18 20 20 19 17 15 14 12 13 14 14 12 12 11 11 11 10 8 6 8 10 13 15 13 14 12 12 10 9 9 10 8 6 6 4 4 6 9 12 14 14 14 14 13 15 17 17 16 14 14 15 15 15 14 14 13 10 8 8 10 10 10 10 11 13 13 13 15 15 16 16 18 19 18 18 18 18 17 17 16 14 13 12 11 12 14 14 15 16 16 16 19 19 19 17 16 16 13 12 13 13 13 13 13 12 13 14 14 13 13 11 10 9 9 11 13 12 11 10 9 8 8 7 4 6 4 5 6 6 3 2 1 0 0 0 0 0 0 0 0 0 0 0 0 0 0 0 0 0 0 0 0 0 0 0 0 1 2 1 0 1 3 11 70 104 114 125 133 138 140 140 142 143 144 145 146 146 147 146 144 144 143 143 144 146 146 146 145 147 148 147 148 151 151 152 153 151 149 148 147 147 147 149 152 153 152 153 153 150 147 146 146 147 149 151 151 149 148 148 150 151 150 150 151 152 152 154 156 157 158 154 153 153 155 155 157 158 160 161 163 164 165 168 169 171 171 167 166 164 162 164 164 163 164 164 163 164 162 163 160 160 157 158 158 158 159 156 157 158 158 160 161 161 161 161 160 161 161 160 161 159 159 161 160 160 161 160 160 159 159 160 161 160 159 159 160 162 163 162 161 160 160 160 160 158 158 160 161 161 161 164 166 167 169 172 171 171 170 169 170 167 166 163 162 161 158 159 161 163 164 166 168 171 171 172 168 168 169 168 165 162 161 161 160 160 160 160 160 160 158 156 158 156 157 156 156 157 159 159 159 160 160 159 158 159 160 159 160 161 158 157 156 155 154 151 149 149 151 152 154 155 155 152 114 93 95 95 94 95 96 97 98 101 104 108 120 133 143 143 143 143 143 139 137 133 130 128 125 124 124 122 114 87 53 19 0 0 0 0 0 0 0 0 0 0 0 0 0 0 0 0 0 0 0 0 0 0 0 0 0 0 0 0 0 0 0 0 0 0 0 0 0 0 0 0 0 0 0 0 0 0 0 0 0 0 0 0 2 3 5 5 5 3 2 0 0 0 0 0 0 0 0 1 0 1 2 5 8 9 9 9 7 8 9 7 5 5 5 5 6 7 9 10 12 15 16 15 17 16 16 17 19 20 22 25 28 29 28 28 28 28 28 26 26 26 26 24 23 23 22 22 22 25 25 23 23 23 24 25 25 23 20 21 20 20 21 23 23 23 22 20 19 19 20 21 20 21 20 20 20 20 20 20 19 19 18 20 22 21 21 19 19 20 19 17 15 13 18 20 20 22 25 27 27 28 29 29 27 29 29 26 26 26 23 22 21 19 20 18 17 17 18 19 22 22 23 22 23 
23 21 20 17 15 14 13 12 12 14 15 16 16 16 16 15 14 13 13 14 17 20 20 20 19 18 18 18 17 14 13 13 14 17 17 18 16 16 14 15 15 17 15 14 14 11 11 11 11 10 7 7 10 10 12 12 12 12 14 12 10 9 8 9 7 6 4 4 7 9 11 12 13 14 14 14 15 15 14 13 11 11 11 13 14 14 13 13 11 9 9 9 11 12 12 12 13 13 15 15 15 15 15 17 18 17 17 17 16 15 15 13 12 11 11 13 13 12 11 13 14 15 16 16 17 16 16 14 14 13 13 12 13 13 12 13 12 11 12 14 13 13 11 9 7 8 10 11 10 10 8 7 9 8 6 5 5 5 5 7 5 4 3 1 0 0 0 0 0 0 0 0 0 0 0 0 0 0 0 0 0 0 0 0 0 0 0 0 2 1 2 1 0 3 5 20 74 102 115 126 134 136 135 137 139 141 142 143 144 144 144 143 142 141 142 142 141 142 143 144 144 144 146 147 148 150 150 151 151 148 145 145 144 145 146 149 151 152 153 153 151 149 149 149 149 149 150 151 149 148 148 149 150 149 149 148 149 151 153 155 156 155 154 152 153 154 155 157 159 160 159 161 162 166 168 170 171 170 167 164 163 165 165 164 163 163 164 164 164 162 161 160 158 156 157 157 158 157 156 157 157 158 160 162 161 162 161 162 161 161 162 160 159 159 161 159 159 158 159 160 158 158 160 160 159 158 158 160 162 163 163 163 162 159 159 161 160 160 161 159 159 162 164 165 165 168 173 173 173 171 169 169 167 164 162 160 159 159 160 162 162 163 165 167 167 169 169 168 169 170 169 165 163 162 161 160 160 160 162 161 160 158 156 157 156 158 160 160 161 161 161 161 162 162 161 159 160 160 159 159 159 158 156 154 154 152 151 149 150 150 151 152 152 152 143 106 103 105 107 105 108 109 108 110 111 113 115 120 127 133 135 135 135 134 131 129 126 125 122 116 100 77 45 14 0 0 0 0 0 0 0 0 0 0 0 0 0 0 0 0 0 0 0 0 0 0 0 0 0 0 0 0 0 0 0 0 0 0 0 0 0 0 0 0 0 0 0 0 0 0 0 0 0 0 0 0 0 0 0 0 0 2 2 1 1 1 0 0 0 0 0 0 0 0 0 1 1 3 6 9 10 9 9 9 8 7 6 5 7 4 5 5 7 9 10 12 16 17 18 18 19 18 19 18 19 20 24 26 27 28 31 31 31 28 26 28 27 25 23 22 23 22 22 23 24 26 27 24 23 24 24 21 18 18 18 18 20 21 24 24 23 20 20 20 20 20 20 21 22 21 19 18 20 20 19 20 17 18 18 19 18 18 18 20 21 19 17 16 14 17 20 21 24 27 28 27 28 28 28 27 27 28 26 27 25 22 21 19 17 16 17 16 16 16 21 23 24 22 22 23 
23 21 19 16 14 13 14 11 12 14 17 15 16 15 14 13 12 12 12 13 17 19 19 17 18 18 16 15 14 12 13 13 13 15 18 17 15 15 15 15 16 17 17 16 16 14 11 11 12 11 10 10 12 13 12 11 11 11 12 12 10 9 7 7 8 6 6 7 8 10 10 11 12 13 15 17 15 13 12 10 10 9 11 11 13 13 11 11 11 12 10 12 13 13 14 13 14 15 16 18 17 15 15 16 16 15 14 12 14 13 12 12 12 11 10 11 11 10 11 12 13 12 14 15 15 14 15 15 13 12 12 11 12 12 11 12 13 14 13 16 14 14 11 9 9 9 10 10 8 6 5 4 5 7 7 5 4 6 7 6 5 3 0 0 0 0 0 0 0 0 0 0 0 0 1 0 0 0 0 0 0 0 0 0 0 0 0 0 1 1 1 1 3 3 5 5 24 74 99 114 124 130 132 131 136 139 139 141 143 142 141 142 141 142 142 141 140 140 140 141 142 143 144 145 147 147 147 149 150 147 145 144 146 145 146 149 150 150 152 154 153 153 151 149 149 149 150 152 151 151 151 150 149 150 149 149 149 150 152 154 154 154 155 155 156 155 156 158 158 157 159 159 162 163 165 169 170 168 166 164 163 164 163 161 161 162 163 164 162 162 160 160 158 155 156 156 158 157 157 158 159 157 161 161 160 161 160 160 160 161 161 159 157 158 158 157 156 158 159 159 158 158 160 160 160 158 158 160 162 162 162 161 159 158 158 160 162 162 160 159 160 160 161 164 164 169 171 173 173 173 171 171 168 165 163 159 159 160 162 162 162 161 162 164 165 167 169 169 169 169 168 166 164 163 162 162 162 161 163 161 160 159 158 157 157 159 160 162 162 164 164 164 163 161 161 161 161 159 160 158 157 157 155 154 153 154 151 151 150 151 151 153 151 149 135 107 107 110 112 112 113 114 115 115 117 119 119 120 122 124 123 125 125 126 124 120 113 99 74 36 2 0 0 0 0 0 0 0 0 0 0 0 0 0 0 0 0 0 0 0 0 0 0 0 0 0 0 0 0 0 0 0 0 0 0 0 0 0 0 0 0 0 0 0 0 0 0 0 0 0 0 1 3 2 0 0 0 0 0 0 0 0 0 0 0 0 0 0 0 0 0 0 0 0 3 3 5 6 6 8 7 8 8 6 7 6 7 6 6 5 4 4 7 8 9 13 17 20 20 21 20 21 20 18 18 19 22 24 27 28 31 33 33 29 28 29 27 22 20 19 20 21 22 24 22 23 24 24 23 22 23 21 17 17 16 18 18 19 21 20 22 20 18 19 19 21 19 18 21 22 19 18 19 19 19 19 18 18 18 19 20 19 20 19 20 19 19 18 18 17 21 23 25 27 27 26 26 24 24 25 26 24 24 24 22 21 20 18 14 14 14 16 17 20 22 24 23 22 21 23 
23 18 17 16 15 14 14 13 12 15 16 16 13 12 13 11 12 13 14 15 16 18 18 16 15 17 16 15 13 13 12 12 13 16 16 15 16 15 12 13 16 19 17 17 16 14 11 13 13 13 13 12 14 14 12 12 12 11 12 10 8 6 5 7 8 8 8 6 7 8 10 10 11 12 16 17 17 13 11 10 11 9 9 12 12 12 10 11 11 13 11 13 15 16 17 16 15 16 16 19 16 15 12 11 12 12 11 11 11 12 12 12 11 10 11 10 12 11 10 11 10 10 13 14 11 12 14 12 11 12 12 10 11 13 13 14 14 15 13 16 16 15 12 11 9 10 10 10 8 5 4 4 3 4 5 3 2 5 7 5 3 1 0 0 0 0 0 0 0 0 0 0 0 2 2 1 1 0 0 0 0 0 0 0 0 0 0 0 1 2 3 3 3 3 5 4 2 26 72 100 115 123 126 127 130 134 137 138 140 141 142 141 142 143 141 140 139 139 140 140 141 142 143 145 146 146 144 146 148 146 146 145 146 146 148 150 150 151 153 156 157 155 152 151 150 150 150 152 151 151 151 150 149 150 149 149 148 151 152 153 155 155 155 157 157 156 156 157 157 157 158 160 161 163 165 168 168 166 165 162 161 162 161 162 160 160 162 163 162 162 162 161 158 155 155 157 157 156 159 158 157 157 159 159 158 158 157 158 158 159 158 159 157 156 155 154 154 157 159 159 160 159 161 161 159 158 159 160 159 161 160 158 157 157 156 159 159 159 159 159 159 160 162 164 166 166 168 170 170 172 171 170 168 164 162 158 158 160 161 161 161 162 164 164 166 168 167 170 168 169 168 167 165 163 162 163 164 163 163 162 162 161 161 160 159 160 163 163 163 163 164 163 163 161 162 162 162 160 159 157 156 158 155 155 154 152 151 149 149 151 153 153 151 146 120 111 113 114 115 115 116 117 118 117 119 120 120 120 119 118 116 113 107 95 72 48 23 0 0 0 0 0 0 0 0 0 0 0 0 0 0 0 0 0 0 0 0 0 0 0 0 0 0 0 0 0 0 0 0 0 0 0 0 0 0 0 0 0 0 0 0 0 0 0 0 1 1 2 1 0 1 3 3 3 2 0 0 0 0 0 0 0 0 0 0 0 0 0 0 0 0 0 0 2 4 5 6 8 6 8 7 9 7 6 7 6 7 6 6 5 4 6 8 9 10 14 18 19 20 21 20 19 18 17 18 20 21 23 26 28 30 32 34 31 30 29 26 22 19 20 21 22 23 23 23 23 24 23 23 21 21 18 16 18 17 17 17 17 18 18 20 19 17 16 17 19 18 16 18 18 15 15 17 19 19 17 16 16 17 18 21 20 18 19 20 20 20 20 21 19 22 24 26 27 25 24 22 22 22 22 23 20 20 22 21 20 19 16 15 15 15 16 17 20 22 24 24 21 21 22 
20 17 15 14 15 16 15 12 12 13 12 13 12 12 11 11 11 11 14 16 16 18 18 16 15 15 14 16 13 13 12 12 14 16 17 16 17 15 14 14 18 20 18 17 17 15 15 16 16 16 14 15 14 13 12 10 11 10 10 9 8 6 5 5 7 6 6 5 6 7 9 8 11 12 16 18 17 14 13 11 10 9 10 10 9 9 8 11 12 12 13 12 15 17 17 16 17 17 17 17 13 12 10 10 11 12 11 10 10 10 11 12 11 10 8 9 9 10 10 11 11 10 9 10 9 11 11 10 11 12 11 11 12 14 14 14 14 14 16 17 17 17 14 12 9 9 9 9 7 4 3 1 1 1 2 2 0 2 3 3 1 0 0 0 0 0 0 0 0 0 0 0 0 2 1 0 0 0 0 0 0 0 0 0 0 0 0 0 0 1 1 2 2 3 4 3 2 3 28 70 97 110 116 120 123 129 133 135 137 140 139 139 139 141 141 139 137 136 137 139 142 143 144 145 144 143 143 145 146 145 144 143 145 146 147 148 150 153 156 158 157 156 153 151 150 151 150 151 150 153 152 152 152 152 150 148 149 150 151 151 154 153 153 155 153 153 156 157 156 158 158 159 160 161 163 165 167 165 163 160 160 159 158 160 160 159 161 163 162 162 160 158 157 156 156 157 156 157 157 157 156 158 159 159 160 158 156 155 157 157 157 157 156 154 153 153 152 154 157 158 159 160 159 160 159 159 159 160 159 159 160 159 158 157 157 159 159 159 158 158 160 162 162 163 162 162 164 167 167 168 170 168 165 162 159 158 159 160 160 162 163 164 164 166 167 168 167 168 168 169 168 166 165 164 164 164 165 165 165 163 162 161 163 163 163 162 164 165 162 162 162 162 163 164 162 162 161 160 158 157 157 158 156 155 153 152 150 148 149 150 151 151 151 139 113 114 115 114 112 113 115 116 115 116 115 116 113 109 98 81 60 36 16 2 0 0 0 0 0 0 0 0 0 0 0 0 0 0 0 0 0 0 0 0 0 0 0 0 0 0 0 0 0 0 0 0 0 0 0 0 0 0 0 0 0 1 2 0 0 1 0 0 0 0 0 1 2 3 2 1 2 3 2 1 2 0 0 1 2 2 1 0 0 0 0 0 0 0 0 0 0 0 2 2 5 5 6 7 6 7 7 8 7 6 6 5 7 7 6 7 7 8 8 11 14 15 16 19 21 20 19 20 19 19 19 20 23 23 25 27 29 30 33 32 29 28 26 22 20 22 21 22 23 25 24 25 26 24 24 21 19 18 18 17 17 16 16 16 17 17 17 15 16 15 15 17 16 15 15 15 14 14 16 18 18 18 16 17 18 19 20 20 19 19 21 21 20 21 20 21 23 25 25 24 24 22 21 20 20 21 21 19 18 19 21 21 20 18 18 17 17 18 19 21 22 22 20 20 21 22 
19 17 13 13 13 14 14 12 11 10 9 8 9 10 9 9 9 10 11 14 16 17 16 15 15 15 15 15 14 13 12 12 14 16 17 17 18 17 16 16 18 18 19 18 17 18 18 18 17 17 16 15 14 14 12 10 9 8 7 7 6 7 5 5 4 4 5 4 3 5 6 8 9 11 13 14 13 11 11 10 10 9 10 8 8 10 9 12 14 13 13 14 14 15 15 16 16 16 15 14 13 11 12 11 11 13 12 9 10 10 10 12 11 9 8 9 9 9 9 10 9 8 6 8 9 9 12 11 12 11 11 12 13 14 13 13 13 13 13 15 16 17 14 12 9 8 8 8 5 2 1 0 0 0 0 0 1 3 2 1 0 0 0 0 0 0 0 0 0 0 0 0 0 0 0 0 0 0 0 0 0 0 0 0 0 0 0 0 0 0 2 2 2 2 4 3 3 2 0 21 63 90 105 112 117 125 129 131 133 135 136 136 136 136 138 136 134 133 135 138 142 144 144 145 143 142 143 145 145 144 143 144 144 144 144 147 148 151 154 154 155 154 151 149 149 149 149 148 150 152 152 152 154 152 148 146 147 149 149 150 152 152 152 152 151 153 157 158 157 158 159 158 160 159 162 164 165 165 162 160 159 159 159 159 159 160 159 161 161 161 160 158 157 157 157 157 157 155 156 156 155 157 158 158 158 158 156 157 157 159 157 156 156 154 153 152 152 154 156 156 157 157 158 160 158 157 159 160 160 160 161 160 159 158 159 160 161 159 159 158 159 160 161 159 161 160 160 165 165 167 166 166 163 158 158 158 160 160 160 162 165 166 166 168 170 168 168 168 169 169 169 168 167 166 166 165 167 168 164 162 162 163 163 164 163 164 163 162 161 161 163 162 164 165 163 163 161 160 160 157 156 157 155 152 152 152 151 149 149 151 151 151 151 131 113 111 111 109 107 107 105 101 97 90 81 67 47 26 7 0 0 0 0 0 0 0 0 0 0 0 0 0 0 0 0 0 0 0 0 0 0 0 0 0 0 0 0 0 0 0 0 0 0 0 0 0 0 0 0 0 0 0 1 0 1 3 3 3 3 3 2 0 0 1 0 1 2 3 2 0 1 1 0 2 2 2 2 1 3 4 3 1 0 0 0 0 0 0 0 0 0 0 1 2 5 7 8 9 8 7 7 7 6 5 5 5 7 8 8 9 8 9 10 12 15 16 18 20 21 19 19 18 18 19 19 21 22 23 25 27 28 29 31 30 28 27 26 24 23 21 19 20 22 24 26 27 26 24 23 22 21 20 19 19 17 16 16 14 15 16 15 14 14 14 13 15 15 14 14 15 14 15 16 17 18 18 17 18 21 21 21 21 20 21 21 22 21 21 20 20 21 22 23 20 20 20 20 20 20 19 20 19 18 21 22 22 23 22 21 19 19 20 22 21 23 23 22 21 20 20 
17 16 13 13 13 14 11 11 10 9 7 7 8 9 9 9 7 9 11 13 13 15 15 15 15 14 13 14 14 12 13 12 15 16 17 19 18 17 18 18 20 19 20 18 19 19 19 19 19 15 16 15 15 12 10 8 8 7 6 6 7 6 5 4 3 3 4 2 2 3 2 5 7 10 12 11 10 10 9 9 7 6 7 8 9 10 9 11 14 12 13 13 14 16 15 16 15 15 14 13 11 10 10 11 10 10 10 10 10 10 11 10 9 9 9 8 8 7 8 9 9 8 6 7 8 8 9 10 10 11 12 13 13 13 13 13 12 10 12 13 13 14 14 11 10 8 8 9 7 4 1 0 0 0 0 0 2 2 1 1 0 0 0 0 0 0 0 0 0 0 0 0 0 0 0 0 0 0 0 0 0 0 0 0 0 0 0 0 0 0 2 2 1 1 2 3 2 0 0 0 13 56 87 99 109 116 121 124 128 132 132 133 135 134 134 133 130 130 133 137 140 141 143 143 143 143 143 145 145 144 143 143 141 142 144 148 149 150 151 152 151 150 150 149 149 148 148 148 148 150 150 151 153 152 149 147 148 148 148 148 151 150 150 152 152 153 155 155 155 156 158 158 159 161 162 164 165 165 164 160 160 160 160 159 158 157 158 158 160 160 159 157 156 156 156 154 154 154 154 152 152 156 158 157 157 155 154 157 157 157 157 156 157 156 153 152 153 153 153 155 156 157 157 158 157 157 158 159 159 159 160 158 157 158 160 161 162 159 158 157 158 160 161 160 158 159 161 163 164 164 163 163 161 158 157 158 161 161 162 163 165 166 166 169 169 170 168 167 166 168 169 169 169 168 167 168 168 169 165 161 161 162 162 162 161 161 160 160 161 162 165 166 166 167 166 163 162 160 159 158 156 154 152 150 151 151 151 150 151 152 152 149 148 132 112 110 91 79 63 51 36 23 11 2 0 0 0 0 0 0 0 0 0 0 0 0 0 0 0 0 0 0 0 0 0 0 0 0 0 0 0 0 0 0 0 0 0 0 0 0 0 0 0 0 0 0 0 0 0 0 0 0 0 2 4 4 6 4 5 5 1 0 0 2 2 2 3 2 0 0 1 2 2 3 4 2 2 3 4 5 2 3 1 0 0 0 0 0 0 0 0 0 0 0 3 4 5 7 9 10 7 6 5 5 5 5 8 8 8 11 10 10 11 12 15 17 18 21 21 21 19 18 19 19 22 21 20 23 24 26 26 29 27 27 26 25 25 24 21 19 18 20 23 25 24 24 24 24 23 23 21 20 19 17 14 14 12 13 12 13 11 11 12 12 11 12 12 13 15 16 15 14 16 18 19 18 19 20 20 21 21 22 22 20 18 21 22 22 21 21 21 21 21 20 19 18 19 20 21 21 21 20 20 22 23 24 24 23 23 22 20 21 21 22 23 22 22 21 19 18 
18 18 16 16 15 13 12 10 10 9 8 7 7 7 10 9 8 11 12 12 14 14 15 13 13 14 12 12 14 12 12 13 14 15 18 19 17 19 19 20 21 21 20 20 20 20 18 17 17 15 15 14 13 11 10 8 8 8 8 8 6 6 5 2 3 2 1 2 3 2 1 4 6 8 10 11 10 10 10 10 8 6 6 7 8 8 7 9 11 11 11 13 15 15 15 15 14 15 14 12 12 10 9 11 11 9 9 9 9 8 9 10 9 9 10 10 7 6 8 9 9 8 7 6 6 6 6 8 9 11 14 14 13 11 11 10 9 9 9 10 11 11 10 10 8 7 7 8 9 5 3 1 0 0 0 1 3 4 1 0 0 0 0 0 0 0 0 0 0 0 0 0 0 0 0 0 0 0 0 0 0 0 0 0 0 0 0 0 1 1 1 0 1 1 0 1 0 0 0 0 0 10 50 81 96 103 110 116 123 128 130 131 131 130 131 130 129 129 131 134 136 137 140 141 143 143 142 145 144 143 141 140 140 141 144 148 148 150 150 150 149 150 150 149 147 147 146 146 147 150 151 151 152 151 148 147 146 146 146 148 147 148 149 150 149 150 151 153 153 155 156 159 160 159 161 162 163 164 163 162 159 159 159 158 156 158 157 157 160 161 158 155 156 155 154 154 155 153 152 150 151 154 156 156 155 153 153 154 155 156 157 156 156 155 154 153 152 153 154 157 158 155 155 156 156 156 157 158 157 157 158 156 157 157 159 159 160 158 157 156 156 159 160 160 159 157 160 161 162 161 160 161 160 158 159 160 161 163 164 163 164 167 168 169 168 169 166 166 167 167 167 167 169 170 169 169 170 168 166 164 161 160 162 162 161 160 160 161 162 164 165 166 166 166 167 165 163 160 159 158 155 153 150 150 151 151 149 148 149 150 148 147 144 142 134 109 27 0 0 0 0 0 0 0 0 0 0 0 0 0 0 0 0 0 0 0 0 0 0 0 0 0 0 0 0 0 0 0 0 0 0 0 0 0 0 0 0 0 0 0 0 0 0 0 0 0 0 0 0 0 1 2 1 2 5 5 5 5 5 5 2 1 2 3 4 3 4 3 3 2 3 2 3 2 4 3 2 3 3 5 5 4 2 0 0 0 0 0 0 0 0 0 0 0 2 4 5 8 10 10 7 7 7 6 5 6 6 8 9 10 10 9 9 12 14 17 18 20 20 21 20 20 20 20 21 22 21 22 24 25 25 25 26 24 26 25 25 24 23 20 20 20 23 24 23 22 23 24 23 22 19 18 15 14 12 11 11 11 11 12 11 10 11 10 10 12 14 14 15 14 14 13 16 18 19 21 19 18 19 19 19 19 19 18 18 19 21 23 20 21 23 24 21 20 20 19 20 20 20 21 20 20 21 22 24 25 26 25 24 23 21 22 21 22 24 23 24 23 19 18 
21 21 18 16 15 13 11 11 13 11 8 6 8 9 9 9 8 7 10 12 14 13 12 12 11 11 11 12 14 12 12 13 13 14 16 18 18 20 21 21 21 21 20 19 18 16 15 17 16 14 13 14 11 9 9 9 10 8 8 9 9 6 2 0 1 1 0 2 5 5 4 4 6 8 10 11 10 9 9 9 10 8 8 7 5 5 6 9 9 11 12 11 13 13 13 12 13 14 12 12 11 10 9 10 10 9 8 7 6 6 8 8 9 10 9 8 7 7 8 9 9 7 5 6 6 5 5 8 10 11 12 12 11 9 9 9 8 8 6 7 8 9 8 9 8 7 7 8 8 7 5 5 3 2 1 4 4 4 2 0 1 2 0 0 0 0 0 0 0 0 0 0 0 0 0 0 0 0 0 0 0 0 0 0 1 0 0 0 0 2 0 0 0 0 0 0 0 0 0 0 0 0 5 45 77 91 99 107 115 121 125 125 127 128 127 126 127 127 128 131 133 135 136 138 138 139 141 141 142 142 139 139 140 140 143 147 149 148 149 148 150 151 150 148 147 145 146 144 147 148 150 151 151 150 148 145 142 144 145 145 146 146 147 148 148 150 151 153 153 155 154 156 159 159 159 159 160 161 160 160 160 159 160 159 157 157 156 156 157 158 157 156 157 156 155 154 153 152 150 151 151 152 153 157 156 154 153 153 153 154 155 157 155 153 153 153 153 154 156 157 157 155 153 155 156 156 156 156 156 155 156 156 157 156 157 158 158 157 154 154 155 158 158 157 157 157 157 159 160 160 161 162 161 159 160 160 161 162 162 164 164 166 169 168 168 167 165 164 164 166 166 169 169 170 170 170 170 169 166 165 162 160 161 163 162 161 161 161 163 163 163 163 165 165 167 166 163 162 160 157 153 152 150 150 151 150 148 145 145 145 143 142 140 136 105 22 0 0 0 0 0 0 0 0 0 0 0 0 0 0 0 0 0 0 0 0 0 0 0 0 0 0 0 0 0 0 0 0 0 0 0 0 0 0 0 0 0 0 0 0 0 0 0 0 0 0 0 0 0 0 2 2 3 4 4 5 5 6 6 7 5 6 6 4 3 5 5 5 4 4 5 4 2 2 3 3 2 2 4 4 4 3 2 0 0 0 0 0 0 0 0 0 0 1 3 4 6 9 9 10 9 8 7 8 7 7 6 7 9 10 9 8 9 11 13 16 16 16 18 20 19 22 22 20 21 23 22 22 23 24 24 24 26 25 25 25 24 24 21 21 19 19 21 22 21 20 20 20 21 21 18 16 13 13 12 13 12 13 11 11 12 11 12 10 10 13 13 13 14 13 13 13 16 18 18 19 17 16 17 16 15 16 18 16 18 17 20 20 22 23 23 24 21 20 20 21 22 22 21 23 21 21 23 24 27 27 27 25 23 22 20 21 21 22 23 24 24 23 21 21 
23 21 18 17 15 14 12 13 13 13 9 7 7 10 8 8 9 9 8 11 12 11 10 11 9 11 14 13 13 13 13 14 14 15 19 20 21 21 23 22 20 20 16 15 16 15 15 16 15 14 14 12 10 7 10 10 10 9 8 9 9 6 3 1 2 2 3 3 6 6 6 6 7 7 10 10 10 10 10 8 9 9 8 8 6 6 7 7 9 10 10 11 12 11 12 12 13 14 12 11 12 12 11 10 9 9 7 6 6 8 9 9 9 10 9 7 8 8 8 9 8 5 4 6 7 6 8 9 10 10 12 10 9 9 10 10 8 7 5 3 6 6 7 8 7 8 7 8 9 10 7 6 3 2 2 3 4 3 2 0 3 5 3 0 0 0 0 0 0 0 0 0 0 0 0 0 0 0 0 0 1 0 0 1 1 1 0 0 2 3 0 0 0 0 0 0 0 0 0 0 0 0 0 2 41 72 88 98 106 111 115 117 120 122 124 124 125 126 126 127 129 131 133 133 133 134 137 139 140 141 139 139 139 140 141 145 147 147 147 148 149 150 150 149 145 143 143 143 145 146 148 148 147 147 146 145 144 145 145 146 145 145 146 148 149 149 151 152 152 153 154 156 157 158 157 155 156 157 158 159 159 159 159 159 158 156 154 154 156 159 157 156 156 157 155 153 154 153 150 151 150 151 153 155 155 154 152 152 153 155 155 156 156 154 153 154 155 154 155 156 156 155 154 155 155 154 153 152 152 152 154 154 156 156 157 157 156 155 153 154 154 157 156 156 154 156 158 157 159 160 161 162 161 160 161 162 161 160 159 159 161 164 167 167 165 166 164 164 164 166 166 168 168 171 173 171 171 169 166 166 164 161 161 162 163 163 164 163 165 164 161 161 162 163 165 166 162 162 159 158 155 153 153 151 150 148 145 142 141 141 141 139 132 95 14 0 0 0 0 0 0 0 0 0 0 0 0 0 0 0 0 0 0 0 0 0 0 0 0 0 0 0 0 0 0 0 0 0 0 0 0 0 0 0 0 0 0 0 0 0 0 0 0 0 0 0 0 0 0 2 2 4 5 5 4 5 5 6 8 10 10 10 8 7 6 8 8 8 7 7 6 5 2 1 2 2 1 2 3 2 3 2 0 0 0 0 0 0 0 0 0 0 0 0 2 3 7 8 9 9 7 5 4 5 5 6 7 6 7 7 8 9 10 10 13 15 15 16 17 19 21 23 24 22 21 22 23 24 24 24 23 24 25 26 26 26 25 21 20 18 17 17 18 20 20 19 18 19 19 20 18 17 15 13 14 14 12 11 10 9 10 10 10 9 12 12 14 14 13 11 13 14 17 17 17 16 14 14 14 15 15 18 18 17 17 18 17 18 21 22 23 23 21 22 21 21 23 23 23 23 22 22 25 26 28 28 27 24 23 22 22 21 21 24 24 23 22 22 23 22 
22 21 20 18 16 14 14 14 15 13 8 8 8 10 10 10 10 10 9 12 11 11 10 10 10 13 13 13 14 13 13 14 14 16 18 19 21 20 21 20 20 16 14 14 16 15 15 14 13 12 12 12 10 9 10 11 10 7 6 8 8 4 2 2 2 3 3 4 7 8 9 9 9 9 10 10 11 11 11 9 8 8 6 6 8 9 7 7 7 7 8 9 11 12 11 11 11 13 12 12 12 12 11 9 9 10 8 6 7 7 9 9 8 9 7 7 7 7 7 6 5 4 6 7 7 8 9 10 10 10 11 10 10 9 10 9 9 7 4 3 4 4 6 6 8 7 6 8 8 8 5 4 1 0 1 3 4 4 2 1 3 4 2 0 0 0 0 0 0 0 0 0 0 0 0 0 0 0 0 0 2 1 1 2 3 1 1 1 2 0 0 0 0 0 0 0 0 0 0 0 0 0 0 0 0 36 69 83 92 98 104 108 111 115 121 122 121 121 122 123 126 125 127 128 129 131 131 135 137 139 139 140 141 139 141 144 145 146 145 146 148 148 149 146 143 142 143 144 144 146 146 145 144 145 146 146 145 145 148 147 146 145 147 148 149 148 151 151 151 151 153 156 158 157 154 154 155 154 157 159 159 158 158 156 157 157 156 157 157 159 159 157 157 156 155 155 155 154 152 151 152 152 152 153 153 152 151 150 154 155 154 155 156 154 155 156 156 155 155 155 156 155 156 156 156 153 151 150 150 150 152 153 152 154 154 154 154 154 153 153 153 155 155 155 155 155 156 158 158 159 159 160 159 158 159 161 161 160 159 158 160 162 166 166 164 164 165 165 165 166 167 169 170 171 172 174 171 169 167 166 164 163 163 163 163 164 162 162 163 162 160 162 162 163 164 166 162 162 158 155 154 153 152 149 147 145 143 141 139 138 138 129 84 7 0 0 0 0 0 0 0 0 0 0 0 0 0 0 0 0 0 0 0 0 0 0 0 0 0 0 0 0 0 0 0 0 0 0 0 0 0 0 0 0 0 0 0 0 0 0 0 0 0 0 0 0 0 2 5 4 4 4 5 6 5 6 7 7 9 10 11 11 11 10 9 9 9 8 9 8 7 3 0 0 0 0 1 0 2 1 0 0 0 0 0 0 0 0 0 0 0 0 0 0 3 4 8 10 9 7 6 4 2 2 3 4 3 3 3 5 7 9 10 11 13 12 14 15 18 18 20 23 24 24 23 23 24 23 24 24 25 26 27 29 27 26 24 20 18 17 15 14 15 17 17 19 18 18 19 20 19 19 16 14 12 13 11 11 10 10 10 9 8 8 10 12 12 13 11 11 13 14 15 16 14 13 13 13 13 14 15 18 18 19 21 20 18 19 21 21 21 20 21 21 21 23 22 22 23 24 25 24 24 26 27 26 27 26 24 24 23 21 21 21 22 22 23 24 24 22 
22 22 20 18 17 16 16 17 16 15 11 10 10 12 12 11 11 8 9 9 9 10 11 10 11 12 13 13 14 15 14 14 15 16 18 19 19 19 20 21 19 16 16 14 15 13 12 12 11 11 11 10 9 10 10 11 8 7 7 8 7 7 4 4 4 4 4 6 9 10 11 12 11 12 12 12 12 12 10 11 10 9 8 9 8 9 6 4 5 6 8 7 9 11 11 10 12 12 12 10 12 13 12 10 11 12 10 10 8 7 6 5 5 5 5 4 6 6 6 4 3 5 6 6 7 9 9 10 10 12 13 11 10 9 9 8 7 7 4 3 3 5 5 5 6 6 3 4 3 3 3 1 0 0 0 0 2 1 1 2 2 3 0 0 0 0 0 0 0 0 0 0 0 0 0 0 0 0 0 0 2 2 1 2 1 2 0 0 0 0 0 0 0 0 0 0 0 0 0 0 0 0 0 0 0 0 32 59 72 83 91 97 101 107 112 115 116 116 118 119 121 122 124 127 127 127 127 130 133 136 138 139 138 140 140 142 143 143 144 146 147 146 147 145 143 143 144 144 145 147 146 146 144 144 145 145 143 144 146 147 146 146 148 148 148 148 148 150 151 152 151 154 155 155 154 154 154 155 157 158 159 157 156 157 156 156 157 157 158 158 158 157 156 156 155 156 158 156 154 154 152 152 152 154 154 152 151 150 152 154 154 157 157 157 156 156 155 156 156 156 155 154 155 156 156 152 152 149 149 148 151 152 151 153 151 152 152 152 150 150 152 155 156 157 157 156 156 157 157 157 157 157 157 156 158 160 161 158 158 157 161 163 166 165 165 166 167 166 167 168 170 172 173 172 172 173 171 169 168 167 165 166 166 163 164 163 162 162 162 162 160 159 160 162 163 165 163 162 158 153 152 152 148 147 145 144 141 140 137 134 121 70 0 0 0 0 0 0 0 0 0 0 0 0 0 0 0 0 0 0 0 0 0 0 0 0 0 0 0 0 0 0 0 0 0 0 0 0 0 0 0 0 0 0 0 0 0 0 0 0 0 0 0 0 0 1 3 6 6 6 6 7 9 8 8 6 7 8 10 10 11 13 13 10 11 9 9 9 9 9 6 4 1 0 0 0 0 0 0 0 0 0 0 0 0 0 0 0 0 0 0 0 0 0 1 5 8 10 9 8 6 3 2 3 1 1 1 3 4 4 7 10 10 10 11 11 13 15 15 18 20 23 24 23 22 22 22 21 22 23 24 26 27 27 27 25 24 22 19 16 15 15 15 15 16 15 15 16 18 19 20 17 14 12 10 10 11 12 11 11 9 10 9 11 11 12 10 10 11 11 13 12 14 15 15 14 13 13 13 13 16 16 19 21 21 20 20 19 18 19 19 19 21 22 22 23 23 25 25 28 28 26 24 22 25 26 27 27 25 24 22 21 20 20 21 22 23 25 24 23 
22 24 23 18 18 16 15 17 18 16 14 12 12 12 13 12 10 8 7 8 9 9 9 8 10 13 13 14 15 16 17 15 15 16 17 18 19 20 20 21 20 17 16 13 13 12 10 9 11 13 13 12 10 8 10 10 8 8 9 9 9 9 7 7 8 7 7 8 9 11 10 10 10 11 12 12 13 12 13 14 13 12 11 10 8 8 4 3 3 5 8 8 9 9 9 7 10 9 9 10 11 14 14 11 11 11 10 10 8 8 6 4 3 4 4 5 5 5 5 3 5 7 6 7 8 6 8 11 12 11 13 10 9 8 8 6 6 5 4 2 3 2 3 3 4 4 3 1 0 0 0 0 0 0 0 0 1 1 0 0 0 0 1 0 0 0 0 0 0 0 0 0 0 0 0 0 0 0 0 0 0 0 1 1 0 0 0 0 0 0 0 0 0 0 0 0 0 0 0 0 0 0 0 0 0 0 0 22 45 61 74 82 89 94 100 105 107 109 112 115 117 118 120 122 122 123 123 124 127 131 132 134 134 136 137 139 142 143 144 146 145 146 146 145 145 143 145 146 147 149 148 146 146 146 146 145 142 143 145 146 146 146 147 147 148 147 146 149 148 148 150 151 151 151 153 152 154 156 155 155 157 156 155 155 155 155 157 156 156 157 157 156 157 156 155 156 158 156 156 154 155 154 154 154 155 153 152 151 151 154 156 157 157 156 155 155 156 155 155 156 155 153 155 155 156 154 152 150 148 148 150 151 152 151 151 151 150 151 150 149 151 153 157 158 157 157 156 156 156 154 154 156 156 156 155 157 158 157 157 157 160 161 164 167 166 167 167 167 168 169 172 173 174 173 172 172 171 170 169 168 167 168 167 166 164 162 161 160 160 161 159 158 160 162 163 163 162 160 157 153 150 150 147 145 143 140 138 137 132 113 43 0 0 0 0 0 0 0 0 0 0 0 0 0 0 0 0 0 0 0 0 0 0 0 0 0 0 0 0 0 0 0 0 0 0 0 0 0 0 0 0 0 0 0 0 0 0 0 0 0 0 0 0 0 0 1 4 7 7 7 6 9 10 10 11 9 9 11 12 12 13 13 12 9 11 10 10 9 9 8 6 5 1 0 0 0 0 0 0 0 0 0 0 0 0 0 0 0 0 0 0 0 0 0 1 4 8 10 8 8 6 3 0 1 1 0 1 1 4 5 7 9 8 10 11 11 13 15 15 17 17 20 23 24 22 22 21 20 19 21 21 24 24 23 23 23 22 21 20 15 15 14 15 14 14 13 13 14 16 18 19 18 13 10 9 7 9 10 10 9 9 10 10 12 12 11 10 9 9 12 13 12 13 15 15 15 14 12 13 15 16 19 19 21 21 21 19 16 16 18 17 18 18 20 21 23 25 26 28 28 29 28 24 24 24 27 27 26 26 22 21 19 18 20 20 21 23 24 24 22 
24 26 23 21 18 16 16 18 18 17 14 13 13 14 14 10 8 8 8 7 9 11 10 8 10 13 15 14 15 15 15 13 15 15 15 16 19 19 18 20 19 17 15 14 11 11 11 10 10 13 14 12 10 8 9 11 9 10 11 9 10 8 8 8 9 8 6 9 9 10 11 9 9 9 10 12 14 13 14 16 16 16 13 11 10 9 6 3 3 4 5 7 8 10 8 6 7 9 7 9 9 10 11 9 10 9 9 9 9 8 6 6 4 3 3 5 5 4 5 5 4 4 4 5 5 4 7 9 11 10 9 9 7 5 4 2 3 4 4 3 1 1 1 2 3 3 2 1 0 0 0 0 0 0 0 0 0 0 0 0 1 1 2 3 2 2 1 0 0 0 0 0 0 0 0 0 0 0 0 0 0 0 0 0 0 0 0 0 0 0 0 0 0 0 0 0 0 0 0 0 0 0 0 0 0 0 0 0 11 32 49 63 74 83 89 93 98 101 105 107 110 112 114 116 118 119 119 122 125 127 127 128 129 130 133 136 138 139 143 145 145 144 145 147 145 145 146 147 149 149 148 148 148 147 146 144 143 143 145 146 147 147 147 145 144 144 142 145 146 146 147 146 145 147 150 151 153 153 152 153 154 155 154 153 154 154 154 154 156 156 156 156 156 155 155 153 156 156 155 155 155 157 156 156 155 154 152 152 152 154 155 157 155 154 154 153 154 154 154 154 153 152 152 155 155 155 153 150 149 149 151 150 152 151 151 151 151 149 150 151 152 151 155 157 157 155 154 154 155 154 154 155 155 156 155 156 157 157 156 157 158 160 162 163 164 165 166 167 168 170 172 174 174 173 170 172 173 173 172 169 167 167 166 166 164 162 161 160 161 161 158 158 160 162 161 163 161 158 157 152 151 149 146 143 140 136 133 128 101 26 0 0 0 0 0 0 0 0 0 0 0 0 0 0 0 0 0 0 0 0 0 0 0 0 0 0 0 0 0 0 0 0 0 0 0 0 0 0 0 0 0 0 0 0 0 0 0 0 0 0 0 0 0 1 2 1 2 6 7 7 8 10 11 13 11 11 11 11 12 15 14 13 12 10 10 10 9 8 7 8 7 5 2 0 0 0 0 0 0 0 0 0 0 0 0 0 0 0 0 0 0 0 0 0 1 5 8 9 9 9 6 4 2 2 0 0 0 1 3 5 5 7 9 11 11 11 14 15 17 18 18 21 22 22 21 21 21 19 19 19 21 23 23 23 22 21 18 20 19 16 15 16 16 14 14 13 13 15 16 17 16 15 13 11 10 9 9 9 9 10 9 8 8 9 9 8 6 9 11 13 13 13 13 14 17 15 16 15 14 14 16 17 16 17 20 20 18 16 17 18 17 17 19 21 22 23 23 27 28 27 28 27 26 25 27 28 28 28 26 22 19 17 18 18 18 19 22 24 24 24 
28 29 26 21 19 17 16 18 17 17 14 13 12 12 13 11 9 9 10 7 8 11 9 10 11 14 15 15 15 14 15 15 14 12 14 15 16 17 18 19 20 16 16 13 12 12 11 10 11 11 13 12 10 8 9 10 10 11 12 9 8 8 8 8 9 8 7 7 7 8 10 8 9 10 12 14 15 15 15 17 18 17 15 11 10 10 7 4 4 4 4 6 6 9 9 6 6 7 7 6 6 8 8 7 6 7 7 9 7 5 6 5 3 3 4 3 3 4 5 3 4 4 3 3 4 4 6 8 10 9 7 7 6 4 4 2 1 2 2 2 1 0 1 0 2 2 1 2 1 0 0 0 0 0 0 0 0 0 0 0 3 3 4 4 4 2 2 1 0 0 0 0 0 0 0 0 0 0 0 0 0 0 0 0 0 0 0 0 0 0 0 0 0 0 0 2 2 0 0 0 0 0 0 0 0 0 0 0 0 0 18 37 52 66 76 83 90 93 96 99 103 105 108 113 115 116 116 118 121 123 124 125 125 126 130 134 136 138 140 141 141 142 144 146 146 146 146 148 150 149 148 147 147 148 146 145 145 144 145 144 146 145 145 143 142 141 140 141 142 143 143 143 141 145 147 150 151 150 150 149 149 152 150 151 153 153 152 153 154 154 154 156 155 154 154 153 154 154 154 153 154 156 156 156 155 154 154 154 154 155 155 156 154 153 154 153 153 154 153 150 152 151 152 154 155 155 152 149 149 149 150 151 150 150 149 150 151 151 151 151 152 152 153 155 155 154 153 154 153 152 153 156 156 157 157 157 159 158 156 156 157 157 158 161 163 164 165 167 168 170 172 173 172 172 169 171 171 171 171 168 166 164 165 165 162 161 160 160 162 160 158 158 159 161 162 161 160 156 155 151 150 147 145 141 137 134 124 84 7 0 0 0 0 0 0 0 0 0 0 0 0 0 0 0 0 0 0 0 0 0 0 0 0 0 0 0 0 0 0 0 0 0 0 0 0 0 0 0 0 0 0 0 0 0 0 0 0 0 0 0 0 0 0 0 2 3 4 7 7 7 9 9 11 11 11 11 12 12 13 16 14 13 12 10 10 7 8 8 7 6 6 5 3 0 1 0 0 0 0 0 0 0 0 0 0 0 0 0 0 0 0 0 0 0 0 4 7 8 9 9 6 4 3 1 0 1 0 0 3 4 6 6 8 10 10 11 13 14 16 17 17 18 20 20 19 18 18 19 19 19 20 21 22 22 21 18 17 18 17 15 14 15 16 15 15 16 16 15 16 17 15 15 13 12 9 10 9 10 10 9 8 7 6 4 4 6 6 8 13 13 11 12 13 15 16 15 16 16 13 13 16 16 15 17 20 20 19 18 17 17 16 17 20 19 20 22 22 24 26 26 26 25 23 24 26 28 28 28 26 22 18 18 17 19 17 20 22 23 24 26 
29 29 25 21 19 18 18 19 19 19 16 14 13 13 13 11 11 11 9 9 10 12 14 14 14 16 16 16 15 15 16 16 13 11 12 12 13 15 17 18 18 15 14 13 13 12 12 12 11 12 11 11 9 10 9 8 11 12 11 10 8 9 8 10 8 6 5 7 6 9 9 10 10 10 12 15 15 16 16 17 19 18 14 11 11 10 7 5 4 4 3 3 4 4 5 5 5 7 6 5 4 5 6 6 4 2 5 5 5 4 4 5 4 4 3 3 3 2 5 5 5 2 1 3 4 4 6 7 8 8 8 7 5 4 4 2 0 1 1 2 0 0 0 1 2 2 0 0 1 1 1 1 2 0 0 0 0 0 0 2 2 2 3 3 3 2 2 1 0 0 0 1 1 1 0 0 0 0 0 0 0 0 0 0 0 0 0 0 0 0 0 0 1 0 1 3 3 4 0 0 0 0 0 0 0 0 0 0 0 0 0 1 21 41 60 72 79 85 87 91 94 98 103 108 112 113 114 115 117 120 122 123 123 125 128 132 135 136 137 136 136 139 142 144 144 146 147 149 150 150 148 147 147 148 146 144 143 143 142 142 142 143 142 141 140 140 139 139 141 141 140 141 140 143 148 150 150 148 146 147 148 149 150 150 152 152 153 153 154 154 154 154 154 152 152 153 152 154 152 152 153 154 154 153 155 156 156 155 154 154 155 155 155 153 154 156 156 156 153 151 151 151 152 153 154 154 151 149 148 148 149 149 149 148 148 148 149 150 150 151 150 151 153 156 156 153 153 153 153 152 152 154 156 156 158 159 159 159 157 156 157 156 159 160 162 162 164 163 166 166 168 170 172 169 169 169 170 169 169 166 163 162 164 162 160 161 160 160 160 160 158 160 160 160 161 161 159 157 155 151 149 145 141 138 134 120 66 0 0 0 0 0 0 0 0 0 0 0 0 0 0 0 0 0 0 0 0 0 0 0 0 0 0 0 0 0 0 0 0 0 0 0 0 0 0 0 0 0 0 0 0 0 0 0 0 0 0 0 0 0 0 0 1 0 2 4 4 7 7 8 8 9 11 10 12 14 14 13 14 15 15 13 11 10 8 8 10 8 7 7 7 6 3 2 0 2 1 1 0 0 0 0 0 0 0 0 0 0 0 0 0 0 0 0 0 3 6 7 7 8 7 6 3 1 0 0 0 0 2 3 6 7 10 9 9 10 11 13 13 15 16 17 18 19 19 19 20 19 19 19 19 20 22 21 19 17 17 17 17 13 13 13 13 14 15 18 18 17 17 17 17 16 13 12 9 8 9 11 10 9 8 6 3 2 5 6 8 9 12 13 11 12 13 14 14 13 15 14 14 14 15 16 18 17 21 23 22 18 16 17 16 19 20 21 22 21 21 23 23 23 24 23 22 23 23 25 27 27 25 22 19 19 18 18 19 21 24 23 24 26 
27 28 24 19 16 15 18 20 21 19 16 16 15 15 14 13 12 11 12 14 15 15 16 15 16 17 17 16 15 14 14 15 14 12 8 9 11 12 14 16 16 14 14 13 14 14 11 10 9 10 11 11 8 11 10 8 10 11 11 11 9 10 9 9 8 7 5 6 7 7 9 11 12 14 15 17 17 17 17 16 17 17 13 10 8 8 6 6 4 4 2 0 0 0 0 2 2 4 5 4 3 5 5 5 2 2 2 3 3 3 4 6 6 6 5 2 2 3 3 4 2 0 0 3 2 5 7 6 7 7 7 4 4 2 2 0 0 0 0 0 0 0 0 0 2 1 1 0 0 0 1 1 3 1 0 2 2 1 0 1 0 0 1 1 1 4 3 0 0 0 1 3 2 2 0 1 0 0 0 0 0 0 0 0 0 0 0 0 0 0 0 0 2 2 3 3 3 3 0 0 0 0 0 0 0 0 0 0 0 0 0 0 0 9 30 48 61 74 79 82 87 89 95 102 105 107 110 112 112 116 119 121 122 125 126 130 132 134 135 134 134 136 140 142 142 143 145 148 149 150 150 146 146 146 144 142 142 141 142 140 141 139 139 139 139 140 139 137 139 139 138 140 141 142 147 148 149 148 146 147 147 149 150 151 151 152 153 153 153 151 151 152 151 149 148 151 151 153 153 152 152 154 155 153 156 157 156 155 154 153 154 155 158 157 156 157 157 156 153 152 153 152 152 151 153 152 150 149 148 148 148 148 148 147 147 148 150 151 151 149 148 150 152 154 156 155 154 153 151 151 152 155 157 158 159 159 159 158 157 156 157 156 158 160 161 160 161 162 163 166 167 168 168 168 167 168 167 166 167 165 162 162 163 163 160 158 158 158 160 160 159 160 160 161 161 162 160 158 155 150 145 140 137 133 113 41 0 0 0 0 0 0 0 0 0 0 0 0 0 0 0 0 0 0 0 0 0 0 0 0 0 0 0 0 0 0 0 0 0 0 0 0 0 0 0 0 0 0 0 0 0 0 0 0 0 0 0 0 0 0 0 1 2 2 3 3 4 6 5 6 5 7 8 10 13 15 14 15 15 15 14 13 11 10 9 11 12 11 9 7 7 6 4 2 3 2 1 1 0 1 0 0 0 0 0 0 0 0 0 0 0 0 0 0 1 2 5 7 7 9 7 7 3 0 0 0 0 0 0 4 6 7 9 9 9 9 10 12 14 16 16 15 18 18 20 21 22 20 18 17 17 20 21 19 19 17 16 16 16 14 13 13 13 13 16 17 18 18 17 16 16 15 15 13 12 10 10 12 14 11 8 6 4 2 4 6 8 10 13 13 13 13 12 11 11 10 11 11 12 13 14 15 17 18 22 23 23 19 16 17 18 21 22 23 23 23 23 22 22 23 22 22 22 21 22 24 27 27 27 23 20 18 18 19 22 23 24 23 23 25 
25 25 23 16 14 15 16 18 18 17 16 16 15 16 15 15 13 14 16 17 16 17 16 17 18 16 16 18 17 15 14 16 15 12 10 10 10 11 15 15 14 13 13 13 14 14 12 9 9 10 10 10 9 11 10 7 8 9 11 12 11 10 9 10 8 8 6 6 7 7 9 11 13 14 16 16 17 18 17 16 16 16 14 8 8 9 7 5 4 2 0 0 0 0 0 2 2 3 5 5 4 4 6 5 3 2 2 1 4 3 4 6 7 7 5 3 2 3 2 1 0 0 1 1 2 4 5 5 5 7 4 2 1 1 1 0 0 0 0 0 1 0 0 2 4 4 3 2 1 1 1 1 2 2 3 4 3 2 1 0 1 2 2 2 2 4 4 1 0 0 3 4 3 2 0 2 1 0 0 0 0 0 0 0 0 0 0 0 0 0 0 0 2 5 5 6 6 3 1 1 0 0 0 0 0 0 0 0 0 0 0 0 0 0 0 17 37 54 65 71 75 79 87 92 98 101 103 105 106 110 115 119 119 122 123 125 128 130 132 132 134 135 137 139 139 141 143 146 147 148 147 145 142 142 141 142 141 139 138 139 138 139 138 138 139 138 138 135 137 137 138 141 143 143 145 147 147 146 144 146 146 149 150 150 150 151 152 151 150 150 149 150 149 148 147 151 153 153 152 151 151 155 155 154 156 156 154 155 155 153 154 155 156 157 156 157 156 154 152 153 153 152 153 153 153 152 152 149 148 148 148 146 148 147 147 147 148 150 149 150 148 150 152 154 155 153 153 152 152 152 152 154 156 156 158 157 157 156 156 157 157 157 158 159 160 160 162 161 162 164 166 167 167 166 165 165 165 163 164 163 162 162 162 162 160 157 157 156 158 159 159 160 162 162 163 163 161 157 153 148 141 136 130 102 24 0 0 0 0 0 0 0 0 0 0 0 0 0 0 0 0 0 0 0 0 0 0 0 0 0 0 0 0 0 0 0 0 0 0 0 0 0 0 0 0 0 0 0 0 0 0 0 0 0 0 0 0 0 0 0 0 2 2 3 3 4 5 5 5 6 5 5 6 9 12 14 15 16 16 17 15 12 13 12 12 14 14 13 11 7 7 5 4 4 2 2 1 2 0 0 0 0 0 0 0 0 0 0 0 0 0 0 0 1 3 2 5 7 7 6 6 6 3 1 0 0 0 0 1 3 5 6 7 9 9 9 10 11 15 16 14 14 17 18 21 22 20 18 15 15 17 17 19 19 18 17 16 17 15 12 12 12 12 13 13 15 15 16 16 16 14 14 14 14 13 13 13 15 15 12 9 6 4 1 2 4 8 9 11 13 12 12 12 10 10 8 8 11 12 14 15 15 15 17 19 21 22 18 18 19 20 23 25 25 24 24 23 22 21 22 23 21 20 21 23 24 27 28 27 23 22 21 21 21 21 23 24 24 24 25 
24 22 20 17 15 15 17 18 18 17 17 16 17 15 15 16 14 15 17 19 20 20 18 18 18 18 16 18 17 15 16 17 17 14 12 11 9 10 13 16 16 15 14 15 16 14 13 10 9 9 9 8 10 9 8 7 7 9 10 10 10 10 9 9 8 7 7 6 7 7 9 11 13 14 15 15 16 17 16 15 14 16 12 9 6 7 5 3 2 3 0 0 0 0 0 2 2 3 3 3 4 6 7 6 4 3 2 1 2 3 4 7 7 7 6 3 1 1 0 0 0 0 0 0 0 1 3 2 3 5 4 2 2 2 0 2 0 0 0 0 0 0 2 4 2 2 2 2 2 4 3 3 1 2 2 3 1 1 0 0 2 2 2 3 3 3 3 3 0 0 2 4 4 2 1 2 1 0 1 1 1 0 0 0 0 0 0 0 0 0 0 0 3 4 3 5 5 4 2 2 1 0 0 0 0 0 0 0 0 0 0 0 0 0 0 0 7 25 44 54 60 67 75 81 88 93 96 97 99 103 109 113 116 116 119 123 126 127 129 130 131 131 132 134 136 140 141 142 144 147 145 141 138 139 139 139 139 139 139 138 137 138 138 137 137 137 137 134 136 137 138 139 142 143 146 146 147 145 143 144 145 146 148 150 149 150 150 149 147 147 146 147 146 147 147 149 152 153 153 150 150 154 155 154 154 155 155 157 156 155 154 155 157 156 157 155 155 155 154 153 153 152 154 155 154 152 152 150 148 149 147 147 146 146 149 148 149 148 149 149 147 147 150 152 153 152 152 154 154 154 153 155 155 157 156 157 157 156 156 156 155 157 158 158 159 160 161 161 161 163 165 165 164 163 163 163 163 163 164 163 162 161 161 160 160 155 155 154 155 157 158 158 159 160 160 161 160 156 151 146 139 128 86 11 0 0 0 0 0 0 0 0 0 0 0 0 0 0 0 0 0 0 0 0 0 0 0 0 0 0 0 0 0 0 0 0 0 0 0 0 0 0 0 0 0 0 0 0 0 0 0 0 0 0 0 0 0 0 0 0 0 2 2 3 5 4 4 5 5 5 6 7 7 8 10 14 15 16 14 15 15 13 14 14 14 15 13 11 10 7 7 6 6 4 3 2 1 0 2 2 1 0 0 0 0 0 0 0 0 0 0 0 1 1 2 5 5 6 5 5 3 3 3 2 1 1 0 0 2 4 4 4 5 8 7 7 7 9 12 13 12 13 14 18 18 19 18 16 15 14 14 16 17 16 16 15 14 16 16 14 14 14 13 12 13 14 14 14 14 14 13 12 13 14 15 13 15 17 17 15 11 8 2 0 1 4 6 7 9 11 12 12 12 11 10 9 11 11 13 13 14 14 13 15 17 18 19 18 18 19 21 23 26 27 26 24 21 20 21 21 22 24 22 23 24 26 27 28 27 25 23 22 21 24 23 23 25 26 24 24 
23 20 20 17 16 17 17 17 16 17 15 14 14 15 17 17 17 17 18 18 21 22 20 18 18 16 16 16 16 15 15 16 15 13 12 10 9 10 14 16 16 16 16 16 15 14 12 9 7 8 8 8 9 9 10 10 9 9 9 10 12 11 10 9 8 8 6 6 5 5 8 11 14 12 12 12 15 15 14 14 11 12 10 8 5 5 4 2 1 1 0 0 0 0 2 2 1 3 2 2 4 7 8 7 6 4 1 0 1 1 2 6 8 6 3 3 0 0 0 0 0 0 0 0 0 1 3 4 4 3 3 2 1 1 1 2 0 0 0 0 0 1 3 2 2 0 1 1 2 4 4 3 1 2 3 0 0 0 0 0 1 1 2 3 4 3 3 3 2 1 3 3 2 2 3 3 0 0 0 1 0 0 0 0 0 0 0 0 0 0 0 0 3 3 3 3 5 5 3 3 0 0 0 0 0 0 0 0 0 0 0 0 0 0 0 0 0 0 14 30 40 50 59 67 75 79 84 87 89 94 98 104 107 110 113 117 121 123 125 126 127 126 128 130 134 137 140 141 142 145 143 139 137 136 137 138 138 137 138 138 137 136 136 135 136 134 134 133 136 137 137 139 140 142 143 145 142 141 141 142 144 145 146 147 147 147 147 147 145 145 145 144 143 145 147 150 151 151 151 150 150 152 155 156 155 155 156 157 157 155 155 155 156 154 153 154 155 154 153 153 154 155 154 155 155 152 151 150 147 147 146 145 145 146 149 149 149 150 150 151 148 148 149 150 152 152 151 153 153 152 153 153 155 156 156 157 157 157 155 154 154 154 156 158 159 159 161 161 160 162 162 161 162 161 162 161 161 162 162 163 161 159 158 158 157 155 154 152 154 156 158 156 156 157 156 157 156 154 150 143 125 68 2 0 0 0 0 0 0 0 0 0 0 0 0 0 0 0 0 0 0 0 0 0 0 0 0 0 0 0 0 0 0 0 0 0 0 0 0 0 0 0 0 0 0 0 0 0 0 0 0 0 0 0 0 0 0 0 0 0 0 3 3 4 5 6 4 6 7 6 6 10 11 10 11 14 15 14 12 12 12 13 13 13 13 12 11 9 8 7 6 6 5 4 3 2 0 1 2 4 2 0 0 1 0 0 0 0 0 0 0 1 0 1 3 5 4 2 3 5 5 5 5 2 1 0 0 1 5 6 6 4 5 6 7 8 7 8 11 9 9 10 11 13 15 16 17 17 15 13 14 14 14 13 13 13 13 14 14 14 12 12 12 12 13 13 12 13 13 12 11 12 13 16 14 12 14 17 17 15 13 7 4 3 3 3 5 6 8 9 11 11 14 12 11 11 11 11 12 12 13 14 14 15 16 17 17 18 17 18 19 22 24 26 26 23 21 21 22 23 24 24 24 24 23 27 29 30 28 26 24 22 21 23 23 24 26 27 25 23 
22 19 19 18 18 17 16 17 15 15 14 13 12 16 14 16 17 18 18 18 21 22 20 17 17 17 16 17 17 15 14 13 12 12 13 12 12 13 15 17 16 16 16 13 12 13 12 9 8 10 8 9 9 8 9 9 7 9 9 11 11 12 10 8 8 8 7 5 7 6 8 10 12 12 10 10 12 12 12 10 8 9 8 6 5 4 2 1 1 1 2 1 1 1 3 3 3 1 1 2 3 5 8 8 5 3 1 1 1 0 2 5 6 5 2 2 1 1 0 0 0 0 0 0 0 1 3 4 4 4 3 0 0 0 0 0 0 0 0 1 1 1 3 1 1 0 0 2 2 3 3 3 2 1 1 0 0 0 0 0 0 0 2 4 3 5 5 3 2 2 1 1 1 1 2 3 1 0 0 0 0 0 0 0 0 0 0 0 0 0 0 1 2 4 5 3 5 4 2 0 0 0 0 0 0 0 0 0 0 0 0 0 0 0 0 0 0 0 0 0 13 25 37 48 57 65 71 74 77 83 88 93 99 103 105 109 113 117 120 122 122 124 125 126 130 132 135 137 140 143 143 139 137 134 135 136 136 136 137 137 136 134 135 135 133 133 133 133 136 136 137 138 139 141 140 139 138 136 137 139 142 143 144 145 145 144 145 145 145 145 144 143 142 143 145 149 149 149 149 150 150 150 154 155 154 154 155 155 156 153 152 152 152 152 152 153 153 153 152 154 155 154 152 153 152 151 151 148 147 146 146 146 147 147 148 149 150 150 151 152 151 149 149 150 151 151 151 152 151 152 154 155 156 156 157 156 156 157 156 154 154 154 155 156 155 157 160 158 158 158 160 160 159 159 160 160 160 161 159 160 158 157 156 157 155 154 152 151 152 154 156 155 154 154 152 151 149 147 140 111 42 0 0 0 0 0 0 0 0 0 0 0 0 0 0 0 0 0 0 0 0 0 0 0 0 0 0 0 0 0 0 0 0 0 0 0 0 0 0 0 0 0 0 0 0 0 0 0 0 0 0 0 0 0 0 0 0 0 0 0 1 1 3 4 5 5 7 7 7 7 8 9 10 11 10 11 14 14 12 12 11 12 12 11 12 13 12 12 10 9 8 7 6 5 3 1 0 0 2 3 2 2 3 1 0 0 0 0 0 0 2 2 4 4 4 3 2 0 2 4 5 6 6 4 0 1 0 2 3 7 7 5 5 7 8 9 9 8 7 7 8 9 8 10 14 15 15 15 16 14 13 13 12 12 13 12 12 12 13 13 12 13 13 15 15 14 13 14 13 13 13 14 14 15 16 14 15 17 16 15 12 9 5 4 4 4 5 6 7 9 11 12 13 14 13 12 13 13 13 13 13 14 15 16 17 18 19 18 18 19 18 20 22 24 24 23 23 23 23 22 23 24 23 22 23 25 28 30 28 26 24 24 22 22 21 22 24 25 23 22 
22 20 20 19 18 17 16 16 16 16 15 14 13 14 14 16 18 18 16 17 21 25 23 19 19 18 18 17 16 14 13 13 12 12 12 12 11 14 15 16 16 16 14 13 11 13 12 10 8 10 10 10 8 8 7 7 6 8 9 10 11 12 11 10 9 6 7 7 7 6 8 10 12 13 10 9 9 9 9 9 9 8 8 5 5 5 3 2 2 1 3 3 2 2 3 3 3 2 2 1 1 4 4 5 3 2 2 1 2 1 2 3 4 4 2 2 2 1 0 0 0 0 0 0 0 0 3 3 3 2 2 1 1 0 0 1 2 0 0 1 0 0 1 1 0 0 0 1 2 3 1 0 1 0 0 0 0 0 0 0 0 0 1 3 3 3 4 3 4 3 3 2 1 1 3 2 0 0 0 0 0 0 0 0 0 0 0 0 0 0 0 1 2 4 5 5 4 3 0 0 0 0 0 0 0 0 0 0 0 0 0 0 0 0 0 0 0 0 0 0 0 0 8 21 32 45 54 60 65 71 76 82 88 94 96 99 102 107 110 113 116 120 119 121 127 129 133 134 138 140 139 137 136 133 134 134 134 134 136 135 133 132 133 133 133 132 131 132 133 134 133 134 137 138 137 135 136 136 136 138 140 140 142 142 141 144 145 144 143 143 144 142 141 141 143 147 147 147 148 148 148 149 151 151 152 151 151 154 154 152 149 149 150 151 150 150 150 151 150 152 153 153 150 150 150 150 148 146 145 146 147 146 148 149 150 150 151 152 151 152 151 149 149 151 150 150 151 152 153 154 154 155 156 155 157 156 157 158 156 155 154 153 154 154 153 155 156 155 154 154 157 158 157 157 157 157 156 157 157 157 157 155 153 154 152 152 150 149 149 150 152 154 151 149 147 146 143 127 77 18 0 0 0 0 0 0 0 0 0 0 1 0 0 0 0 0 0 0 0 0 0 0 0 0 0 0 0 0 0 0 0 0 0 0 0 0 0 0 0 0 0 0 0 0 0 0 0 0 0 0 0 0 0 0 0 0 0 0 0 0 0 0 5 5 8 7 8 9 9 10 8 10 9 9 8 10 13 11 11 11 9 9 8 11 11 13 14 14 12 12 10 9 7 7 5 3 2 2 4 5 4 2 2 2 1 0 0 2 1 2 5 4 5 6 4 2 0 0 2 2 2 4 5 3 1 2 1 1 4 8 7 7 7 8 9 10 9 9 8 7 7 6 8 11 13 13 14 15 16 13 12 13 14 12 14 11 11 10 10 12 13 14 14 17 17 17 16 14 13 14 14 16 17 16 17 15 17 16 15 14 12 11 8 4 3 5 7 7 7 10 12 14 16 15 14 14 14 15 15 14 14 15 15 16 17 18 20 18 19 17 19 19 22 24 24 23 24 23 22 23 22 22 23 22 22 24 26 28 27 26 25 24 20 19 21 22 24 24 24 23 
25 23 21 22 21 19 18 18 18 17 17 17 15 14 14 16 17 17 18 18 22 25 24 22 20 21 19 17 16 15 15 14 12 12 12 12 12 13 15 15 16 15 14 13 13 14 13 10 10 13 13 12 8 7 7 6 5 6 6 6 7 9 10 9 9 8 7 7 7 7 8 11 12 12 10 11 8 7 8 9 7 7 6 6 6 5 4 4 4 2 4 4 2 2 1 4 2 2 0 0 0 0 1 3 2 3 2 2 1 0 0 3 4 5 4 3 3 3 1 0 0 0 0 0 0 0 1 0 1 2 0 0 1 0 1 3 4 1 1 0 0 0 0 0 2 0 0 0 1 1 2 2 1 0 0 0 0 0 0 0 0 0 0 0 2 3 2 4 4 4 5 4 3 4 4 3 0 0 0 0 0 0 0 0 0 0 0 0 0 0 0 1 3 4 5 6 6 4 3 0 0 0 0 0 0 0 0 0 0 0 0 0 0 0 0 0 0 0 0 0 0 0 0 0 4 17 29 38 47 56 62 70 78 83 86 87 92 96 100 105 108 113 115 118 122 126 128 129 132 133 135 135 133 132 133 132 133 133 134 132 132 130 132 131 130 129 127 128 130 131 130 131 132 134 134 134 134 135 135 136 138 140 140 140 141 143 144 144 143 144 143 142 141 142 141 146 145 145 145 145 146 146 148 150 148 147 147 150 151 151 148 147 148 149 147 148 150 150 148 148 149 148 148 148 147 146 147 147 145 147 148 149 150 151 152 151 149 150 151 151 150 148 147 149 148 150 151 153 155 154 154 155 154 154 156 156 157 158 156 155 153 152 152 151 152 154 155 152 152 152 153 155 154 153 152 152 153 155 158 157 155 153 152 150 149 148 147 146 146 148 149 148 146 145 143 133 100 37 3 1 0 0 0 0 0 0 0 0 0 0 0 0 0 0 0 0 0 0 0 0 0 0 0 0 0 0 0 0 0 0 0 0 0 0 0 0 0 0 0 0 0 0 0 0 0 0 0 0 0 0 0 0 0 0 0 0 0 0 0 0 1 4 7 9 9 9 9 10 10 9 9 8 7 6 7 8 9 10 9 9 8 9 9 10 12 13 12 13 12 9 9 9 10 9 6 4 4 4 6 6 6 4 3 5 4 2 3 2 2 3 6 8 6 6 5 5 3 1 1 2 2 3 4 4 3 1 0 2 6 9 10 9 9 8 9 8 8 7 6 6 6 7 9 10 12 13 13 15 15 14 12 12 13 11 12 11 11 9 9 10 12 14 17 17 17 18 16 15 15 16 15 17 21 20 20 18 16 15 14 13 14 13 11 6 5 6 7 8 8 11 14 16 16 15 16 17 16 17 15 14 14 15 18 18 17 19 19 19 17 17 19 19 19 23 24 23 23 25 23 22 22 23 25 24 23 25 27 28 26 25 23 23 20 20 21 22 23 24 24 24 
23 22 24 24 22 21 20 20 20 19 19 18 14 13 15 17 19 20 17 19 20 23 22 20 19 20 18 17 15 14 15 16 15 15 15 14 14 14 16 16 15 16 15 16 16 16 15 13 13 15 14 12 11 7 7 4 3 4 4 3 5 8 11 12 9 8 7 5 6 7 9 11 11 11 11 10 8 7 7 9 7 7 5 7 5 4 4 3 3 3 4 3 3 2 1 2 2 1 0 0 0 0 1 1 1 2 2 0 0 0 0 0 2 4 5 5 4 3 0 0 0 0 0 0 0 0 0 0 0 0 0 0 0 1 0 2 2 1 0 0 0 0 1 0 2 1 0 0 2 1 2 2 0 0 0 0 0 0 0 0 0 0 0 1 3 3 1 1 4 5 4 3 2 4 4 4 3 2 0 0 0 0 0 0 0 2 2 0 1 2 2 3 4 3 3 5 6 6 3 1 0 0 0 0 0 0 0 0 0 0 0 0 0 0 0 0 0 0 0 0 0 0 0 0 0 0 0 9 20 33 44 54 64 69 73 77 81 85 89 94 99 103 108 111 114 118 121 123 125 128 130 131 131 130 129 131 130 129 130 130 129 128 128 129 126 124 124 124 125 126 127 127 129 130 132 131 132 133 133 134 137 138 137 139 139 141 141 141 139 141 141 141 142 142 141 143 144 142 143 143 143 143 146 148 146 145 145 146 146 147 146 144 146 146 144 146 148 147 146 147 145 145 144 144 145 144 146 145 146 147 149 150 152 151 152 152 151 151 150 149 147 147 146 148 149 150 150 154 154 155 154 154 152 153 155 155 157 156 156 155 152 150 149 149 152 154 151 149 149 150 150 151 150 148 149 151 152 153 157 156 153 150 149 147 146 144 144 145 146 147 147 144 141 135 111 53 8 0 2 0 0 0 0 0 0 0 0 0 0 0 0 0 0 0 0 0 0 0 0 0 0 0 0 0 0 0 0 0 0 0 0 0 0 0 0 0 0 0 0 0 0 0 0 0 0 0 0 0 0 0 0 0 0 0 0 0 0 0 0 0 2 4 6 8 9 10 11 9 8 8 8 7 6 6 7 7 9 7 8 10 9 10 11 10 11 12 11 12 12 9 10 10 10 9 6 5 4 7 9 8 7 5 5 6 6 4 3 4 4 5 6 8 9 9 8 7 5 3 4 3 3 3 2 3 3 2 1 4 8 8 10 11 10 11 9 9 8 6 4 5 6 7 8 7 11 14 16 15 17 15 13 13 12 10 9 10 9 9 10 10 12 16 17 18 18 18 16 15 14 14 16 19 20 21 21 20 16 16 16 15 15 15 13 9 5 6 8 9 9 10 12 15 16 17 17 16 16 15 16 15 16 17 20 20 20 19 19 19 19 17 18 19 18 21 23 24 26 25 24 22 23 25 26 26 25 25 27 27 24 23 23 23 21 21 22 23 23 25 26 25 
23 24 25 24 22 21 21 21 21 21 20 18 14 15 18 21 20 19 17 18 19 21 20 21 19 20 18 18 16 14 14 15 15 16 17 16 16 16 18 17 18 17 16 17 17 17 17 16 16 17 15 14 13 9 7 6 6 4 3 3 5 7 10 10 9 9 6 5 6 7 9 10 10 10 11 9 7 6 7 8 6 5 5 4 4 4 4 5 4 4 3 1 0 0 0 0 0 0 0 0 0 0 0 2 1 2 1 0 0 0 0 0 1 3 5 5 5 2 0 0 0 0 0 0 0 0 0 0 0 0 0 0 0 0 0 0 0 0 0 0 0 1 2 1 1 0 0 0 2 2 2 3 1 0 0 0 0 0 0 0 0 0 2 3 4 5 4 4 4 5 4 2 2 2 3 3 3 1 0 0 1 0 0 0 1 3 2 3 4 4 4 3 1 0 2 5 5 5 4 2 1 0 1 0 0 0 0 0 0 0 0 0 0 0 0 0 0 0 0 0 0 0 0 0 0 0 0 0 0 4 13 29 42 52 58 65 69 72 76 80 87 92 97 102 105 108 111 115 118 121 123 124 126 126 125 126 125 123 125 126 124 123 125 126 124 121 120 121 123 123 123 124 125 127 128 129 129 130 132 133 135 135 136 137 137 138 138 136 136 137 140 140 139 139 138 139 141 140 139 140 140 140 143 145 143 142 142 143 145 144 143 140 142 143 143 143 146 145 144 143 141 142 142 143 143 144 145 146 147 148 149 150 151 151 150 151 152 152 149 149 147 147 148 149 151 150 152 152 152 153 152 152 152 153 154 156 155 155 155 154 152 150 149 150 152 152 150 147 146 147 147 148 148 148 149 149 149 150 153 151 149 146 145 143 141 140 140 143 144 144 142 138 118 66 15 0 0 0 0 0 0 0 0 0 0 0 0 0 0 0 0 0 0 0 0 0 0 0 0 0 0 0 0 0 0 0 0 0 0 0 0 0 0 0 0 0 0 0 0 0 0 0 0 0 0 0 0 0 0 0 0 0 0 0 0 0 0 0 0 0 1 4 5 8 8 9 10 9 7 7 8 9 7 7 7 7 7 7 10 12 11 11 11 11 12 13 14 14 11 12 10 11 10 7 5 4 5 9 10 8 7 6 5 4 4 4 5 7 7 7 6 8 10 8 8 6 5 4 3 3 2 2 3 4 3 2 2 4 6 7 9 11 12 10 9 8 8 7 4 4 4 5 6 8 11 14 17 18 16 16 15 13 11 11 8 8 8 7 8 9 11 14 17 17 17 18 17 16 16 15 17 17 18 18 20 19 16 16 17 16 15 15 12 9 7 8 10 9 9 8 9 13 17 17 18 16 16 16 18 17 17 18 20 21 20 20 20 20 21 19 20 19 19 20 24 24 25 25 24 24 24 25 25 26 25 27 27 27 25 24 23 22 21 19 20 21 23 23 24 24 
25 25 26 23 22 20 21 22 22 20 20 18 16 16 20 19 17 18 18 19 19 20 22 22 20 21 19 17 15 13 12 13 15 16 17 18 16 17 18 20 19 20 19 19 19 17 18 17 18 18 16 15 12 10 7 8 7 7 4 6 8 11 10 10 9 9 5 4 5 6 7 8 9 10 8 7 6 5 6 6 5 3 2 3 4 4 5 5 5 4 4 3 0 0 0 0 0 1 0 0 0 0 0 1 1 1 2 1 0 0 0 0 1 1 2 3 3 2 0 1 0 0 0 0 0 0 0 0 0 0 0 0 0 0 0 0 0 0 0 0 1 1 0 1 1 1 1 1 3 3 2 3 0 0 0 0 0 0 0 0 0 2 3 3 5 6 5 5 6 5 5 4 2 4 3 2 0 0 0 1 1 0 0 0 1 3 4 5 6 5 4 4 2 1 4 5 7 4 4 2 1 2 2 1 1 0 0 0 0 0 0 0 0 0 0 0 0 0 0 0 0 0 0 0 0 0 0 0 0 0 0 2 15 26 37 44 50 55 60 65 71 77 84 89 93 97 101 105 109 113 115 118 120 119 118 117 116 115 117 118 118 119 121 124 123 120 119 119 119 120 120 120 122 124 126 126 127 129 131 132 132 131 130 132 132 133 134 133 135 136 138 137 136 137 136 137 138 138 138 138 139 139 142 144 142 140 140 141 141 141 140 140 141 141 142 143 143 142 142 140 139 140 142 142 142 143 143 145 146 147 148 149 149 148 149 149 151 151 150 149 147 148 150 150 151 151 152 152 152 153 154 153 153 152 152 154 154 153 153 152 151 149 146 147 149 150 148 146 145 144 146 147 148 148 149 148 147 148 147 147 145 142 141 139 139 138 138 140 141 137 122 79 23 0 0 0 0 0 0 0 0 0 0 0 0 0 0 0 0 0 0 0 0 0 0 0 0 0 0 0 0 0 0 0 0 0 0 0 0 0 0 0 0 0 0 0 0 0 0 0 0 0 0 0 0 0 0 0 0 0 0 0 0 0 0 0 0 0 0 0 3 4 5 7 8 9 10 8 8 6 8 9 8 7 8 8 8 9 11 11 10 11 10 12 11 12 15 15 14 13 12 11 9 8 6 6 7 8 8 8 5 5 5 6 6 6 7 7 9 9 7 9 11 9 9 6 6 5 3 2 3 3 5 4 4 3 3 4 5 6 7 9 10 9 8 7 8 7 6 6 6 7 8 9 11 15 16 15 15 15 12 11 10 9 7 7 8 7 7 7 9 11 14 15 16 17 15 16 15 16 15 16 18 17 18 16 17 17 15 16 16 15 12 11 9 10 11 11 10 10 11 14 17 17 18 18 18 18 19 19 19 20 21 20 21 22 23 23 22 21 21 21 20 22 23 24 24 22 24 26 26 26 26 24 23 24 25 25 24 23 23 22 21 19 19 20 21 23 24 24 
24 26 25 23 21 20 19 20 21 19 21 19 18 19 19 19 20 20 19 20 23 22 23 21 21 20 20 19 15 14 12 13 14 17 19 18 19 19 20 21 21 20 20 20 18 18 18 18 17 17 16 15 13 11 10 10 11 9 7 8 9 11 10 11 10 9 5 2 3 4 5 8 8 6 4 3 3 4 4 5 3 0 0 2 3 4 3 4 4 4 3 1 0 0 1 1 1 3 1 0 0 0 0 1 1 3 2 1 0 0 0 0 0 0 0 1 1 0 0 0 0 0 0 0 0 0 0 0 0 0 0 0 0 0 0 0 0 0 0 0 0 1 0 1 3 2 1 1 2 0 1 0 0 0 0 0 0 0 0 0 0 1 2 4 4 5 5 7 7 5 4 3 2 1 2 1 1 0 1 2 2 2 2 2 2 5 5 4 5 5 6 6 3 2 3 5 5 4 3 1 0 2 3 2 3 2 0 0 0 0 0 0 0 0 0 0 0 0 0 0 0 0 0 0 0 0 0 0 0 0 0 0 2 4 8 17 24 32 38 45 50 58 64 72 76 83 88 94 98 103 106 108 112 113 112 110 108 107 108 110 111 113 116 119 119 118 118 117 119 118 118 118 119 122 124 125 124 126 128 128 127 126 124 125 127 127 129 130 134 135 137 137 135 135 133 134 134 136 138 139 139 139 140 141 140 138 137 136 137 138 138 139 138 137 138 139 141 140 140 138 139 139 140 140 140 141 142 143 144 144 147 148 147 147 148 149 150 151 149 146 147 149 151 151 150 152 152 151 151 152 154 153 151 152 152 151 151 151 152 150 148 147 145 146 147 150 148 146 144 144 145 145 147 147 147 145 145 145 144 143 141 141 138 137 138 137 134 135 126 90 31 0 0 0 0 0 0 0 1 2 0 0 0 0 0 0 0 0 0 0 0 0 0 0 0 0 0 0 0 0 0 0 0 0 0 0 0 0 0 0 0 0 0 0 0 0 0 0 0 0 0 0 0 0 0 0 0 0 0 0 0 0 0 0 0 0 0 0 0 0 2 4 4 8 10 8 8 9 7 6 5 6 7 7 8 6 7 8 11 11 11 10 11 12 12 12 15 17 16 15 14 13 12 11 9 7 8 8 8 9 6 7 8 9 7 7 10 9 9 11 10 10 11 10 8 8 6 3 1 2 3 4 5 6 6 5 5 5 5 6 7 8 8 7 8 7 8 5 5 5 7 9 10 10 14 15 14 14 12 12 10 10 9 10 9 7 8 9 7 7 8 9 13 15 15 15 13 14 14 15 16 17 19 19 17 17 17 15 15 15 16 17 15 12 11 11 10 11 12 12 13 14 15 17 19 18 19 18 19 20 21 20 20 21 22 23 25 24 23 22 22 20 19 21 25 24 22 23 24 26 27 27 27 23 23 22 23 23 21 20 21 23 22 21 20 20 22 21 23 25 
22 24 23 22 21 21 20 19 19 19 20 20 19 20 19 19 20 21 21 24 25 24 25 23 24 23 22 19 16 16 14 14 15 17 17 19 18 19 21 21 21 20 20 21 20 20 19 19 17 17 16 14 12 12 13 12 13 10 10 9 9 12 11 9 9 7 4 2 2 5 5 4 4 4 2 1 2 3 4 4 2 1 0 2 1 2 2 3 2 3 3 4 3 3 1 2 3 3 2 1 0 1 0 2 1 3 1 1 0 0 0 0 0 0 0 0 0 0 0 0 0 0 0 0 0 0 0 0 0 0 0 0 0 0 0 0 0 0 0 0 0 0 1 2 2 1 1 0 0 0 0 0 0 0 0 0 0 0 0 0 0 1 3 4 3 5 5 6 6 4 3 0 0 0 2 3 1 2 2 1 1 3 2 2 3 5 5 2 2 6 7 6 3 2 3 4 3 2 1 0 0 3 3 2 3 0 0 0 0 0 0 0 0 0 0 0 0 0 0 0 0 0 0 0 0 0 0 0 0 0 0 0 2 2 0 0 0 4 11 18 25 32 39 47 57 66 73 77 83 88 93 98 102 104 104 102 99 99 100 103 105 107 110 112 112 113 115 114 115 115 116 117 119 120 121 123 122 122 123 124 123 121 120 121 122 124 125 127 129 132 133 133 132 133 132 131 132 135 136 139 138 136 137 137 136 135 133 133 133 135 136 136 135 135 134 136 136 138 137 137 137 136 136 137 139 139 139 142 145 146 146 146 146 145 147 147 148 150 149 148 149 149 149 150 151 152 151 152 151 151 153 152 150 151 149 148 148 150 150 148 147 145 143 143 145 145 147 146 146 144 144 144 145 144 145 144 145 143 143 140 139 137 137 134 133 131 123 97 41 0 0 0 0 0 0 0 0 1 1 2 1 0 0 0 0 0 0 0 0 0 0 0 0 0 0 0 0 0 0 0 0 0 0 0 0 0 0 0 0 0 0 0 0 0 0 0 0 0 0 0 0 0 0 0 0 0 0 0 0 0 0 0 0 0 0 0 0 0 0 0 2 3 4 7 9 10 10 9 7 5 6 6 7 8 6 5 5 8 11 12 12 13 12 11 11 12 14 16 16 16 16 16 15 12 10 7 6 9 8 9 9 9 9 8 7 8 10 9 10 11 11 12 13 13 9 7 6 3 2 2 3 4 5 5 6 5 6 6 6 6 6 7 8 8 8 6 5 3 4 6 7 8 8 11 11 11 11 10 10 10 10 10 9 9 9 8 10 10 7 7 7 8 11 14 14 14 12 14 13 13 16 17 17 18 17 17 16 13 14 17 17 16 16 14 13 12 11 14 14 13 14 14 16 17 17 18 19 18 19 20 21 21 19 20 23 24 25 25 24 23 22 19 20 22 24 24 22 23 26 27 29 28 27 23 21 23 22 21 20 19 19 22 22 22 21 20 21 21 22 22 
20 20 22 23 23 21 20 19 20 18 18 19 19 19 20 19 20 21 22 26 26 26 26 26 27 25 23 20 18 17 16 14 14 16 17 18 19 19 22 22 22 21 22 21 19 20 21 18 16 17 17 16 15 14 14 12 13 12 10 10 9 9 8 7 5 5 2 2 3 4 4 2 1 1 2 1 1 3 4 6 4 3 0 3 3 2 2 2 3 3 3 3 5 4 4 3 2 3 2 2 0 0 0 0 1 2 0 0 0 0 0 0 0 0 0 0 0 0 0 0 0 0 0 0 0 0 0 0 0 0 0 0 0 0 0 0 0 0 0 0 0 2 3 3 2 0 0 0 0 0 0 0 0 0 0 0 0 0 0 1 0 0 4 5 4 5 5 5 4 2 0 0 0 0 1 2 2 2 2 2 1 2 4 5 6 5 4 1 3 7 7 6 5 2 2 2 3 1 0 0 1 2 2 2 1 0 0 0 0 0 0 0 0 0 0 0 0 0 0 0 0 0 0 0 0 1 1 0 0 0 0 0 0 0 0 0 0 0 0 0 0 4 10 19 30 42 49 57 64 71 77 83 87 91 93 91 91 91 93 94 98 101 103 104 103 105 108 107 108 108 111 112 114 116 118 118 119 120 120 120 120 117 116 118 119 120 122 123 125 127 129 128 130 131 131 128 129 131 133 135 135 134 133 134 132 131 129 129 131 131 133 132 131 129 130 132 133 136 136 134 133 132 134 136 138 138 140 142 143 145 146 145 144 145 146 146 147 148 149 149 149 148 150 151 152 152 151 152 151 149 148 147 146 145 145 144 146 149 150 149 146 144 143 142 144 145 146 145 144 142 142 141 142 143 143 143 141 141 140 137 136 135 132 130 126 105 48 2 0 0 0 0 0 0 0 0 0 0 1 0 0 1 2 1 0 0 0 0 0 0 0 0 0 0 0 0 0 0 0 0 0 0 0 0 0 0 0 0 0 0 0 0 0 0 0 0 0 0 0 0 0 0 0 0 0 1 2 1 0 0 0 0 0 0 0 0 0 0 0 0 0 1 3 5 8 9 10 11 9 7 8 8 7 6 5 5 5 6 9 11 12 13 14 12 12 13 15 16 17 15 15 16 16 12 11 8 8 8 10 9 11 11 10 9 8 10 10 12 11 10 11 13 13 14 11 9 8 5 3 4 4 6 7 7 5 6 6 8 6 6 7 7 7 9 7 4 4 2 4 5 7 7 7 9 10 9 9 9 9 8 9 8 8 8 8 9 10 10 7 7 7 8 10 12 13 14 13 11 12 12 14 16 16 16 16 15 13 13 13 18 18 14 14 13 14 13 12 14 12 12 13 14 14 17 17 17 19 20 17 20 20 19 19 18 21 23 23 23 24 23 22 21 22 23 23 22 23 24 26 26 27 28 26 23 20 21 20 20 20 20 20 21 21 21 22 22 21 21 21 21 
19 19 21 22 21 19 20 19 19 18 17 19 19 19 19 20 19 21 24 27 27 26 26 27 27 26 24 21 20 19 19 17 17 19 18 20 19 21 23 23 23 23 23 19 17 20 21 19 16 17 19 18 16 15 15 14 13 13 11 9 8 6 6 6 4 3 2 1 4 3 1 1 0 2 2 1 2 2 3 6 5 5 3 3 3 3 3 3 5 5 3 2 3 3 3 1 1 1 0 0 1 0 1 0 1 1 0 0 0 0 0 0 0 0 0 0 0 1 0 0 0 0 0 0 0 0 0 0 0 0 0 0 0 0 0 0 0 0 0 0 0 1 4 3 0 0 0 0 0 0 0 0 0 0 0 0 0 0 0 0 0 0 2 3 3 2 3 5 3 1 0 0 0 0 1 2 2 0 3 2 0 2 4 6 6 3 3 2 2 5 5 5 5 2 2 2 3 3 1 0 0 2 1 1 1 0 0 0 0 0 0 0 0 0 0 0 0 0 0 0 0 0 0 0 0 0 0 0 0 0 0 0 0 0 0 0 0 0 0 0 0 0 0 0 4 14 23 32 38 48 58 65 70 76 79 78 81 82 84 85 90 92 93 94 94 95 99 100 100 102 104 104 107 110 112 113 114 114 117 117 117 113 112 114 115 116 118 120 121 124 125 127 128 129 128 126 126 127 129 131 130 129 129 128 129 128 127 126 126 127 127 128 127 126 126 128 131 134 134 131 130 129 132 134 134 137 139 140 142 143 143 147 145 145 146 147 148 148 148 149 149 147 147 149 150 151 150 149 148 146 144 143 142 142 142 143 145 147 150 149 148 145 144 143 142 143 144 143 142 141 139 137 139 140 140 139 137 138 136 135 132 128 128 125 95 20 0 0 0 0 0 0 0 0 0 0 0 0 0 0 0 0 1 0 0 0 0 0 0 0 0 0 0 1 0 0 0 0 0 0 0 0 0 0 0 0 0 0 0 0 0 0 0 0 0 0 0 0 0 0 0 0 0 1 3 3 2 2 1 0 0 0 0 0 0 0 0 0 0 0 0 0 2 4 8 10 11 10 8 8 8 9 8 7 6 6 7 7 9 11 12 14 13 13 14 14 15 18 17 16 15 16 14 11 11 9 8 11 13 11 12 11 11 9 10 10 13 13 12 12 12 13 13 13 13 10 9 8 6 5 7 7 8 8 5 5 7 7 6 6 6 6 7 8 6 5 3 1 3 4 7 7 6 9 9 9 8 8 7 7 7 5 7 7 7 9 9 10 8 8 7 9 10 11 13 13 12 12 10 12 13 14 16 16 15 14 12 11 11 13 15 14 12 14 14 13 13 12 12 12 11 13 14 15 16 18 21 20 19 18 20 19 19 19 20 20 21 21 22 22 22 22 21 23 22 22 21 22 25 25 27 27 26 25 22 21 20 21 21 19 20 22 23 21 22 22 22 23 23 21 
20 19 20 21 20 18 18 19 20 21 20 19 21 20 20 19 18 21 23 24 24 25 26 26 26 25 23 24 22 21 21 20 20 22 22 21 22 24 23 23 23 23 23 18 16 17 19 17 17 18 19 17 16 15 13 13 12 11 10 8 6 6 7 6 5 4 3 1 1 2 2 1 2 2 2 2 1 4 4 5 4 5 4 4 3 4 4 3 3 2 4 3 3 2 3 0 0 0 0 0 0 0 0 0 1 0 0 0 0 0 0 0 0 0 0 0 0 0 0 0 0 0 0 0 0 0 0 0 0 0 0 0 1 1 0 0 0 0 0 0 0 3 3 0 0 0 0 0 0 0 0 0 0 0 0 0 0 0 0 0 0 0 1 1 2 2 2 3 1 0 0 0 0 0 1 2 2 1 3 4 4 4 5 5 4 2 3 2 2 3 6 4 4 2 2 1 3 4 2 2 0 1 1 1 1 0 0 0 0 0 0 0 0 0 0 0 0 0 0 0 0 0 0 0 2 1 0 0 0 0 0 0 0 0 0 0 0 0 0 0 0 0 0 0 0 1 5 13 18 26 36 43 50 58 62 65 69 71 74 75 77 82 84 85 85 86 88 91 91 92 94 97 101 104 107 108 108 110 110 110 110 110 111 109 110 111 113 115 118 121 123 125 126 126 125 123 124 125 126 127 128 126 124 123 123 122 123 124 123 122 122 123 122 122 122 125 126 128 129 128 128 129 131 133 134 136 136 138 138 139 142 145 145 145 145 146 147 145 147 147 147 145 145 145 146 148 148 148 147 145 143 141 140 141 141 142 144 147 148 147 146 144 144 141 139 140 141 142 141 140 137 135 135 136 136 134 133 133 131 129 127 132 129 83 11 0 0 0 0 0 0 0 0 0 0 0 0 0 0 0 0 0 0 0 0 0 0 0 0 1 0 1 2 1 1 1 0 0 0 0 0 0 0 0 0 0 0 0 0 0 0 0 0 0 0 0 0 0 0 0 0 0 0 0 2 1 2 1 1 1 0 0 0 0 0 0 0 0 0 0 0 0 2 4 8 10 9 8 7 8 9 10 11 9 9 10 8 8 9 9 10 13 12 13 13 14 17 18 18 17 17 16 14 10 10 9 9 12 13 12 11 11 12 11 10 12 14 13 13 13 13 13 13 13 12 10 10 9 9 8 7 7 7 8 7 6 7 9 7 5 5 6 6 6 6 5 3 1 3 5 6 5 6 7 7 8 7 6 6 5 6 4 5 5 7 8 9 8 9 8 9 9 10 11 12 12 11 10 9 10 12 14 14 15 14 10 8 9 8 12 13 14 11 12 13 12 11 10 10 10 11 12 14 16 15 17 18 19 18 18 20 21 21 21 18 17 17 20 21 21 21 20 20 22 24 23 21 21 25 25 26 28 27 25 23 23 22 23 25 23 24 23 22 22 24 23 24 23 23 22 
21 21 20 18 18 17 18 19 20 20 21 20 20 20 20 18 18 18 21 20 21 20 23 24 26 26 25 23 24 22 22 23 23 23 22 24 23 22 23 23 24 23 22 17 16 17 17 18 19 19 17 17 16 14 13 12 11 11 9 8 7 7 5 4 4 3 3 1 1 2 3 3 4 4 5 4 4 4 4 6 5 6 7 7 5 5 4 4 3 3 4 5 3 2 1 0 0 0 0 0 0 0 0 0 0 0 0 0 0 0 0 0 0 0 0 0 0 1 0 0 0 0 0 0 0 0 0 0 0 0 0 0 1 2 1 0 0 2 0 0 0 0 0 0 0 0 0 0 0 0 0 0 0 0 0 0 0 0 0 0 0 1 1 0 2 3 5 4 2 0 0 0 0 2 2 3 4 5 7 6 3 2 4 5 4 1 2 3 3 2 3 2 2 1 1 1 2 3 3 3 2 3 3 3 3 0 0 0 0 0 0 0 0 0 0 0 0 0 0 0 0 0 0 1 1 0 0 0 0 0 0 0 0 0 0 0 0 0 0 0 0 0 0 0 0 2 4 4 6 12 19 28 35 39 45 49 54 58 59 61 64 68 71 74 74 75 77 79 81 83 85 89 92 97 100 102 103 104 103 105 105 104 104 103 104 106 108 111 114 117 118 119 119 121 119 120 122 122 123 124 125 123 120 120 119 120 118 118 119 120 119 120 119 119 121 122 123 124 126 127 128 129 130 132 133 135 135 136 137 139 141 143 144 142 144 145 145 144 144 143 144 142 142 142 142 143 143 143 143 141 140 139 139 140 140 140 141 143 145 143 142 141 140 137 136 136 138 139 138 139 137 135 133 132 131 129 128 126 128 131 135 122 60 0 0 0 0 0 0 0 0 0 0 0 0 0 0 0 0 0 0 0 0 0 0 0 0 0 0 0 1 1 2 3 3 2 1 0 0 0 0 0 0 0 0 0 0 0 0 0 0 0 0 0 0 0 0 0 0 0 0 0 0 0 1 0 0 2 1 0 2 1 0 0 0 0 0 0 0 0 0 0 0 3 7 8 9 9 9 10 11 11 11 12 9 9 7 6 5 7 9 11 14 14 15 16 17 18 19 18 18 16 15 13 11 12 12 12 13 13 13 14 13 12 11 12 14 14 13 13 12 13 12 11 13 12 12 12 10 9 7 9 9 10 9 8 8 8 8 6 5 6 6 6 5 5 4 3 4 6 6 6 6 6 5 6 8 6 8 7 5 4 5 6 5 7 7 7 8 9 10 9 9 10 11 12 12 11 11 11 12 14 13 13 11 9 7 8 8 10 13 13 12 14 13 12 10 9 10 11 12 12 12 15 16 16 16 16 15 15 18 20 21 20 18 19 20 20 21 20 21 20 21 22 24 24 24 23 26 25 27 29 27 26 27 26 25 25 26 25 24 22 22 22 23 25 24 24 22 21 
21 20 18 15 15 15 17 19 19 20 19 20 19 18 20 18 17 19 21 20 19 20 21 23 23 25 25 25 24 23 23 24 25 24 25 23 21 21 23 24 23 23 22 17 15 16 16 16 18 17 17 18 17 14 13 12 11 12 9 7 6 6 4 4 3 3 2 3 3 5 4 4 2 3 4 5 5 6 7 7 9 10 8 8 7 6 4 4 3 5 4 4 2 1 0 0 0 1 0 0 0 0 0 0 0 0 0 0 0 0 0 0 0 0 0 0 0 0 1 0 0 0 0 0 0 0 0 0 0 0 0 0 1 0 0 2 2 2 2 0 0 0 0 0 0 0 0 0 0 0 0 0 0 0 0 0 0 0 0 0 0 0 1 2 2 4 4 4 1 0 0 0 0 1 3 4 6 7 7 7 4 3 4 6 5 2 1 1 2 1 0 1 0 1 0 1 3 4 3 3 3 3 3 4 2 0 0 0 0 0 0 0 0 0 0 0 0 0 0 0 0 0 0 2 0 0 0 0 0 0 0 0 0 0 0 0 0 0 0 0 0 1 1 2 1 0 1 1 1 2 7 14 21 27 34 40 44 46 47 50 53 56 59 63 65 65 67 68 72 73 76 80 84 87 91 93 94 96 96 97 98 98 98 97 99 101 105 108 111 114 114 114 113 113 115 114 116 118 118 118 120 121 118 115 116 115 114 115 117 119 119 120 119 118 120 120 121 125 127 127 128 128 127 129 133 134 134 133 135 138 140 142 143 142 143 145 143 142 141 141 141 141 140 140 140 140 141 142 140 138 138 138 138 138 138 138 139 141 141 141 139 138 137 134 135 135 136 137 138 137 136 133 130 129 125 123 128 134 136 127 86 24 0 0 0 0 0 0 0 0 0 0 0 0 0 0 0 0 0 0 0 0 0 0 0 0 0 0 0 1 2 2 3 4 4 2 1 3 0 0 0 0 0 0 0 0 0 0 0 0 0 0 0 0 0 0 0 0 0 0 0 1 1 0 0 0 0 1 2 2 3 2 0 0 0 0 0 1 1 0 1 0 0 2 4 8 11 12 11 11 12 11 12 9 8 7 7 5 4 6 9 11 13 14 14 16 17 19 19 18 19 17 14 13 13 12 14 13 13 12 13 14 14 13 11 13 14 15 13 10 11 11 10 11 12 12 11 13 12 10 8 9 11 10 10 7 6 7 5 4 4 5 5 6 6 6 4 5 4 7 6 6 5 5 5 5 5 7 7 5 5 3 2 2 2 4 7 8 7 8 9 9 9 9 10 11 12 12 12 12 12 13 11 12 11 10 10 8 7 10 13 13 13 12 14 11 9 9 8 10 10 9 10 12 14 16 15 15 15 15 16 19 19 19 18 21 22 24 22 21 22 21 19 20 23 24 23 23 25 26 27 27 28 30 29 27 25 26 27 26 25 22 21 21 23 23 23 22 21 21 
19 19 16 16 15 14 15 18 21 19 20 20 19 19 19 17 19 19 21 21 21 20 21 22 24 24 23 23 23 22 23 25 26 25 23 20 19 20 21 20 21 22 19 18 18 17 17 18 18 16 16 17 16 13 13 13 13 12 10 7 5 5 5 4 3 4 4 5 6 6 5 2 2 2 2 3 4 7 8 9 10 12 10 9 8 7 6 6 4 3 3 2 1 1 0 0 0 0 0 0 0 0 0 0 0 0 0 0 0 0 0 0 0 0 0 0 0 0 0 0 0 0 0 0 0 0 0 2 3 2 0 1 2 1 1 2 2 1 0 0 0 0 0 0 0 0 0 0 0 0 0 0 0 0 0 0 0 0 0 0 0 0 2 3 1 2 3 2 2 0 0 0 0 2 4 4 6 7 5 5 5 3 4 5 5 2 1 2 3 2 2 1 1 0 1 2 4 4 3 3 4 4 3 2 0 0 0 0 0 0 0 0 0 0 0 0 0 0 0 0 0 0 0 1 0 0 1 0 0 0 0 0 0 0 0 2 2 0 0 0 0 0 0 0 0 0 0 0 0 0 0 2 7 13 22 30 34 39 42 45 48 50 54 58 59 58 60 65 66 68 71 74 77 80 84 85 88 90 90 91 93 92 92 93 95 97 101 106 109 109 110 109 109 111 110 110 111 113 113 115 118 118 114 113 114 114 114 114 115 118 119 119 118 119 119 120 123 126 127 126 127 125 125 127 129 131 132 133 134 137 138 141 141 141 142 141 141 139 137 136 138 140 141 138 137 137 140 140 137 136 135 135 136 137 138 138 137 139 139 140 139 137 135 134 133 133 134 134 135 133 133 131 127 124 128 135 136 128 94 33 0 0 0 0 0 0 0 0 0 0 0 0 0 0 0 0 0 0 0 0 0 0 0 0 0 1 2 2 1 2 3 3 4 3 2 1 1 2 0 1 1 2 2 2 0 0 0 0 0 0 0 0 2 0 0 0 0 0 0 0 2 3 2 2 1 0 1 1 2 3 4 4 3 0 1 0 1 2 3 2 2 0 1 3 6 10 12 13 11 10 11 11 10 9 7 8 6 5 5 8 9 10 13 15 14 16 17 17 18 17 18 18 16 14 15 13 13 13 13 13 13 12 13 13 12 13 14 17 15 11 11 12 11 11 11 11 11 12 11 11 9 8 11 11 9 7 5 5 5 4 5 4 5 5 5 6 7 6 4 5 5 4 4 4 5 4 5 5 6 5 4 2 1 1 1 1 3 4 6 9 9 10 11 11 12 11 13 13 12 12 11 10 10 11 11 11 10 8 9 11 13 14 13 12 12 11 9 6 8 7 6 6 8 10 13 13 15 14 15 15 16 19 18 17 19 21 22 21 22 22 22 20 20 20 20 22 21 21 22 22 24 26 28 29 30 28 26 26 26 25 24 22 20 20 21 21 21 22 20 20 
18 15 14 15 13 14 16 19 21 22 21 21 19 20 21 18 19 21 20 22 21 20 22 23 22 24 23 23 24 23 25 25 25 23 21 18 19 20 19 18 17 19 19 21 18 18 19 18 17 15 15 15 15 15 16 15 15 12 8 7 5 5 4 5 4 3 6 7 5 4 4 3 3 2 1 3 4 6 8 9 10 11 10 9 7 6 7 6 4 2 1 0 0 0 0 0 0 0 0 0 0 0 0 0 0 0 0 0 0 0 0 0 0 0 0 0 0 0 0 0 0 0 0 0 1 0 3 3 3 4 2 1 2 0 0 0 1 0 0 0 0 0 0 0 0 0 0 0 0 0 0 0 0 0 0 0 0 0 0 0 0 0 1 2 1 1 1 3 1 0 0 0 1 4 6 6 7 6 6 6 7 5 2 2 4 4 3 1 2 3 5 4 3 4 5 6 7 6 5 4 4 3 2 1 0 0 0 0 0 0 0 0 0 0 0 0 0 0 0 0 0 0 0 0 0 0 2 0 1 1 0 0 0 0 0 1 0 0 0 0 0 0 0 0 0 0 0 0 0 0 0 0 0 0 6 16 23 30 35 38 41 46 50 53 54 54 57 60 62 63 65 69 72 75 79 82 84 86 87 88 89 90 90 91 93 96 99 102 105 105 105 106 107 108 107 106 108 109 110 112 115 116 113 112 113 112 113 113 116 118 121 120 118 118 117 120 122 124 124 125 124 123 123 124 126 128 130 131 132 134 137 138 139 139 138 139 137 134 132 133 135 137 137 136 135 137 138 137 135 133 134 134 135 136 136 136 136 138 138 137 136 135 133 132 132 130 129 130 129 129 127 126 129 137 140 134 106 44 0 0 0 0 0 0 0 0 0 0 0 0 0 0 0 0 0 0 0 0 0 0 0 0 0 0 0 2 3 3 2 4 3 3 1 1 2 1 2 1 0 1 2 2 4 2 1 0 0 1 1 0 0 2 3 1 0 0 0 0 0 2 4 3 3 3 2 1 1 3 3 4 5 6 3 1 2 2 1 0 1 1 1 0 2 6 8 12 13 13 11 10 10 10 9 8 9 9 6 5 7 8 9 9 12 14 14 14 17 17 18 18 18 19 18 15 15 15 13 14 13 14 13 11 12 14 13 12 13 14 13 12 12 11 10 10 10 9 11 12 11 10 9 9 12 13 9 7 6 5 5 5 6 6 7 5 5 7 8 7 5 5 5 4 3 4 4 3 4 5 4 7 5 3 1 0 1 0 2 3 6 7 8 10 12 12 11 11 12 12 13 12 11 11 9 11 11 9 8 7 9 12 13 14 14 10 7 6 3 3 6 6 5 5 5 6 10 11 12 14 14 15 17 20 18 19 20 21 21 21 22 24 23 20 19 18 19 20 21 20 21 22 24 24 25 28 30 28 26 24 24 24 23 21 20 20 21 23 23 22 21 20 
14 12 13 13 12 12 15 21 22 23 23 20 19 20 19 18 19 21 20 21 23 21 20 21 22 23 23 24 25 23 23 24 24 24 23 21 20 21 19 18 16 19 19 20 19 18 19 17 16 16 14 15 17 17 17 16 13 12 8 7 6 4 5 5 4 3 5 5 4 3 4 5 3 1 2 2 4 8 10 10 9 10 9 9 8 9 7 6 6 4 2 1 1 1 0 0 0 0 0 0 0 0 0 0 0 0 0 0 0 0 0 0 0 0 0 0 0 0 0 0 0 0 0 0 1 3 4 5 6 4 2 1 1 0 0 0 0 0 0 0 0 0 0 0 0 0 0 0 0 0 0 0 0 0 0 0 0 0 0 0 0 0 0 0 0 0 0 0 0 0 0 0 3 4 5 7 7 6 4 4 6 5 2 3 4 4 3 3 4 4 7 7 6 6 7 7 7 7 5 3 3 4 1 0 0 0 0 0 0 0 0 0 0 0 0 0 0 0 0 0 0 0 0 0 1 0 0 0 0 0 0 0 0 0 0 0 0 0 0 0 0 0 0 0 0 0 0 0 0 0 0 0 0 0 0 0 9 16 23 28 33 38 42 45 47 47 51 55 58 58 61 65 68 72 75 78 81 83 84 86 87 87 88 87 90 93 95 98 101 100 101 101 102 104 103 105 105 107 107 109 111 113 112 111 111 111 112 113 116 120 120 120 120 118 117 119 122 122 123 124 124 121 120 120 123 125 129 129 131 131 134 135 136 135 134 134 132 131 130 131 131 133 135 135 135 133 134 132 130 130 131 132 133 134 133 133 135 136 135 133 133 130 129 129 128 126 123 123 125 129 136 141 143 138 114 58 2 0 0 0 0 0 0 0 0 0 0 0 0 0 0 0 0 0 0 0 0 0 0 0 0 0 0 0 0 1 2 3 2 2 3 0 0 0 1 1 1 0 1 0 1 1 2 2 0 0 2 5 5 4 3 3 3 0 0 0 1 3 3 4 5 5 4 4 4 2 2 2 3 4 6 6 3 1 1 1 1 0 0 0 0 2 4 6 9 11 13 12 12 9 8 7 8 8 8 8 6 6 8 9 9 11 13 15 16 15 15 15 17 17 18 17 17 17 16 15 15 15 15 15 14 11 13 12 14 12 13 14 12 12 11 9 8 9 9 9 10 11 12 11 9 10 12 12 11 7 5 5 5 5 5 6 6 7 7 8 8 8 7 5 5 5 4 4 3 3 4 6 5 6 5 5 1 0 0 0 2 5 6 8 9 10 12 13 12 11 11 11 11 12 12 11 11 11 10 8 8 7 9 12 14 14 10 7 5 3 3 3 5 6 6 5 5 6 9 11 12 12 14 15 17 20 20 20 21 20 19 19 20 22 21 20 19 19 20 21 20 20 20 20 23 21 24 24 25 25 23 22 23 24 24 23 22 21 22 24 24 22 19 17 
11 12 12 12 12 14 17 20 21 21 20 20 18 18 19 18 18 20 20 21 22 23 22 21 22 22 23 24 23 23 24 25 24 25 24 23 19 20 19 17 17 18 18 19 17 17 18 18 17 14 14 16 19 20 17 15 14 13 11 8 6 5 6 5 3 4 5 5 4 2 3 4 2 0 2 3 5 7 8 11 9 8 8 9 9 9 7 7 6 5 3 1 0 0 0 0 0 0 0 0 0 0 0 0 0 0 0 0 0 0 0 0 0 0 0 0 0 0 0 0 0 0 1 3 3 4 4 4 5 3 1 0 0 0 0 0 0 0 0 0 0 0 0 0 0 0 0 0 0 0 0 0 0 0 0 0 0 0 0 0 0 0 0 0 0 0 0 0 0 0 0 0 2 2 2 4 5 3 1 1 3 4 3 3 4 6 6 3 3 3 6 7 6 7 7 7 6 5 2 2 2 2 0 0 0 0 0 0 0 0 0 0 0 0 0 0 0 0 0 0 0 0 0 1 0 0 0 0 0 0 0 0 0 0 0 0 0 0 0 0 2 1 0 0 0 0 0 0 0 0 0 0 0 0 0 0 0 2 9 13 20 27 33 36 38 40 44 48 52 55 56 60 63 66 71 75 76 78 80 82 83 83 84 84 86 88 92 94 95 95 95 93 97 100 101 102 101 102 103 105 107 110 110 109 110 110 111 113 116 117 118 120 120 118 118 118 119 119 119 121 121 120 120 120 122 123 126 128 128 129 131 133 134 133 132 131 129 127 126 127 127 131 132 133 131 130 130 129 126 126 127 129 130 130 128 130 131 132 130 128 127 125 124 123 122 119 121 127 138 143 146 143 126 77 13 0 0 0 0 0 0 0 0 0 0 0 0 0 0 0 0 0 0 0 0 0 0 0 0 0 0 0 0 0 0 2 3 4 3 3 4 1 2 2 2 3 1 2 1 1 0 1 1 2 1 2 4 6 7 5 4 5 2 1 0 0 0 1 2 5 7 8 7 7 4 2 1 1 2 4 5 5 3 0 1 2 1 1 0 0 0 3 5 6 7 9 11 11 10 9 6 7 8 9 9 8 8 8 10 11 12 12 13 16 14 13 13 14 15 16 16 16 15 16 17 17 16 16 15 15 13 12 13 14 14 13 15 14 12 9 8 8 9 9 9 11 12 11 11 12 10 10 11 12 10 8 7 6 6 5 7 8 8 8 8 7 8 7 7 6 6 5 4 5 5 3 4 5 4 3 4 3 0 0 0 1 2 6 8 10 10 9 10 11 9 10 9 9 11 11 12 10 11 12 12 9 7 7 9 11 12 12 10 8 6 3 3 2 4 7 6 6 5 8 9 11 12 12 12 14 17 19 19 20 22 20 17 17 18 18 19 19 18 20 22 22 23 23 22 20 21 20 22 22 23 22 21 21 22 23 22 22 22 22 22 24 24 22 19 13 
12 12 12 13 13 14 17 20 20 20 19 18 18 16 17 18 18 19 19 22 24 24 24 23 24 24 24 24 23 23 22 24 24 23 24 22 19 21 19 18 19 18 17 17 18 16 15 15 16 15 15 16 17 18 17 16 16 15 13 10 7 5 7 7 7 6 6 5 5 4 2 4 2 1 1 2 4 7 8 10 8 9 8 9 8 7 5 4 4 2 0 0 0 0 0 0 0 1 0 0 0 0 0 0 0 0 0 0 0 0 0 0 0 0 0 0 0 0 0 0 0 0 1 1 3 2 3 4 5 5 0 0 0 0 0 0 0 0 0 0 0 0 0 0 0 0 0 0 0 0 0 0 0 0 0 0 0 0 0 0 0 0 0 0 0 0 0 0 0 0 0 1 1 1 1 2 2 2 1 1 2 4 4 3 4 5 6 4 2 0 2 3 5 3 3 5 5 3 3 2 2 1 0 0 0 0 0 0 0 0 0 0 0 0 0 0 0 0 0 0 0 1 0 0 0 0 0 0 0 0 0 0 0 0 0 0 0 0 0 0 0 0 0 0 0 0 0 0 0 0 0 0 0 0 0 0 0 0 0 0 5 12 19 24 27 32 36 41 46 48 50 54 57 60 66 71 71 73 75 78 79 79 80 81 81 84 87 87 88 89 88 90 93 96 97 98 97 97 97 102 104 106 108 107 108 108 109 111 113 114 116 119 117 116 115 116 118 117 118 118 120 120 119 118 121 122 125 126 127 126 129 129 130 130 128 127 124 123 123 123 126 127 127 127 127 127 126 125 124 123 123 123 123 122 124 126 125 125 124 122 119 116 116 117 124 131 138 142 145 143 128 92 29 0 0 0 0 0 0 0 0 0 0 0 0 0 0 0 0 0 0 0 0 0 0 0 0 0 0 0 0 0 0 0 1 5 4 4 4 4 5 4 3 3 5 4 3 2 3 2 1 0 2 3 3 3 5 7 7 7 6 5 5 3 1 1 1 2 3 5 7 8 9 8 6 4 3 3 4 4 5 5 4 2 2 1 1 0 2 0 1 2 4 6 8 8 11 11 8 7 6 9 9 10 10 10 11 11 12 12 13 12 13 13 13 12 12 12 14 16 17 17 15 16 18 19 17 16 17 16 15 14 14 15 15 13 13 14 11 9 9 10 9 8 10 12 12 12 12 13 11 11 13 13 11 8 6 4 6 7 9 9 9 9 9 7 5 5 6 7 6 6 5 6 5 4 4 4 5 5 4 3 0 0 0 2 4 7 9 9 9 8 8 8 9 11 10 9 9 10 9 9 11 11 11 10 7 6 7 8 8 11 10 11 7 4 4 4 6 7 8 8 7 8 10 11 11 11 10 12 15 16 17 20 20 19 18 16 17 18 19 20 19 22 23 25 25 25 22 20 19 21 21 22 23 21 19 20 21 22 21 22 22 20 19 21 21 19 16 13 
13 13 13 13 13 15 17 18 19 19 17 17 18 18 19 19 20 20 21 24 25 25 25 25 24 24 25 25 24 25 24 24 22 21 23 21 20 20 19 19 19 18 17 18 17 16 17 17 17 16 16 16 17 18 19 17 16 16 15 13 10 7 9 8 7 7 8 8 6 6 5 4 3 1 2 3 5 7 7 8 8 8 8 8 8 7 6 2 0 0 0 0 0 0 0 0 0 2 0 0 0 1 0 0 0 0 0 0 0 0 0 0 0 0 0 0 0 0 0 0 0 0 0 0 0 3 2 2 3 1 0 0 0 0 0 0 0 0 0 0 0 0 0 0 0 0 0 0 0 0 0 0 0 0 0 0 0 0 0 0 0 0 0 0 0 0 1 1 1 0 0 1 1 1 0 0 0 0 0 0 0 1 2 4 5 5 4 2 0 0 0 1 1 0 0 1 2 4 5 4 2 1 2 0 0 0 0 0 0 0 0 0 0 0 0 0 0 0 0 0 0 0 0 0 0 0 0 0 0 0 0 0 0 0 0 0 0 0 0 0 0 0 0 0 0 0 0 0 0 0 0 0 0 0 0 0 0 0 0 0 0 0 1 6 12 21 25 31 35 41 44 46 50 54 59 63 65 67 67 71 74 75 76 75 77 79 82 82 83 84 85 85 89 92 93 94 94 94 96 99 102 103 105 105 105 106 106 107 109 109 112 114 114 114 114 115 115 114 113 114 118 119 120 120 120 122 122 123 125 124 125 127 126 126 126 124 121 120 120 121 123 122 121 122 122 122 122 121 118 117 116 116 117 118 118 117 116 115 114 113 112 116 126 135 142 144 142 134 114 71 28 0 0 0 0 0 0 0 0 0 0 0 0 0 0 0 0 0 0 0 0 0 0 0 0 0 0 0 0 0 0 0 0 1 2 5 4 4 5 6 6 7 6 6 8 7 4 3 3 2 1 2 2 2 2 4 5 6 7 7 7 6 6 4 3 3 1 1 5 4 7 7 9 8 7 6 5 5 6 6 5 6 5 4 3 3 3 3 3 2 4 3 5 6 9 9 10 10 9 10 9 11 12 11 11 11 12 11 14 13 13 12 11 11 13 14 13 12 15 17 16 17 18 17 19 21 19 18 17 16 16 17 16 16 15 14 13 13 12 10 8 10 9 7 10 11 14 14 13 13 13 10 12 12 10 8 7 5 5 7 8 9 10 9 7 5 5 5 5 5 5 4 5 4 6 5 3 3 6 6 6 5 2 0 2 3 4 5 7 9 9 9 9 8 8 9 9 10 9 11 10 9 10 12 13 10 8 7 8 6 9 12 11 9 8 5 4 4 7 6 7 8 8 10 10 11 11 10 9 11 14 16 17 20 20 18 17 18 18 18 18 18 19 20 21 24 24 23 22 21 20 20 21 21 20 20 19 20 21 22 20 19 20 20 16 18 18 17 15 13 
14 15 13 13 14 17 17 18 19 18 16 17 18 19 22 21 23 25 24 25 25 25 25 26 23 23 25 26 28 29 26 24 24 22 23 22 19 18 19 18 18 19 17 18 19 18 18 18 18 17 17 17 17 18 18 17 16 17 15 14 11 9 11 11 10 9 8 9 8 6 6 7 5 2 4 5 7 5 7 6 6 6 7 7 7 7 5 2 0 0 0 0 0 0 0 0 0 1 0 0 0 0 0 0 0 0 0 0 0 0 0 0 0 0 0 0 1 0 0 0 0 0 0 0 0 0 0 0 1 0 0 0 0 0 0 0 0 0 0 0 0 0 0 0 0 0 0 0 0 0 0 0 0 0 0 0 0 0 0 0 0 0 0 0 0 3 5 5 4 3 2 2 1 1 0 0 0 0 0 0 0 0 0 0 1 2 1 0 0 0 0 3 2 0 0 0 1 4 6 5 2 3 3 2 0 0 0 0 0 0 0 0 0 0 0 0 0 0 0 0 0 0 0 0 0 0 0 0 0 0 0 0 0 0 0 0 0 0 0 0 0 0 0 0 0 0 0 0 0 0 0 0 0 0 0 1 0 0 0 0 0 0 0 0 0 0 7 14 22 30 34 38 42 46 51 53 55 58 61 63 66 71 70 71 73 75 76 77 79 81 83 84 86 89 88 90 90 92 93 95 98 101 101 103 101 101 101 102 105 107 107 111 111 111 111 110 111 111 111 111 115 115 115 116 117 118 120 120 121 121 122 124 122 121 122 123 119 116 117 118 119 117 116 117 117 116 117 115 111 111 111 111 111 109 109 107 108 110 116 122 130 137 140 142 140 127 96 48 9 0 0 0 0 0 0 0 0 0 0 0 0 0 0 0 0 0 0 0 0 0 0 0 0 0 0 0 0 0 0 0 0 0 1 2 1 2 4 5 6 7 9 9 8 8 10 10 7 5 4 3 3 1 2 1 3 5 5 5 6 7 6 5 5 4 4 2 1 1 3 2 3 5 8 6 5 4 4 5 7 7 6 6 7 4 3 4 4 3 4 4 5 5 6 9 9 10 10 11 11 12 11 13 14 11 11 10 11 11 14 14 13 12 12 13 14 13 12 12 13 15 16 17 17 17 18 19 19 16 16 17 17 17 16 14 13 13 14 14 14 12 9 9 8 5 7 11 14 12 14 13 13 9 10 12 10 9 6 5 7 7 8 9 9 9 8 6 6 5 5 6 5 4 3 4 6 5 4 5 4 5 7 8 4 2 4 4 4 4 4 7 8 8 7 8 6 6 7 8 10 9 9 11 11 12 13 12 11 11 9 10 10 11 10 9 8 7 6 6 6 7 8 6 7 9 9 11 11 11 11 12 14 14 16 17 16 17 18 19 18 17 16 17 17 19 19 21 22 23 22 21 21 20 20 20 20 20 19 18 19 18 18 19 19 18 15 15 16 15 14 14 
13 11 13 14 16 17 18 18 18 18 16 17 20 21 22 24 26 26 27 26 26 25 25 25 23 23 24 27 29 30 28 27 26 25 24 23 19 18 19 17 18 17 17 19 20 19 18 20 20 20 20 17 16 14 17 18 17 16 15 14 11 11 13 13 12 11 11 12 10 8 6 8 7 5 5 6 7 5 5 6 6 6 7 7 8 7 6 3 0 0 0 0 0 0 0 0 0 0 1 0 0 0 0 0 0 0 0 0 0 0 0 0 0 0 0 1 2 0 0 0 0 0 0 0 0 0 0 0 0 0 0 0 0 0 0 0 0 0 0 0 0 0 0 0 0 0 0 0 0 0 0 0 0 0 0 0 0 0 0 0 0 0 0 0 3 4 6 5 5 6 3 3 1 1 0 0 0 0 0 0 0 0 0 0 0 1 0 0 0 0 0 2 0 0 0 0 3 4 6 6 5 5 4 4 4 0 0 0 0 0 0 0 0 0 0 0 0 0 0 0 0 0 0 0 0 0 0 0 0 0 0 0 0 0 0 0 0 0 0 0 0 0 0 0 0 0 0 0 0 0 0 1 0 0 0 0 6 11 11 8 6 1 0 0 0 0 0 0 2 11 17 23 28 34 38 41 44 49 53 58 61 63 64 65 67 69 71 72 73 76 78 81 81 82 83 86 86 88 88 91 92 93 95 97 95 96 96 96 98 100 102 106 107 107 108 107 107 109 109 108 110 110 111 111 112 115 116 117 118 119 121 120 117 117 118 117 115 112 113 113 112 112 111 111 111 110 110 110 106 105 104 102 103 105 108 115 123 131 138 141 140 138 131 112 70 28 0 0 0 0 0 0 0 0 0 0 0 0 0 0 0 0 0 0 0 0 0 0 0 0 0 0 0 0 0 0 0 0 0 0 0 0 0 1 1 2 4 5 6 8 10 11 12 13 13 11 9 5 5 3 2 1 2 3 4 5 5 5 7 7 6 4 3 3 2 2 3 1 2 1 3 4 6 5 5 5 5 5 7 8 6 6 5 5 4 6 4 3 3 3 6 6 7 8 9 10 11 13 13 11 13 14 14 12 9 10 10 11 12 14 14 13 12 13 15 14 12 12 13 15 16 15 15 16 17 15 16 16 17 17 17 15 14 13 10 12 15 15 14 11 10 9 8 6 6 8 10 11 13 13 11 10 11 10 10 8 7 6 6 8 8 8 7 8 8 7 8 7 5 5 4 5 4 5 6 6 5 4 3 5 7 8 7 6 5 5 5 5 3 5 5 6 6 7 8 7 6 6 6 7 9 10 11 12 12 13 12 13 12 12 12 10 11 9 8 8 7 6 5 7 6 6 7 9 9 11 10 11 12 14 12 13 16 15 16 17 16 16 17 17 14 14 15 18 19 20 21 22 20 20 20 20 18 19 19 19 18 17 16 17 19 19 19 18 17 15 15 14 14 13 
12 11 12 14 16 16 16 16 16 17 16 17 18 20 21 23 26 26 26 26 25 23 25 24 22 23 25 25 28 30 28 27 26 25 25 23 20 18 17 17 17 16 16 18 18 18 19 21 21 21 20 19 16 17 18 19 17 18 15 13 11 13 13 14 13 11 13 13 12 10 8 7 8 9 9 9 7 6 6 7 9 7 6 7 9 8 6 4 2 0 0 0 0 0 0 0 0 0 1 0 0 0 0 0 0 0 0 0 0 0 0 0 0 1 0 2 2 0 0 1 0 1 0 0 0 0 0 0 0 0 0 0 0 0 1 2 2 2 0 0 0 0 0 0 0 0 0 0 0 0 0 0 0 0 0 0 0 0 0 0 0 0 0 1 4 6 7 6 6 7 4 4 2 1 0 0 0 0 0 0 0 0 0 0 0 0 0 0 0 0 0 0 0 0 0 2 3 5 6 6 4 6 6 5 4 1 1 0 0 0 0 0 0 0 0 0 0 0 0 0 0 0 0 0 0 0 0 0 0 0 0 0 0 0 0 0 0 0 0 0 0 0 0 0 0 0 0 0 0 0 0 0 0 0 0 0 0 0 12 19 25 31 31 24 16 6 0 0 0 0 0 0 9 17 22 27 34 40 46 49 52 55 57 57 60 61 62 64 66 68 71 74 75 76 77 79 81 83 83 83 84 86 90 91 91 91 92 93 94 96 97 99 101 101 101 102 102 105 104 103 102 103 105 105 109 110 112 113 114 116 117 116 113 113 115 114 111 108 108 105 106 105 105 104 104 102 102 102 100 99 102 109 117 124 131 136 138 141 142 138 125 91 45 10 0 0 0 0 0 0 0 0 0 0 0 0 0 0 0 0 0 0 0 0 0 0 0 0 0 0 0 0 0 0 0 0 0 0 0 0 0 0 1 1 0 0 4 5 5 7 11 14 15 15 15 13 11 8 6 4 2 3 3 4 4 6 5 6 7 7 6 4 2 3 2 0 2 2 2 3 2 4 4 5 5 6 7 8 9 10 9 8 7 6 5 5 5 2 2 2 3 4 5 7 9 10 13 15 14 12 13 12 11 9 8 10 9 9 12 13 14 13 14 15 14 14 11 10 12 16 16 14 12 13 15 14 15 16 15 16 14 13 13 10 9 10 11 14 14 11 11 11 8 9 7 8 10 12 13 11 11 10 11 11 9 7 7 7 7 7 5 5 8 9 9 9 8 7 7 6 6 5 5 6 6 6 3 1 2 5 5 7 7 5 5 5 4 4 4 4 6 6 7 7 8 8 7 6 5 6 8 8 8 10 11 13 14 14 13 14 12 10 9 9 9 9 7 6 5 8 8 8 7 7 10 11 12 13 13 16 14 12 14 15 16 14 14 14 16 16 14 13 15 19 18 18 19 20 19 17 18 16 17 18 19 18 17 15 16 17 17 17 17 18 16 15 14 15 14 14 
12 12 12 12 14 15 15 15 16 17 15 16 18 19 20 22 25 25 24 25 23 22 22 22 22 22 22 22 24 27 27 27 27 25 24 22 19 17 14 15 16 14 15 15 16 18 19 20 21 20 21 18 18 19 18 19 20 20 18 15 13 12 13 15 12 11 12 14 12 10 8 8 9 8 8 8 7 8 8 7 7 7 5 7 8 8 7 5 2 0 0 0 0 0 0 0 0 1 2 0 0 0 0 0 0 0 0 0 0 0 0 0 2 3 2 2 2 2 2 2 1 1 0 0 0 0 0 0 0 0 0 0 0 0 1 4 3 1 0 0 0 0 0 0 0 0 0 0 0 0 0 0 0 0 0 0 0 0 0 0 0 2 1 0 1 3 7 7 7 5 4 4 1 1 0 0 0 0 0 0 0 0 0 0 1 0 0 0 0 0 0 0 0 0 0 1 1 2 4 5 4 3 4 5 3 1 0 0 0 0 0 0 0 0 0 0 0 0 0 0 0 0 0 0 0 0 0 0 0 0 0 0 0 0 0 0 0 0 0 0 0 0 0 0 0 0 0 0 0 0 0 0 0 0 0 0 0 0 0 0 3 19 32 42 46 45 40 29 21 14 7 2 0 0 3 10 18 26 32 37 40 44 47 47 49 52 53 55 57 60 63 67 69 70 72 76 76 77 77 77 78 79 85 85 87 87 87 87 89 91 92 94 95 95 96 96 96 97 98 97 96 97 99 101 104 104 104 107 108 109 110 110 108 110 110 110 106 102 100 99 98 97 98 98 98 98 101 107 113 120 126 134 137 139 140 137 133 124 108 68 25 0 0 0 0 0 0 0 0 0 0 0 0 0 0 0 0 0 0 0 0 0 0 0 0 0 0 0 0 0 0 0 0 0 0 0 0 0 0 0 0 0 0 0 0 0 2 4 5 9 11 13 16 17 15 15 11 8 6 4 3 2 3 3 5 6 7 8 6 6 3 1 1 3 2 0 2 3 2 2 2 2 4 4 6 8 9 9 10 9 10 9 9 6 4 4 4 2 0 2 2 4 5 5 6 7 11 14 15 13 11 10 8 8 9 9 9 10 11 12 13 14 15 16 16 15 11 10 13 14 14 12 10 9 11 10 12 13 13 12 13 13 13 9 8 9 9 11 11 9 9 8 9 8 8 10 9 12 13 13 12 10 9 11 10 8 8 6 6 6 5 5 8 11 11 11 11 10 10 9 8 7 7 7 6 4 2 2 2 4 4 5 5 5 4 4 3 4 7 7 7 10 8 9 8 7 7 8 6 6 5 5 6 9 10 12 13 14 14 12 11 8 8 8 9 7 5 6 6 9 11 9 8 8 10 13 14 15 16 16 15 12 12 12 12 12 12 12 14 15 15 14 14 17 18 17 19 18 16 16 13 14 16 18 19 20 17 14 14 17 17 15 16 15 14 15 14 15 14 13 
14 13 11 12 15 15 13 13 14 16 16 15 17 17 19 22 22 22 23 22 20 19 21 19 20 20 19 20 22 24 25 25 24 23 22 19 18 14 13 14 14 13 15 15 15 16 18 19 21 20 19 19 19 19 20 22 21 19 19 16 12 13 15 15 12 10 11 13 13 11 11 10 9 8 8 8 9 9 7 6 7 7 6 8 9 9 8 6 3 0 0 0 0 0 0 0 1 2 2 0 0 0 0 0 0 0 0 0 0 0 0 3 3 2 4 3 2 3 3 4 2 1 0 0 0 0 0 0 0 0 0 0 0 0 0 2 2 0 0 0 0 0 0 0 0 0 0 0 0 0 0 0 0 0 0 0 0 0 0 0 0 0 1 0 0 1 4 4 5 4 4 3 2 1 0 0 0 0 0 0 0 0 1 1 2 1 0 0 0 0 1 1 1 0 0 0 0 0 1 2 2 3 5 5 2 0 0 0 0 0 0 0 0 0 0 0 0 0 0 0 0 0 0 0 0 0 0 0 0 0 0 0 0 0 0 0 0 0 0 0 0 0 0 0 0 0 0 0 0 0 0 0 0 0 0 0 0 0 0 0 0 0 0 12 29 42 49 53 53 52 50 48 44 37 29 22 18 16 17 21 25 31 33 34 36 37 41 43 46 51 54 57 59 62 65 68 69 70 71 72 75 76 79 80 80 81 81 81 82 84 87 88 88 87 90 91 89 89 90 89 91 91 92 95 97 99 99 99 98 100 100 101 100 101 102 101 100 95 94 95 96 100 107 111 115 119 123 130 133 135 137 137 136 128 114 86 56 24 2 0 0 0 0 0 0 0 0 0 0 0 0 0 0 0 0 0 0 0 0 0 0 0 0 0 0 0 0 0 0 0 0 0 0 0 0 0 0 0 0 0 0 0 0 0 1 0 3 4 7 8 10 12 15 14 15 13 10 8 4 3 2 2 2 2 5 7 8 7 5 4 2 1 2 4 2 2 4 3 3 2 2 2 4 6 8 7 8 9 8 9 9 9 6 5 4 4 4 4 4 4 4 4 5 4 6 9 11 12 12 12 11 9 8 9 11 10 10 11 11 11 11 15 15 16 14 14 12 12 13 12 12 9 8 6 7 9 8 11 12 10 12 12 11 10 9 10 7 8 8 7 6 7 8 8 8 11 12 15 16 17 15 13 13 12 11 8 9 8 7 6 6 6 9 12 15 14 14 14 13 13 10 8 8 8 7 6 3 1 2 4 3 4 4 5 5 4 4 5 8 9 10 10 9 8 8 7 8 7 4 3 3 3 5 7 7 11 12 14 13 11 8 8 8 9 8 7 7 7 8 9 12 10 9 10 12 15 17 18 17 15 15 15 12 12 13 12 10 11 13 14 15 14 14 16 17 18 19 17 15 15 14 14 15 18 18 19 16 14 15 17 15 16 15 13 14 14 15 14 14 13 
12 13 13 13 13 13 13 13 14 15 14 15 17 17 18 21 22 21 22 22 19 19 18 18 18 19 19 19 20 21 22 23 21 21 19 18 18 15 13 12 13 12 12 13 14 15 16 18 21 22 21 21 21 21 20 20 18 18 20 17 14 14 15 14 13 11 12 14 13 12 11 11 10 8 10 9 9 10 9 8 8 10 8 9 10 9 9 6 4 2 0 0 0 0 0 1 1 1 0 0 0 0 0 0 1 0 0 0 0 0 0 1 1 1 2 3 2 2 2 3 3 2 0 0 0 0 0 0 0 0 0 0 0 0 0 0 0 0 0 0 0 0 0 0 0 0 0 0 0 0 0 0 0 0 0 0 0 0 0 1 0 0 0 0 0 0 0 2 4 4 3 3 3 3 1 0 0 0 0 0 0 1 2 2 1 2 0 1 1 1 1 1 0 0 0 0 0 0 0 1 0 2 4 3 3 1 0 0 0 0 0 0 0 0 0 0 0 0 0 0 0 0 0 0 0 0 0 0 0 0 0 0 0 0 0 0 0 0 0 0 0 0 0 0 0 0 0 0 0 0 0 0 0 0 0 0 0 0 0 0 0 0 0 0 0 0 14 31 45 53 60 66 69 71 67 65 63 59 55 47 40 35 32 28 27 27 27 30 35 37 40 44 46 50 55 59 60 63 66 68 70 71 73 73 72 72 71 71 73 75 79 81 80 81 84 85 84 84 83 82 84 84 84 85 88 91 90 90 91 91 92 93 93 94 98 101 104 108 112 116 122 126 131 133 134 133 134 134 133 127 116 94 64 37 9 0 0 0 0 0 0 0 0 0 0 0 0 0 0 0 0 0 0 0 0 0 0 0 0 0 0 0 0 0 0 0 0 0 0 0 0 0 0 0 0 0 0 0 0 0 0 0 0 2 2 2 4 5 7 8 9 12 12 13 14 12 8 8 6 4 4 3 2 4 6 8 8 6 5 5 4 4 5 5 5 4 3 2 2 1 1 2 3 5 7 6 6 6 6 8 9 6 4 4 3 3 4 4 4 5 5 7 6 7 8 9 11 12 13 13 12 11 9 11 12 10 9 11 13 12 12 12 14 14 14 13 12 12 12 12 11 9 6 5 7 7 7 8 8 8 8 9 9 10 8 8 6 6 7 6 8 7 8 7 10 13 13 14 17 18 19 17 16 14 13 11 11 11 10 8 8 9 10 13 17 16 15 16 15 12 11 8 6 7 6 6 5 3 3 3 2 2 3 3 3 3 5 5 7 9 12 10 9 8 6 6 6 5 4 3 1 1 5 7 8 9 11 12 10 8 7 6 7 8 8 10 10 11 10 9 10 10 8 9 10 14 15 16 15 14 15 16 16 14 14 13 12 13 13 13 13 14 15 17 17 18 18 15 13 16 17 16 16 16 17 17 15 13 12 13 15 15 13 12 12 13 13 13 13 12 
12 13 14 13 12 13 12 13 12 14 13 15 15 15 15 17 18 20 20 20 18 17 17 18 19 18 17 17 19 21 20 21 19 18 18 16 17 17 15 11 11 10 11 13 15 16 17 19 21 22 22 21 21 21 20 19 19 20 21 20 16 15 15 15 13 12 11 13 11 12 11 11 10 9 9 10 11 10 12 13 13 13 12 10 10 9 8 7 7 6 3 0 0 2 1 0 1 0 0 1 0 0 0 2 3 2 0 0 0 0 0 1 1 0 0 0 1 0 1 2 0 0 0 0 0 0 0 0 0 0 0 0 0 0 0 0 0 0 0 0 0 0 0 0 0 0 0 0 0 0 0 0 0 0 0 0 0 0 0 1 0 0 0 0 0 0 0 0 2 3 3 3 6 5 3 1 0 0 0 0 0 2 2 3 1 1 1 1 3 1 0 0 0 0 0 0 0 0 0 0 0 0 1 1 1 0 0 0 0 0 0 0 0 0 0 0 0 0 0 0 0 0 0 0 0 0 0 0 0 0 0 0 0 0 0 0 0 0 0 0 0 0 0 0 0 0 0 0 0 0 0 0 0 0 0 0 0 0 0 0 0 0 0 0 0 0 0 0 0 11 26 41 53 63 68 75 79 83 85 85 80 77 71 64 59 55 51 48 46 45 44 43 43 46 49 50 52 53 58 61 63 63 64 65 64 63 64 63 64 65 70 70 71 73 75 76 77 74 75 77 77 78 80 82 86 89 92 94 97 98 100 105 110 114 120 124 126 128 132 133 135 137 138 138 134 127 117 101 74 44 13 0 0 0 0 0 0 0 0 0 0 0 0 0 0 0 0 0 0 0 0 0 0 0 0 0 0 0 0 0 0 0 0 0 0 0 0 0 0 0 0 0 0 0 0 0 0 0 0 0 0 0 1 2 4 2 4 6 8 8 8 10 9 11 12 10 10 7 6 4 4 5 5 4 5 7 6 7 8 6 5 5 6 5 5 4 4 4 2 1 1 0 1 4 5 5 4 4 7 9 9 8 8 4 2 4 4 5 6 6 7 6 6 8 9 11 10 11 10 12 12 11 9 11 11 9 8 11 12 12 10 11 11 12 12 11 10 9 9 10 10 9 6 4 6 6 5 4 5 5 5 6 7 6 7 6 6 5 5 7 8 8 7 8 10 12 13 16 17 19 19 18 17 17 17 16 14 13 12 10 10 11 11 14 16 15 16 15 14 13 12 9 6 6 7 6 5 3 3 3 3 3 3 4 2 2 2 4 7 10 11 10 9 7 5 4 4 4 3 2 1 2 4 6 7 10 10 9 9 8 8 7 7 7 8 10 10 9 7 6 9 9 8 6 8 11 13 16 16 15 16 17 17 16 15 14 13 13 14 14 14 13 14 15 16 15 13 13 13 15 18 18 16 16 17 16 13 12 11 12 13 13 11 11 13 14 14 13 11 11 
12 14 14 12 11 13 13 13 13 13 14 15 14 12 13 14 16 17 18 19 18 18 16 17 17 15 14 13 16 17 18 18 17 18 18 18 18 17 14 11 10 10 10 13 15 17 18 19 20 20 22 21 22 22 21 21 22 22 23 20 17 17 18 15 13 11 11 10 10 9 10 11 10 9 9 12 14 13 15 17 18 16 13 12 12 10 10 9 8 7 4 1 3 5 4 3 3 3 2 4 2 0 0 1 2 4 2 0 0 0 2 1 0 0 0 0 0 0 0 0 0 0 0 0 0 0 0 0 0 0 0 0 0 0 0 0 0 0 0 0 0 0 0 0 0 0 0 0 0 0 0 0 0 0 0 0 0 0 0 0 0 0 0 0 0 0 0 0 1 3 4 4 6 7 5 2 0 0 1 0 1 3 3 4 3 1 2 0 1 0 0 0 0 0 0 0 0 0 0 0 0 0 0 0 0 0 0 0 0 0 0 0 0 0 0 0 0 0 0 0 0 0 0 0 0 0 0 0 0 0 0 0 0 0 0 0 0 0 0 0 0 0 0 0 0 0 0 0 0 0 0 0 0 0 0 0 0 0 0 0 0 0 0 0 0 0 0 0 0 0 0 0 0 11 22 38 52 64 76 84 88 91 93 92 90 90 87 86 85 83 80 78 77 76 75 73 72 71 72 74 75 76 76 75 74 72 72 71 71 73 76 78 77 80 81 83 86 85 86 88 92 97 101 105 109 114 118 120 122 122 124 127 130 132 134 135 135 134 132 129 126 120 114 99 78 53 20 0 0 0 0 0 0 0 0 0 0 0 0 0 0 0 0 0 0 0 0 0 0 0 0 0 0 0 0 0 0 0 0 0 0 0 0 0 0 0 0 0 0 0 0 0 0 0 0 0 0 0 0 0 0 0 4 3 2 2 4 5 6 8 9 10 11 10 11 9 8 6 5 5 4 4 5 4 5 7 8 7 7 6 6 6 6 5 4 4 3 3 3 1 0 0 1 2 3 4 6 7 10 11 11 11 9 6 3 3 4 5 7 8 9 8 7 6 8 10 10 10 10 12 12 10 10 10 9 8 9 10 10 8 8 10 10 11 12 11 8 7 7 7 7 6 5 3 3 4 3 4 4 4 3 6 7 6 7 7 6 6 5 6 8 7 6 6 9 13 15 17 18 18 19 19 20 19 18 17 15 15 14 12 11 10 12 13 14 15 14 15 15 14 11 11 8 7 6 5 5 4 3 3 1 2 2 2 2 1 2 5 5 8 11 9 6 6 3 3 4 4 3 3 2 4 4 6 7 8 8 9 9 8 8 7 7 9 9 9 10 7 6 5 9 8 7 4 6 8 11 14 14 15 16 19 17 17 15 14 14 14 14 13 14 12 12 14 14 13 12 13 13 15 15 15 15 15 16 15 13 12 12 12 12 11 9 9 11 14 13 14 12 12 
14 14 13 12 12 12 13 14 14 12 12 13 14 11 9 10 14 16 17 17 15 14 14 14 13 12 11 12 13 14 16 15 16 18 18 18 17 17 14 12 12 12 13 13 14 15 16 17 18 19 20 20 21 21 19 19 21 21 21 20 17 15 17 15 13 12 11 8 8 8 8 9 10 11 10 12 12 13 16 17 19 17 16 15 13 12 10 9 8 8 5 5 6 8 7 8 7 7 6 5 5 2 0 1 4 4 2 0 0 0 1 1 0 0 0 0 0 0 0 0 0 0 0 0 0 0 0 0 0 0 0 0 0 0 0 0 0 0 0 0 0 0 0 0 0 0 0 0 0 0 0 0 0 0 0 0 0 0 0 1 0 0 0 0 0 0 0 2 3 3 3 5 7 8 6 3 2 2 2 3 3 4 5 4 3 1 0 0 0 0 0 0 0 0 1 1 0 0 0 0 0 0 0 0 0 0 0 0 0 0 0 0 0 0 0 0 0 0 0 0 0 0 0 0 0 0 0 0 0 0 0 0 0 0 0 0 0 0 0 0 0 0 0 0 0 0 0 0 0 0 0 0 0 0 0 0 0 0 0 0 0 0 0 0 0 0 0 0 0 0 0 0 0 0 0 0 0 5 17 32 47 61 73 81 88 91 95 95 96 96 97 99 100 101 103 102 104 104 105 107 109 109 109 107 106 104 102 103 104 106 109 111 110 110 109 110 113 114 114 114 115 116 121 124 126 129 131 132 134 130 128 130 130 128 125 120 111 100 82 60 41 24 11 0 0 0 0 0 0 0 0 0 0 0 0 0 0 0 0 0 0 0 0 0 0 3 1 0 0 0 0 0 0 0 0 0 0 0 0 0 0 0 0 0 0 0 0 0 0 0 0 0 0 0 0 0 0 0 0 0 0 2 4 2 2 2 3 4 5 6 9 11 10 9 9 9 8 6 5 5 5 3 3 3 6 7 9 7 6 6 4 4 4 3 3 2 1 2 0 0 0 0 0 1 2 4 6 9 10 12 11 10 8 5 5 4 4 5 7 8 8 7 6 7 7 10 10 12 11 11 10 9 8 8 7 7 9 10 10 7 7 8 8 9 7 8 6 5 6 6 5 5 2 0 0 0 2 2 2 3 4 6 6 5 6 6 6 6 4 4 7 5 5 6 10 15 16 17 19 20 19 19 19 19 18 17 17 15 14 14 13 11 12 13 13 14 16 17 16 14 13 11 9 9 7 6 4 4 2 2 1 1 1 1 0 0 0 1 3 4 7 7 3 2 2 2 5 6 6 4 3 4 4 5 6 7 8 10 10 8 9 9 10 11 10 11 10 7 5 5 6 9 7 5 6 7 9 12 14 13 14 16 15 16 16 15 15 16 15 15 13 14 13 13 13 14 13 13 14 15 13 12 13 13 15 14 12 11 11 11 11 11 10 9 11 12 13 13 11 13 
14 13 14 12 11 12 12 14 15 12 12 14 12 12 8 9 12 14 15 15 13 13 11 10 8 8 9 10 10 12 14 14 15 17 16 16 17 16 15 15 13 12 14 14 13 15 16 16 16 16 18 17 19 18 18 18 21 21 21 20 17 14 13 13 11 10 8 6 6 6 9 12 12 12 13 12 12 12 14 15 18 17 14 16 15 13 10 7 8 6 5 6 8 8 9 9 9 8 8 7 6 4 3 3 5 5 3 1 0 0 0 0 0 0 0 0 0 0 0 0 0 0 0 0 0 0 0 0 0 0 0 0 0 0 0 0 0 0 0 0 0 0 0 0 0 0 0 0 0 0 0 0 0 0 0 0 0 0 0 1 2 1 0 0 0 0 1 2 1 3 3 5 7 8 8 5 4 4 4 4 4 3 4 3 2 0 0 0 0 0 0 0 0 0 0 0 0 0 0 0 0 0 0 0 0 0 0 0 0 0 0 0 0 0 0 0 0 0 0 0 0 0 0 0 0 0 0 0 0 0 0 0 0 0 0 0 0 0 0 0 0 0 0 0 0 0 0 0 0 0 0 0 0 0 0 0 0 0 0 0 0 0 0 0 0 0 0 0 0 0 0 0 0 0 0 0 0 0 0 0 0 1 8 20 34 44 52 57 64 70 75 83 91 97 102 104 109 112 116 118 119 122 122 119 117 116 116 117 118 119 120 122 122 122 123 122 122 122 120 120 121 121 122 124 123 123 123 123 119 112 103 93 79 61 44 27 11 2 0 0 0 0 0 0 0 0 0 0 0 0 0 0 0 0 0 0 0 0 0 0 0 0 0 0 0 2 3 1 0 0 0 0 0 0 0 0 0 0 0 0 0 0 0 0 0 0 0 0 0 0 0 0 0 1 2 1 0 0 0 0 1 2 4 2 2 3 3 4 6 6 8 8 7 6 7 7 7 5 5 5 4 3 2 4 6 7 8 6 8 6 3 3 2 1 1 1 0 0 0 0 0 0 0 0 2 6 7 7 9 10 9 7 6 4 3 5 5 5 7 6 6 7 7 8 9 10 11 11 12 10 9 10 10 8 7 8 7 9 10 9 8 9 9 8 7 6 4 4 2 2 2 1 1 0 0 0 0 1 3 3 4 6 5 4 4 6 6 4 3 3 4 3 5 6 11 14 16 18 19 20 19 19 19 19 19 17 17 15 14 15 14 13 14 15 14 14 16 18 17 15 14 13 12 11 9 5 3 2 2 1 2 1 1 0 0 0 0 1 4 5 6 6 2 2 3 2 3 5 7 6 5 6 6 6 7 8 11 11 10 10 9 10 11 13 12 11 8 6 4 4 6 7 7 6 7 10 10 13 12 12 12 12 13 13 15 15 15 15 14 13 13 12 12 14 14 13 14 14 13 13 12 11 11 12 13 14 13 12 12 11 11 11 11 11 11 13 14 13 12 13 
12 11 14 12 13 13 13 13 14 14 12 12 13 12 10 8 11 12 12 13 12 11 8 7 4 5 6 7 10 12 14 14 14 14 16 15 16 16 15 16 14 14 15 15 15 17 16 14 13 14 14 15 17 18 19 20 19 21 21 18 15 11 11 12 11 10 8 5 5 7 8 10 13 13 13 12 12 12 12 14 16 16 15 14 13 10 9 8 7 6 7 8 8 9 9 10 9 7 8 8 6 7 6 5 3 2 0 0 0 0 0 1 2 0 0 0 0 0 0 0 0 0 0 0 0 0 0 0 0 0 0 0 0 0 0 0 0 0 0 0 0 0 0 0 0 0 0 0 0 0 0 0 0 0 0 0 0 0 0 1 2 1 0 0 0 0 3 3 2 2 3 5 7 8 7 6 6 5 4 4 3 4 4 2 0 0 0 0 0 0 0 0 0 0 0 0 0 0 0 0 0 0 0 0 0 0 0 0 0 0 0 0 0 0 0 0 0 0 0 0 0 0 0 0 0 0 0 0 0 0 0 0 0 0 0 0 0 0 0 0 0 0 0 0 0 0 0 0 0 0 0 0 0 0 0 0 0 0 0 0 0 0 0 0 0 0 0 0 0 0 0 0 0 0 0 0 0 0 0 0 0 0 0 0 0 0 0 0 0 0 4 13 24 33 44 55 66 76 86 93 97 99 99 101 101 100 99 101 101 101 103 104 107 110 110 108 104 98 93 87 83 76 71 64 55 49 42 35 26 18 6 0 0 0 0 0 0 0 0 0 0 0 0 0 0 0 0 0 0 0 0 0 0 0 0 0 0 0 0 0 0 0 0 0 3 4 3 1 0 0 0 0 0 0 0 0 0 0 0 0 0 0 0 0 0 0 0 0 0 0 0 0 0 2 2 0 0 0 0 0 2 4 5 4 3 4 3 6 6 7 8 6 5 5 7 8 8 6 4 4 4 3 2 4 4 6 7 6 5 5 4 2 3 0 0 0 0 0 0 0 0 0 0 1 3 4 5 7 7 9 7 5 4 3 4 4 3 3 5 6 6 7 8 10 10 11 11 10 10 10 11 10 12 11 9 8 10 10 10 8 8 10 9 9 6 4 5 2 1 0 1 1 1 0 0 0 0 0 0 1 2 2 3 4 3 3 4 3 2 3 2 3 3 5 8 12 15 17 20 19 19 17 17 17 18 19 19 19 17 16 16 16 16 16 15 16 17 18 18 15 18 15 14 12 10 5 4 3 2 1 0 0 0 0 0 0 0 0 2 4 5 5 5 4 2 3 4 5 7 7 7 8 8 8 8 9 10 9 10 10 10 10 11 12 11 10 8 7 5 5 6 6 8 7 9 11 10 11 12 11 10 11 12 12 13 13 14 14 14 13 11 10 12 13 13 13 13 13 13 12 10 12 11 13 13 13 14 13 12 12 11 13 10 11 11 11 14 14 11 11 
11 13 14 13 13 13 12 11 12 12 13 12 12 13 11 9 11 11 12 12 11 9 7 6 4 3 6 9 10 13 14 15 16 16 15 14 15 16 15 15 15 14 14 15 16 14 15 13 11 12 15 17 17 17 18 20 18 19 19 17 15 11 11 11 10 9 7 6 6 6 7 10 12 14 13 12 12 12 13 15 14 14 13 13 12 10 8 8 7 5 5 8 9 10 9 9 7 7 8 9 9 7 5 4 1 0 0 0 0 0 0 2 2 1 0 0 0 0 0 0 0 0 0 0 0 0 0 0 0 0 0 0 0 0 0 0 0 0 0 0 0 0 0 0 0 0 0 0 0 0 0 0 0 0 0 0 0 0 0 2 0 0 0 0 0 0 1 2 3 4 3 5 5 7 7 6 5 6 5 3 2 1 2 1 0 0 0 0 0 0 0 0 0 0 0 0 0 0 0 0 0 0 0 0 0 1 0 0 0 0 0 0 0 0 0 0 0 0 0 0 0 0 0 0 0 0 0 0 0 0 0 0 0 0 0 0 0 0 0 0 0 0 0 0 0 0 0 0 0 0 0 0 0 0 0 0 0 0 0 0 0 0 0 0 0 0 0 0 0 0 0 0 0 0 0 0 0 0 0 0 0 0 0 0 0 0 0 0 0 0 0 0 0 0 0 0 1 2 6 12 17 17 17 18 18 17 16 18 18 18 18 20 23 24 24 23 13 5 0 0 0 0 0 0 0 0 0 0 0 0 0 0 0 0 0 0 0 0 0 0 0 0 0 0 0 0 0 0 0 0 0 0 0 0 0 0 0 0 0 0 0 0 0 4 5 5 3 0 0 1 0 0 0 0 0 0 0 0 0 0 0 0 0 0 0 0 0 0 0 0 0 0 1 2 1 2 2 2 1 1 4 7 8 6 4 4 3 5 6 5 6 5 6 5 6 9 8 5 4 4 6 4 3 3 3 3 3 4 2 2 2 0 0 0 0 0 0 0 0 0 0 0 0 1 2 3 3 4 4 5 6 2 2 2 3 3 4 4 6 7 7 7 10 11 11 11 12 12 10 11 11 11 12 11 11 10 11 10 10 8 7 7 7 7 8 6 5 2 0 1 0 0 0 1 0 0 0 1 0 0 0 1 0 2 2 1 1 1 2 4 4 4 5 6 8 11 16 17 18 17 16 17 17 18 20 19 19 19 18 19 18 19 18 17 16 17 19 20 18 18 18 17 15 13 11 8 5 4 1 2 2 1 0 0 0 0 0 0 1 3 2 4 5 4 3 4 6 7 9 10 9 10 9 10 9 8 8 9 9 8 8 9 10 12 11 10 10 9 8 7 8 7 8 8 8 10 11 11 10 10 10 10 10 11 11 11 12 13 12 11 9 10 12 13 14 13 13 15 12 11 11 11 13 13 12 13 14 15 13 12 12 11 12 9 9 9 11 11 10 10 
12 14 15 13 12 12 12 12 12 13 13 10 10 11 12 11 9 10 11 11 9 9 8 6 4 5 7 9 9 10 11 12 14 15 15 16 14 14 15 14 14 15 14 14 14 13 13 13 13 14 16 17 18 16 16 18 18 17 18 17 16 14 11 11 11 10 10 8 6 6 8 8 12 12 12 12 13 12 13 14 13 13 12 13 14 11 8 9 7 6 8 10 11 10 9 9 7 6 8 9 10 7 5 6 4 0 0 0 1 1 3 1 0 0 0 1 0 0 0 0 0 0 0 0 0 0 0 0 0 0 0 0 0 0 0 0 0 0 0 0 0 0 0 0 0 0 0 0 0 0 0 0 0 0 0 0 0 0 0 0 0 0 0 0 0 0 1 2 4 2 3 3 6 5 7 6 5 6 2 0 0 0 0 0 0 0 0 0 0 0 0 0 0 0 0 0 0 0 0 0 0 0 0 0 0 0 0 0 0 0 0 0 0 0 0 0 0 0 0 0 0 0 0 0 0 0 0 0 0 0 0 0 0 0 0 0 0 0 0 0 0 0 0 0 0 0 0 0 0 0 0 0 0 0 0 0 0 0 0 0 0 0 0 0 0 0 0 0 0 0 0 0 0 0 0 0 0 0 0 0 0 0 0 0 0 0 0 0 0 0 0 0 0 0 0 0 0 0 0 0 0 0 0 0 0 0 0 0 0 0 0 0 0 0 0 0 0 0 0 0 0 0 0 0 0 0 0 0 0 0 0 0 0 0 0 0 0 0 0 0 0 0 0 0 0 0 0 0 0 0 0 0 0 0 0 0 0 0 0 0 0 0 2 5 5 3 2 0 0 2 2 1 1 0 0 0 0 0 0 0 0 0 0 0 0 0 0 0 0 0 0 0 0 1 3 3 5 4 4 4 7 8 9 7 5 4 4 5 6 4 6 6 7 6 6 7 6 4 1 2 5 5 4 3 2 0 1 2 0 0 0 0 0 0 0 0 0 0 1 0 0 0 0 0 0 1 2 2 2 3 3 3 2 1 2 3 4 5 8 8 8 8 11 11 11 12 13 12 11 11 11 12 13 12 12 10 10 11 10 10 8 7 7 7 8 6 4 2 1 1 0 0 0 0 0 0 0 0 0 0 0 0 0 2 1 0 0 0 3 3 4 5 6 8 9 12 14 15 17 16 15 17 18 18 18 18 18 20 19 20 20 19 21 19 19 17 18 19 18 17 17 16 14 14 12 9 7 5 5 6 5 3 2 1 0 0 0 0 0 2 4 6 7 7 5 4 5 8 10 11 10 9 9 9 7 7 9 9 7 7 9 10 11 11 11 9 8 8 7 8 8 9 9 10 9 10 10 10 9 9 10 10 9 10 10 10 12 11 11 11 10 13 13 13 14 14 14 14 14 12 13 11 13 13 13 13 15 14 13 12 12 12 12 11 10 9 10 10 10 10 
13 14 13 13 12 11 12 11 12 12 12 11 10 10 9 8 7 7 9 9 8 8 10 8 6 6 8 7 9 9 11 12 12 12 14 12 12 13 14 13 14 14 13 12 12 13 12 13 13 14 16 16 17 15 15 17 19 18 17 17 16 14 11 9 10 10 7 6 6 5 6 8 10 10 11 13 12 11 11 11 13 12 12 13 12 11 9 8 7 8 8 8 11 10 9 7 7 7 9 9 8 8 7 6 7 3 1 0 1 3 2 0 0 0 0 1 0 0 0 0 0 0 0 0 0 0 0 0 0 0 0 0 0 0 0 0 0 0 0 0 0 0 0 0 0 0 0 0 0 0 0 0 0 0 0 0 0 0 1 2 0 0 0 0 0 0 0 0 1 1 1 3 5 6 7 5 5 4 1 0 0 0 0 0 0 0 0 0 0 0 0 0 0 0 0 0 0 0 0 0 0 0 0 0 0 0 0 0 0 0 0 0 0 0 0 0 0 0 0 0 0 0 0 0 0 0 0 0 0 0 0 0 0 0 0 0 0 0 0 0 0 0 0 0 0 0 0 0 0 0 0 0 0 0 0 0 0 0 0 0 0 0 0 0 0 0 0 0 0 0 0 0 0 0 0 0 0 0 0 0 0 0 0 0 0 0 0 0 0 0 0 0 0 0 0 0 0 0 0 0 0 0 0 0 0 0 0 0 0 0 0 0 0 0 0 0 0 0 0 0 0 0 0 0 0 0 0 0 0 0 0 0 0 0 0 0 0 0 0 0 0 0 0 0 0 0 0 0 0 0 0 0 0 0 0 0 0 0 0 0 0 0 3 2 1 0 0 0 1 2 2 3 2 1 0 0 0 0 0 0 0 1 1 0 0 0 0 0 0 0 0 0 0 2 4 6 5 6 4 6 7 9 9 9 6 5 4 3 4 4 6 6 4 5 5 6 5 3 0 2 3 4 2 2 3 1 1 0 0 0 0 0 0 0 0 0 1 3 2 0 0 0 0 0 0 0 0 0 0 1 2 4 3 1 3 2 4 4 7 8 9 10 11 11 11 12 11 10 9 10 12 13 13 13 12 10 11 10 9 8 9 9 8 7 8 7 5 5 1 0 0 0 0 0 0 0 0 0 0 0 0 0 2 4 3 1 2 3 2 4 4 5 6 7 8 11 13 14 15 15 17 19 19 19 19 19 20 20 18 18 21 21 22 21 20 18 19 19 19 19 17 16 15 13 11 10 8 9 9 9 8 7 5 4 1 0 0 0 1 2 5 8 8 8 6 4 4 6 11 12 10 9 9 9 9 9 9 8 7 9 10 9 10 9 10 7 7 9 9 11 11 11 10 11 11 10 11 9 9 9 9 8 8 8 8 10 10 9 10 12 13 13 14 13 13 13 13 16 15 13 12 12 13 13 13 13 13 13 12 12 13 15 14 13 13 11 10 10 10 11 
12 14 13 12 11 11 11 10 9 11 8 7 7 7 8 7 6 5 7 7 7 7 9 7 6 6 6 6 8 9 12 11 13 12 12 11 11 12 12 12 11 11 11 11 11 12 14 15 15 16 17 16 16 16 16 17 17 17 15 15 13 11 10 8 7 6 5 4 5 3 4 6 8 8 10 12 12 11 9 9 11 13 14 13 12 10 8 6 6 8 7 7 10 9 6 6 6 7 8 8 8 8 7 7 8 7 3 2 0 0 0 0 0 0 0 0 0 0 0 0 0 0 0 0 0 0 0 0 0 0 0 0 0 0 0 0 0 0 0 0 0 0 0 0 0 0 0 0 0 0 0 0 0 0 0 0 0 0 2 2 0 0 0 0 0 1 0 1 0 0 1 3 4 5 6 5 4 2 0 0 0 0 0 0 0 0 0 0 0 0 0 0 0 0 0 0 0 0 0 0 0 0 0 0 0 0 0 0 0 0 0 0 0 0 0 0 0 0 0 0 0 0 0 0 0 0 0 0 0 0 0 0 0 0 0 0 0 0 0 0 0 0 0 0 0 0 0 0 0 0 0 0 0 0 0 0 0 0 0 0 0 0 0 0 0 0 0 0 0 0 0 0 0 0 0 0 0 0 0 0 0 0 0 0 0 0 0 0 0 0 0 0 0 0 0 0 0 0 0 0 0 0 0 0 0 0 0 0 0 0 0 0 0 0 0 0 0 0 0 0 0 0 0 0 0 0 0 0 0 0 0 0 0 0 0 0 0 0 0 0 0 0 0 0 0 0 0 0 0 0 0 0 0 0 0 0 0 0 0 0 0 0 0 0 0 0 0 0 0 0 1 3 2 0 0 0 0 0 0 0 0 3 1 1 1 2 0 0 0 0 0 0 1 3 4 5 5 4 4 6 8 8 9 9 6 5 2 2 1 4 4 5 4 3 4 4 3 2 0 0 0 1 1 1 2 2 2 0 0 0 0 0 0 0 0 0 0 0 1 0 0 0 0 0 0 0 0 0 0 0 0 3 3 2 1 2 2 6 8 9 10 11 10 10 11 10 11 10 9 10 11 12 14 13 12 13 11 9 9 9 9 8 8 9 7 8 5 3 1 0 0 0 0 0 0 0 0 0 0 0 0 0 0 2 3 3 1 2 4 4 3 3 4 6 8 11 13 15 14 15 17 20 20 19 19 19 20 20 19 20 22 21 21 22 21 20 18 19 20 20 18 15 14 13 10 10 8 9 9 10 9 8 7 5 4 3 4 3 3 4 9 9 8 6 5 6 5 7 10 11 11 11 12 12 10 10 10 10 9 8 9 8 10 10 10 8 7 10 11 15 14 13 13 14 14 12 10 9 8 8 8 8 8 6 5 7 8 8 10 12 13 13 13 12 13 15 15 15 14 13 12 13 13 14 15 14 12 13 11 12 13 15 15 15 14 15 12 12 13 12 
13 13 14 13 10 9 9 9 8 7 5 4 4 5 5 6 6 4 4 5 5 7 8 6 6 5 6 5 6 8 11 11 11 12 13 12 11 11 10 11 10 11 12 12 12 13 15 15 15 16 15 17 16 17 16 14 13 14 12 13 13 11 9 8 6 4 3 3 4 1 2 3 4 5 7 9 9 11 10 10 11 13 12 12 12 11 8 5 5 6 5 6 8 7 6 6 5 6 8 9 8 8 8 9 9 7 4 1 0 0 0 1 0 0 0 0 0 0 0 0 0 0 0 0 0 0 0 0 0 0 0 0 0 0 0 0 0 0 0 0 0 0 0 0 0 0 0 0 0 0 0 0 0 1 0 0 0 0 0 1 1 0 0 0 1 3 1 1 1 0 1 2 4 5 6 6 5 2 0 0 0 0 0 0 0 0 0 0 0 0 0 0 0 0 0 0 0 0 0 0 0 0 0 0 0 0 0 0 0 0 0 0 0 0 0 0 0 0 0 0 0 0 0 0 0 0 0 0 0 0 0 0 0 0 0 0 0 0 0 0 0 0 0 0 0 0 0 0 0 0 0 0 0 0 0 0 0 0 0 0 0 0 0 0 0 0 0 0 0 0 0 0 0 0 0 0 0 0 0 0 0 0 0 0 0 0 0 0 0 0 0 0 0 0 0 0 0 0 0 0 0 0 0 0 0 0 0 0 0 0 0 0 0 0 0 0 0 0 0 0 0 0 0 0 0 0 0 0 0 0 0 0 0 0 0 0 0 0 0 0 0 0 0 0 0 0 0 0 0 0 0 0 0 0 0 0 0 0 0 0 0 0 0 0 0 0 0 0 0 0 0 0 2 0 0 0 1 2 1 3 4 4 5 4 4 4 1 0 0 0 1 0 1 4 4 5 6 7 6 6 8 7 7 5 3 3 0 0 0 0 3 4 3 2 2 4 3 2 0 0 0 2 2 0 0 0 3 2 0 0 0 0 0 0 0 0 0 0 0 0 0 0 0 0 0 0 0 0 0 0 0 3 2 2 4 4 4 6 8 10 11 11 10 9 10 10 11 12 10 9 10 11 12 13 14 15 13 11 10 9 9 8 7 7 5 5 4 3 0 0 0 0 0 0 0 0 0 0 0 0 0 0 0 0 1 2 0 1 2 3 2 2 4 8 10 10 11 12 14 16 18 21 20 19 19 20 20 21 21 22 23 23 22 23 22 22 18 20 20 21 18 17 14 13 11 10 8 8 10 10 9 8 9 8 6 7 5 5 3 6 8 8 8 7 6 8 7 8 12 11 11 12 12 10 10 10 10 10 11 10 9 9 10 12 11 10 8 10 14 17 16 15 15 16 14 12 11 10 7 7 7 7 7 3 3 7 9 9 9 12 13 13 13 14 14 15 14 13 15 14 13 15 15 14 14 13 13 12 13 13 15 16 17 17 18 17 15 14 14 12 
13 13 13 13 11 10 8 5 4 4 4 5 3 4 4 4 4 4 4 5 4 6 6 5 5 4 3 4 7 10 12 11 11 11 13 12 12 12 11 11 12 11 12 10 9 12 13 12 12 13 14 16 15 16 15 13 12 12 11 12 11 11 9 9 5 3 3 4 1 0 1 1 2 3 6 8 9 10 12 12 13 14 14 13 11 10 8 5 6 5 4 4 7 7 6 4 5 5 8 10 9 8 7 9 11 9 6 2 1 0 0 0 0 0 0 0 0 0 0 0 0 0 0 0 0 0 0 0 0 0 0 0 0 0 0 0 0 0 0 0 0 0 0 0 0 0 0 0 0 0 0 0 0 0 0 0 0 0 0 1 2 0 0 0 1 1 0 0 0 0 0 1 4 5 8 8 7 4 0 0 0 0 0 1 0 0 0 0 0 0 0 0 0 0 0 0 0 0 0 0 0 0 0 0 0 0 0 0 0 0 0 0 0 0 0 0 0 0 0 0 0 0 0 0 0 0 0 0 0 0 0 0 0 0 0 0 0 0 0 0 0 0 0 0 0 0 0 0 0 0 0 0 0 0 0 0 0 0 0 0 0 0 0 0 0 0 0 0 0 0 0 0 0 0 0 0 0 0 0 0 0 0 0 0 0 0 0 0 0 0 0 0 0 0 0 0 0 0 0 0 0 0 0 0 0 0 0 0 0 0 0 0 0 0 0 0 0 0 0 0 0 0 0 0 0 0 0 0 0 0 0 0 0 0 0 0 0 0 0 0 0 0 0 0 0 0 0 0 0 0 0 0 0 0 0 0 0 0 0 0 0 0 0 1 2 0 0 0 0 0 0 0 0 0 0 3 3 2 4 4 5 5 5 6 5 3 2 0 0 1 3 2 2 2 4 5 6 8 7 8 8 7 6 4 1 0 0 0 0 0 1 1 1 1 2 2 2 1 0 0 0 0 0 0 0 0 2 2 0 0 0 0 0 0 0 0 0 0 0 0 0 0 0 0 0 0 0 0 0 0 2 3 2 4 7 7 6 6 8 9 10 10 10 8 10 12 13 12 10 9 10 11 11 13 15 16 15 13 12 12 8 7 6 4 4 3 3 2 0 0 0 0 0 0 0 0 0 0 0 0 0 0 0 0 2 1 0 0 2 2 4 4 5 7 10 10 12 12 15 17 18 21 20 18 19 20 23 24 25 25 26 24 22 21 21 20 20 18 19 20 17 15 14 15 12 10 10 9 9 10 12 10 11 10 8 8 6 4 5 6 8 9 9 8 7 7 8 8 11 11 12 12 12 12 11 11 10 12 13 13 12 10 11 12 11 10 10 11 13 15 15 15 16 15 13 11 10 11 8 7 6 6 5 3 2 5 9 10 11 14 13 12 14 14 15 14 13 12 13 15 16 16 16 14 12 12 13 13 15 17 19 20 19 20 19 16 14 14 14 14 
14 14 14 14 13 10 8 5 4 4 4 6 4 5 3 1 0 3 3 3 2 4 4 6 5 4 4 6 8 9 11 9 9 11 12 13 13 12 13 14 13 12 10 10 8 9 11 11 12 13 15 15 14 15 13 12 11 10 11 10 10 10 9 7 7 4 3 3 0 0 0 0 1 3 5 8 10 11 13 13 14 17 15 13 12 10 8 5 5 5 2 2 4 5 6 5 6 8 8 9 10 6 6 8 9 9 7 4 3 4 2 2 1 0 0 0 0 0 0 0 0 0 0 0 0 0 0 0 0 0 0 0 0 0 0 0 0 0 0 0 0 0 0 0 0 0 0 0 0 0 0 0 0 0 0 0 0 0 0 1 1 0 0 0 0 1 1 0 0 0 0 0 2 5 7 8 6 3 1 0 0 0 2 0 0 0 0 0 0 0 0 0 0 0 0 0 0 0 0 0 0 0 0 0 0 0 0 0 0 0 0 0 0 0 0 0 0 0 0 0 0 0 0 0 0 0 0 0 0 0 0 0 0 0 0 0 0 0 0 0 0 0 0 0 0 0 0 0 0 0 0 0 0 0 0 0 0 0 0 0 0 0 0 0 0 0 0 0 0 0 0 0 0 0 0 0 0 0 0 0 0 0 0 0 0 0 0 0 0 0 0 0 0 0 0 0 0 0 0 0 0 0 0 0 0 0 0 0 0 0 0 0 0 0 0 0 0 0 0 0 0 0 0 0 0 0 0 0 0 0 0 0 0 0 0 0 0 0 0 0 0 0 0 0 0 0 0 0 0 0 0 0 0 0 0 0 0 0 0 0 0 0 0 0 1 0 0 0 0 0 0 0 0 0 0 2 3 3 2 4 6 6 3 3 3 5 4 2 3 1 2 2 3 4 6 7 8 8 10 9 8 7 7 4 3 0 0 0 0 0 0 0 1 2 2 1 0 0 0 0 0 0 0 0 1 1 1 2 0 0 0 0 0 0 0 0 0 0 0 0 0 0 0 0 0 0 0 0 1 2 4 6 6 6 7 7 7 6 7 9 9 9 10 9 11 12 14 12 11 9 11 11 11 12 13 15 14 14 12 8 5 5 1 2 2 2 3 2 0 0 0 0 0 0 0 0 0 0 0 0 0 0 0 0 0 1 1 1 1 3 4 4 5 6 8 11 13 13 16 17 20 21 19 19 20 21 25 26 27 28 27 26 24 21 21 20 18 18 18 18 16 15 15 14 12 11 11 11 11 12 12 11 11 11 9 9 8 6 5 6 8 10 10 9 9 8 8 10 13 13 13 13 13 12 11 10 12 12 12 13 12 12 14 13 12 10 9 10 13 14 16 15 14 12 11 10 9 8 5 5 5 7 7 4 4 6 9 11 11 13 12 11 14 14 13 14 12 12 13 16 15 15 13 13 13 14 14 16 18 20 21 21 23 23 22 18 18 17 15 15 
14 15 16 14 12 10 8 5 4 5 6 6 5 2 2 0 0 3 3 2 1 2 4 5 5 5 6 7 7 8 8 8 7 9 12 14 14 13 13 13 12 11 10 10 10 11 10 11 13 14 15 14 13 13 14 12 11 10 10 7 8 8 7 7 6 5 4 2 0 1 2 3 4 6 7 9 11 11 12 12 15 16 16 14 12 12 8 7 7 5 4 3 5 6 6 6 7 7 8 9 8 7 5 7 8 10 7 7 6 4 4 4 3 0 0 0 0 0 0 0 0 0 0 0 0 0 0 0 0 0 0 0 0 0 0 0 0 0 0 0 0 0 0 0 0 0 0 0 0 0 0 0 0 0 0 0 0 0 0 0 2 0 0 0 1 1 2 0 0 0 1 1 3 5 5 5 4 2 2 2 0 0 1 0 0 0 0 0 0 0 0 0 0 0 0 0 0 0 0 0 0 0 0 0 0 0 0 0 0 0 0 0 0 0 0 0 0 0 0 0 0 0 0 0 0 0 0 0 0 0 0 0 0 0 0 0 0 0 0 0 0 0 0 0 0 0 0 0 0 0 0 0 0 0 0 0 0 0 0 0 0 0 0 0 0 0 0 0 0 0 0 0 0 0 0 0 0 0 0 0 0 0 0 0 0 0 0 0 0 0 0 0 0 0 0 0 0 0 0 0 0 0 0 0 0 0 0 0 0 0 0 0 0 0 0 0 0 0 0 0 0 0 0 0 0 0 0 0 0 0 0 0 0 0 0 0 0 0 0 0 0 0 0 0 0 0 0 0 0 0 0 0 0 0 0 0 0 0 0 0 0 0 0 0 0 0 0 0 0 0 0 0 2 2 0 2 4 3 2 4 4 3 3 3 3 4 5 3 3 3 3 3 2 5 8 10 8 10 10 10 7 7 6 5 3 1 0 0 0 0 0 0 2 4 3 0 0 0 0 1 1 0 1 2 2 2 1 0 0 0 0 0 0 0 0 0 0 0 0 0 0 0 0 0 0 0 0 2 2 3 6 9 7 7 6 7 8 6 6 8 9 9 11 12 13 13 13 13 12 10 10 12 12 13 11 11 13 11 7 4 2 0 0 0 2 4 3 3 1 0 0 0 0 0 0 0 0 0 0 0 0 0 0 0 0 0 1 2 2 3 6 5 6 6 8 12 13 15 16 17 19 20 19 21 20 20 24 24 25 24 24 24 23 22 22 20 17 15 15 16 16 16 17 14 12 9 11 11 11 11 12 12 13 11 10 11 10 7 7 7 8 9 9 9 9 9 9 13 15 16 14 13 12 12 11 10 13 13 11 11 12 12 13 14 12 13 10 11 12 16 15 14 11 11 10 8 7 6 4 3 5 6 7 5 5 7 9 11 11 11 11 10 11 13 12 13 12 12 13 14 15 14 14 13 14 15 16 19 21 22 21 22 22 23 21 20 18 18 17 17 
15 16 16 13 12 8 5 5 4 6 8 6 6 4 3 0 0 1 3 0 0 0 3 5 5 7 6 7 6 7 8 7 7 8 11 13 14 14 12 12 12 12 10 10 11 11 11 12 11 11 14 12 12 11 12 10 9 8 8 6 6 6 5 6 6 6 5 3 1 2 4 7 8 9 9 8 12 14 14 15 16 17 16 16 12 11 10 9 7 6 5 5 5 5 7 7 7 7 8 9 8 8 7 9 9 10 8 6 6 5 4 4 2 0 0 0 0 0 0 0 0 0 0 0 0 0 0 0 0 0 0 0 0 0 0 0 0 0 0 0 0 0 0 0 0 0 0 0 0 0 0 0 0 1 0 0 0 0 0 1 1 0 0 0 2 2 0 0 0 0 1 1 2 1 3 4 3 1 2 2 0 0 0 0 0 0 0 0 0 0 0 0 0 0 0 0 0 0 0 0 0 0 0 0 0 0 0 0 0 0 0 0 0 0 0 0 0 0 0 0 0 0 0 0 0 0 0 0 0 0 0 0 0 0 0 0 0 0 0 0 0 0 0 0 0 0 0 0 0 0 0 0 0 0 0 0 0 0 0 0 0 0 0 0 0 0 0 0 0 0 0 0 0 0 0 0 0 0 0 0 0 0 0 0 0 0 0 0 0 0 0 0 0 0 0 0 0 0 0 0 0 0 0 0 0 0 0 0 0 0 0 0 0 0 0 0 0 0 0 0 0 0 0 0 0 0 0 0 0 0 0 0 0 0 0 0 0 0 0 0 0 0 0 0 0 0 0 0 0 0 0 0 0 0 0 0 0 0 0 0 0 0 0 0 0 0 0 0 0 0 0 2 2 2 0 1 4 3 3 5 5 4 3 4 5 4 3 5 4 4 6 5 4 7 9 9 8 11 11 9 9 8 6 7 5 3 2 0 0 0 0 0 0 3 4 3 1 0 0 0 3 4 3 1 3 4 2 1 0 1 0 0 0 0 0 0 0 0 0 0 0 0 0 0 0 0 0 0 1 3 7 9 9 9 10 10 7 6 7 8 9 8 10 11 11 11 11 13 11 11 12 12 13 12 11 10 9 7 4 3 1 0 0 0 2 3 2 2 3 1 1 0 0 0 0 0 0 0 0 0 0 0 0 0 0 1 1 3 2 3 5 5 8 7 9 10 12 14 15 15 17 18 21 21 19 19 20 25 25 23 23 24 23 21 22 18 15 15 15 16 17 16 15 14 11 10 10 10 9 11 12 11 13 11 12 13 11 11 10 11 11 11 9 10 10 8 10 12 14 17 17 15 13 12 13 12 12 12 12 11 11 12 12 12 13 12 11 12 12 13 15 15 12 12 12 10 9 7 4 4 6 6 6 6 5 7 9 10 10 12 10 9 9 10 11 12 12 11 12 14 14 14 14 15 17 17 20 20 21 22 22 21 22 21 19 18 17 17 17 17 
15 15 14 11 10 7 6 4 3 4 7 5 5 4 3 2 1 2 2 2 1 0 2 4 5 5 5 4 5 5 7 8 7 8 9 12 14 12 11 11 10 11 10 10 10 12 11 11 9 11 14 13 12 10 10 8 6 7 6 5 4 4 5 5 3 3 3 3 3 4 7 10 11 10 11 10 12 15 17 19 18 19 18 15 12 10 11 9 8 8 7 5 4 3 5 7 6 6 7 9 9 8 9 10 10 7 6 6 4 3 3 1 2 1 0 1 1 1 0 0 0 0 1 1 1 2 0 0 0 0 0 0 0 0 0 0 0 0 0 0 0 0 0 0 0 0 0 0 0 0 0 0 1 1 0 0 0 2 1 1 0 0 0 0 1 1 0 0 0 1 1 1 0 0 1 4 2 1 1 1 0 0 0 0 0 0 0 0 0 0 0 0 0 0 0 0 0 0 0 0 0 0 0 0 0 0 0 0 0 0 0 0 0 0 0 0 0 0 0 0 0 0 0 0 0 0 0 0 0 0 0 0 0 0 0 0 0 0 0 0 0 0 0 0 0 0 0 0 0 0 0 0 0 0 0 0 0 0 0 0 0 0 0 0 0 0 0 0 0 0 0 0 0 0 0 0 0 0 0 0 0 0 0 0 0 0 0 0 0 0 0 0 0 0 0 0 0 0 0 0 0 0 0 0 0 0 0 0 0 0 0 0 0 0 0 0 0 0 0 0 0 0 0 0 0 0 0 0 0 0 0 0 0 0 0 0 0 0 0 0 0 0 0 0 0 0 0 0 0 0 0 0 0 0 0 0 0 0 0 0 0 0 0 0 0 0 0 0 0 0 0 0 0 0 0 2 4 4 4 5 5 5 4 4 5 5 4 4 3 3 3 3 3 6 9 8 9 11 10 10 9 9 9 7 7 4 2 0 0 0 0 0 0 1 2 2 0 0 0 2 3 5 4 3 4 5 4 4 4 3 1 0 0 0 0 0 0 0 0 0 0 0 0 0 0 0 0 0 4 5 9 11 11 13 13 10 8 6 6 7 6 8 8 8 10 10 10 12 10 12 14 13 13 13 12 9 7 6 2 1 1 0 0 0 0 1 2 3 4 3 2 0 0 0 0 0 0 0 0 0 0 0 0 0 0 2 3 3 2 4 5 6 9 8 7 8 10 12 14 15 16 18 20 20 19 20 22 24 24 22 21 22 21 21 22 18 16 16 16 17 17 15 15 15 12 12 11 10 10 9 10 10 12 13 14 14 14 12 13 12 12 11 11 10 11 8 9 11 14 17 15 14 13 13 13 14 14 14 14 12 11 13 11 11 11 11 11 12 13 14 16 15 13 13 12 11 9 7 5 4 5 4 6 8 8 9 10 9 10 10 9 7 8 10 10 11 12 11 10 13 13 14 15 17 18 19 22 23 23 23 24 22 20 18 16 15 16 17 18 15 
16 14 13 10 8 5 4 4 3 3 4 3 4 6 3 3 1 3 4 4 2 1 2 2 3 5 5 4 4 6 8 8 7 8 9 10 13 14 12 11 9 10 10 10 9 11 12 11 12 12 13 13 13 11 11 8 7 6 5 3 3 3 3 2 3 3 3 3 3 6 6 8 10 10 11 13 13 16 18 19 20 20 18 15 12 9 10 9 9 8 6 4 2 3 5 5 6 5 6 7 6 7 9 10 7 6 4 6 4 3 2 3 3 3 2 2 2 1 1 0 0 2 2 2 4 3 1 0 0 0 0 0 0 0 0 0 0 0 0 0 0 0 0 0 0 0 0 0 0 0 0 0 3 3 2 0 0 0 0 0 2 1 0 1 1 1 0 1 1 3 3 1 0 0 0 1 1 0 0 0 0 0 0 0 0 0 0 0 0 0 0 0 0 0 0 0 0 0 0 0 0 0 0 0 0 0 0 0 0 0 0 0 0 0 0 0 0 0 0 0 0 0 0 0 0 0 0 0 0 0 0 0 0 0 0 0 0 0 0 0 0 0 0 0 0 0 0 0 0 0 0 0 0 0 0 0 0 0 0 0 0 0 0 0 0 0 0 0 0 0 0 0 0 0 0 0 0 0 0 0 0 0 0 0 0 0 0 0 0 0 0 0 0 0 0 0 0 0 0 0 0 0 0 0 0 0 0 0 0 0 0 0 0 0 0 0 0 0 0 0 0 0 0 0 0 0 0 0 0 0 0 0 0 0 0 0 0 0 0 0 0 0 0 0 0 0 0 0 0 0 0 0 0 0 0 0 0 0 0 0 0 0 0 0 0 0 0 0 0 0 0 0 0 0 0 1 3 4 4 3 4 4 4 5 7 5 3 2 3 2 1 2 3 6 8 8 8 8 9 9 9 10 9 7 6 5 3 1 0 0 0 0 0 0 0 0 0 0 1 3 5 7 5 4 5 6 6 5 6 2 1 0 0 0 0 0 0 0 0 0 0 0 0 0 0 0 0 1 3 6 8 9 11 12 10 10 6 4 3 4 6 6 7 7 7 9 9 10 10 11 14 14 13 12 10 9 6 4 2 2 1 0 0 0 0 2 3 4 5 4 4 2 1 0 0 0 0 0 0 0 0 0 0 0 2 3 5 4 3 6 5 8 8 7 7 7 9 11 12 14 16 17 20 20 23 23 23 24 24 23 22 22 22 21 20 17 16 17 18 17 16 16 15 15 14 11 12 11 10 11 11 11 12 13 14 16 15 14 14 13 11 11 12 13 12 10 9 11 12 15 14 14 13 13 15 17 18 15 14 12 13 12 12 13 12 11 11 11 12 13 15 14 13 12 10 8 8 6 5 5 4 5 8 10 9 8 7 7 9 9 7 7 8 9 10 12 13 14 12 12 13 15 17 19 19 19 22 23 24 25 25 22 18 15 15 14 16 16 16 15 
15 14 13 9 6 5 2 2 4 3 5 5 7 7 6 3 3 3 5 4 3 4 3 3 4 6 5 3 4 4 7 9 8 8 9 11 13 13 12 9 8 9 8 8 10 10 12 13 12 14 12 14 12 12 11 9 7 7 6 4 3 3 1 1 1 3 5 3 3 4 4 6 7 9 10 11 11 15 17 18 20 20 19 15 12 11 11 8 9 9 6 5 3 4 5 5 6 4 4 5 7 9 9 10 7 4 4 4 3 4 3 5 4 3 3 2 2 3 2 2 2 3 3 4 6 3 2 1 0 0 0 0 0 0 0 0 0 0 0 0 0 0 0 0 0 0 0 0 0 0 0 2 4 3 2 0 0 0 0 1 4 2 0 0 2 2 0 0 0 2 3 2 0 0 0 0 0 0 0 0 0 0 0 0 0 0 0 0 0 0 0 0 0 0 0 0 0 0 0 0 0 0 0 0 0 0 0 0 0 0 0 0 0 0 0 0 0 0 0 0 0 0 0 0 0 0 0 0 0 0 0 0 0 0 0 0 0 0 0 0 0 0 0 0 0 0 0 0 0 0 0 0 0 0 0 0 0 0 0 0 0 0 0 0 0 0 0 0 0 0 0 0 0 0 0 0 0 0 0 0 0 0 0 0 0 0 0 0 0 0 0 0 0 0 0 0 0 0 0 0 0 0 0 0 0 0 0 0 0 0 0 0 0 0 0 0 0 0 0 0 0 0 0 0 0 0 0 0 0 0 0 0 0 0 0 0 0 0 0 0 0 0 0 0 0 0 0 0 0 0 0 0 0 0 0 0 0 0 0 0 0 0 0 0 0 0 0 0 0 0 0 0 0 0 0 1 1 2 1 2 1 2 3 4 5 4 2 1 1 1 2 3 4 6 7 8 7 7 8 8 8 9 8 4 3 2 1 0 0 0 0 0 0 0 0 0 0 0 0 2 5 6 6 7 7 6 5 5 3 0 0 0 0 0 0 0 0 0 0 0 0 0 0 0 0 0 0 1 3 7 8 9 10 9 7 7 6 3 2 5 5 6 6 5 5 7 8 10 11 13 14 16 14 12 9 6 7 6 2 2 2 0 0 0 0 2 3 4 4 3 1 1 0 0 0 0 0 0 0 0 0 0 0 2 3 5 5 5 5 6 7 9 7 6 6 6 8 9 10 13 15 17 20 22 24 24 24 24 23 23 21 19 19 19 19 17 17 17 16 17 16 15 15 15 13 12 13 11 11 11 11 11 13 12 13 13 15 13 12 12 12 14 15 15 15 11 9 12 14 14 16 16 14 14 16 17 17 17 14 15 13 11 13 12 11 11 11 10 10 11 14 14 11 10 8 7 8 6 6 4 3 3 6 7 8 6 6 7 8 7 7 8 8 9 11 12 15 15 17 14 14 18 18 18 19 20 21 21 20 20 19 18 17 14 13 14 14 14 15 15 
15 14 12 10 6 3 3 3 6 6 8 9 10 9 8 5 4 3 4 3 4 4 5 5 8 8 5 3 4 4 6 10 8 7 8 10 12 13 12 10 8 8 8 9 11 11 14 12 13 13 13 12 12 13 12 12 11 9 8 7 6 4 2 0 1 2 5 4 3 4 3 4 5 7 6 6 8 12 13 16 18 20 19 17 15 13 12 10 11 9 9 6 4 4 4 5 6 6 5 6 7 8 9 9 7 5 5 4 5 5 6 6 5 5 4 3 4 4 3 4 4 3 3 4 5 6 3 2 0 1 0 0 0 1 0 0 0 0 0 0 0 0 0 0 0 0 0 0 0 0 1 2 2 0 0 0 0 0 0 1 1 1 1 0 3 1 1 0 0 0 0 1 0 0 0 0 0 0 0 0 0 0 0 0 0 0 0 0 0 0 0 0 0 0 0 0 0 0 0 0 0 0 0 0 0 0 0 0 0 0 0 0 0 0 0 0 0 0 0 0 0 0 0 0 0 0 0 0 0 0 0 0 0 0 0 0 0 0 0 0 0 0 0 0 0 0 0 0 0 0 0 0 0 0 0 0 0 0 0 0 0 0 0 0 0 0 0 0 0 0 0 0 0 0 0 0 0 0 0 0 0 0 0 0 0 0 0 0 0 0 0 0 0 0 0 0 0 0 0 0 0 0 0 0 0 0 0 0 0 0 0 0 0 0 0 0 0 0 0 0 0 0 0 0 0 0 0 0 0 0 0 0 0 0 0 0 0 0 0 0 0 0 0 0 0 0 0 0 0 0 0 0 0 0 0 0 0 0 0 0 0 0 0 0 0 0 0 0 0 0 0 0 0 0 0 0 1 1 0 2 1 3 3 3 3 2 1 0 0 2 4 4 6 6 9 7 7 7 10 9 9 8 6 3 2 1 0 0 0 0 0 0 0 0 0 0 0 0 0 0 4 5 6 6 6 3 2 2 2 0 0 0 0 0 0 0 0 0 0 0 0 0 0 0 0 0 0 1 2 3 5 7 8 6 5 5 6 4 3 6 6 7 6 3 3 4 7 9 12 14 15 15 15 13 9 7 7 7 4 3 2 0 0 0 0 0 0 0 0 0 1 0 1 0 0 0 0 0 0 0 0 0 0 3 4 3 4 5 6 8 8 9 7 6 6 6 7 7 9 13 16 18 19 22 23 24 23 21 21 20 17 16 17 17 17 18 15 15 18 18 16 15 14 16 15 14 13 12 12 11 12 11 13 12 12 13 13 13 12 13 15 15 17 16 15 14 12 13 15 14 15 16 14 16 17 15 13 14 13 14 14 10 10 10 10 9 11 9 11 11 12 11 8 6 8 6 6 6 6 4 2 2 4 6 6 7 7 8 7 6 7 8 10 11 10 13 15 16 18 16 15 16 19 20 20 19 19 18 17 15 15 14 12 12 11 12 14 13 14 15 
17 15 13 11 7 6 4 6 6 8 8 10 11 11 9 7 5 4 3 4 4 5 5 5 8 7 6 3 3 4 6 9 8 9 8 10 10 10 11 9 8 7 9 9 10 12 14 14 13 14 13 11 12 13 14 13 12 10 11 9 7 6 4 1 2 3 5 5 4 3 2 2 5 4 4 4 6 10 12 14 16 18 18 17 16 15 14 13 12 10 9 8 6 5 4 7 7 9 7 8 8 7 7 7 7 6 6 6 6 8 7 8 7 5 5 5 4 4 4 5 4 3 4 5 5 6 3 2 1 3 2 1 1 2 0 0 0 0 0 0 0 0 0 0 0 0 0 0 0 0 0 2 2 0 0 0 0 0 0 2 1 1 0 0 2 0 0 0 0 0 0 0 0 0 0 0 0 0 0 0 0 0 0 0 0 0 0 0 0 0 0 0 0 0 0 0 0 0 0 0 0 0 0 0 0 0 0 0 0 0 0 0 0 0 0 0 0 0 0 0 0 0 0 0 0 0 0 0 0 0 0 0 0 0 0 0 0 0 0 0 0 0 0 0 0 0 0 0 0 0 0 0 0 0 0 0 0 0 0 0 0 0 0 0 0 0 0 0 0 0 0 0 0 0 0 0 0 0 0 0 0 0 0 0 0 0 0 0 0 0 0 0 0 0 0 0 0 0 0 0 0 0 0 0 0 0 0 0 0 0 0 0 0 0 0 0 0 0 0 0 0 0 0 0 0 0 0 0 0 0 0 0 0 0 0 0 0 0 0 0 0 0 0 0 0 0 0 0 0 0 0 0 0 0 0 0 0 0 0 0 0 0 0 0 0 0 0 0 0 0 0 0 0 0 0 0 0 0 0 0 1 1 3 3 2 1 1 0 0 1 3 5 5 9 8 8 8 10 11 9 8 7 6 3 2 2 0 0 0 0 0 0 0 0 0 0 0 0 0 0 1 2 4 5 4 2 1 0 1 1 0 0 0 0 0 0 0 0 0 0 1 0 0 0 0 0 0 0 1 3 4 6 5 6 4 5 6 5 5 5 5 5 6 3 3 4 7 9 13 14 14 13 14 13 10 8 6 5 3 2 1 1 0 0 0 0 0 0 0 1 1 0 0 0 0 0 0 0 0 0 0 0 0 3 3 3 5 5 7 9 9 7 7 6 4 5 6 8 9 13 15 17 18 20 19 20 19 18 17 14 14 12 13 15 17 16 14 16 18 18 18 15 16 15 15 14 13 14 12 11 10 12 12 14 15 14 14 12 13 15 15 17 18 18 17 16 15 14 14 14 14 14 14 15 16 14 14 13 13 12 12 10 10 10 9 9 10 11 11 10 10 9 8 6 5 7 6 5 5 5 4 5 5 6 6 7 8 10 7 7 9 10 9 9 11 15 17 18 18 18 15 15 17 17 16 16 15 13 14 13 11 10 10 9 9 12 12 13 15 16 
16 14 12 10 9 8 5 4 5 6 6 7 10 11 10 9 7 6 5 3 5 5 4 4 4 6 6 3 4 6 8 9 10 11 10 11 10 9 11 9 7 8 10 10 12 13 15 14 13 12 11 10 11 14 14 13 13 11 10 10 10 7 6 3 3 4 5 5 4 3 3 3 3 3 3 3 6 8 10 13 14 15 17 18 17 16 14 13 13 11 10 10 8 6 6 8 8 11 10 9 9 8 7 8 8 7 7 7 8 8 8 8 5 5 5 5 5 4 3 3 4 4 4 5 6 7 4 2 3 3 3 2 2 1 0 0 0 0 0 0 0 0 0 0 0 0 0 0 0 0 1 3 2 0 0 0 0 0 0 0 0 0 0 2 2 0 0 0 0 0 0 0 0 0 0 0 0 0 0 0 0 0 0 0 0 0 0 0 0 0 0 0 0 0 0 0 0 0 0 0 0 0 0 0 0 0 0 0 0 0 0 0 0 0 0 0 0 0 0 0 0 0 0 0 0 0 0 0 0 0 0 0 0 0 0 0 0 0 0 0 0 0 0 0 0 0 0 0 0 0 0 0 0 0 0 0 0 0 0 0 0 0 0 0 0 0 0 0 0 0 0 0 0 0 0 0 0 0 0 0 0 0 0 0 0 0 0 0 0 0 0 0 0 0 0 0 0 0 0 0 0 0 0 0 0 0 0 0 0 0 0 0 0 0 0 0 0 0 0 0 0 0 0 0 0 0 0 0 0 0 0 0 0 0 0 0 0 0 0 0 0 0 0 0 0 0 0 0 0 0 0 0 0 0 0 0 0 0 0 0 0 0 0 0 0 0 0 0 0 0 0 0 0 0 0 0 0 0 0 0 0 0 3 3 0 0 1 0 0 0 2 4 6 8 8 8 8 9 10 10 9 7 4 1 0 0 0 0 0 0 0 0 0 0 0 0 0 0 0 0 0 0 2 3 3 3 1 1 1 2 1 3 3 2 2 1 1 0 1 1 0 0 0 0 0 0 0 1 2 4 5 6 6 4 3 4 4 5 5 5 4 6 6 7 5 4 7 8 11 14 14 13 14 13 10 9 7 6 5 3 1 0 0 0 0 0 0 0 0 2 1 0 0 0 0 0 0 0 0 0 0 0 1 3 2 4 5 7 9 11 9 7 7 8 6 5 6 6 7 10 13 12 14 14 14 17 17 15 13 11 10 11 13 15 16 15 14 15 17 20 19 17 16 17 15 15 14 14 12 12 10 11 13 16 16 15 14 14 14 16 17 17 19 19 19 16 14 12 11 13 13 12 13 11 13 13 15 14 14 11 10 10 11 13 11 11 12 12 9 8 9 8 7 8 6 6 7 5 4 4 4 6 5 5 5 5 7 8 6 6 8 10 9 9 12 15 17 18 18 17 17 15 14 14 13 13 11 10 11 12 11 9 10 8 9 11 12 15 16 17 
13 13 11 12 11 9 6 5 5 5 4 8 10 10 10 10 9 6 5 3 4 5 5 4 4 5 6 5 5 7 9 9 9 9 10 11 11 11 11 12 10 11 11 11 12 12 14 14 13 12 10 9 11 12 13 12 12 12 13 14 12 9 7 6 4 4 5 4 4 3 3 4 3 4 4 5 7 9 8 9 12 14 16 19 19 16 14 15 15 13 10 10 8 8 9 9 11 12 13 10 9 10 9 9 9 8 6 6 7 6 6 5 5 4 3 5 4 1 0 1 3 5 5 4 6 6 2 1 2 3 3 2 1 0 0 0 0 0 0 0 0 0 0 0 0 0 0 0 0 0 2 4 3 0 0 0 0 0 0 0 0 0 0 3 3 2 1 0 0 0 0 0 0 0 0 0 0 0 0 0 0 0 0 0 0 0 0 0 0 0 0 0 0 0 0 0 0 0 0 0 0 0 0 0 0 0 0 0 0 0 0 0 0 0 0 0 0 0 0 0 0 0 0 0 0 0 0 0 0 0 0 0 0 0 0 0 0 0 0 0 0 0 0 0 0 0 0 0 0 0 0 0 0 0 0 0 0 0 0 0 0 0 0 0 0 0 0 0 0 0 0 0 0 0 0 0 0 0 0 0 0 0 0 0 0 0 0 0 0 0 0 0 0 0 0 0 0 0 0 0 0 0 0 0 0 0 0 0 0 0 0 0 0 0 0 0 0 0 0 0 0 0 0 0 0 0 0 0 0 0 0 0 0 0 0 0 0 0 0 0 0 0 0 0 0 0 0 0 0 0 0 0 0 0 0 0 0 0 0 0 0 0 0 0 0 0 0 0 0 0 0 0 0 0 0 0 0 0 0 0 0 0 2 1 0 0 0 0 0 0 0 3 5 7 7 9 7 7 8 8 6 6 2 0 0 0 0 0 0 0 0 0 0 0 0 0 0 0 0 0 0 0 0 0 0 0 1 4 4 5 5 5 3 4 4 4 3 4 3 1 0 0 0 0 0 0 0 3 4 5 6 5 4 4 3 4 6 5 5 4 5 7 7 8 6 5 7 8 11 14 13 12 11 11 10 9 9 7 6 4 3 1 0 0 0 0 0 0 0 1 1 1 0 0 0 0 0 0 0 0 0 0 1 3 4 6 6 7 9 9 8 8 8 8 8 7 6 6 6 8 10 10 9 12 11 14 15 14 13 11 13 12 13 14 13 12 13 14 17 18 18 15 15 15 14 14 16 14 12 12 12 11 14 16 16 15 14 14 14 15 16 18 18 19 17 14 12 10 11 12 12 9 10 10 11 15 16 15 15 14 13 12 13 14 13 11 11 11 9 9 10 9 10 10 8 8 5 4 2 3 4 4 4 4 3 3 6 5 4 4 8 10 10 10 11 15 17 16 17 14 15 14 12 13 11 10 9 9 10 10 12 10 10 8 11 12 15 15 15 14 
11 13 12 12 11 10 8 6 4 4 6 7 8 8 8 9 9 7 5 5 7 8 7 7 7 7 7 6 8 8 10 9 8 8 11 12 11 12 13 13 12 11 12 11 13 13 12 13 12 12 12 11 11 13 12 12 11 12 12 14 12 10 9 7 7 5 5 5 3 4 3 3 4 5 6 7 7 7 7 7 10 12 16 16 17 14 13 14 16 15 11 11 9 8 10 11 13 14 14 12 10 9 10 9 9 7 5 4 6 4 5 5 5 4 3 2 1 0 0 1 2 3 5 4 4 3 1 2 1 2 2 2 1 0 0 0 0 0 0 0 0 0 0 0 0 0 0 0 0 0 2 2 1 0 0 0 0 0 0 0 0 0 0 1 3 1 0 0 0 0 0 0 0 0 0 0 0 0 0 0 0 0 0 0 0 0 0 0 0 0 0 0 0 0 0 0 0 0 0 0 0 0 0 0 0 0 0 0 0 0 0 0 0 0 0 0 0 0 0 0 0 0 0 0 0 0 0 0 0 0 0 0 0 0 0 0 0 0 0 0 0 0 0 0 0 0 0 0 0 0 0 0 0 0 0 0 0 0 0 0 0 0 0 0 0 0 0 0 0 0 0 0 0 0 0 0 0 0 0 0 0 0 0 0 0 0 0 0 0 0 0 0 0 0 0 0 0 0 0 0 0 0 0 0 0 0 0 0 0 0 0 0 0 0 0 0 0 0 0 0 0 0 0 0 0 0 0 0 0 0 0 0 0 0 0 0 0 0 0 0 0 0 0 0 0 0 0 0 0 0 0 0 0 0 0 0 0 0 0 0 0 0 0 0 0 0 0 0 0 0 0 0 0 0 0 0 0 0 0 0 0 0 0 0 0 0 0 0 0 0 0 3 4 4 6 7 7 6 6 6 5 4 1 0 0 0 0 0 0 0 0 0 0 0 0 0 0 0 0 0 0 0 0 0 0 0 0 2 3 2 3 5 3 3 4 4 6 6 5 3 0 0 0 0 1 1 4 3 3 5 5 6 5 4 4 5 4 4 4 6 6 8 9 8 7 6 5 5 8 12 11 9 10 10 10 10 10 8 5 3 1 2 2 1 0 0 0 1 2 3 3 1 0 0 0 0 0 0 0 0 0 0 1 4 6 8 7 7 9 10 10 8 9 9 9 6 6 5 6 6 7 8 9 9 10 12 15 14 12 13 13 13 13 14 13 13 13 14 14 17 15 15 14 15 14 14 17 14 12 12 13 14 17 17 17 17 17 15 15 13 14 16 17 16 14 12 10 10 11 11 10 8 8 10 11 15 15 15 17 16 13 12 13 13 13 13 11 11 13 12 13 12 12 11 10 8 6 4 3 3 2 2 3 1 0 1 3 1 0 0 4 8 11 11 12 14 16 15 14 13 14 13 11 11 9 9 10 12 12 11 11 9 9 10 10 12 12 14 12 11 
11 12 11 9 11 9 7 6 6 7 8 7 5 7 9 8 9 8 8 7 9 10 10 11 9 10 8 8 8 9 10 10 9 9 10 11 12 13 14 14 13 13 12 12 14 15 13 14 13 14 13 12 12 14 13 13 12 12 12 11 11 11 11 11 8 5 6 4 3 2 3 4 5 5 7 7 8 7 6 6 8 9 12 15 15 13 11 13 13 13 12 10 10 9 12 13 13 13 12 12 11 11 9 9 9 7 5 4 4 3 3 4 5 4 4 3 2 1 1 1 2 2 2 1 1 2 1 0 0 2 3 2 1 2 1 0 0 0 0 0 0 0 0 0 0 0 0 0 0 0 1 1 0 0 0 0 0 0 0 0 0 0 0 0 1 0 0 0 0 0 0 0 0 0 0 0 0 0 0 0 0 0 0 0 0 0 0 0 0 0 0 0 0 0 0 0 0 0 0 0 0 0 0 0 0 0 0 0 0 0 0 0 0 0 0 0 0 0 0 0 0 0 0 0 0 0 0 0 0 0 0 0 0 0 0 0 0 0 0 0 0 0 0 0 0 0 0 0 0 0 0 0 0 0 0 0 0 0 0 0 0 0 0 0 0 0 0 0 0 0 0 0 0 0 0 0 0 0 0 0 0 0 0 0 0 0 0 0 0 0 0 0 0 0 0 0 0 0 0 0 0 0 0 0 0 0 0 0 0 0 0 0 0 0 0 0 0 0 0 0 0 0 0 0 0 0 0 0 0 0 0 0 0 0 0 0 0 0 0 0 0 0 0 0 0 0 0 0 0 0 0 0 0 0 0 0 0 0 0 0 0 0 0 0 0 0 0 0 0 0 0 0 2 0 0 0 0 0 0 0 0 0 0 0 0 0 0 0 0 1 2 1 2 2 4 5 5 2 2 2 2 2 0 0 0 0 0 0 0 0 0 0 0 0 0 0 0 1 0 0 0 0 0 0 0 0 0 0 0 0 1 2 1 1 2 6 6 4 3 2 4 4 2 2 1 1 4 3 4 6 5 7 5 5 7 6 5 4 4 7 8 9 10 11 10 9 6 7 10 11 11 10 9 9 12 12 9 7 4 2 2 2 3 2 1 2 2 4 7 6 4 2 0 0 0 0 0 0 0 0 0 0 2 3 5 7 8 8 10 11 10 10 9 9 8 6 4 7 6 7 6 7 9 10 12 13 16 15 15 15 14 13 14 15 15 15 14 12 13 17 16 14 14 15 15 16 14 13 12 13 14 16 17 17 18 18 16 15 15 14 13 14 15 14 15 13 11 11 12 10 10 10 10 11 11 14 17 16 17 16 14 13 14 13 13 15 14 13 14 14 13 12 13 12 10 6 5 4 3 1 0 0 0 1 0 1 2 0 0 0 2 7 11 12 11 12 12 14 13 13 14 12 11 12 12 11 12 13 13 13 11 8 8 10 11 10 11 10 10 9 
11 11 9 8 8 8 9 6 7 8 6 6 7 8 9 9 8 8 9 10 10 11 13 13 12 10 9 10 11 11 11 10 9 9 9 9 11 12 13 14 14 14 13 11 12 13 14 13 14 15 13 14 15 15 14 12 11 10 12 11 13 12 10 9 8 6 6 4 4 4 3 3 5 5 8 9 9 8 7 8 8 10 13 14 13 11 9 11 11 12 13 10 10 10 11 11 11 12 12 13 13 11 10 10 10 9 7 5 3 2 2 2 4 5 3 3 2 3 3 4 1 1 0 0 0 1 0 0 0 1 2 2 2 2 2 0 0 0 0 0 0 0 0 0 0 0 0 0 0 0 0 0 0 0 0 0 0 0 0 0 0 0 0 0 0 0 0 0 0 0 0 0 0 0 0 0 0 0 0 0 0 0 0 0 0 0 0 0 0 0 0 0 0 0 0 0 0 0 0 0 0 0 0 0 0 0 0 0 0 0 0 0 0 0 0 0 0 0 0 0 0 0 0 0 0 0 0 0 0 0 0 0 0 0 0 0 0 0 0 0 0 0 0 0 0 0 0 0 0 0 0 0 0 0 0 0 0 0 0 0 0 0 0 0 0 0 0 0 0 0 0 0 0 0 0 0 0 0 0 0 0 0 0 0 0 0 0 0 0 0 0 0 0 0 0 0 0 0 0 0 0 0 0 0 0 0 0 0 0 0 0 0 0 0 0 0 0 0 0 0 0 0 0 0 0 0 0 0 0 0 0 0 0 0 0 0 0 0 0 0 0 0 0 0 0 0 0 0 0 0 0 0 0 0 0 0 0 0 0 0 0 0 0 0 0 0 0 0 0 0 0 1 2 0 0 0 0 0 0 0 0 0 0 0 0 0 0 0 0 1 0 1 1 1 1 1 2 1 0 0 0 0 0 0 0 0 0 0 0 0 0 0 0 0 0 0 0 1 0 0 0 0 0 1 0 0 0 0 0 0 0 0 0 1 3 5 6 4 4 5 6 5 7 5 3 3 2 2 3 4 5 6 6 5 8 7 6 6 7 9 9 10 10 10 10 8 8 9 10 10 9 10 10 10 11 12 10 7 5 4 2 3 3 4 2 2 4 7 8 6 4 1 0 0 0 0 0 0 0 0 0 1 2 2 4 8 8 8 7 9 8 8 9 7 9 7 5 6 7 7 6 8 11 11 11 14 16 17 16 16 13 13 14 15 16 16 15 14 15 17 16 16 16 15 16 15 14 14 14 14 14 14 16 16 14 15 14 14 12 13 12 13 15 17 16 15 14 12 13 12 11 11 13 12 12 14 15 15 17 16 13 13 14 14 14 15 14 14 15 14 12 12 13 12 9 8 4 3 1 0 0 0 1 2 1 0 0 0 0 0 2 7 10 10 9 8 9 10 11 11 11 12 13 13 14 14 13 14 13 11 9 9 9 10 11 9 8 8 9 11 
11 10 7 7 7 8 9 8 7 8 7 5 5 6 8 10 9 9 10 11 12 11 12 13 14 12 11 12 13 12 9 8 7 7 7 7 9 10 13 13 13 13 14 11 10 12 15 14 15 16 16 15 14 15 14 12 10 10 10 10 10 12 8 7 7 8 8 6 5 2 2 3 5 7 9 10 9 7 7 9 10 12 14 14 13 12 9 10 11 13 12 10 8 9 9 10 11 11 13 13 14 12 12 13 11 9 7 3 1 3 3 5 6 6 4 2 3 4 4 3 0 0 0 0 0 1 1 0 1 2 3 3 2 1 1 0 0 0 0 0 0 0 0 0 0 0 0 0 0 0 0 0 0 0 0 0 0 0 0 0 0 0 0 0 0 0 0 0 0 0 0 0 0 0 0 0 0 0 0 0 0 0 0 0 0 0 0 0 0 0 0 0 0 0 0 0 0 0 0 0 0 0 0 0 0 0 0 0 0 0 0 0 0 0 0 0 0 0 0 0 0 0 0 0 0 0 0 0 0 0 0 0 0 0 0 0 0 0 0 0 0 0 0 0 0 0 0 0 0 0 0 0 0 0 0 0 0 0 0 0 0 0 0 0 0 0 0 0 0 0 0 0 0 0 0 0 0 0 0 0 0 0 0 0 0 0 0 0 0 0 0 0 0 0 0 0 0 0 0 0 0 0 0 0 0 0 0 0 0 0 0 0 0 0 0 0 0 0 0 0 0 0 0 0 0 0 0 0 0 0 0 0 0 0 0 0 0 0 0 0 0 0 0 0 0 0 0 0 0 0 0 0 0 0 0 0 0 0 0 0 0 0 0 0 0 0 0 0 0 1 2 1 1 0 0 0 0 0 0 0 0 0 0 0 0 0 0 0 0 0 1 0 1 0 1 1 0 0 0 0 0 0 0 0 0 0 0 0 0 0 0 0 0 0 0 0 0 0 0 0 0 0 0 0 0 0 0 0 0 0 0 0 0 3 5 6 8 4 4 6 7 7 9 7 5 3 3 2 4 6 7 7 9 7 8 8 6 8 10 11 12 11 11 8 10 9 10 10 10 10 9 9 10 11 12 14 11 8 6 5 5 3 5 4 3 4 5 8 9 6 4 1 0 1 0 0 1 1 1 2 2 2 1 1 4 7 8 6 4 4 4 6 7 7 9 9 7 6 6 6 7 9 11 11 11 13 15 17 16 14 12 12 13 12 14 14 15 13 14 17 17 15 15 15 16 17 15 13 13 14 13 13 14 14 13 13 14 13 12 13 13 13 14 15 16 15 14 14 14 14 13 13 15 15 14 15 14 14 16 17 15 14 13 13 13 14 13 12 14 15 14 14 15 14 12 9 3 1 2 1 1 2 2 4 4 3 2 0 0 0 3 6 8 7 6 4 5 6 7 8 9 9 10 12 12 12 13 13 12 12 10 11 11 10 11 10 9 9 10 11 
10 10 8 8 8 10 8 7 8 8 7 6 7 9 10 12 10 11 10 11 10 11 11 13 13 12 12 11 12 12 10 6 6 5 6 8 8 9 11 13 13 13 15 12 10 11 14 15 16 15 16 15 15 13 13 11 11 10 10 9 10 10 7 6 6 8 8 6 5 1 1 3 6 9 11 11 10 9 9 11 13 15 16 16 13 12 9 7 9 11 13 11 9 10 9 10 12 13 14 12 12 13 12 10 8 8 6 3 3 4 6 6 6 7 4 1 2 3 3 2 0 0 0 0 0 0 2 1 1 3 3 3 1 0 1 0 0 0 0 0 0 0 0 0 0 0 0 0 0 0 0 0 0 0 0 0 0 0 0 0 0 0 0 0 0 0 0 0 0 0 0 0 0 0 0 0 0 0 0 0 0 0 0 0 0 0 0 0 0 0 0 0 0 0 0 0 0 0 0 0 0 0 0 0 0 0 0 0 0 0 0 0 0 0 0 0 0 0 0 0 0 0 0 0 0 0 0 0 0 0 0 0 0 0 0 0 0 0 0 0 0 0 0 0 0 0 0 0 0 0 0 0 0 0 0 0 0 0 0 0 0 0 0 0 0 0 0 0 0 0 0 0 0 0 0 0 0 0 0 0 0 0 0 0 0 0 0 0 0 0 0 0 0 0 0 0 0 0 0 0 0 0 0 0 0 0 0 0 0 0 0 0 0 0 0 0 0 0 0 0 0 0 0 0 0 0 0 0 0 0 0 0 0 0 0 0 0 0 0 0 0 0 0 0 0 0 0 0 0 0 0 0 0 0 0 0 0 0 0 0 0 0 0 0 0 0 0 0 0 0 1 0 0 0 0 0 0 0 0 0 0 0 0 0 0 0 0 0 0 0 0 0 1 1 0 0 0 0 0 0 0 0 0 0 0 0 0 0 0 0 0 0 0 0 0 0 0 0 0 0 0 0 0 0 0 0 0 0 0 0 0 1 2 3 7 8 6 3 2 2 5 6 7 6 5 4 4 5 6 7 9 9 8 9 9 10 8 10 11 13 11 11 10 10 11 11 10 10 9 10 11 10 11 12 15 16 14 9 9 8 7 7 7 6 5 5 5 8 8 7 6 4 3 4 1 0 2 4 4 4 3 1 0 1 4 6 8 5 4 1 2 3 6 6 9 8 7 5 5 6 7 11 12 13 12 13 14 15 13 13 11 10 12 11 13 12 14 15 15 17 17 15 14 13 15 16 15 13 12 14 13 15 13 14 13 13 13 11 11 13 14 15 14 14 14 14 13 13 13 14 13 12 14 14 12 13 12 14 15 15 14 14 13 12 11 12 10 10 13 14 14 14 15 16 13 9 5 2 0 2 2 2 3 3 5 4 2 0 0 2 3 4 6 6 4 2 1 3 4 6 7 8 9 10 10 12 12 12 12 12 11 11 11 9 9 10 10 9 8 10 
12 12 10 10 9 9 9 8 9 9 10 9 10 11 12 12 12 13 11 9 9 8 10 12 12 13 11 11 12 10 9 8 6 7 6 8 8 9 8 11 13 13 15 15 13 13 13 15 15 15 16 15 15 14 13 12 12 10 10 10 9 10 8 7 8 8 7 8 6 3 3 4 6 8 10 11 11 11 11 12 15 17 17 16 15 13 10 8 9 11 12 12 11 10 11 12 13 14 13 11 12 12 10 9 7 5 5 4 5 6 7 7 7 7 5 4 1 2 4 2 0 0 0 0 0 0 0 0 0 0 1 0 0 0 0 0 0 0 0 0 0 0 0 0 0 0 0 0 0 0 0 0 0 0 0 0 0 0 0 0 0 0 0 0 0 0 0 0 0 0 0 0 0 0 0 0 0 0 0 0 0 0 0 0 0 0 0 0 0 0 0 0 0 0 0 0 0 0 0 0 0 0 0 0 0 0 0 0 0 0 0 0 0 0 0 0 0 0 0 0 0 0 0 0 0 0 0 0 0 0 0 0 0 0 0 0 0 0 0 0 0 0 0 0 0 0 0 0 0 0 0 0 0 0 0 0 0 0 0 0 0 0 0 0 0 0 0 0 0 0 0 0 0 0 0 0 0 0 0 0 0 0 0 0 0 0 0 0 0 0 0 0 0 0 0 0 0 0 0 0 0 0 0 0 0 0 0 0 0 0 0 0 0 0 0 0 0 0 0 0 0 0 0 0 0 0 0 0 0 0 0 0 0 0 0 0 0 0 0 0 0 0 0 0 0 0 0 0 0 0 0 0 0 0 0 0 0 0 0 0 0 0 0 0 0 0 0 0 0 0 0 0 0 0 0 0 0 0 0 0 0 0 0 0 0 0 0 0 0 0 0 0 0 0 0 0 0 0 0 0 0 0 0 0 0 0 0 0 0 0 0 0 0 0 0 0 0 0 0 0 0 0 0 0 0 0 0 1 2 2 2 1 3 3 6 5 5 2 0 1 4 4 4 3 2 3 5 7 6 8 8 9 9 9 10 9 9 10 12 12 12 12 11 12 11 12 12 10 9 11 14 14 13 14 17 17 14 11 10 9 7 8 7 7 7 6 7 9 10 8 8 7 7 4 4 3 3 6 5 6 4 1 0 1 3 6 5 4 3 0 0 3 3 4 6 7 6 5 6 8 8 11 14 15 14 14 13 14 13 11 10 9 10 11 11 12 15 17 16 17 16 14 12 10 12 14 14 14 13 14 14 14 15 13 13 13 13 12 13 13 13 16 15 14 13 13 14 14 15 15 13 12 12 12 10 9 10 11 13 15 16 15 14 12 11 10 11 10 13 13 14 14 15 14 12 11 6 2 1 2 1 1 1 4 5 5 4 4 1 2 2 3 3 4 3 1 1 3 5 6 5 5 7 7 10 11 11 12 10 10 12 13 9 8 9 12 12 11 10 11 
12 12 10 11 11 10 9 11 13 13 12 11 12 12 12 12 13 13 12 9 8 8 10 11 12 13 13 11 11 9 9 9 8 6 6 6 8 7 8 9 10 13 18 17 15 14 17 18 18 17 17 16 15 15 13 12 12 9 8 9 12 13 11 9 7 7 7 8 6 5 5 5 8 8 9 10 10 9 10 11 14 16 18 17 16 13 11 12 11 12 12 12 12 9 11 12 14 13 12 13 11 9 9 7 6 4 4 4 5 6 7 7 7 8 6 3 2 4 5 3 0 0 0 0 0 0 0 0 0 0 0 0 0 0 0 0 0 0 0 0 0 0 0 0 0 0 0 0 0 0 0 0 0 0 0 0 0 0 0 0 0 0 0 0 0 0 0 0 0 0 0 0 0 0 0 0 0 0 0 0 0 0 0 0 0 0 0 0 0 0 0 0 0 0 0 0 0 0 0 0 0 0 0 0 0 0 0 0 0 0 0 0 0 0 0 0 0 0 0 0 0 0 0 0 0 0 0 0 0 0 0 0 0 0 0 0 0 0 0 0 0 0 0 0 0 0 0 0 0 0 0 0 0 0 0 0 0 0 0 0 0 0 0 0 0 0 0 0 0 0 0 0 0 0 0 0 0 0 0 0 0 0 0 0 0 0 0 0 0 0 0 0 0 0 0 0 0 0 0 0 0 0 0 0 0 0 0 0 0 0 0 0 0 0 0 0 0 0 0 0 0 0 0 0 0 0 0 0 0 0 0 0 0 0 0 0 0 0 0 0 0 0 0 0 0 0 0 0 0 0 0 0 0 0 0 0 0 0 0 0 0 0 0 0 0 0 0 0 0 0 0 0 0 0 0 0 0 0 0 0 0 0 0 0 0 0 0 0 0 0 0 1 3 2 0 0 0 0 0 0 0 0 0 0 0 0 0 0 0 0 0 0 0 0 0 0 0 0 0 0 0 0 0 0 2 2 4 5 4 4 2 2 2 5 5 5 4 3 0 0 1 1 3 4 4 2 4 5 4 6 8 9 7 7 9 9 11 12 11 9 9 10 10 12 13 13 12 12 13 14 17 17 17 16 18 17 15 12 8 8 6 7 6 6 7 9 9 11 11 9 10 10 8 6 6 6 5 6 6 5 5 3 1 1 3 5 4 3 2 0 0 0 1 3 5 6 8 7 6 8 10 13 14 16 15 14 13 12 13 11 10 10 11 12 12 13 14 15 16 16 15 13 10 10 11 13 14 14 15 16 15 14 15 13 12 12 11 12 12 14 14 15 14 12 13 14 14 14 15 16 13 11 10 10 8 9 8 10 13 13 15 14 15 12 12 13 11 10 13 12 15 16 15 15 12 12 8 5 3 3 1 1 3 5 7 7 7 4 4 2 1 2 2 3 1 1 2 5 5 5 4 4 6 8 11 10 10 10 9 9 9 10 8 7 8 11 12 10 11 13 
14 11 11 13 13 13 12 14 13 13 12 12 14 14 12 13 14 14 11 9 9 8 11 14 14 14 14 12 11 11 10 10 8 7 7 7 9 9 10 10 10 14 16 16 17 19 20 21 20 17 18 17 16 14 14 12 11 9 8 11 14 14 13 9 8 7 8 7 9 6 6 5 6 6 8 9 10 9 11 11 12 16 18 18 17 15 15 13 11 11 12 13 13 10 12 14 14 15 14 13 11 10 10 8 7 6 5 6 5 7 7 8 9 8 6 4 4 4 4 4 1 0 0 0 0 0 0 0 0 0 0 0 0 0 0 0 0 0 0 0 0 0 0 0 0 0 0 0 0 0 0 0 0 0 0 0 0 0 0 0 0 0 0 0 0 0 0 0 0 0 0 0 0 0 0 0 0 0 0 0 0 0 0 0 0 0 0 0 0 0 0 0 0 0 0 0 0 0 0 0 0 0 0 0 0 0 0 0 0 0 0 0 0 0 0 0 0 0 0 0 0 0 0 0 0 0 0 0 0 0 0 0 0 0 0 0 0 0 0 0 0 0 0 0 0 0 0 0 0 0 0 0 0 0 0 0 0 0 0 0 0 0 0 0 0 0 0 0 0 0 0 0 0 0 0 0 0 0 0 0 0 0 0 0 0 0 0 0 0 0 0 0 0 0 0 0 0 0 0 0 0 0 0 0 0 0 0 0 0 0 0 0 0 0 0 0 0 0 0 0 0 0 0 0 0 0 0 0 0 0 0 0 0 0 0 0 0 0 0 0 0 0 0 0 0 0 0 0 0 0 0 0 0 0 0 0 0 0 0 0 0 0 0 0 0 0 0 0 0 0 0 1 0 0 0 0 0 1 0 0 0 0 0 0 0 0 0 0 0 0 0 2 4 3 0 0 0 1 0 0 0 0 0 0 0 0 0 0 0 0 0 0 0 0 0 0 0 0 0 0 0 0 0 0 2 5 6 6 7 5 4 3 4 5 7 6 3 2 1 1 1 2 4 6 5 4 4 5 5 6 8 8 7 6 8 9 11 10 10 9 9 11 12 13 12 12 13 13 14 17 18 18 18 17 19 18 14 10 8 8 8 7 7 8 9 10 10 11 11 11 13 14 10 9 8 6 4 4 5 5 5 5 3 4 3 2 3 2 0 0 0 0 0 0 3 5 8 7 8 8 10 12 14 16 16 13 13 12 12 11 11 12 13 12 14 13 12 15 15 14 13 11 10 9 12 13 15 16 15 16 15 14 14 14 12 13 12 10 12 11 12 13 13 12 12 12 13 14 14 15 12 11 9 8 8 8 8 8 10 12 13 13 15 13 13 12 12 12 14 14 15 16 17 15 14 13 10 7 4 5 3 4 5 7 8 10 8 5 3 1 3 4 3 3 1 1 2 4 3 3 2 3 7 8 10 11 9 7 6 7 10 10 8 8 8 10 11 11 13 14 
14 12 13 14 15 14 14 15 14 15 13 14 15 15 14 15 14 14 13 11 7 9 12 14 13 14 12 11 11 10 10 8 8 7 8 7 8 9 9 10 11 13 15 16 18 20 22 22 20 18 17 18 17 14 13 13 13 11 11 13 14 14 13 8 6 6 8 8 8 5 5 5 6 5 6 8 11 9 11 11 13 16 15 16 16 16 16 14 12 12 14 14 13 11 11 15 16 16 16 15 11 9 9 8 6 7 8 9 9 7 8 10 10 9 6 5 4 4 4 2 0 0 0 0 0 0 0 0 0 0 0 0 0 0 0 0 0 0 0 0 0 0 0 0 0 0 0 0 0 0 0 0 0 0 0 0 0 0 0 0 0 0 0 0 0 0 0 0 0 0 0 0 0 0 0 0 0 0 0 0 0 0 0 0 0 0 0 0 0 0 0 0 0 0 0 0 0 0 0 0 0 0 0 0 0 0 0 0 0 0 0 0 0 0 0 0 0 0 0 0 0 0 0 0 0 0 0 0 0 0 0 0 0 0 0 0 0 0 0 0 0 0 0 0 0 0 0 0 0 0 0 0 0 0 0 0 0 0 0 0 0 0 0 0 0 0 0 0 0 0 0 0 0 0 0 0 0 0 0 0 0 0 0 0 0 0 0 0 0 0 0 0 0 0 0 0 0 0 0 0 0 0 0 0 0 0 0 0 0 0 0 0 0 0 0 0 0 0 0 0 0 0 0 0 0 0 0 0 0 0 0 0 0 0 0 0 0 0 0 0 0 0 0 0 0 0 0 0 0 0 0 0 0 0 0 0 0 0 0 0 0 0 0 0 0 0 0 0 0 0 0 0 1 0 0 0 0 1 0 0 0 0 0 0 0 0 0 0 0 0 0 3 4 3 1 1 0 1 0 0 0 0 0 0 0 0 0 0 0 0 0 0 0 0 0 0 0 0 0 0 0 0 0 0 3 4 5 6 6 5 4 5 6 6 7 6 4 2 2 3 4 4 4 5 5 3 4 4 5 7 10 9 7 6 6 10 11 10 10 11 10 10 12 12 12 13 13 13 16 18 20 17 18 19 19 18 15 11 7 7 7 7 8 9 11 11 11 10 11 12 15 15 11 9 8 6 6 5 6 7 6 6 6 6 5 3 4 4 3 0 0 0 0 0 2 4 8 10 9 9 11 13 14 14 13 13 12 12 12 12 11 10 11 12 13 12 13 14 15 13 12 9 9 11 12 13 15 15 16 16 15 14 14 13 11 13 11 10 10 11 11 11 11 9 9 11 12 12 12 12 12 10 7 7 6 6 7 7 8 11 13 13 14 14 13 11 12 14 14 14 15 15 15 16 15 13 11 9 7 7 8 7 6 7 9 10 8 6 3 1 3 3 3 1 0 0 0 2 3 3 4 5 6 9 8 9 8 7 5 7 9 9 9 8 8 9 10 12 15 14 
16 16 15 16 16 17 15 18 18 17 16 16 15 16 14 15 15 14 14 11 9 11 13 13 12 12 12 10 11 10 9 7 7 8 9 8 8 10 9 11 10 12 15 16 19 21 23 24 22 19 19 17 16 15 13 14 12 13 13 13 12 13 12 8 6 5 7 8 8 6 6 6 6 6 5 8 9 9 9 11 13 15 15 15 12 13 14 14 12 12 13 13 12 12 12 14 15 16 16 15 14 11 9 8 7 8 9 10 8 7 7 9 9 7 6 5 5 2 0 0 0 0 0 0 0 0 0 0 0 0 0 0 0 0 0 0 0 0 0 0 0 0 0 0 0 0 0 0 0 0 0 0 0 0 0 0 0 0 0 0 0 0 0 0 0 0 0 0 0 0 0 0 0 0 0 0 0 0 0 0 0 0 0 0 0 0 0 0 0 0 0 0 0 0 0 0 0 0 0 0 0 0 0 0 0 0 0 0 0 0 0 0 0 0 0 0 0 0 0 0 0 0 0 0 0 0 0 0 0 0 0 0 0 0 0 0 0 0 0 0 0 0 0 0 0 0 0 0 0 0 0 0 0 0 0 0 0 0 0 0 0 0 0 0 0 0 0 0 0 0 0 0 0 0 0 0 0 0 0 0 0 0 0 0 0 0 0 0 0 0 0 0 0 0 0 0 0 0 0 0 0 0 0 0 0 0 0 0 0 0 0 0 0 0 0 0 0 0 0 0 0 0 0 0 0 0 0 0 0 0 0 0 0 0 0 0 0 0 0 0 0 0 0 0 0 0 0 0 0 0 0 0 0 0 0 0 0 0 0 0 0 0 0 0 0 0 0 0 0 0 0 1 0 0 0 0 0 0 0 2 2 0 0 0 0 0 0 0 0 0 0 2 4 4 2 1 0 0 0 0 0 0 0 0 0 0 0 0 0 0 0 0 0 0 0 0 0 0 0 0 0 0 0 0 3 4 5 6 4 5 4 5 6 6 7 5 5 5 4 5 6 5 5 6 6 5 4 3 6 7 10 9 9 7 8 11 12 11 11 11 9 10 13 12 13 14 13 15 16 19 20 18 18 19 18 17 15 12 9 7 8 10 10 8 11 10 10 11 11 13 14 15 12 9 9 9 9 7 6 7 7 7 7 6 6 6 7 6 4 0 0 0 0 0 1 6 9 10 10 10 11 12 14 15 14 12 10 11 11 11 11 11 11 11 13 13 14 16 15 15 14 12 11 11 12 13 15 14 15 14 15 15 13 12 12 11 10 10 11 10 11 10 10 10 12 10 11 10 9 9 11 10 8 7 6 6 6 6 8 10 12 13 13 15 14 14 13 14 14 13 15 14 15 15 15 12 10 11 10 9 9 6 5 8 8 9 9 7 3 3 3 3 3 2 0 0 1 4 3 5 5 7 8 9 9 9 8 7 6 5 7 10 9 10 9 10 12 14 16 17 
17 18 18 16 17 17 17 19 19 18 18 19 17 16 14 15 13 15 14 13 12 12 12 12 12 13 13 11 10 9 8 7 6 8 9 9 10 9 10 11 12 13 15 17 20 23 23 24 23 22 20 18 16 16 14 13 12 12 14 12 10 11 11 8 7 7 8 8 8 7 6 5 5 6 6 6 7 6 8 9 12 13 13 13 11 13 14 15 14 13 12 12 12 10 10 11 14 15 16 15 13 12 11 9 8 9 8 9 7 7 7 7 7 8 5 4 3 1 0 0 0 0 0 0 0 0 0 0 0 0 0 0 0 0 0 0 0 0 0 0 0 0 0 0 0 0 0 0 0 0 0 0 0 0 0 0 0 0 0 0 0 0 0 0 0 0 0 0 0 0 0 0 0 0 0 0 0 0 0 0 0 0 0 0 0 0 0 0 0 0 0 0 0 0 0 0 0 0 0 0 0 0 0 0 0 0 0 0 0 0 0 0 0 0 0 0 0 0 0 0 0 0 0 0 0 0 0 0 0 0 0 0 0 0 0 0 0 0 0 0 0 0 0 0 0 0 0 0 0 0 0 0 0 0 0 0 0 0 0 0 0 0 0 0 0 0 0 0 0 0 0 0 0 0 0 0 0 0 0 0 0 0 0 0 0 0 0 0 0 0 0 0 0 0 0 0 0 0 0 0 0 0 0 0 0 0 0 0 0 0 0 0 0 0 0 0 0 0 0 0 0 0 0 0 0 0 0 0 0 0 0 0 0 0 0 0 0 0 0 0 0 0 0 0 0 0 0 0 0 0 0 0 0 0 0 0 0 0 0 0 0 0 0 0 0 0 0 0 0 0 0 0 0 0 0 0 0 0 0 1 0 0 0 0 0 0 0 0 0 0 0 0 3 3 2 2 0 0 0 0 0 0 0 0 0 0 0 0 0 0 0 0 0 0 0 0 0 0 0 0 0 0 0 2 5 6 5 5 4 5 4 4 3 5 6 7 7 7 6 5 5 5 6 5 6 7 4 5 6 8 10 10 9 9 8 10 9 9 9 8 9 10 12 15 14 15 16 18 18 21 21 21 19 18 18 17 16 14 11 9 10 12 12 10 11 10 11 11 12 12 13 14 14 12 10 10 9 8 6 8 7 7 6 5 6 8 10 7 4 1 0 0 0 0 2 7 10 11 10 9 10 12 14 15 13 9 8 8 10 11 12 12 11 12 14 14 15 16 16 17 15 14 12 11 11 12 13 11 11 12 13 14 11 10 10 10 9 8 9 8 8 9 10 11 12 10 11 10 9 9 10 9 8 9 9 8 8 7 8 10 12 12 13 15 16 15 16 14 14 15 15 13 14 16 14 14 12 10 10 9 8 7 4 5 6 7 6 4 2 3 1 2 1 1 0 1 4 5 6 5 5 8 9 9 9 9 10 9 9 6 8 10 9 10 10 11 13 14 15 16 
17 16 17 17 17 18 18 19 19 19 18 19 18 17 16 14 14 16 16 14 14 13 13 14 14 13 13 10 9 8 7 7 7 10 10 9 10 10 11 13 12 14 15 18 20 24 25 25 23 22 21 18 18 17 15 14 13 14 14 12 11 10 11 8 7 6 6 8 8 8 8 5 5 6 5 6 7 6 8 9 10 11 10 11 11 14 15 14 16 13 11 11 10 8 8 10 12 15 15 14 13 11 10 8 8 8 9 10 9 8 8 9 7 4 2 2 1 0 0 0 0 0 0 0 0 0 0 0 0 0 0 0 0 0 0 0 0 0 0 0 0 0 0 0 0 0 0 0 0 0 0 0 0 0 0 0 0 0 0 0 0 0 0 0 0 0 0 0 0 0 0 0 0 0 0 0 0 0 0 0 0 0 0 0 0 0 0 0 0 0 0 0 0 0 0 0 0 0 0 0 0 0 0 0 0 0 0 0 0 0 0 0 0 0 0 0 0 0 0 0 0 0 0 0 0 0 0 0 0 0 0 0 0 0 0 0 0 0 0 0 0 0 0 0 0 0 0 0 0 0 0 0 0 0 0 0 0 0 0 0 0 0 0 0 0 0 0 0 0 0 0 0 0 0 0 0 0 0 0 0 0 0 0 0 0 0 0 0 0 0 0 0 0 0 0 0 0 0 0 0 0 0 0 0 0 0 0 0 0 0 0 0 0 0 0 0 0 0 0 0 0 0 0 0 0 0 0 0 0 0 0 0 0 0 0 0 0 0 0 0 0 0 0 0 0 0 0 0 0 0 0 0 0 0 0 0 0 0 0 0 0 0 0 0 0 0 0 0 0 0 0 0 0 0 0 0 0 0 1 0 0 0 0 0 0 0 0 0 0 0 0 0 3 3 2 2 0 0 0 0 0 0 0 0 0 0 0 0 0 0 0 0 0 0 0 0 0 0 0 0 0 0 1 2 6 5 4 3 4 2 2 3 3 3 5 7 4 6 6 7 5 4 7 7 7 6 6 6 8 9 11 11 10 9 8 8 7 8 8 7 7 8 12 14 15 15 16 19 21 21 21 23 21 20 17 17 14 13 12 12 12 13 12 11 10 11 12 12 12 14 14 15 16 13 13 12 10 8 7 8 7 6 5 5 6 8 9 8 5 3 1 0 1 2 4 7 10 11 11 11 12 14 15 14 10 7 7 9 11 12 12 12 14 15 15 14 15 17 18 18 17 16 14 11 11 11 9 8 9 10 12 13 12 11 10 11 9 9 9 7 7 8 10 12 12 11 12 11 10 9 8 9 9 10 12 11 10 8 10 13 14 14 15 17 16 16 16 16 14 15 15 15 15 17 17 15 14 12 11 8 7 5 3 1 2 4 4 3 3 2 2 3 2 3 2 2 4 7 7 7 6 7 9 10 12 11 12 13 12 10 8 9 10 9 10 12 14 15 16 16 
18 18 17 16 17 18 18 18 18 20 19 21 19 17 17 16 15 15 17 17 15 15 15 15 15 13 11 10 10 9 9 9 10 11 13 11 12 11 11 12 12 12 16 17 21 24 23 22 23 21 20 19 20 19 17 15 16 17 16 14 12 11 12 9 8 7 7 6 8 9 7 4 6 7 7 7 7 7 7 8 8 8 10 10 13 14 14 13 14 12 10 10 7 7 8 9 11 13 16 13 11 10 8 8 8 9 10 11 10 7 9 7 2 2 0 0 0 0 0 0 0 0 0 0 0 0 0 0 0 0 0 0 0 0 0 0 0 0 0 0 0 0 0 0 0 0 0 0 0 0 0 0 0 0 0 0 0 0 0 0 0 0 0 0 0 0 0 0 0 0 0 0 0 0 0 0 0 0 0 0 0 0 0 0 0 0 0 0 0 0 0 0 0 0 0 0 0 0 0 0 0 0 0 0 0 0 0 0 0 0 0 0 0 0 0 0 0 0 0 0 0 0 0 0 0 0 0 0 0 0 0 0 0 0 0 0 0 0 0 0 0 0 0 0 0 0 0 0 0 0 0 0 0 0 0 0 0 0 0 0 0 0 0 0 0 0 0 0 0 0 0 0 0 0 0 0 0 0 0 0 0 0 0 0 0 0 0 0 0 0 0 0 0 0 0 0 0 0 0 0 0 0 0 0 0 0 0 0 0 0 0 0 0 0 0 0 0 0 0 0 0 0 0 0 0 0 0 0 0 0 0 0 0 0 0 0 0 0 0 0 0 0 0 0 0 0 0 0 0 0 0 0 0 0 0 0 0 0 0 0 0 0 0 0 0 0 0 0 0 0 0 0 0 0 0 0 0 0 1 0 0 0 0 0 0 0 0 0 0 0 1 1 2 3 3 0 0 0 0 0 0 0 0 0 0 1 2 1 1 2 0 0 0 0 0 0 0 0 0 0 0 0 1 3 2 2 4 3 3 3 4 4 1 2 4 5 4 4 6 6 5 5 6 6 7 5 6 6 8 9 10 11 10 9 7 7 7 7 5 5 5 7 10 12 13 13 18 20 21 22 22 22 22 20 18 16 15 15 13 13 11 13 11 11 13 12 13 14 15 14 16 17 18 15 14 12 9 9 7 8 7 5 5 5 5 6 7 6 5 5 4 5 6 5 6 8 10 11 11 12 13 13 15 13 10 9 7 8 12 13 13 13 14 16 16 15 15 16 18 18 16 16 16 12 11 10 8 8 9 9 11 12 12 12 11 11 10 9 8 10 9 9 9 11 10 12 12 9 9 9 9 10 12 13 13 13 10 11 12 13 15 15 16 17 17 17 17 19 19 17 17 16 17 17 15 15 13 11 9 8 7 4 2 1 2 4 4 5 3 3 3 5 6 4 3 4 6 9 10 11 9 8 8 10 12 11 12 13 11 10 8 9 10 10 10 13 13 15 15 18 
19 18 17 18 18 19 18 18 18 19 20 19 18 17 17 17 16 17 18 18 15 15 16 16 15 13 11 10 11 11 12 12 10 12 14 12 13 11 9 9 10 11 15 16 20 22 22 21 21 22 20 20 19 18 17 16 18 18 17 17 14 13 11 11 9 7 6 9 10 9 6 5 6 6 5 5 6 7 6 8 8 8 9 10 12 12 13 14 13 10 7 6 7 6 8 9 12 14 15 14 10 9 8 8 9 9 12 11 10 8 7 5 0 0 0 0 0 0 0 0 0 0 0 0 0 0 0 0 0 0 0 0 0 0 0 0 0 0 0 0 0 0 0 0 0 0 0 0 0 0 0 0 0 0 0 0 0 0 0 0 0 0 0 0 0 0 0 0 0 0 0 0 0 0 0 0 0 0 0 0 0 0 0 0 0 0 0 0 0 0 0 0 0 0 0 0 0 0 0 0 0 0 0 0 0 0 0 0 0 0 0 0 0 0 0 0 0 0 0 0 0 0 0 0 0 0 0 0 0 0 0 0 0 0 0 0 0 0 0 0 0 0 0 0 0 0 0 0 0 0 0 0 0 0 0 0 0 0 0 0 0 0 0 0 0 0 0 0 0 0 0 0 0 0 0 0 0 0 0 0 0 0 0 0 0 0 0 0 0 0 0 0 0 0 0 0 0 0 0 0 0 0 0 0 0 0 0 0 0 0 0 0 0 0 0 0 0 0 0 0 0 0 0 0 0 0 0 0 0 0 0 0 0 0 0 0 0 0 0 0 0 0 0 0 0 0 0 0 0 0 0 0 0 0 0 0 0 0 0 0 0 0 0 0 0 0 0 0 0 0 0 0 0 0 0 0 0 0 0 0 0 0 0 0 0 0 0 0 0 0 1 3 2 2 2 0 0 0 0 0 0 0 0 0 0 1 4 2 2 4 1 0 0 0 0 0 0 0 0 0 0 0 1 2 1 1 2 4 4 3 3 1 1 2 3 4 3 6 6 6 6 3 3 6 7 6 4 6 8 8 9 9 7 8 7 7 6 5 5 4 6 8 10 10 11 14 17 19 20 22 22 22 21 19 17 17 16 14 14 11 13 13 12 13 14 13 15 14 15 16 18 19 19 16 12 11 9 7 5 6 5 2 2 3 3 4 6 5 5 6 7 7 9 8 7 9 9 10 10 10 11 11 13 13 10 10 9 10 13 13 13 13 15 15 14 15 16 16 16 15 15 14 13 12 12 10 9 7 7 9 10 10 13 13 13 13 13 11 10 10 10 8 7 9 9 11 10 8 9 9 9 10 10 13 14 14 13 14 13 13 14 14 16 19 21 19 19 21 21 19 18 19 18 17 15 13 12 9 10 9 7 4 4 2 4 6 6 6 4 5 5 7 6 6 8 7 7 10 11 10 8 7 7 9 10 11 14 14 11 10 9 11 12 12 10 13 16 16 16 18 
20 20 19 19 18 18 20 19 18 18 19 20 20 18 17 17 18 18 20 21 19 17 16 16 14 12 11 11 11 11 12 12 12 13 13 13 12 10 9 8 10 12 14 14 16 20 18 18 19 21 20 19 19 17 16 15 17 18 18 18 16 13 12 12 10 7 6 9 9 7 5 3 3 4 4 6 7 7 7 7 7 7 8 7 9 9 11 13 10 10 8 6 8 7 7 9 10 11 12 11 9 9 8 8 8 10 10 11 8 7 7 4 0 0 0 0 0 0 0 0 0 0 0 0 0 0 0 0 0 0 0 0 0 0 0 0 0 0 0 0 0 0 0 0 0 0 0 0 0 0 0 0 0 0 0 0 0 0 0 0 0 0 0 0 0 0 0 0 0 0 0 0 0 0 0 0 0 0 0 0 0 0 0 0 0 0 0 0 0 0 0 0 0 0 0 0 0 0 0 0 0 0 0 0 0 0 0 0 0 0 0 0 0 0 0 0 0 0 0 0 0 0 0 0 0 0 0 0 0 0 0 0 0 0 0 0 0 0 0 0 0 0 0 0 0 0 0 0 0 0 0 0 0 0 0 0 0 0 0 0 0 0 0 0 0 0 0 0 0 0 0 0 0 0 0 0 0 0 0 0 0 0 0 0 0 0 0 0 0 0 0 0 0 0 0 0 0 0 0 0 0 0 0 0 0 0 0 0 0 0 0 0 0 0 0 0 0 0 0 0 0 0 0 0 0 0 0 0 0 0 0 0 0 0 0 0 0 0 0 0 0 0 0 0 0 0 0 0 0 0 0 0 0 0 0 0 0 0 0 0 0 0 0 0 0 0 0 0 0 0 0 0 0 0 0 0 0 0 0 0 0 0 0 0 0 0 0 0 0 0 0 1 1 2 1 0 0 0 0 0 0 0 0 0 0 2 2 2 2 2 0 0 0 0 0 0 0 0 0 1 0 0 0 0 0 0 1 2 2 2 0 1 2 3 4 4 6 7 6 6 4 3 4 5 5 4 5 5 7 8 7 7 7 6 7 7 5 4 5 4 6 6 8 7 9 13 15 18 18 19 20 20 18 16 16 17 16 15 14 13 13 14 15 14 14 14 14 14 15 15 18 20 19 14 10 6 5 3 1 3 3 1 1 2 4 4 5 7 5 6 8 8 7 7 9 10 11 11 11 12 11 13 13 14 13 13 13 12 12 12 12 12 12 14 13 12 14 14 14 15 14 12 11 10 10 10 9 6 6 7 9 12 12 12 14 14 13 12 8 9 9 9 7 8 9 9 10 10 8 8 7 8 12 14 16 17 17 16 15 13 13 14 17 20 22 21 21 22 22 20 19 19 17 16 15 12 11 10 9 9 7 6 7 5 7 7 8 8 5 5 4 8 7 8 7 8 9 9 10 9 7 7 7 8 9 10 13 13 12 12 12 12 12 12 13 14 16 16 17 18 
20 20 18 19 20 21 19 19 18 17 19 20 21 21 18 20 19 20 23 22 20 19 17 15 13 10 10 12 12 13 13 14 14 14 14 13 10 9 9 8 9 11 12 13 15 16 16 17 18 18 18 18 17 17 16 14 15 15 18 17 16 14 12 14 12 9 6 7 8 6 3 1 2 2 5 6 7 6 5 7 6 6 7 7 8 9 10 11 8 8 8 6 8 7 7 9 9 9 11 11 9 8 8 6 7 8 12 11 9 7 5 3 1 0 0 0 0 0 0 0 0 0 0 0 0 0 0 0 0 0 0 0 0 0 0 0 0 0 0 0 0 0 0 0 0 0 0 0 0 0 0 0 0 0 0 0 0 0 0 0 0 0 0 0 0 0 0 0 0 0 0 0 0 0 0 0 0 0 0 0 0 0 0 0 0 0 0 0 0 0 0 0 0 0 0 0 0 0 0 0 0 0 0 0 0 0 0 0 0 0 0 0 0 0 0 0 0 0 0 0 0 0 0 0 0 0 0 0 0 0 0 0 0 0 0 0 0 0 0 0 0 0 0 0 0 0 0 0 0 0 0 0 0 0 0 0 0 0 0 0 0 0 0 0 0 0 0 0 0 0 0 0 0 0 0 0 0 0 0 0 0 0 0 0 0 0 0 0 0 0 0 0 0 0 0 0 0 0 0 0 0 0 0 0 0 0 0 0 0 0 0 0 0 0 0 0 0 0 0 0 0 0 0 0 0 0 0 0 0 0 0 0 0 0 0 0 0 0 0 0 0 0 0 0 0 0 0 0 0 0 0 0 0 0 0 0 0 0 0 0 0 0 0 0 0 0 0 0 0 0 0 0 0 0 0 0 0 0 0 0 0 0 0 0 0 0 0 0 0 1 0 0 0 0 0 0 0 0 0 0 0 0 0 0 0 0 1 0 0 0 0 0 0 0 0 0 1 2 2 3 2 1 1 0 0 0 0 0 0 0 0 1 2 4 4 4 5 4 5 3 2 1 5 4 5 4 5 5 7 7 7 7 7 6 6 6 7 5 5 3 4 5 7 6 7 11 15 17 17 19 18 16 15 15 15 16 15 15 15 15 14 14 17 16 16 16 16 17 17 16 18 17 14 12 6 3 2 1 1 1 0 0 0 1 3 4 6 7 6 6 8 8 8 9 11 11 13 13 13 12 14 15 15 16 14 15 15 13 12 10 10 12 13 14 15 14 14 14 15 15 13 11 9 8 9 9 7 6 6 7 9 8 11 13 14 14 14 13 10 8 9 8 8 9 10 11 10 10 7 8 8 9 11 11 15 18 17 17 15 15 14 13 18 21 21 20 23 23 24 24 19 18 17 14 14 13 11 12 10 10 8 9 9 8 7 8 9 7 6 4 5 8 8 8 8 8 10 10 10 10 9 8 10 10 9 10 13 13 13 11 13 12 12 11 11 13 14 15 16 19 
20 20 18 19 19 20 21 20 19 18 19 20 22 21 20 21 21 21 23 23 22 21 18 15 12 11 11 11 12 13 16 17 17 16 16 15 12 11 10 11 11 13 13 15 16 15 15 16 17 16 15 15 17 16 15 13 13 14 16 15 14 14 13 13 11 9 9 10 8 6 4 2 2 2 5 7 6 5 5 6 6 6 6 9 8 9 9 9 8 8 7 7 6 8 8 8 7 7 9 10 10 9 6 4 4 6 9 9 8 7 4 4 1 1 1 0 1 0 0 0 0 0 0 0 0 0 0 0 0 0 0 0 0 0 0 0 0 0 0 0 0 0 0 0 0 0 0 0 0 0 0 0 0 0 0 0 0 0 0 0 0 0 0 0 0 0 0 0 0 0 0 0 0 0 0 0 0 0 0 0 0 0 0 0 0 0 0 0 0 0 0 0 0 0 0 0 0 0 0 0 0 0 0 0 0 0 0 0 0 0 0 0 0 0 0 0 0 0 0 0 0 0 0 0 0 0 0 0 0 0 0 0 0 0 0 0 0 0 0 0 0 0 0 0 0 0 0 0 0 0 0 0 0 0 0 0 0 0 0 0 0 0 0 0 0 0 0 0 0 0 0 0 0 0 0 0 0 0 0 0 0 0 0 0 0 0 0 0 0 0 0 0 0 0 0 0 0 0 0 0 0 0 0 0 0 0 0 0 0 0 0 0 0 0 0 0 0 0 0 0 0 0 0 0 0 0 0 0 0 0 0 0 0 0 0 0 0 0 0 0 0 0 0 0 0 0 0 0 0 0 0 0 0 0 0 0 0 0 0 0 0 0 0 0 0 0 0 0 0 0 0 0 0 0 0 0 0 0 0 0 0 0 0 0 0 0 0 0 0 0 0 0 0 0 0 0 0 0 0 0 0 0 0 0 0 0 0 0 0 0 0 0 0 0 0 1 3 3 3 2 2 2 0 0 0 0 1 0 0 0 0 0 2 2 4 4 3 2 2 2 2 1 4 4 4 4 4 6 6 6 8 7 6 6 6 6 6 5 3 2 4 4 3 3 7 9 12 15 15 16 16 14 13 12 11 11 12 13 13 14 15 15 17 18 17 18 16 16 18 15 15 12 11 10 6 2 0 0 2 0 0 0 0 1 3 7 6 8 8 6 8 9 10 8 9 12 12 15 16 16 16 18 17 17 18 17 17 14 11 10 12 13 14 15 15 15 14 13 13 13 11 10 9 10 9 9 7 6 6 7 7 8 10 12 13 13 12 12 11 8 9 8 8 9 9 10 10 8 7 8 10 10 10 11 14 16 15 16 15 16 15 16 19 21 21 21 24 24 24 23 20 19 16 14 13 12 12 12 12 11 11 12 10 8 7 7 7 6 6 3 4 6 7 9 9 10 10 11 12 12 12 12 14 13 12 13 14 13 12 11 12 13 12 12 11 12 14 15 16 17 
20 20 20 17 16 18 18 17 18 20 20 21 21 20 21 20 20 21 21 21 21 20 18 15 12 10 10 11 11 16 19 19 19 17 17 14 13 12 14 13 12 13 14 16 17 16 14 15 16 16 15 13 16 15 13 14 14 13 15 15 16 13 12 12 12 12 11 11 9 7 6 4 2 1 3 5 7 6 4 6 6 7 9 10 8 7 7 8 7 6 5 4 5 7 7 6 6 8 10 10 8 6 3 2 2 2 6 6 6 4 3 4 3 2 1 0 0 0 0 0 0 0 0 0 0 0 0 0 0 0 0 0 0 0 0 0 0 0 0 0 0 0 0 0 0 0 0 0 0 0 0 0 0 0 0 0 0 0 0 0 0 0 0 0 0 0 0 0 0 0 0 0 0 0 0 0 0 0 0 0 0 0 0 0 0 0 0 0 0 0 0 0 0 0 0 0 0 0 0 0 0 0 0 0 0 0 0 0 0 0 0 0 0 0 0 0 0 0 0 0 0 0 0 0 0 0 0 0 0 0 0 0 0 0 0 0 0 0 0 0 0 0 0 0 0 0 0 0 0 0 0 0 0 0 0 0 0 0 0 0 0 0 0 0 0 0 0 0 0 0 0 0 0 0 0 0 0 0 0 0 0 0 0 0 0 0 0 0 0 0 0 0 0 0 0 0 0 0 0 0 0 0 0 0 0 0 0 0 0 0 0 0 0 0 0 0 0 0 0 0 0 0 0 0 0 0 0 0 0 0 0 0 0 0 0 0 0 0 0 0 0 0 0 0 0 0 0 0 0 0 0 0 0 0 0 0 0 0 0 0 0 0 0 0 0 0 0 0 0 0 0 0 0 0 0 0 0 0 0 0 0 0 0 0 0 0 0 0 0 0 0 0 0 0 0 0 0 0 0 0 0 0 0 0 0 0 0 0 0 0 0 0 0 0 0 2 3 4 4 5 4 4 1 0 0 0 0 1 0 0 0 0 2 3 3 1 2 2 2 3 2 3 5 5 5 3 3 4 6 7 6 7 7 8 5 5 4 4 2 2 3 4 3 3 7 9 11 14 14 13 12 12 12 10 8 9 11 13 13 13 14 14 16 15 16 16 16 15 15 14 11 9 8 9 7 5 3 1 0 1 2 3 4 6 8 9 9 8 8 6 8 10 9 7 7 9 12 14 16 18 17 18 19 17 18 17 18 14 13 11 12 13 12 14 15 14 13 11 12 12 12 12 11 10 9 10 8 8 7 7 8 8 10 11 11 11 11 10 8 7 6 6 7 8 8 7 9 9 7 9 11 12 12 13 12 14 14 16 15 14 15 15 20 23 23 22 24 24 22 21 21 20 20 16 14 12 12 13 12 13 13 13 10 8 6 5 5 5 3 3 4 6 6 8 10 11 11 13 15 16 16 14 16 15 14 14 15 15 14 13 11 11 11 10 11 12 14 16 18 18 
20 21 20 15 14 15 16 17 17 19 21 21 21 21 18 18 18 20 20 20 21 19 18 15 12 11 11 12 14 18 21 19 17 16 15 14 14 13 14 14 13 14 14 16 17 17 14 13 14 17 16 14 15 15 15 15 14 15 15 15 14 13 12 12 11 11 12 11 12 12 10 6 2 0 3 6 8 7 8 9 8 9 10 10 10 8 7 7 7 6 5 3 4 5 7 7 7 8 9 9 7 6 5 4 2 2 4 5 5 3 4 4 3 1 0 0 0 0 0 0 0 0 0 0 0 0 0 0 0 0 0 0 0 0 0 0 0 0 0 0 0 0 0 0 0 0 0 0 0 0 0 0 0 0 0 0 0 0 0 0 0 0 0 0 0 0 0 0 0 0 0 0 0 0 0 0 0 0 0 0 0 0 0 0 0 0 0 0 0 0 0 0 0 0 0 0 0 0 0 0 0 0 0 0 0 0 0 0 0 0 0 0 0 0 0 0 0 0 0 0 0 0 0 0 0 0 0 0 0 0 0 0 0 0 0 0 0 0 0 0 0 0 0 0 0 0 0 0 0 0 0 0 0 0 0 0 0 0 0 0 0 0 0 0 0 0 0 0 0 0 0 0 0 0 0 0 0 0 0 0 0 0 0 0 0 0 0 0 0 0 0 0 0 0 0 0 0 0 0 0 0 0 0 0 0 0 0 0 0 0 0 0 0 0 0 0 0 0 0 0 0 0 0 0 0 0 0 0 0 0 0 0 0 0 0 0 0 0 0 0 0 0 0 0 0 0 0 0 0 0 0 0 0 0 0 0 0 0 0 0 0 0 0 0 0 0 0 0 0 0 0 0 0 0 0 0 0 0 0 0 0 0 0 0 0 0 0 0 0 0 0 0 0 0 0 0 0 0 0 0 0 0 0 0 0 0 0 0 0 0 0 0 0 0 0 0 1 3 5 5 4 2 1 0 0 0 2 4 2 0 0 1 1 2 1 0 1 1 3 4 4 3 7 8 7 5 5 4 5 6 7 7 8 7 4 3 2 3 1 2 3 4 4 5 7 8 10 9 10 9 10 9 8 8 7 7 9 12 15 14 12 12 13 13 13 14 13 14 16 14 12 10 8 9 8 5 4 2 1 1 4 7 9 8 9 9 10 8 9 7 8 8 8 7 8 8 9 13 14 15 16 18 18 17 17 18 16 15 11 10 10 11 12 13 14 13 13 12 11 15 14 12 10 8 9 8 7 7 8 9 9 10 9 10 10 10 10 7 6 5 4 7 6 8 7 7 9 10 10 10 13 14 14 12 12 14 17 18 17 16 15 18 22 24 23 22 23 24 23 22 22 21 20 19 17 15 15 17 16 15 13 12 10 7 6 6 5 4 4 5 6 8 7 8 10 11 14 14 15 16 17 15 14 15 16 15 16 17 17 14 12 12 12 12 12 13 15 18 18 18 
19 19 19 15 15 15 17 16 18 20 20 20 19 18 18 19 20 21 19 19 19 20 18 14 12 11 12 12 15 18 19 18 16 17 15 14 13 14 14 13 13 14 13 15 15 16 14 13 14 17 16 16 15 16 16 16 16 17 15 14 14 13 13 13 12 13 14 13 12 11 11 6 2 3 5 6 8 9 10 11 10 9 10 10 9 8 6 6 6 5 4 4 5 7 7 6 6 8 9 8 7 8 7 6 4 3 4 4 4 5 5 3 1 1 0 0 0 0 0 0 0 0 0 0 0 0 0 0 0 0 0 0 0 0 0 0 0 0 0 0 0 0 0 0 0 0 0 0 0 0 0 0 0 0 0 0 0 0 0 0 0 0 0 0 0 0 0 0 0 0 0 0 0 0 0 0 0 0 0 0 0 0 0 0 0 0 0 0 0 0 0 0 0 0 0 0 0 0 0 0 0 0 0 0 0 0 0 0 0 0 0 0 0 0 0 0 0 0 0 0 0 0 0 0 0 0 0 0 0 0 0 0 0 0 0 0 0 0 0 0 0 0 0 0 0 0 0 0 0 0 0 0 0 0 0 0 0 0 0 0 0 0 0 0 0 0 0 0 0 0 0 0 0 0 0 0 0 0 0 0 0 0 0 0 0 0 0 0 0 0 0 0 0 0 0 0 0 0 0 0 0 0 0 0 0 0 0 0 0 0 0 0 0 0 0 0 0 0 0 0 0 0 0 0 0 0 0 0 0 0 0 0 0 0 0 0 0 0 0 0 0 0 0 0 0 0 0 0 0 0 0 0 0 0 0 0 0 0 0 0 0 0 0 0 0 0 0 0 0 0 0 0 0 0 0 0 0 0 0 0 0 0 0 0 0 0 0 0 0 0 0 0 0 0 0 0 0 0 0 0 0 0 0 0 0 0 0 0 0 0 0 1 1 0 0 0 1 2 2 2 2 2 0 0 0 2 4 4 2 0 0 0 0 0 0 0 0 2 4 7 6 6 8 9 7 6 3 3 4 7 9 8 7 6 5 4 4 4 4 4 4 2 3 5 8 8 8 7 9 9 8 8 6 6 5 6 8 11 12 12 10 9 9 11 12 13 12 13 13 14 12 10 8 11 10 8 5 4 4 3 4 7 8 8 8 8 9 9 9 8 9 7 6 7 8 8 8 10 14 14 14 15 16 15 15 17 16 14 11 10 11 12 13 13 13 15 13 13 13 14 14 11 8 7 7 7 7 7 7 6 7 7 7 7 9 7 7 5 5 6 6 7 6 6 6 8 10 10 11 12 13 13 13 12 12 13 18 19 18 17 17 19 22 23 22 22 24 24 24 24 21 20 21 21 19 17 17 18 19 17 15 13 12 9 7 7 6 4 6 6 8 8 7 8 10 12 15 15 16 18 17 15 15 15 16 16 17 19 17 16 15 15 15 15 15 15 18 20 20 19 
19 18 18 17 16 16 16 17 18 18 20 20 19 19 18 20 20 21 22 20 20 19 16 14 12 13 12 13 17 17 19 17 16 16 14 13 13 12 12 12 13 13 13 14 15 15 14 13 14 17 18 18 16 16 17 17 19 17 15 14 13 13 13 14 14 14 14 15 15 14 12 9 7 7 6 8 8 8 9 10 9 9 10 10 10 8 6 8 8 6 7 6 4 6 6 6 6 9 9 8 9 8 8 8 6 5 3 4 4 5 4 3 0 2 1 0 0 0 0 0 0 0 0 0 0 0 0 0 0 0 0 0 0 0 0 0 0 0 0 0 0 0 0 0 0 0 0 0 0 0 0 0 0 0 0 0 0 0 0 0 0 0 0 0 0 0 0 0 0 0 0 0 0 0 0 0 0 0 0 0 0 0 0 0 0 0 0 0 0 0 0 0 0 0 0 0 0 0 0 0 0 0 0 0 0 0 0 0 0 0 0 0 0 0 0 0 0 0 0 0 0 0 0 0 0 0 0 0 0 0 0 0 0 0 0 0 0 0 0 0 0 0 0 0 0 0 0 0 0 0 0 0 0 0 0 0 0 0 0 0 0 0 0 0 0 0 0 0 0 0 0 0 0 0 0 0 0 0 0 0 0 0 0 0 0 0 0 0 0 0 0 0 0 0 0 0 0 0 0 0 0 0 0 0 0 0 0 0 0 0 0 0 0 0 0 0 0 0 0 0 0 0 0 0 0 0 0 0 0 0 0 0 0 0 0 0 0 0 0 0 0 0 0 0 0 0 0 0 0 0 0 0 0 0 0 0 0 0 0 0 0 0 0 0 0 0 0 0 0 0 0 0 0 0 0 0 0 0 0 0 0 0 0 0 0 0 0 0 0 0 0 0 0 0 0 0 0 0 0 0 0 0 0 0 0 0 0 0 0 0 0 0 0 0 0 0 0 1 3 3 2 0 0 0 0 2 4 3 0 0 2 0 0 0 0 0 0 2 5 6 8 8 9 10 8 5 3 4 5 7 10 9 7 7 8 7 7 7 6 5 6 4 4 5 6 7 5 6 6 5 6 6 4 2 2 4 7 9 9 9 6 7 9 10 12 11 9 11 12 10 10 8 9 10 11 9 9 7 7 5 6 7 6 7 7 6 7 7 7 7 8 8 4 5 8 9 10 10 12 14 14 14 13 15 14 13 13 14 13 12 13 14 14 15 14 14 15 13 13 13 12 9 8 6 6 8 7 6 6 4 5 5 6 7 7 6 7 5 6 6 6 7 8 6 7 8 11 11 12 13 11 11 12 12 12 14 16 18 20 19 19 20 21 22 23 24 25 25 23 23 20 19 19 20 19 17 15 17 17 16 16 15 14 11 7 8 7 8 6 6 7 9 9 9 11 12 14 17 17 17 16 16 16 17 18 19 19 20 19 19 17 17 17 18 17 16 18 20 19 17 
17 18 20 18 16 16 17 17 17 19 20 21 20 18 17 19 21 23 22 22 18 18 16 15 13 14 13 13 16 17 19 18 16 15 13 12 11 11 11 13 13 15 15 16 16 16 15 15 15 17 19 18 18 17 18 17 18 18 18 16 16 14 15 16 15 15 15 16 17 17 17 14 12 10 7 8 9 9 10 10 9 8 8 11 10 8 7 6 7 7 8 5 4 6 7 5 7 10 10 8 8 9 10 8 7 6 4 3 4 3 3 1 0 1 2 1 0 0 0 0 0 0 0 0 0 0 0 0 0 0 0 0 0 0 0 0 0 0 0 0 0 0 0 0 0 0 0 0 0 0 0 0 0 0 0 0 0 0 0 0 0 0 0 0 0 0 0 0 0 0 0 0 0 0 0 0 0 0 0 0 0 0 0 0 0 0 0 0 0 0 0 0 0 0 0 0 0 0 0 0 0 0 0 0 0 0 0 0 0 0 0 0 0 0 0 0 0 0 0 0 0 0 0 0 0 0 0 0 0 0 0 0 0 0 0 0 0 0 0 0 0 0 0 0 0 0 0 0 0 0 0 0 0 0 0 0 0 0 0 0 0 0 0 0 0 0 0 0 0 0 0 0 0 0 0 0 0 0 0 0 0 0 0 0 0 0 0 0 0 0 0 0 0 0 0 0 0 0 0 0 0 0 0 0 0 0 0 0 0 0 0 0 0 0 0 0 0 0 0 0 0 0 0 0 0 0 0 0 0 0 0 0 0 0 0 0 0 0 0 0 0 0 0 0 0 0 0 0 0 0 0 0 0 0 0 0 0 0 0 0 0 0 0 0 0 0 0 0 0 0 0 0 0 0 0 0 0 0 0 0 0 0 0 0 0 0 0 0 0 0 0 0 0 0 0 0 0 0 0 0 0 0 0 0 0 0 0 0 0 0 0 0 0 0 0 0 0 2 4 2 0 0 0 0 0 0 2 1 0 0 0 0 0 0 0 1 2 4 6 6 8 9 9 9 7 6 4 5 8 9 12 11 9 9 10 9 9 7 7 6 7 4 4 5 5 5 5 3 2 1 3 3 3 2 2 2 5 5 4 6 5 5 6 7 8 8 9 9 11 9 8 5 4 7 8 10 9 9 10 10 10 9 7 6 7 6 5 4 4 5 6 8 7 7 9 10 10 9 12 14 13 13 13 13 12 11 11 13 14 12 13 15 15 16 15 15 15 15 15 13 11 8 8 5 6 7 7 5 6 5 6 9 9 7 5 6 6 6 7 6 7 8 7 7 7 9 11 12 10 11 10 9 9 11 12 14 16 18 19 19 18 19 22 23 22 25 24 24 21 20 20 19 18 19 18 15 15 16 17 16 18 17 15 11 9 8 8 8 7 5 8 9 9 10 10 11 14 16 18 18 18 19 19 19 19 19 20 21 21 22 20 18 19 21 20 20 20 20 18 17 
18 18 20 21 19 17 18 20 19 20 21 21 20 20 19 21 22 23 21 21 20 19 17 18 14 14 14 16 18 18 16 16 16 14 14 12 11 11 11 13 16 17 14 16 17 18 17 17 17 18 19 19 19 17 16 18 19 18 18 17 18 16 17 16 17 17 15 16 19 20 19 16 13 10 10 9 8 10 10 10 8 8 9 10 10 9 8 8 7 7 7 6 5 6 6 7 8 10 10 10 7 8 8 9 8 8 6 4 3 3 3 2 1 1 1 0 0 0 0 0 0 0 0 0 0 0 0 0 0 0 0 0 0 0 0 0 0 0 0 0 0 0 0 0 0 0 0 0 0 0 0 0 0 0 0 0 0 0 0 0 0 0 0 0 0 0 0 0 0 0 0 0 0 0 0 0 0 0 0 0 0 0 0 0 0 0 0 0 0 0 0 0 0 0 0 0 0 0 0 0 0 0 0 0 0 0 0 0 0 0 0 0 0 0 0 0 0 0 0 0 1 0 0 0 0 0 0 0 0 0 0 0 0 0 0 0 0 0 0 0 0 0 0 0 0 0 0 0 0 0 0 0 0 0 0 0 0 0 0 0 0 0 0 0 0 0 0 0 0 0 0 0 0 0 0 0 0 0 0 0 0 0 0 0 0 0 0 0 0 0 0 0 0 0 0 0 0 0 0 0 0 0 0 0 0 0 0 0 0 0 0 0 0 0 0 0 0 0 0 0 0 0 0 0 0 0 0 0 0 0 0 0 0 0 0 0 0 0 0 0 0 0 0 0 0 0 0 0 0 0 0 0 0 0 0 0 0 0 0 0 0 0 0 0 0 0 0 0 0 0 0 0 0 0 0 0 0 0 0 0 0 0 0 0 0 0 0 0 0 0 0 0 0 0 0 0 0 0 0 0 0 0 0 0 0 0 0 0 0 0 0 0 0 0 0 0 2 3 4 2 0 0 0 0 0 1 1 0 0 0 0 0 0 0 0 1 3 4 4 6 7 7 7 8 7 7 8 7 9 11 12 13 12 13 12 10 7 6 5 4 4 5 4 5 5 5 3 1 0 0 1 2 1 2 2 2 3 3 1 2 2 2 1 2 6 9 11 12 10 9 6 5 3 4 7 8 8 10 11 10 12 12 9 8 8 7 6 6 5 5 6 6 7 7 9 11 12 10 11 14 13 15 14 13 11 9 9 10 12 12 12 12 15 15 16 15 16 16 15 14 11 9 8 6 5 5 7 6 5 6 7 9 8 7 5 6 6 5 5 5 6 8 9 9 9 10 10 11 9 9 10 8 9 11 14 16 17 19 20 19 17 18 20 22 22 22 23 21 20 21 19 18 18 16 15 13 13 15 18 17 18 17 15 13 10 11 11 8 9 8 9 8 8 8 10 12 14 18 19 19 19 21 20 20 19 21 21 23 24 23 21 19 20 19 20 20 20 20 19 18 
20 21 24 24 21 20 21 22 20 20 20 21 21 22 24 23 23 24 22 22 20 19 19 18 15 15 15 16 16 16 15 14 14 13 13 13 11 11 11 13 14 16 15 16 19 19 19 17 19 19 18 18 17 17 17 17 17 18 18 20 20 19 18 18 18 19 16 15 17 20 19 18 15 13 12 10 10 9 10 10 10 9 9 10 11 9 9 7 7 7 7 7 7 6 6 8 9 9 8 7 7 7 8 9 8 8 6 6 4 5 3 2 1 0 0 0 0 0 0 0 0 0 0 0 0 0 0 0 0 0 0 0 0 0 0 0 0 0 0 0 0 0 0 0 0 0 0 0 0 0 0 0 0 0 0 0 0 0 0 0 0 0 0 0 0 0 0 0 0 0 0 0 0 0 0 0 0 0 0 0 0 0 0 0 0 0 0 0 0 0 0 0 0 0 0 0 0 0 0 0 0 0 0 0 0 0 0 0 0 0 0 0 0 0 0 0 0 0 0 2 2 1 0 0 0 0 0 0 0 0 0 0 0 0 0 0 0 0 0 0 0 0 0 0 0 0 0 0 0 0 0 0 0 0 0 0 0 0 0 0 0 0 0 0 0 0 0 0 0 0 0 0 0 0 0 0 0 0 0 0 0 0 0 0 0 0 0 0 0 0 0 0 0 0 0 0 0 0 0 0 0 0 0 0 0 0 0 0 0 0 0 0 0 0 0 0 0 0 0 0 0 0 0 0 0 0 0 0 0 0 0 0 0 0 0 0 0 0 0 0 0 0 0 0 0 0 0 0 0 0 0 0 0 0 0 0 0 0 0 0 0 0 0 0 0 0 0 0 0 0 0 0 0 0 0 0 0 0 0 0 0 0 0 0 0 0 0 0 0 0 0 0 0 0 0 0 0 0 0 0 0 0 0 0 0 0 0 0 0 0 0 0 0 1 1 1 2 2 2 3 1 1 1 0 0 0 1 1 0 0 0 0 0 0 0 1 3 4 4 7 8 8 9 8 9 9 9 9 10 13 13 16 16 14 11 10 6 4 5 2 4 5 4 4 3 3 2 0 0 0 0 1 2 3 2 2 2 3 1 0 0 1 0 1 4 7 11 11 9 7 5 3 2 3 7 8 8 8 9 11 11 12 11 10 9 10 10 9 8 8 8 8 9 9 11 13 14 13 13 16 16 17 16 12 10 8 8 9 10 10 9 10 13 14 16 16 18 16 17 15 11 9 6 7 5 6 6 5 7 6 5 6 8 7 5 6 6 6 6 6 6 7 8 11 11 12 10 10 8 10 10 9 10 12 16 16 17 20 20 20 18 19 21 23 21 20 22 23 21 21 19 17 17 15 12 12 13 17 18 17 19 20 16 15 13 14 13 11 11 11 9 8 9 11 10 12 15 18 20 22 22 22 22 20 19 20 21 22 21 20 19 17 17 17 18 19 20 21 20 20 
23 25 27 27 25 23 23 21 22 21 21 21 22 24 25 24 24 24 22 22 21 18 17 14 12 12 13 14 14 15 13 11 12 14 13 12 12 12 13 12 14 16 17 18 19 19 17 16 16 17 18 19 18 17 17 17 18 17 18 20 21 19 18 18 17 17 17 15 16 17 16 17 15 14 13 12 11 10 10 10 10 10 10 11 11 10 9 8 7 7 7 6 7 8 7 7 5 7 7 7 6 6 7 8 7 7 4 4 3 3 2 0 0 0 0 0 0 0 0 0 0 0 0 0 0 0 0 0 0 0 0 0 0 0 0 0 0 0 0 0 0 0 0 0 0 0 0 0 0 0 0 0 0 0 0 0 0 0 0 0 0 0 0 0 0 0 0 0 0 0 0 0 0 0 0 0 0 0 0 0 0 0 0 0 0 0 0 0 0 0 0 0 0 0 0 0 0 0 0 0 0 0 0 0 0 0 0 0 0 0 0 0 0 0 0 0 0 0 0 2 5 3 2 0 0 0 0 0 0 0 0 0 0 0 0 0 0 0 0 0 0 0 0 0 0 0 0 0 0 0 0 0 0 0 0 0 0 0 0 0 0 0 0 0 0 0 0 0 0 0 0 0 0 0 0 0 0 0 0 0 0 0 0 0 0 0 0 0 0 0 0 0 0 0 0 0 0 0 0 0 0 0 0 0 0 0 0 0 0 0 0 0 0 0 0 0 0 0 0 0 0 0 0 0 0 0 0 0 0 0 0 0 0 0 0 0 0 0 0 0 0 0 0 0 0 0 0 0 0 0 0 0 0 0 0 0 0 0 0 0 0 0 0 0 0 0 0 0 0 0 0 0 0 0 0 0 0 0 0 0 0 0 0 0 0 0 0 0 0 0 0 0 0 0 0 0 0 0 0 0 0 0 0 0 0 0 0 0 0 0 0 0 0 0 1 0 1 1 1 2 1 0 1 0 0 0 0 3 3 4 5 4 4 3 2 1 2 4 6 8 9 10 10 10 9 10 9 10 12 14 14 16 18 16 14 10 6 6 3 2 3 5 5 6 5 2 0 0 0 0 0 2 4 5 3 2 3 3 3 1 1 0 1 2 5 7 9 10 8 5 2 2 3 3 7 7 8 10 10 12 12 14 13 11 9 10 11 11 9 10 10 11 10 11 11 14 15 13 14 16 17 17 15 13 11 10 8 6 8 9 9 11 13 14 15 16 17 16 16 13 11 9 6 5 7 6 5 7 6 6 5 5 6 8 7 6 6 7 7 8 7 9 13 14 13 14 13 12 11 10 9 7 9 12 16 16 18 20 20 18 18 20 22 23 21 19 20 21 20 20 19 17 16 15 14 13 16 18 19 19 19 18 15 15 15 14 13 12 12 13 13 10 9 10 12 13 14 17 19 20 20 22 23 20 20 19 20 20 19 18 18 18 16 17 18 22 23 22 22 22 
25 27 27 28 26 24 23 21 21 22 22 23 24 26 27 25 24 25 23 21 20 19 17 13 11 11 12 12 11 12 12 9 10 13 13 13 13 13 14 13 15 17 18 18 19 19 18 17 14 17 17 18 15 16 17 17 17 16 19 20 20 20 18 16 17 18 17 17 16 17 15 15 14 13 12 12 11 9 11 10 10 10 10 11 10 10 9 8 7 9 9 9 8 8 7 7 6 6 6 7 4 5 5 7 5 4 3 3 2 2 1 0 0 0 0 0 0 0 0 1 0 0 0 0 0 0 0 0 0 0 0 0 0 0 0 0 0 0 0 0 0 1 0 0 0 0 0 0 0 0 0 0 0 0 0 0 0 0 0 0 0 0 0 0 0 0 0 0 0 0 0 0 0 0 0 0 0 0 0 0 0 0 0 0 0 0 0 0 0 0 0 0 0 0 0 0 0 0 0 0 0 0 0 0 0 0 0 0 0 0 0 0 0 0 0 0 0 0 1 3 5 4 2 0 0 0 0 0 0 0 0 0 0 0 0 0 0 0 0 0 0 0 0 0 0 0 0 0 0 0 0 0 0 0 0 0 0 0 0 0 0 0 0 0 0 0 0 0 0 0 0 0 0 0 0 0 0 0 0 0 0 0 0 0 0 0 0 0 0 0 0 0 0 0 0 0 0 0 0 0 0 0 0 0 0 0 0 0 0 0 0 0 0 0 0 0 0 0 0 0 0 0 0 0 0 0 0 0 0 0 0 0 0 0 0 0 0 0 0 0 0 0 0 0 0 0 0 0 0 0 0 0 0 0 0 0 0 0 0 0 0 0 0 0 0 0 0 0 0 0 0 0 0 0 0 0 0 0 0 0 0 0 0 0 0 0 0 0 0 0 0 0 0 0 0 0 0 0 0 0 0 0 0 0 0 0 0 0 0 0 0 0 0 0 0 0 0 0 0 1 1 0 0 0 0 0 1 3 6 8 8 8 7 8 5 3 4 6 7 9 9 10 12 11 9 10 12 12 13 14 15 17 18 16 14 11 8 7 5 3 4 5 6 5 4 4 1 0 0 0 1 2 5 6 4 3 3 5 4 3 1 1 2 3 5 7 7 7 5 5 2 3 4 3 6 8 9 10 10 13 13 14 15 13 11 10 12 12 11 11 12 13 14 14 11 12 15 14 13 14 14 15 12 10 10 9 9 6 6 7 10 12 13 14 15 15 16 16 14 12 11 10 6 5 5 5 6 5 5 7 7 6 6 7 7 7 6 6 6 8 9 11 14 16 16 17 15 13 11 9 7 4 6 10 12 14 16 18 18 19 17 18 22 23 21 19 19 21 20 20 19 18 18 17 14 15 16 18 21 20 20 18 15 15 16 15 15 15 15 16 15 12 11 12 14 14 14 16 19 20 21 23 23 20 19 19 19 20 20 18 16 16 17 18 21 23 25 25 27 25 
24 24 26 27 26 25 22 21 22 23 24 25 26 27 27 26 25 24 23 21 21 21 17 13 12 10 9 10 10 10 10 8 9 14 14 13 13 13 14 12 15 16 17 18 18 20 19 15 14 14 14 15 15 15 15 14 14 15 17 19 17 16 16 15 17 19 16 15 15 14 15 15 14 11 12 10 10 10 11 11 10 11 10 12 11 10 9 8 7 9 9 9 8 7 9 8 5 6 5 6 3 2 3 5 5 5 3 2 3 3 0 0 0 0 0 0 0 0 0 0 1 0 0 0 0 0 0 0 0 0 0 0 0 0 0 0 0 0 0 0 2 4 3 1 0 0 0 0 0 0 0 0 0 0 0 0 0 0 0 0 0 0 0 0 0 0 0 0 0 0 0 0 0 0 0 0 0 0 0 0 0 0 0 0 0 0 0 0 0 0 0 0 0 0 0 0 0 0 0 0 0 0 0 0 0 0 0 0 0 0 0 0 0 0 0 0 0 1 1 1 4 2 0 0 0 0 0 0 0 0 0 0 0 0 0 0 0 0 0 0 0 0 0 0 0 0 0 0 0 0 0 0 0 0 0 0 0 0 0 0 0 0 0 0 0 0 0 0 0 0 0 0 0 0 0 0 0 0 0 0 0 0 0 0 0 0 0 0 0 0 0 0 0 0 0 0 0 0 0 0 0 0 0 0 0 0 0 0 0 0 0 0 0 0 0 0 0 0 0 0 0 0 0 0 0 0 0 0 0 0 0 0 0 0 0 0 0 0 0 0 0 0 0 0 0 0 0 0 0 0 0 0 0 0 0 0 0 0 0 0 0 0 0 0 0 0 0 0 0 0 0 0 0 0 0 0 0 0 0 0 0 0 0 0 0 0 0 0 0 0 0 0 0 0 0 0 0 0 0 0 0 0 0 0 0 0 0 0 0 0 0 0 0 0 0 0 0 0 0 0 0 0 1 1 2 2 2 5 6 7 8 10 9 9 7 6 6 8 10 10 11 13 14 13 11 11 14 13 14 15 15 16 18 15 12 11 10 9 8 6 4 5 6 5 3 3 1 0 0 0 1 3 5 6 6 4 4 5 5 4 2 2 4 5 6 9 9 6 6 3 2 1 3 4 6 8 10 10 12 13 15 14 15 13 11 11 11 12 12 13 14 15 15 14 11 11 13 13 13 14 13 12 11 10 9 11 8 7 6 8 12 13 13 15 14 14 14 13 13 11 11 9 6 5 6 6 6 7 8 8 8 7 8 9 10 8 6 6 7 9 10 11 13 14 16 17 16 13 11 9 7 5 5 8 10 11 13 16 16 18 18 18 22 23 22 20 19 19 19 19 19 20 19 18 15 15 15 18 19 21 21 18 17 16 18 19 18 17 17 15 15 14 14 14 15 14 16 18 19 20 21 22 21 20 17 18 21 22 21 20 18 17 15 18 22 25 25 26 27 26 
24 23 24 25 24 23 23 23 23 23 25 27 27 26 26 28 26 23 22 21 21 18 17 13 11 9 10 10 11 10 11 11 13 15 14 14 13 14 13 13 13 14 17 17 19 20 19 17 15 15 16 15 15 15 16 13 12 13 14 14 14 14 13 14 16 16 15 14 15 14 14 15 14 13 11 10 10 9 9 11 10 11 11 12 11 11 10 9 9 10 9 8 7 7 8 6 4 5 5 4 4 2 3 4 5 6 4 5 5 2 2 0 0 0 0 0 0 0 0 0 0 0 0 0 0 0 0 0 0 0 0 0 0 0 0 0 0 0 0 0 0 2 3 2 0 0 0 0 0 0 0 0 0 0 0 0 0 0 0 0 0 0 0 0 0 0 0 0 0 0 0 0 0 0 0 0 0 0 0 0 0 0 0 0 0 0 0 0 0 0 0 0 0 0 0 0 0 0 0 0 0 0 0 0 0 0 0 0 0 0 0 0 0 0 0 0 0 0 0 2 4 2 0 0 0 0 0 0 0 0 0 0 0 0 0 0 0 0 0 0 0 0 0 0 0 0 0 0 0 0 0 0 0 0 0 0 0 0 0 0 0 0 0 0 0 0 0 0 0 0 0 0 0 0 0 0 0 0 0 0 0 0 0 0 0 0 0 0 0 0 0 0 0 0 0 0 0 0 0 0 0 0 0 0 0 0 0 0 0 0 0 0 0 0 0 0 0 0 0 0 0 0 0 0 0 0 0 0 0 0 0 0 0 0 0 0 0 0 0 0 0 0 0 0 0 0 0 0 0 0 0 0 0 0 0 0 0 0 0 0 0 0 0 0 0 0 0 0 0 0 0 0 0 0 0 0 0 0 0 0 0 0 0 0 0 0 0 0 0 0 0 0 0 0 0 0 0 0 0 0 0 0 0 0 0 0 0 0 0 0 0 0 0 0 0 0 0 0 0 0 0 0 1 1 3 3 4 5 6 7 9 10 11 10 10 9 8 11 11 10 11 14 15 15 13 13 14 15 16 16 15 16 16 15 13 11 10 11 10 7 7 6 6 5 5 4 4 2 0 1 2 4 5 6 6 4 4 6 6 6 4 3 4 6 7 10 9 8 6 4 1 2 3 4 6 8 9 11 13 13 15 15 14 13 13 12 11 11 11 12 13 15 15 14 12 10 12 12 13 13 14 12 12 11 10 10 10 7 7 10 10 11 14 15 14 15 12 11 12 11 12 10 7 7 8 7 7 9 11 9 9 9 9 11 11 9 6 8 7 8 8 9 10 12 14 15 16 14 11 10 8 4 6 8 9 10 12 15 16 17 19 19 20 21 20 19 19 19 19 19 19 21 20 18 16 17 17 17 19 20 21 19 18 19 21 22 21 18 16 14 13 15 14 15 15 16 17 18 21 22 24 21 21 21 19 20 23 23 21 20 19 18 18 19 21 22 24 26 27 26 
24 23 23 25 23 21 22 22 22 25 28 29 28 27 29 28 25 23 21 20 18 18 17 15 12 11 10 10 10 13 13 11 13 16 17 15 14 15 12 13 12 14 17 18 18 18 18 17 18 17 18 15 16 16 15 14 12 10 10 12 13 15 14 15 17 16 14 14 14 14 16 15 14 12 10 9 9 10 11 11 12 12 12 12 11 13 12 10 8 9 11 8 8 6 7 5 5 5 5 5 4 3 3 4 6 5 4 4 6 4 3 1 0 0 0 0 0 0 0 0 0 0 0 0 0 0 0 0 0 0 0 0 0 0 0 0 0 0 1 1 1 1 1 1 0 0 0 0 0 0 0 0 0 0 0 0 0 0 0 0 0 0 0 0 0 0 0 0 0 0 0 0 0 0 0 0 0 0 0 0 0 0 0 0 0 0 0 0 0 0 0 0 0 0 0 0 0 0 0 0 0 0 0 0 0 0 0 0 0 0 0 0 0 0 0 0 1 0 1 2 2 2 2 0 0 0 0 0 0 0 0 0 0 0 0 0 0 0 0 0 0 0 0 0 0 0 0 0 0 0 0 0 0 0 0 0 0 0 0 0 0 0 0 0 0 0 0 0 0 0 0 0 0 0 0 0 0 0 0 0 0 0 0 0 0 0 0 0 0 0 0 0 0 0 0 0 0 0 0 0 0 0 0 0 0 0 0 0 0 0 0 0 0 0 0 0 0 0 0 0 0 0 0 0 0 0 0 0 0 0 0 0 0 0 0 0 0 0 0 0 0 0 0 0 0 0 0 0 0 0 0 0 0 0 0 0 0 0 0 0 0 0 0 0 0 0 0 0 0 0 0 0 0 0 0 0 0 0 0 0 0 0 0 0 0 0 0 0 0 0 0 0 0 0 0 0 0 0 0 0 0 0 0 0 0 0 0 0 0 0 0 0 0 0 0 0 0 0 0 0 0 1 0 0 1 2 4 4 5 7 8 10 11 13 13 12 11 11 11 11 12 14 15 14 14 14 16 16 17 17 16 16 17 17 16 13 12 12 12 11 9 7 8 6 7 6 4 1 1 2 3 2 5 5 5 3 2 4 6 5 2 2 2 6 7 8 9 8 6 4 2 2 3 4 4 7 9 10 12 14 16 16 16 16 13 14 12 10 11 12 13 14 13 13 10 9 10 9 10 13 13 13 12 11 10 10 9 9 8 9 8 10 13 14 15 15 14 12 12 12 11 10 8 7 8 8 8 10 14 13 13 10 11 12 13 10 9 8 7 6 7 6 8 11 13 14 14 12 10 8 6 6 6 8 8 10 13 16 17 18 19 20 20 20 20 20 20 20 20 19 19 22 21 20 18 18 18 19 19 19 19 20 20 22 22 22 20 18 15 15 14 15 15 15 17 18 16 18 21 23 24 24 21 21 22 23 25 24 24 21 20 18 17 18 20 21 22 23 25 25 
23 24 24 23 22 19 20 21 23 25 29 30 28 28 29 28 26 23 22 19 21 18 18 16 15 11 10 9 12 12 13 13 14 17 17 16 14 13 12 12 14 14 16 17 19 19 18 18 19 17 16 14 15 16 16 14 12 11 10 11 13 16 16 17 18 18 17 16 15 14 16 17 16 13 12 9 10 10 12 14 14 14 13 13 12 13 13 12 8 11 11 11 9 7 8 5 4 4 4 4 3 6 5 5 6 6 6 7 6 5 3 2 0 0 0 0 0 0 0 0 0 0 0 0 0 0 0 0 0 0 0 0 0 0 0 0 0 0 0 0 0 0 0 0 0 0 0 0 0 0 0 0 0 0 0 0 0 0 0 0 0 0 0 0 0 0 0 0 0 0 0 0 0 0 0 0 0 0 0 0 0 0 0 0 0 0 0 0 0 0 0 0 0 0 0 0 0 0 0 0 0 0 0 0 0 0 0 0 0 0 0 0 0 0 0 0 0 0 0 2 3 3 0 0 0 0 0 0 0 2 1 0 0 0 0 0 0 0 0 0 0 0 0 0 0 0 0 0 0 0 0 0 0 0 0 0 0 0 0 0 0 0 0 0 0 0 0 0 0 0 0 0 0 0 0 0 0 0 0 0 0 0 0 0 0 0 0 0 0 0 0 0 0 0 0 0 0 0 0 0 0 0 0 0 0 0 0 0 0 0 0 0 0 0 0 0 0 0 0 0 0 0 0 0 0 0 0 0 0 0 0 0 0 0 0 0 0 0 0 0 0 0 0 0 0 0 0 0 0 0 0 0 0 0 0 0 0 0 0 0 0 0 0 0 0 0 0 0 0 0 0 0 0 0 0 0 0 0 0 0 0 0 0 0 0 0 0 0 0 0 0 0 0 0 0 0 0 0 0 0 0 0 0 0 0 0 0 0 0 0 0 0 0 0 0 0 0 0 0 0 0 0 0 0 0 2 4 5 7 8 9 12 13 14 14 13 13 11 11 13 12 13 13 14 14 14 14 16 16 17 17 18 18 17 16 14 13 12 13 12 9 7 6 6 7 5 4 3 4 5 4 2 3 5 2 1 1 1 2 3 1 1 4 5 9 10 10 10 8 6 5 5 6 5 4 6 9 10 13 16 16 17 16 15 14 15 14 12 11 13 13 14 12 10 10 9 8 8 9 12 11 12 12 12 11 11 11 10 11 10 9 11 15 16 15 16 15 13 11 12 11 11 8 8 9 10 12 12 16 16 15 13 12 13 13 11 8 6 7 7 8 8 9 12 12 12 12 10 8 7 6 8 8 8 10 13 15 18 19 17 18 19 20 22 21 22 21 21 23 23 22 23 21 21 21 19 19 20 20 19 20 21 22 21 20 20 19 17 16 15 17 17 17 15 16 17 18 19 22 25 28 26 23 22 23 24 25 26 25 22 19 17 16 17 19 22 22 24 24 24 
24 24 24 24 22 18 20 21 22 26 28 29 29 29 30 29 27 24 21 21 21 21 20 18 15 13 10 11 13 14 14 14 14 16 17 16 13 12 14 14 16 16 17 18 17 18 17 17 19 17 18 16 16 16 16 15 13 13 11 12 15 18 17 19 19 20 19 20 17 16 16 18 16 14 12 12 12 12 14 15 16 16 13 13 12 13 11 10 8 11 10 10 10 7 6 6 4 5 4 4 5 6 6 8 9 9 7 6 6 5 2 0 0 0 0 0 0 0 1 1 0 0 0 0 0 0 0 0 0 0 0 0 0 0 0 0 0 0 1 0 0 0 1 0 0 0 0 0 0 0 0 0 0 0 0 0 0 0 0 0 0 0 0 0 0 0 0 0 0 0 0 0 0 0 0 0 0 0 0 0 0 0 0 0 0 0 0 0 0 0 0 0 0 0 0 0 0 0 0 0 0 0 0 0 0 0 0 0 0 0 0 0 0 0 0 0 0 0 0 0 1 1 0 0 0 0 0 0 1 2 2 0 0 0 0 0 0 0 0 0 0 0 0 0 0 0 0 0 0 0 0 0 0 0 0 0 0 0 0 0 0 0 0 0 0 0 0 0 0 0 0 0 0 0 0 0 0 0 0 0 0 0 0 0 0 0 0 0 0 0 0 0 0 0 0 0 0 0 0 0 0 0 0 0 0 0 0 0 0 0 0 0 0 0 0 0 0 0 0 0 0 0 0 0 0 0 0 0 0 0 0 0 0 0 0 0 0 0 0 0 0 0 0 0 0 0 0 0 0 0 0 0 0 0 0 0 0 0 0 0 0 0 0 0 0 0 0 0 0 0 0 0 0 0 0 0 0 0 0 0 0 0 0 0 0 0 0 0 0 0 0 0 0 0 0 0 0 0 0 0 0 0 0 0 0 0 0 0 0 0 0 0 0 0 0 0 0 0 0 0 0 0 0 0 0 1 6 8 8 10 10 11 13 12 12 13 12 12 11 13 12 13 14 14 14 14 16 16 17 17 18 17 17 16 15 14 12 13 13 12 8 6 4 5 5 5 5 5 7 6 5 3 3 2 2 2 1 0 2 3 2 3 5 7 9 11 11 11 11 8 8 8 7 6 5 7 10 8 10 13 17 17 16 16 15 15 15 13 12 12 13 12 11 11 9 8 6 6 9 10 11 10 13 12 12 11 10 12 12 12 12 14 17 17 16 16 13 13 10 11 9 9 8 9 10 12 13 15 16 17 16 15 13 12 11 10 9 8 5 6 6 8 10 11 9 10 10 10 9 9 9 9 9 9 12 14 16 18 18 18 18 18 20 21 23 23 22 25 25 25 24 22 22 21 21 22 20 20 21 21 21 22 22 21 19 19 17 16 14 14 17 17 16 15 17 17 17 20 24 27 29 26 24 23 25 26 25 25 24 23 20 17 16 17 20 23 23 24 25 24 
24 25 25 26 23 19 19 21 23 24 27 29 30 31 32 31 30 26 23 23 24 22 22 20 19 15 12 13 14 15 14 12 13 14 16 15 14 15 15 15 16 17 16 18 19 19 18 17 17 17 16 15 16 16 16 16 14 12 11 14 16 19 18 18 17 19 20 21 19 17 17 17 17 15 14 12 11 13 14 16 16 16 13 12 11 10 12 11 7 6 9 11 9 8 8 7 6 6 6 5 7 7 7 9 10 8 6 7 6 2 0 0 0 0 0 0 0 0 1 2 0 0 0 0 0 0 0 0 0 0 0 0 0 0 0 0 0 0 0 0 0 0 0 0 0 0 0 0 0 0 0 0 0 0 0 0 0 0 0 0 0 0 0 0 0 0 0 0 0 0 0 0 0 0 0 0 0 0 0 0 0 0 0 0 0 0 0 0 0 0 0 0 0 0 0 0 0 0 0 0 0 0 0 0 0 0 0 0 0 0 0 0 0 0 0 0 0 0 0 0 0 0 0 0 0 0 0 0 0 3 3 2 0 0 0 0 0 0 0 0 0 0 0 0 0 0 0 0 0 0 0 0 0 0 0 0 0 0 0 0 0 0 0 0 0 0 0 0 0 0 0 0 0 0 0 0 0 0 0 0 0 0 0 0 0 0 0 0 0 0 0 0 0 0 0 0 0 0 0 0 0 0 0 0 0 0 0 0 0 0 0 0 0 0 0 0 0 0 0 0 0 0 0 0 0 0 0 0 0 0 0 0 0 0 0 0 0 0 0 0 0 0 0 0 0 0 0 0 0 0 0 0 0 0 0 0 0 0 0 0 0 0 0 0 0 0 0 0 0 0 0 0 0 0 0 0 0 0 0 0 0 0 0 0 0 0 0 0 0 0 0 0 0 0 0 0 0 0 0 0 0 0 0 0 0 0 0 0 0 0 0 0 0 0 0 0 0 0 0 0 0 0 0 0 0 3 6 7 9 10 10 13 15 13 12 15 13 13 13 13 12 14 14 16 15 15 17 17 17 18 19 16 17 15 15 13 12 12 11 9 7 4 3 3 3 3 3 4 6 4 5 3 2 3 4 5 3 2 3 4 5 7 9 9 8 10 12 10 11 11 10 11 10 9 9 10 9 8 9 13 16 15 15 15 17 17 15 13 12 11 11 12 12 11 9 8 5 7 10 12 13 12 14 13 12 11 11 12 13 13 14 15 17 17 15 14 14 13 11 10 10 10 10 11 12 13 15 15 16 16 17 16 13 12 11 10 8 7 5 5 7 7 9 9 9 9 12 12 11 9 10 10 9 10 14 15 16 17 18 18 18 19 19 20 23 25 25 25 25 24 24 23 24 24 23 21 22 20 21 22 21 20 20 18 18 17 16 15 15 14 15 16 17 16 17 17 18 20 23 25 27 26 25 24 25 26 25 24 24 24 22 20 19 19 20 23 24 26 25 25 
25 25 25 26 23 21 20 21 23 25 26 28 31 31 33 31 29 28 26 27 25 24 24 24 21 19 15 14 15 14 14 11 13 13 15 16 17 18 18 18 18 19 20 21 19 18 17 16 15 15 14 14 14 16 16 15 15 14 12 14 16 18 18 19 17 18 19 20 19 17 19 18 17 17 15 15 16 14 15 15 16 15 11 10 6 7 10 10 5 4 6 8 8 8 8 7 7 6 6 7 7 8 7 8 7 7 7 6 5 2 0 0 0 0 0 0 0 0 1 2 0 0 0 0 0 0 0 0 0 0 0 0 0 0 0 0 0 0 0 1 0 1 1 0 0 0 0 0 0 0 0 0 0 0 0 0 0 0 0 0 0 0 0 0 0 0 0 0 0 0 0 0 0 0 0 0 0 0 0 0 0 0 0 0 0 0 0 0 0 0 0 0 0 0 0 0 0 0 0 0 0 0 0 0 0 0 0 0 0 0 0 0 0 0 0 0 0 0 0 0 0 0 0 0 0 0 0 0 0 2 3 2 0 0 0 0 0 0 0 0 0 0 0 0 0 0 0 0 0 0 0 0 0 0 0 0 0 0 0 0 0 0 0 0 0 0 0 0 0 0 0 0 0 0 0 0 0 0 0 0 0 0 0 0 0 0 0 0 0 0 0 0 0 0 0 0 0 0 0 0 0 0 0 0 0 0 0 0 0 0 0 0 0 0 0 0 0 0 0 0 0 0 0 0 0 0 0 0 0 0 0 0 0 0 0 0 0 0 0 0 0 0 0 0 0 0 0 0 0 0 0 0 0 0 0 0 0 0 0 0 0 0 0 0 0 0 0 0 0 0 0 0 0 0 0 0 0 0 0 0 0 0 0 0 0 0 0 0 0 0 0 0 0 0 0 0 0 0 0 0 0 0 0 0 0 0 0 0 0 0 0 0 0 0 0 0 0 0 0 2 3 1 2 1 2 4 5 8 8 9 10 12 16 15 15 15 14 13 14 15 15 14 15 15 15 17 18 19 20 18 17 16 14 15 14 14 13 11 9 7 7 3 1 2 2 2 1 3 4 2 3 3 3 5 6 7 5 4 5 7 9 9 11 9 9 11 13 14 14 13 12 12 12 10 10 11 9 11 13 15 16 15 13 15 17 16 14 11 11 11 11 10 12 11 9 7 7 8 11 13 14 14 13 13 12 11 13 12 14 13 14 16 16 16 15 15 14 13 11 10 12 11 10 12 14 14 16 17 17 17 17 15 12 11 12 11 10 7 6 4 5 7 8 8 8 9 9 11 11 8 8 10 10 11 14 17 18 18 17 19 19 20 21 22 23 25 26 25 25 25 25 25 24 23 22 21 21 22 22 22 21 21 20 18 17 18 17 16 16 16 16 16 18 18 18 17 19 20 21 23 25 25 24 25 26 26 26 24 24 23 23 21 22 22 23 24 26 26 26 26 
25 24 25 24 22 20 20 22 23 25 26 27 29 31 32 31 29 29 27 27 26 24 23 23 23 19 16 15 15 14 13 13 14 16 18 20 19 21 19 19 19 21 20 18 17 16 15 13 13 13 11 12 12 13 14 16 15 14 13 14 17 18 19 19 18 18 19 20 19 18 17 18 17 16 16 16 15 14 15 13 12 13 11 9 6 7 7 8 7 4 6 9 8 8 7 6 6 7 7 7 8 8 6 6 5 5 6 6 4 3 0 0 0 0 0 0 0 0 1 2 0 0 0 0 0 0 0 0 0 0 0 0 0 0 0 0 0 0 0 0 0 0 0 0 0 0 0 0 0 0 0 0 0 0 0 0 0 0 0 0 0 0 0 0 0 0 0 0 0 0 0 0 0 0 0 0 0 0 0 0 0 0 0 0 0 0 0 0 0 0 0 0 0 0 0 0 0 0 0 0 0 0 0 0 0 0 0 0 0 0 0 0 0 0 0 0 0 0 0 0 0 0 0 0 0 0 0 0 0 0 0 0 1 0 0 0 0 0 0 0 0 0 0 0 0 0 0 0 0 0 0 0 0 0 0 0 0 0 0 0 0 0 0 0 0 0 0 0 0 0 0 0 0 0 0 0 0 0 0 0 0 0 0 0 0 0 0 0 0 0 0 0 0 0 0 0 0 0 0 0 0 0 0 0 0 0 0 0 0 0 0 0 0 0 0 0 0 0 0 0 0 0 0 0 0 0 0 0 0 0 0 0 0 0 0 0 0 0 0 0 0 0 0 0 0 0 0 0 0 0 0 0 0 0 0 0 0 0 0 0 0 0 0 0 0 0 0 0 0 0 0 0 0 0 0 0 0 0 0 0 0 0 0 0 0 0 0 0 0 0 0 0 0 0 0 0 0 0 0 0 0 0 0 0 0 0 0 0 0 0 0 0 0 0 0 0 0 0 0 1 3 2 1 3 3 6 8 9 10 10 12 12 16 16 16 15 15 14 15 14 14 14 15 15 16 17 17 18 19 19 17 16 13 13 13 12 11 9 8 9 6 4 2 1 3 0 1 2 4 2 3 3 4 4 5 6 6 7 8 10 10 9 10 9 11 13 13 13 13 13 13 12 11 12 11 11 11 13 14 15 16 16 14 12 14 13 12 12 12 12 10 11 12 11 10 9 8 9 13 16 16 15 14 14 14 14 12 11 12 13 14 15 15 15 14 14 14 14 13 12 12 12 11 12 15 17 18 20 20 19 18 16 13 11 12 11 10 9 6 5 6 8 9 9 9 10 9 8 8 7 8 10 10 11 14 16 16 16 17 19 19 20 20 21 24 26 28 28 28 26 26 27 24 21 21 21 22 22 23 23 24 22 20 20 19 20 19 19 19 18 17 18 20 19 19 18 17 19 22 22 25 25 26 23 23 24 24 24 23 24 23 22 23 24 25 25 26 26 26 27 
24 24 25 23 22 22 23 24 24 25 25 27 27 29 31 31 30 30 28 28 25 26 24 22 22 19 16 15 15 16 16 17 17 18 19 20 19 19 19 18 19 20 19 18 16 14 14 13 14 12 11 12 12 13 13 14 15 14 13 14 16 19 19 18 17 17 19 20 19 18 18 19 17 16 17 17 15 13 12 11 10 11 12 11 7 7 7 9 8 6 5 6 7 6 5 4 6 6 7 7 6 4 5 5 4 4 4 4 3 3 1 0 0 0 0 0 0 0 0 0 0 0 0 0 0 0 0 0 0 0 0 0 0 0 0 0 0 0 0 0 0 0 0 0 0 0 0 0 0 0 0 0 0 0 0 0 0 0 0 0 0 0 0 0 0 0 0 0 0 0 0 0 0 0 0 0 0 0 0 0 0 0 0 0 0 0 0 0 0 0 0 0 0 0 0 0 0 0 0 0 0 0 0 0 0 0 0 0 0 0 0 0 0 0 0 0 0 0 0 0 0 0 0 0 0 0 0 0 0 0 0 0 0 0 0 0 0 0 0 0 0 0 0 0 0 0 0 0 0 0 0 0 0 0 0 0 0 0 0 0 0 0 0 0 0 0 0 0 0 0 0 0 0 0 0 0 0 0 0 0 0 0 0 0 0 0 0 0 0 0 0 0 0 0 0 0 0 0 0 0 0 0 0 0 0 0 0 0 0 0 0 0 0 0 0 0 0 0 0 0 0 0 0 0 0 0 0 0 0 0 0 0 0 0 0 0 0 0 0 0 0 0 0 0 0 0 0 0 0 0 0 0 0 0 0 0 0 0 0 0 0 0 0 0 0 0 0 0 0 0 0 0 0 0 0 0 0 0 0 0 0 0 0 0 0 0 0 0 0 0 0 0 0 0 0 0 0 0 0 0 0 0 0 0 0 0 0 0 0 0 0 0 0 0 0 0 0 0 0 4 3 3 2 3 4 5 7 9 10 9 10 13 15 16 16 14 12 13 14 14 13 12 12 13 13 15 16 17 20 20 19 16 13 13 13 12 11 10 10 8 7 6 4 4 4 3 1 1 2 1 0 3 4 4 5 5 7 9 8 9 9 9 8 9 9 10 11 12 12 14 13 12 11 12 12 12 12 14 13 13 15 16 15 13 14 12 12 12 12 11 10 11 12 13 12 12 11 11 13 16 16 16 13 12 12 13 11 10 11 12 14 16 16 15 14 13 14 14 13 14 15 13 14 14 17 18 21 21 20 19 18 16 13 12 13 13 10 9 7 6 7 8 8 8 10 10 9 8 8 7 9 10 10 13 15 15 14 14 16 18 18 17 20 22 24 25 29 30 29 28 26 25 23 23 22 22 24 24 25 26 28 25 23 23 24 23 22 22 22 21 19 19 20 20 19 17 18 19 21 22 25 25 26 23 23 24 25 24 22 20 20 20 22 25 24 26 28 27 27 26 
25 26 27 26 25 24 25 26 25 25 26 26 28 30 31 31 31 30 28 27 25 24 22 20 21 20 19 18 17 19 18 17 18 17 19 20 18 19 18 19 20 20 17 16 15 12 13 13 13 12 11 12 12 11 12 13 15 14 14 16 17 18 19 20 19 17 17 18 18 19 18 18 17 17 17 14 13 13 11 11 11 13 12 10 9 8 9 10 10 9 7 5 4 3 4 5 7 8 7 7 6 4 5 6 5 3 4 3 5 3 2 1 0 0 0 0 0 0 0 0 0 0 0 0 0 0 0 0 0 0 0 0 0 0 0 0 0 0 0 0 0 0 0 0 0 0 0 0 0 1 0 0 0 1 1 0 0 0 0 0 0 0 0 0 0 0 0 0 0 0 0 0 0 0 0 0 0 0 0 0 0 0 0 0 0 0 0 0 0 0 0 0 0 0 0 0 0 0 0 0 0 0 0 0 0 0 0 0 0 0 0 0 0 0 0 0 0 0 0 0 0 0 0 0 0 0 0 0 0 0 0 0 0 0 0 0 0 0 0 0 0 0 0 0 0 0 0 0 0 0 0 0 0 0 0 0 0 0 0 0 0 0 0 0 0 0 0 0 0 0 0 0 0 0 0 0 0 0 0 0 0 0 0 0 0 0 0 0 0 0 0 0 0 0 0 0 0 0 0 0 0 0 0 0 0 0 0 0 0 0 0 0 0 0 0 0 0 0 0 0 0 0 0 0 0 0 0 0 0 0 0 0 0 0 0 0 0 0 0 0 0 0 0 0 0 0 0 0 0 0 0 0 0 0 0 0 0 0 0 0 0 0 0 0 0 0 0 0 0 0 0 0 0 0 0 0 0 0 0 0 0 0 0 0 0 0 0 0 0 0 0 0 0 0 0 0 0 0 0 0 0 0 0 0 0 0 0 0 0 0 0 0 0 0 0 0 0 0 2 3 3 1 2 4 6 6 7 7 8 9 10 11 15 16 13 12 12 13 13 12 12 10 12 13 13 15 17 17 19 19 17 15 12 12 11 10 10 9 10 8 7 5 4 3 3 3 2 1 1 1 0 4 3 3 3 5 7 8 6 6 6 7 9 8 9 9 9 9 11 13 13 12 11 13 13 14 14 15 15 17 17 18 15 14 14 13 12 12 12 12 12 12 11 12 12 12 10 11 12 15 15 16 14 12 9 8 8 8 10 10 13 14 15 16 15 16 15 16 14 16 16 15 16 17 18 19 21 19 19 18 16 15 14 13 13 13 12 10 8 7 6 7 7 7 11 12 10 9 9 9 9 9 11 12 14 15 14 13 15 15 16 17 18 22 24 26 30 31 31 28 28 27 25 24 24 24 25 26 26 27 27 26 25 26 25 25 24 22 22 22 21 20 20 20 19 18 18 19 19 20 22 25 25 24 25 26 25 24 24 22 20 22 24 24 25 26 26 26 24 25 
25 26 26 27 26 26 26 27 26 26 26 27 28 30 30 29 29 28 26 27 27 24 23 21 21 20 21 20 19 21 19 19 17 16 17 19 20 20 19 18 20 20 17 16 15 13 16 16 14 14 13 13 13 11 11 13 13 14 14 15 17 18 20 21 21 18 19 17 16 17 17 16 17 16 17 16 14 14 13 11 12 12 11 10 10 10 11 11 11 10 8 6 5 4 4 6 7 8 8 7 6 7 7 8 5 3 3 3 5 4 3 1 2 1 0 0 0 0 0 0 0 0 0 0 0 0 0 0 0 0 0 0 0 0 0 0 0 0 0 0 0 0 0 0 0 0 0 0 0 1 3 4 3 2 2 0 0 0 0 0 0 0 0 0 0 0 0 0 0 0 0 0 0 0 0 0 0 0 0 0 0 0 0 0 0 0 0 0 0 0 0 0 0 0 0 0 0 0 0 0 0 0 0 0 0 0 0 0 0 0 0 0 0 0 0 0 0 0 0 0 0 0 0 0 0 0 0 0 0 0 0 0 0 0 0 0 0 0 0 0 0 0 0 0 0 0 0 0 0 0 0 0 0 0 0 0 0 0 0 0 0 0 0 0 0 0 0 0 0 0 0 0 0 0 0 0 0 0 0 0 0 0 0 0 0 0 0 0 0 0 0 0 0 0 0 0 0 0 0 0 0 0 0 0 0 0 0 0 0 0 0 0 0 0 0 0 0 0 0 0 0 0 0 0 0 0 0 0 0 0 0 0 0 0 0 0 0 0 0 0 0 0 0 0 0 0 0 0 0 0 0 0 0 0 0 0 0 0 0 0 0 0 0 0 0 0 0 0 0 0 0 0 0 0 0 0 0 0 0 0 0 0 0 0 0 0 0 0 0 0 0 0 0 0 0 0 0 0 0 0 0 0 0 0 0 0 0 0 0 0 0 0 0 0 0 0 0 0 0 3 2 2 2 4 5 6 6 6 7 7 10 11 12 12 12 12 11 12 13 11 11 10 12 12 14 16 16 15 17 17 17 16 13 13 11 11 10 8 7 7 7 5 3 2 2 2 3 2 0 1 3 4 4 3 4 5 7 6 6 5 6 5 6 6 7 9 10 10 13 14 12 12 13 13 15 15 15 17 17 17 18 19 17 17 16 15 13 13 12 12 13 14 12 13 14 12 12 12 12 14 16 15 14 12 9 8 8 8 8 8 10 13 15 15 17 18 18 18 18 16 16 15 17 17 19 20 21 21 22 20 18 15 15 13 14 11 10 8 6 7 7 7 7 7 10 11 9 11 10 10 10 10 10 11 14 13 14 13 15 15 18 19 19 20 24 25 28 29 30 29 29 28 26 26 25 26 26 25 25 27 28 29 27 27 26 25 24 23 22 21 21 20 20 20 20 20 19 17 18 20 22 24 25 26 25 26 26 25 24 23 21 22 24 25 25 26 25 24 23 24 
25 26 25 27 28 27 27 28 29 27 27 28 28 29 28 27 28 29 26 26 26 25 24 24 22 21 22 21 22 22 20 19 17 16 16 18 19 20 19 19 18 19 17 17 16 14 15 16 17 16 15 14 12 10 11 13 13 16 14 16 17 16 19 22 23 21 20 18 17 17 17 17 16 16 17 17 16 14 15 14 13 12 12 11 10 10 9 9 10 10 8 7 7 6 6 6 8 9 10 11 11 10 9 8 5 4 6 4 4 4 4 2 1 2 1 0 0 0 0 1 0 0 0 0 0 0 0 0 0 0 0 0 0 0 0 0 0 0 1 1 0 0 0 0 0 0 0 0 0 2 4 5 5 3 2 1 0 0 0 0 0 0 0 0 0 0 0 0 0 0 0 0 0 0 0 0 0 0 0 0 0 0 0 0 0 0 0 0 0 0 0 0 0 0 0 0 0 0 0 0 0 0 0 0 0 0 0 0 0 0 0 0 0 0 0 0 0 0 0 0 0 0 0 0 0 0 0 0 0 0 0 0 0 0 0 0 0 0 0 0 0 0 0 0 0 0 0 0 0 0 0 0 0 0 0 0 0 0 0 0 0 0 0 0 0 0 0 0 0 0 0 0 0 0 0 0 0 0 0 0 0 0 0 0 0 0 0 0 0 0 0 0 0 0 0 0 0 0 0 0 0 0 0 0 0 0 0 0 0 0 0 0 0 0 0 0 0 0 0 0 0 0 0 0 0 0 0 0 0 0 0 0 0 0 0 0 0 0 0 0 0 0 0 0 0 0 0 0 0 0 0 0 0 0 0 0 0 0 0 0 0 0 0 0 0 0 0 0 0 0 0 0 0 0 0 0 0 0 0 0 0 0 0 0 0 0 0 0 0 0 0 0 0 0 0 0 0 0 0 0 0 0 0 0 0 0 0 0 0 0 0 0 0 0 0 0 0 0 0 3 3 1 2 3 4 5 6 6 7 7 9 10 10 11 11 11 11 9 9 9 10 9 11 10 13 14 14 14 16 16 16 16 15 13 11 11 10 8 8 6 6 5 3 3 3 2 2 2 1 2 2 5 5 4 5 4 6 6 6 6 5 4 6 5 8 9 10 12 15 15 14 12 12 13 15 17 19 17 18 18 19 19 17 17 17 15 14 14 13 12 13 14 14 13 13 13 12 11 11 12 16 14 12 12 9 7 6 7 9 9 11 13 15 16 18 18 18 17 18 18 15 15 15 17 19 20 21 23 22 19 17 17 16 13 13 10 8 6 5 5 5 6 6 9 9 10 9 10 10 9 8 10 10 10 11 12 14 16 15 18 19 20 19 19 23 26 27 28 29 31 30 26 26 27 26 27 27 26 25 27 30 29 28 28 25 25 22 21 20 21 22 21 19 21 20 20 18 16 16 19 24 25 26 27 27 26 25 24 25 24 24 23 22 21 23 24 24 24 24 24 
26 25 27 28 28 28 29 29 29 29 28 28 30 30 28 27 29 29 27 26 25 26 26 24 22 22 22 23 22 21 20 19 17 17 18 20 21 21 20 19 17 17 19 18 17 15 15 16 17 16 15 13 11 9 12 14 15 16 16 18 18 17 19 22 23 23 21 19 17 18 17 17 17 17 18 17 17 16 17 15 14 13 13 11 10 10 10 7 8 9 7 7 6 6 6 7 9 10 12 12 11 10 9 7 5 5 6 5 5 4 4 4 3 4 3 1 0 0 1 1 0 1 0 0 0 0 0 0 0 0 0 0 0 0 0 0 0 0 2 2 0 0 0 0 1 0 0 0 0 2 5 4 3 2 1 0 0 0 0 0 0 0 0 0 0 0 0 0 0 0 0 0 0 0 0 0 0 0 0 0 0 0 0 0 0 0 0 0 0 0 0 0 0 0 0 0 0 0 0 0 0 0 0 0 0 0 0 0 0 0 0 0 0 0 0 0 0 0 0 0 0 0 0 0 0 0 0 0 0 0 0 0 0 0 0 0 0 0 0 0 0 0 0 0 0 0 0 0 0 0 0 0 0 0 0 0 0 0 0 0 0 0 0 0 0 0 0 0 0 0 0 0 0 0 0 0 0 0 0 0 0 0 0 0 0 0 0 0 0 0 0 0 0 0 0 0 0 0 0 0 0 0 0 0 0 0 0 0 0 0 0 0 0 0 0 0 0 0 0 0 0 0 0 0 0 0 0 0 0 0 0 0 0 0 0 0 0 0 0 0 0 0 0 0 0 0 0 0 0 0 0 0 0 0 0 0 0 0 0 0 0 0 0 0 0 0 0 0 0 0 0 0 0 0 0 0 0 0 0 0 0 0 0 0 0 0 0 0 0 0 0 0 0 0 0 0 0 0 0 0 0 0 0 0 0 0 0 0 0 0 0 0 0 0 0 0 0 0 0 0 2 1 2 2 2 4 6 6 7 7 9 9 9 9 9 12 11 8 7 8 10 9 9 10 12 12 12 14 15 15 15 16 14 13 9 10 9 8 8 7 6 6 5 3 3 2 2 2 4 2 3 5 5 5 4 5 6 8 6 7 8 7 5 6 9 10 11 13 14 15 13 11 11 14 16 17 17 19 19 19 20 19 18 19 17 17 17 14 12 13 14 14 14 13 12 12 12 12 11 13 15 14 12 9 8 7 7 7 8 10 12 13 15 17 18 19 19 20 18 18 15 16 15 18 17 18 20 21 21 18 17 18 16 15 13 11 8 6 4 6 5 4 6 8 9 9 10 8 9 9 8 9 11 10 10 14 16 17 17 18 17 18 19 19 21 25 28 29 30 30 28 27 27 28 26 28 27 26 26 27 27 27 28 27 26 24 22 22 22 23 21 21 21 22 21 20 19 17 16 17 22 25 26 26 26 26 25 25 23 24 25 24 21 21 21 22 24 25 26 25 
26 26 28 28 28 27 29 30 29 29 29 29 30 29 29 28 29 30 27 25 26 27 26 24 22 22 23 24 24 21 19 19 17 17 18 19 19 19 19 19 19 17 18 18 17 14 15 17 16 16 14 13 10 10 13 17 16 18 17 17 17 19 20 22 23 23 22 19 19 19 18 18 17 18 18 18 17 17 17 17 15 13 11 10 9 10 9 8 9 6 6 5 5 6 7 10 10 13 13 13 12 10 8 7 7 7 6 5 5 6 5 5 4 3 2 0 0 0 0 0 0 1 1 0 0 0 0 0 0 0 0 0 0 0 0 0 0 1 1 2 1 1 2 2 2 0 0 0 1 1 4 4 3 1 0 0 0 0 0 0 0 0 0 0 0 0 0 0 0 0 0 0 0 0 0 0 0 0 0 0 0 0 0 0 0 0 0 0 0 0 0 0 0 0 0 0 0 0 0 0 0 0 0 0 0 0 0 0 0 0 0 0 0 0 0 0 0 0 0 0 0 0 0 0 0 0 0 0 0 0 0 0 0 0 0 0 0 0 0 0 0 0 0 0 0 0 0 0 0 0 0 0 0 0 0 0 0 0 0 0 0 0 0 0 0 0 0 0 0 0 0 0 0 0 0 0 0 0 0 0 0 0 0 0 0 0 0 0 0 0 0 0 0 0 0 0 0 0 0 0 0 0 0 0 0 0 0 0 0 0 0 0 0 0 0 0 0 0 0 0 0 0 0 0 0 0 0 0 0 0 0 0 0 0 0 0 0 0 0 0 0 0 0 0 0 0 0 0 0 0 0 0 0 0 0 0 0 0 0 0 0 0 0 0 0 0 0 0 0 0 0 0 0 0 0 0 0 0 0 0 0 0 0 0 0 0 0 0 0 0 0 0 0 0 0 0 0 0 0 0 0 0 0 0 0 0 0 0 0 0 0 0 0 0 0 0 0 0 0 0 0 0 0 1 1 3 5 5 5 7 8 9 9 10 9 10 11 11 10 10 10 9 10 11 12 12 13 15 14 16 17 16 14 10 8 7 9 7 6 6 7 6 5 5 4 3 3 4 3 3 4 4 5 6 5 7 7 8 9 10 11 9 7 8 9 11 10 12 13 14 12 12 12 14 16 17 16 18 18 19 18 19 19 17 18 18 16 15 16 15 16 16 15 16 14 12 13 13 13 13 14 12 11 9 7 6 7 9 10 11 12 14 17 17 19 20 19 20 21 19 17 16 16 17 16 18 19 20 20 20 18 19 18 16 14 11 8 5 6 6 6 5 8 9 9 10 9 8 8 9 9 11 13 13 13 15 17 18 18 18 18 18 20 20 21 25 27 28 28 29 27 27 27 27 29 27 28 27 26 27 28 26 26 26 25 23 24 23 23 23 23 23 23 24 22 20 20 19 18 18 23 24 26 25 25 24 24 22 24 23 23 22 19 21 21 22 23 24 25 26 
27 29 29 29 28 28 30 30 28 29 28 30 31 30 31 30 29 29 27 26 25 26 24 24 23 23 24 24 22 21 19 19 18 17 18 19 19 19 18 19 19 17 17 18 18 16 15 15 14 13 14 12 11 12 13 17 18 18 18 19 19 19 21 24 24 25 23 21 19 19 19 18 17 15 16 17 18 17 17 16 13 12 11 9 8 8 9 8 6 5 5 5 6 7 9 11 12 13 14 12 11 11 9 9 8 7 7 6 4 5 5 3 2 2 0 0 0 0 0 0 0 1 1 0 0 0 0 0 0 0 0 1 0 0 1 2 3 3 4 3 1 3 2 3 1 0 0 0 0 2 2 2 1 0 0 0 0 0 0 0 0 0 0 0 0 0 0 0 0 0 0 0 0 0 0 0 0 0 0 0 0 0 0 0 0 0 0 0 0 0 0 0 0 0 0 0 0 0 0 0 0 0 0 0 0 0 0 0 0 0 0 0 0 0 0 0 0 0 0 0 0 0 0 0 0 0 0 0 0 0 0 0 0 0 0 0 0 0 0 0 0 0 0 0 0 0 0 0 0 0 0 0 0 0 0 0 0 0 0 0 0 0 0 0 0 0 0 0 0 0 0 0 0 0 0 0 0 0 0 0 0 0 0 0 0 0 0 0 0 0 0 0 0 0 0 0 0 0 0 0 0 0 0 0 0 0 0 0 0 0 0 0 0 0 0 0 0 0 0 0 0 0 0 0 0 0 0 0 0 0 0 0 0 0 0 0 0 0 0 0 0 0 0 0 0 0 0 0 0 0 0 0 0 0 0 0 0 0 0 0 0 0 0 0 0 0 0 0 0 0 0 0 0 0 0 0 0 0 0 0 0 0 0 0 0 0 0 0 0 0 0 0 0 0 0 0 0 0 0 0 0 0 0 0 0 0 0 0 0 0 0 0 0 0 0 0 0 0 0 0 0 0 0 0 1 2 4 4 4 7 8 9 8 9 8 8 10 11 10 11 10 11 12 11 13 14 15 14 14 15 16 16 14 8 5 7 8 7 5 6 6 6 6 6 6 5 4 2 4 4 4 4 5 5 6 8 8 10 10 11 12 9 8 9 12 13 12 12 13 12 12 14 15 14 16 17 18 20 20 19 19 19 19 16 17 17 14 16 17 16 15 15 16 15 15 12 11 14 13 12 11 9 9 8 7 7 8 8 9 12 14 16 18 18 18 19 19 20 20 20 18 16 16 16 17 19 21 23 20 20 21 21 18 16 15 12 9 8 9 9 7 6 7 9 8 9 9 9 10 9 12 14 16 16 16 16 16 17 19 18 18 17 19 20 21 22 24 25 25 28 26 26 27 28 27 27 27 27 26 26 28 27 27 26 25 25 25 24 24 24 24 23 23 26 25 22 23 20 18 20 23 24 23 22 21 22 21 21 22 22 22 19 20 20 20 22 23 25 25 26 
29 29 29 29 29 28 29 29 28 30 30 29 30 30 31 30 29 29 27 25 24 24 24 23 23 22 22 23 21 21 20 18 16 17 18 17 18 17 17 18 18 16 17 19 18 16 16 14 14 12 13 13 12 12 15 18 18 18 19 20 19 21 23 23 24 24 24 23 22 21 20 17 15 14 16 18 19 19 18 16 14 12 12 10 10 9 9 9 5 6 7 7 7 7 11 12 12 13 13 13 11 12 11 9 8 7 6 6 3 5 5 3 1 0 0 0 0 0 0 0 0 0 1 2 0 0 0 0 0 0 1 1 1 1 2 1 3 4 4 3 2 3 3 3 2 2 0 0 2 4 4 2 1 1 0 0 0 0 0 0 0 0 0 0 0 0 0 0 0 0 0 0 0 0 0 0 0 0 0 0 0 0 0 0 0 0 0 0 0 0 0 0 0 0 0 0 0 0 0 0 0 0 0 0 0 0 0 0 0 0 0 0 0 0 0 0 0 0 0 0 0 0 0 0 0 0 0 0 0 0 0 0 0 0 0 0 0 0 0 0 0 0 0 0 0 0 0 0 0 0 0 0 0 0 0 0 0 0 0 0 0 0 0 0 0 0 0 0 0 0 0 0 0 0 0 0 0 0 0 0 0 0 0 0 0 0 0 0 0 0 0 0 0 0 0 0 0 0 0 0 0 0 0 0 0 0 0 0 0 0 0 0 0 0 0 0 0 0 0 0 0 0 0 0 0 0 0 0 0 0 0 0 0 0 0 0 0 0 0 0 0 0 0 0 0 0 0 0 0 0 0 0 0 0 0 0 0 0 0 0 0 0 0 0 0 0 0 0 0 0 0 0 0 0 0 0 0 0 0 0 0 0 0 0 0 0 0 0 0 0 0 0 0 0 0 0 0 0 0 0 0 0 0 0 0 0 0 0 0 0 0 0 0 0 0 0 0 0 0 0 0 0 0 0 0 2 3 3 5 7 10 11 10 9 6 6 9 9 10 10 11 11 10 10 13 14 14 14 13 15 16 15 11 8 8 7 6 6 6 6 5 5 7 7 8 8 6 4 4 5 5 6 7 8 8 8 9 10 10 9 9 10 10 11 13 14 12 14 15 13 13 14 16 15 16 18 19 22 22 18 18 18 17 17 17 17 15 16 17 16 15 14 15 16 13 12 13 14 12 12 10 10 11 10 9 8 9 8 11 13 15 17 18 18 19 20 21 20 18 19 18 16 18 19 19 20 21 23 22 21 21 22 19 18 17 14 13 12 12 11 8 6 7 7 8 8 8 8 8 9 11 14 17 18 18 18 17 18 20 21 18 18 19 19 18 20 22 22 24 25 26 25 26 27 27 27 28 28 28 28 30 29 27 27 27 28 27 25 25 25 24 24 23 25 24 23 22 20 18 19 21 22 19 19 18 18 19 19 21 21 19 21 21 21 22 21 24 26 27 28 
29 30 29 27 26 25 27 29 31 30 30 29 32 31 31 31 31 29 26 24 23 23 24 23 21 21 21 21 21 20 20 18 18 18 17 17 18 17 17 18 20 18 17 17 17 15 14 15 15 15 15 14 13 14 15 18 19 20 22 21 20 20 22 22 24 24 24 24 21 20 17 16 14 12 16 18 18 19 18 17 15 14 12 12 12 11 11 10 8 9 8 9 8 8 11 13 11 11 12 11 10 10 10 9 7 5 5 4 3 4 3 4 3 2 1 0 2 1 0 0 0 0 0 2 1 1 0 0 0 0 0 1 2 2 2 2 5 6 6 3 4 3 5 4 3 2 1 2 4 3 4 1 0 0 0 0 0 0 0 0 0 0 0 0 0 0 0 0 0 0 0 0 0 0 0 0 0 0 0 0 0 0 0 0 0 0 0 0 0 0 0 0 0 0 0 0 0 0 0 0 0 0 0 0 0 0 0 0 0 0 0 0 0 0 0 0 0 0 0 0 0 0 0 0 0 0 0 0 0 0 0 0 0 0 0 0 0 0 0 0 0 0 0 0 0 0 0 0 0 0 0 0 0 0 0 0 0 0 0 0 0 0 0 0 0 0 0 0 0 0 0 0 0 0 0 0 0 0 0 0 0 0 0 0 0 0 0 0 0 0 0 0 0 0 0 0 0 0 0 0 0 0 0 0 0 0 0 0 0 0 0 0 0 0 0 0 0 0 0 0 0 0 0 0 0 0 0 0 0 0 0 0 0 0 0 0 0 0 0 0 0 0 0 0 0 0 0 0 0 0 0 0 0 0 0 0 0 0 0 0 0 0 0 0 0 0 0 0 0 0 0 0 0 0 0 0 0 0 0 0 0 0 0 0 0 0 0 0 0 0 0 0 0 0 0 0 0 0 0 0 0 0 0 0 0 0 0 0 0 0 0 0 0 0 0 0 0 0 0 0 0 0 0 0 0 2 3 3 6 7 11 13 12 8 6 7 8 7 7 8 9 9 8 11 14 14 14 13 13 15 17 13 11 10 9 6 6 5 5 5 3 5 7 7 9 9 8 9 9 9 8 9 9 10 9 8 8 9 10 8 8 8 10 11 12 13 14 15 15 14 13 14 15 17 18 19 22 23 20 19 16 15 14 15 15 15 14 16 17 16 16 15 15 15 14 14 13 12 13 13 14 13 13 12 11 9 10 10 13 12 15 17 18 19 19 20 18 17 16 16 17 16 17 19 18 19 22 23 24 22 21 22 20 18 18 16 15 13 13 12 10 6 7 7 7 7 8 7 9 11 12 14 19 21 21 18 17 19 21 22 21 18 19 18 15 18 18 20 22 22 23 24 25 28 27 28 27 28 28 29 29 27 28 28 29 29 29 26 24 23 23 22 22 24 21 20 20 19 17 19 20 19 18 17 17 17 19 20 20 20 20 21 20 21 21 22 23 26 27 28 
27 27 27 25 25 26 27 30 31 30 29 29 30 31 32 32 31 31 26 24 24 23 24 24 22 20 21 20 21 20 19 19 19 17 16 15 16 16 18 18 19 17 19 19 18 16 17 18 18 17 15 11 11 12 14 19 21 23 23 23 22 21 21 22 24 25 23 23 20 20 18 17 15 14 16 17 18 17 18 17 17 16 15 13 13 13 12 11 10 9 7 7 7 8 8 9 11 12 12 10 8 8 8 7 5 5 3 4 4 4 4 5 6 4 2 2 3 0 0 0 0 1 1 2 0 0 0 0 0 0 0 0 1 2 1 3 6 8 6 6 5 5 6 4 3 3 3 4 3 4 2 0 0 0 0 0 0 0 0 0 0 0 0 0 0 0 0 0 0 0 0 0 0 0 0 0 0 0 0 0 0 0 0 0 0 0 0 0 0 0 0 0 0 0 0 0 0 0 0 0 0 0 0 0 0 0 0 0 0 0 0 0 0 0 0 0 0 0 0 0 0 0 0 0 0 0 0 0 0 0 0 0 0 0 0 0 0 0 0 0 0 0 0 0 0 0 0 0 0 0 0 0 0 0 0 0 0 0 0 0 0 0 0 0 0 0 0 0 0 0 0 0 0 0 0 0 0 0 0 0 0 0 0 0 0 0 0 0 0 0 0 0 0 0 0 0 0 0 0 0 0 0 0 0 0 0 0 0 0 0 0 0 0 0 0 0 0 0 0 0 0 0 0 0 0 0 0 0 0 0 0 0 0 0 0 0 0 0 0 0 0 0 0 0 0 0 0 0 0 0 0 0 0 0 0 0 0 0 0 0 0 0 0 0 0 0 0 0 0 0 0 0 0 0 0 0 0 0 0 0 0 0 0 0 0 0 0 0 0 0 0 0 0 0 0 0 0 0 0 0 0 0 0 0 0 0 0 0 0 0 0 0 0 0 0 0 0 0 0 0 0 0 0 0 0 2 1 4 6 7 10 11 10 8 8 8 8 7 5 5 7 7 8 11 14 14 13 12 13 14 14 12 11 9 9 8 8 5 6 4 4 5 6 8 10 11 10 11 10 11 10 11 12 11 11 10 9 11 10 10 8 8 9 12 13 14 15 15 13 13 13 16 15 17 20 20 20 21 20 19 16 15 14 15 15 13 13 16 17 17 17 19 17 17 15 13 12 13 15 17 16 16 14 14 14 13 13 14 14 13 14 17 16 17 17 16 16 14 14 15 17 17 18 18 20 21 20 22 23 22 22 21 20 19 18 17 15 14 15 14 10 8 7 7 6 6 6 7 11 13 15 17 19 21 21 19 18 19 21 22 20 18 16 13 11 14 15 18 20 20 22 25 26 26 27 27 28 30 29 29 29 27 26 28 29 28 27 26 25 23 22 20 20 21 19 19 18 19 19 18 19 19 17 18 19 17 18 19 19 19 19 20 20 20 22 22 22 25 25 26 
25 26 25 24 25 25 26 29 29 29 30 29 30 31 33 33 32 31 28 26 25 24 23 22 21 18 18 17 18 17 17 18 17 16 15 15 18 17 18 17 19 18 19 20 19 19 21 22 19 17 14 10 11 12 16 19 23 24 24 22 21 23 23 22 24 22 22 21 22 19 18 19 18 18 17 17 18 16 17 18 19 17 15 15 17 16 16 13 12 9 7 6 8 8 7 8 10 10 10 9 7 7 6 7 5 6 5 5 6 6 6 5 5 5 4 1 1 2 2 0 1 1 1 1 0 0 0 0 0 0 0 0 0 1 1 3 5 7 7 5 6 5 5 3 2 3 4 2 3 2 1 0 0 0 0 0 0 0 0 0 0 0 0 0 0 0 0 0 0 0 0 0 0 0 0 0 0 0 0 0 0 0 0 0 0 0 0 0 0 0 0 0 0 0 0 0 0 0 0 0 0 0 0 0 0 0 0 0 0 0 0 0 0 0 0 0 0 0 0 0 0 0 0 0 0 0 0 0 0 0 0 0 0 0 0 0 0 0 0 0 0 0 0 0 0 0 0 0 0 0 0 0 0 0 0 0 0 0 0 0 0 0 0 0 0 0 0 0 0 0 0 0 0 0 0 0 0 0 0 0 0 0 0 0 0 0 0 0 0 0 0 0 0 0 0 0 0 0 0 0 0 0 0 0 0 0 0 0 0 0 0 0 0 0 0 0 0 0 0 0 0 0 0 0 0 0 0 0 0 0 0 0 0 0 0 0 0 0 0 0 0 0 0 0 0 0 0 0 0 0 0 0 0 0 0 0 0 0 0 0 0 0 0 0 0 0 0 0 0 0 0 0 0 0 0 0 0 0 0 0 0 0 0 0 0 0 0 0 0 0 0 0 0 0 0 0 0 0 0 0 0 0 0 0 0 0 0 0 0 0 0 0 0 0 0 0 0 0 0 0 0 0 0 0 0 2 1 3 5 7 10 11 10 8 8 8 6 4 4 4 6 8 9 12 12 12 11 9 12 12 13 12 10 9 10 9 9 7 5 5 7 7 8 7 8 10 9 9 12 13 11 12 14 12 12 12 11 11 12 10 10 10 10 13 15 15 15 15 15 14 15 16 16 18 19 21 20 20 20 20 17 17 16 15 14 12 12 15 17 18 19 20 19 17 16 16 15 16 18 18 18 17 16 13 13 15 15 17 16 14 15 15 15 16 15 15 13 12 12 14 16 17 19 20 19 19 19 21 22 22 19 19 17 17 18 17 16 14 13 14 12 9 9 10 9 9 7 8 11 16 16 17 18 21 22 20 18 18 19 19 18 16 13 11 11 13 17 19 21 20 22 23 25 26 27 28 31 30 27 28 28 28 27 29 27 26 26 26 24 22 19 18 17 19 18 18 19 20 21 21 18 19 21 22 21 19 19 19 19 19 20 20 20 20 19 20 19 23 25 26 
25 25 24 25 27 25 26 26 28 28 29 30 31 31 32 33 34 33 30 28 25 24 23 22 20 17 16 16 16 16 17 16 15 15 16 16 18 19 19 18 20 18 19 20 20 21 21 20 17 16 14 12 13 14 16 19 22 22 22 23 23 23 24 24 24 22 22 22 22 21 19 19 18 19 18 18 17 16 16 17 19 18 18 18 18 18 17 17 13 11 8 7 7 8 8 8 9 9 8 5 7 5 4 6 6 5 5 7 7 7 6 6 4 4 2 1 1 2 1 3 1 0 0 0 0 0 0 0 0 0 0 0 1 3 3 2 3 6 6 5 5 3 2 3 1 3 4 3 2 0 0 0 0 0 0 0 0 0 0 0 0 0 0 0 0 0 0 0 0 0 0 0 0 0 0 0 0 0 0 0 0 0 0 0 0 0 0 0 0 0 0 0 0 0 0 0 0 0 0 0 0 0 0 0 0 0 0 0 0 0 0 0 0 0 0 0 0 0 0 0 0 0 0 0 0 0 0 0 0 0 0 0 0 0 0 0 0 0 0 0 0 0 0 0 0 0 0 0 0 0 0 0 0 0 0 0 0 0 0 0 0 0 0 0 0 0 0 0 0 0 0 0 0 0 0 0 0 0 0 0 0 0 0 0 0 0 0 0 0 0 0 0 0 0 0 0 0 0 0 0 0 0 0 0 0 0 0 0 0 0 0 0 0 0 0 0 0 0 0 0 0 0 0 0 0 0 0 0 0 0 0 0 0 0 0 0 0 0 0 0 0 0 0 0 0 0 0 0 0 0 0 0 0 0 0 0 0 0 0 0 0 0 0 0 0 0 0 0 0 0 0 0 0 0 0 0 0 0 0 0 0 0 0 0 0 0 0 0 0 0 0 0 0 0 0 0 0 0 0 0 0 0 0 0 0 0 0 0 0 0 0 0 0 0 0 0 0 0 0 0 0 0 0 0 0 0 1 2 3 7 8 8 7 7 6 6 5 4 4 6 7 8 9 11 10 10 10 9 10 13 13 13 9 8 10 9 9 9 8 7 7 7 7 7 6 10 9 9 10 10 11 12 13 12 11 12 14 12 12 11 11 10 10 14 14 14 14 15 16 16 16 17 18 18 18 18 19 18 18 18 18 18 16 16 15 13 13 17 18 19 20 20 20 18 18 19 18 18 19 19 17 17 14 13 14 14 15 16 15 14 15 15 14 14 14 13 12 12 12 13 16 17 18 19 19 20 20 21 21 21 19 19 18 17 17 17 16 14 13 13 13 14 13 12 12 10 11 11 14 15 15 16 17 21 21 20 18 17 17 15 15 15 14 11 13 16 19 21 22 20 20 22 25 27 27 27 29 28 26 26 26 26 27 28 27 25 24 26 24 22 19 20 19 19 20 20 21 20 20 20 18 19 22 22 22 21 19 20 20 20 20 20 21 18 17 19 19 21 24 25 
23 23 26 26 28 29 27 25 28 28 28 31 31 33 33 34 34 32 31 28 26 26 24 23 20 18 18 17 15 15 15 15 13 14 15 18 18 18 19 20 19 18 21 21 20 21 20 18 15 15 17 15 16 16 17 20 22 21 22 25 24 25 23 24 24 23 23 24 24 22 21 22 20 19 19 18 18 17 17 17 19 17 16 17 18 20 19 16 14 11 7 6 7 8 10 8 8 9 7 6 5 4 3 4 5 6 7 8 8 7 9 7 5 4 3 2 2 1 1 1 0 0 0 0 0 0 0 0 0 0 1 1 2 4 3 2 2 5 4 3 3 2 0 1 0 1 3 3 1 0 0 0 0 0 0 0 0 0 0 0 0 0 0 0 0 0 0 0 0 0 0 0 0 0 0 0 0 0 0 0 0 0 0 0 0 0 0 0 0 0 0 0 0 0 0 0 0 0 0 0 0 0 0 0 0 0 0 0 0 0 0 0 0 0 0 0 0 0 0 0 0 0 0 0 0 0 0 0 0 0 0 0 0 0 0 0 0 0 0 0 0 0 0 0 0 0 0 0 0 0 0 0 0 0 0 0 0 0 0 0 0 0 0 0 0 0 0 0 0 0 0 0 0 0 0 0 0 0 0 0 0 0 0 0 0 0 0 0 0 0 0 0 0 0 0 0 0 0 0 0 0 0 0 0 0 0 0 0 0 0 0 0 0 0 0 0 0 0 0 0 0 0 0 0 0 0 0 0 0 0 0 0 0 0 0 0 0 0 0 0 0 0 0 0 0 0 0 0 0 0 0 0 0 0 0 0 0 0 0 0 0 0 0 0 0 0 0 0 0 0 0 0 0 0 0 0 0 0 0 0 0 0 0 0 0 0 0 0 0 0 0 0 0 0 0 0 0 0 0 0 0 0 0 0 0 0 0 0 0 0 0 0 0 0 0 0 0 0 0 0 0 0 0 0 0 0 1 1 2 4 5 5 3 2 4 5 4 4 4 5 6 6 9 10 11 12 12 11 11 12 12 10 9 9 9 10 9 10 12 10 8 8 7 6 7 8 9 9 10 10 13 15 15 12 12 14 15 14 12 12 12 12 13 15 14 13 14 16 16 16 16 16 16 15 17 16 17 17 18 19 19 19 17 17 18 17 17 17 18 19 19 20 21 19 20 19 17 18 19 19 17 17 14 13 14 13 13 14 14 15 15 14 14 13 14 12 12 12 13 14 15 17 19 19 19 20 20 20 21 20 20 19 18 17 20 19 18 17 15 14 13 15 14 14 15 12 12 14 16 16 15 17 18 19 20 18 18 16 15 16 14 15 14 13 14 17 18 21 21 21 23 22 24 26 26 26 26 25 23 23 22 23 25 26 26 23 24 24 22 21 21 19 19 21 21 21 21 21 19 19 19 18 20 21 20 19 21 21 21 20 20 21 22 19 17 19 19 21 24 23 
25 25 28 26 28 29 27 25 27 30 29 31 32 33 34 33 32 29 27 25 25 25 23 22 20 20 21 18 15 14 14 14 12 13 15 17 16 16 18 20 18 18 21 20 20 20 19 18 17 17 16 16 17 17 17 21 23 22 24 26 26 25 24 25 25 25 25 23 23 22 22 22 21 20 19 19 18 18 17 17 17 17 17 15 17 18 18 16 13 9 6 5 6 8 8 9 9 8 7 6 6 6 6 7 6 7 7 8 8 9 10 9 5 4 5 5 4 1 0 0 0 0 0 0 0 0 0 1 0 0 2 4 4 3 4 3 3 3 4 2 1 0 0 0 0 0 1 1 2 0 0 0 0 0 0 0 0 0 0 0 0 0 0 0 0 0 0 0 0 0 0 0 0 0 0 0 0 0 0 0 0 0 0 0 0 0 0 0 0 0 0 0 0 0 0 0 0 0 0 0 0 0 0 0 0 0 0 0 0 0 0 0 0 0 0 0 0 0 0 0 0 0 0 0 0 0 0 0 0 0 0 0 0 0 0 0 0 0 0 0 0 0 0 0 0 0 0 0 0 0 0 0 0 0 0 0 0 0 0 0 0 0 0 0 0 0 0 0 0 0 0 0 0 0 0 0 0 0 0 0 0 0 0 0 0 0 0 0 0 0 0 0 0 0 0 0 0 0 0 0 0 0 0 0 0 0 0 0 0 0 0 0 0 0 0 0 0 0 0 0 0 0 0 0 0 0 0 0 0 0 0 0 0 0 0 0 0 0 0 0 0 0 0 0 0 0 0 0 0 0 0 0 0 0 0 0 0 0 0 0 0 0 0 0 0 0 0 0 0 0 0 0 0 0 0 0 0 0 0 0 0 0 0 0 0 0 0 0 0 0 0 0 0 0 0 0 0 0 0 0 0 0 0 0 0 0 0 0 0 0 0 0 0 0 0 0 0 0 0 0 0 0 0 0 0 0 0 1 1 1 1 0 1 1 1 2 4 5 4 4 4 7 10 11 12 13 13 15 13 12 11 11 10 10 11 11 11 12 11 9 9 8 7 7 8 10 9 9 11 12 14 14 16 14 13 15 16 14 13 12 14 16 16 16 15 13 13 14 15 15 16 16 14 15 15 18 18 16 18 20 20 18 19 20 20 19 19 19 19 20 19 20 20 20 18 19 17 17 18 18 18 17 14 13 13 13 13 14 13 13 14 14 14 14 13 13 11 12 14 14 17 17 18 18 19 19 20 19 20 19 18 17 18 19 21 19 18 19 16 15 14 13 15 15 14 13 15 17 17 15 16 17 16 16 16 18 18 16 17 17 17 16 17 14 13 16 19 23 23 24 25 23 24 24 24 24 23 22 21 21 20 22 26 26 26 23 23 24 24 22 20 19 18 18 21 21 20 19 19 19 19 21 21 22 21 21 22 22 21 21 22 22 21 20 19 18 21 22 24 25 
27 28 28 26 27 26 25 26 28 29 31 31 32 34 34 33 31 27 25 23 22 23 22 21 22 23 23 21 16 15 14 13 13 14 14 16 17 16 17 17 17 18 19 18 19 18 20 18 16 16 17 19 19 18 18 22 24 23 25 25 27 27 27 26 26 26 26 24 25 23 21 22 22 22 20 19 18 17 17 19 19 18 16 16 17 16 15 12 10 8 6 5 6 6 6 7 6 5 6 7 9 9 8 8 6 6 7 7 8 11 11 9 7 7 7 5 4 3 0 0 0 0 0 0 0 0 0 1 2 2 5 8 6 4 6 6 5 4 3 1 0 0 0 0 0 0 1 3 4 3 1 0 0 0 0 0 0 0 0 0 0 0 0 0 0 0 0 0 0 0 0 0 0 0 0 0 0 0 0 0 0 0 0 0 0 0 0 0 0 0 0 0 0 0 0 0 0 0 0 0 0 0 0 0 0 0 0 0 0 0 0 0 0 0 0 0 0 0 0 0 0 0 0 0 0 0 0 0 0 0 0 0 0 0 0 0 0 0 0 0 0 0 0 0 0 0 0 0 0 0 0 0 0 0 0 0 0 0 0 0 0 0 0 0 0 0 0 0 0 0 0 0 0 0 0 0 0 0 0 0 0 0 0 0 0 0 0 0 0 0 0 0 0 0 0 0 0 0 0 0 0 0 0 0 0 0 0 0 0 0 0 0 0 0 0 0 0 0 0 0 0 0 0 0 0 0 0 0 0 0 0 0 0 0 0 0 0 0 0 0 0 0 0 0 0 0 0 0 0 0 0 0 0 0 0 0 0 0 0 0 0 0 0 0 0 0 0 0 0 0 0 0 0 0 0 0 0 0 0 0 0 0 0 0 0 0 0 0 0 0 0 0 0 0 0 0 0 0 0 0 0 0 0 0 0 0 0 0 0 0 0 0 0 0 0 0 0 0 0 0 0 0 0 0 0 0 0 2 0 0 0 0 0 0 0 0 1 4 3 4 4 7 10 12 13 13 12 13 14 12 11 11 11 11 11 10 13 13 12 9 10 9 10 10 10 12 12 12 12 14 13 14 17 16 14 15 16 14 12 13 17 19 17 16 16 14 14 14 15 16 16 17 16 18 18 20 21 21 20 21 22 22 20 21 20 18 18 19 20 22 22 21 21 20 19 19 18 18 17 17 17 17 15 14 13 13 14 13 13 14 14 16 15 14 12 12 12 14 14 16 16 18 19 18 18 18 19 19 18 18 18 18 18 20 20 19 18 19 18 16 15 16 16 13 13 14 17 19 19 19 17 18 17 17 15 15 16 16 17 18 17 18 18 17 15 17 19 23 24 24 24 23 22 21 21 25 25 24 21 20 20 21 23 26 25 24 23 26 24 21 20 18 16 17 20 19 18 19 18 19 21 22 24 24 23 24 24 24 21 20 21 20 21 20 19 19 23 23 24 26 
29 30 29 27 27 27 27 29 28 29 28 29 30 32 32 33 31 27 23 23 22 23 24 22 23 24 24 21 17 15 13 13 16 15 16 18 17 17 19 17 17 19 19 20 20 18 17 18 19 18 18 20 19 19 19 22 25 24 25 24 27 29 30 29 26 26 26 25 23 22 21 21 23 21 21 20 19 17 19 21 20 19 17 17 18 17 14 12 9 7 6 6 6 5 5 6 7 6 5 7 9 10 8 8 7 7 6 6 8 9 10 9 8 8 7 5 4 3 2 1 0 0 0 0 0 0 0 4 4 6 8 9 9 7 7 7 6 5 3 0 0 0 0 0 0 2 2 3 5 5 2 0 0 0 0 0 0 0 0 0 0 0 0 0 0 0 0 0 0 0 0 0 0 0 0 0 0 0 0 0 0 0 0 0 0 0 0 0 0 0 0 0 0 0 0 0 0 0 0 0 0 0 0 0 0 0 0 0 0 0 0 0 0 0 0 0 0 0 0 0 0 0 0 0 0 0 0 0 0 0 0 0 0 0 0 0 0 0 0 0 0 0 0 0 0 0 0 0 0 0 0 0 0 0 0 0 0 0 0 0 0 0 0 0 0 0 0 0 0 0 0 0 0 0 0 0 0 0 0 0 0 0 0 0 0 0 0 0 0 0 0 0 0 0 0 0 0 0 0 0 0 0 0 0 0 0 0 0 0 0 0 0 0 0 0 0 0 0 0 0 0 0 0 0 0 0 0 0 0 0 0 0 0 0 0 0 0 0 0 0 0 0 0 0 0 0 0 0 0 0 0 0 0 0 0 0 0 0 0 0 0 0 0 0 0 0 0 0 0 0 0 0 0 0 0 0 0 0 0 0 0 0 0 0 0 0 0 0 0 0 0 0 0 0 0 0 0 0 0 0 0 0 0 0 0 0 0 0 0 0 0 0 0 0 0 0 0 0 0 0 0 0 0 0 0 0 0 0 0 0 0 0 0 0 0 0 1 1 2 3 4 7 11 12 12 12 12 13 13 10 9 10 10 11 9 10 13 13 11 9 10 11 12 11 10 11 11 10 10 15 14 14 17 15 15 16 16 15 14 15 19 20 19 17 17 15 14 13 14 17 17 16 17 20 20 21 21 21 20 22 21 20 18 19 18 17 17 19 22 23 23 21 20 22 22 22 20 18 17 17 17 17 17 14 13 12 12 13 12 14 13 14 16 14 14 12 13 14 16 15 15 16 18 19 19 18 18 17 17 18 17 16 17 18 17 19 18 18 17 16 17 18 16 15 14 15 19 22 22 20 19 18 18 16 15 16 18 17 17 18 18 19 20 18 17 17 18 20 20 21 21 21 20 20 20 24 26 25 22 21 21 22 23 23 24 24 24 25 24 23 20 18 17 16 18 18 17 16 18 19 21 22 24 23 23 25 25 22 20 19 21 21 21 20 20 20 23 25 27 28 
29 30 29 30 31 30 29 28 29 28 27 29 30 31 31 30 30 27 24 23 23 23 25 24 23 23 22 19 18 16 15 16 17 16 17 16 17 19 20 18 19 19 21 20 19 19 17 18 19 19 21 22 20 20 20 21 25 25 23 24 27 30 31 28 26 25 24 23 23 21 21 21 23 21 21 22 21 19 21 22 22 19 17 18 16 16 14 13 9 6 5 5 6 5 6 7 7 8 7 9 9 10 9 6 5 6 7 7 6 8 8 8 7 6 6 5 5 5 3 0 0 0 0 0 0 0 0 4 5 6 10 10 11 10 8 8 8 5 3 0 0 0 0 0 1 3 2 4 5 7 5 0 0 0 0 0 0 0 0 0 0 0 0 0 0 0 0 0 0 0 0 0 0 0 0 0 0 0 0 0 0 0 0 0 0 0 0 0 0 0 0 0 0 0 0 0 0 0 0 0 0 0 0 0 0 0 0 0 0 0 0 0 0 0 0 0 0 0 0 0 0 0 0 0 0 0 0 0 0 0 0 0 0 0 0 0 0 0 0 0 0 0 0 0 0 0 0 0 0 0 0 0 0 0 0 0 0 0 0 0 0 0 0 0 0 0 0 0 0 0 0 0 0 0 0 0 0 0 0 0 0 0 0 0 0 0 0 0 0 0 0 0 0 0 0 0 0 0 0 0 0 0 0 0 0 0 0 0 0 0 0 0 0 0 0 0 0 0 0 0 0 0 0 0 0 0 0 0 0 0 0 0 0 0 0 0 0 0 0 0 0 0 0 0 0 0 0 0 0 0 0 0 0 0 0 0 0 0 0 0 0 0 0 0 0 0 0 0 0 0 0 0 0 0 0 0 0 0 0 0 0 0 0 0 0 0 0 0 0 0 0 0 0 0 0 0 0 0 0 0 0 0 0 0 0 0 0 0 0 0 0 0 0 0 0 0 0 0 0 0 0 0 0 0 0 0 0 0 0 0 0 0 0 0 0 0 0 1 2 3 3 4 9 11 12 11 10 9 10 8 8 9 10 10 11 10 12 11 11 10 11 12 11 11 10 9 7 7 9 13 13 13 15 16 15 16 17 17 17 16 19 20 19 17 17 17 15 15 14 17 18 19 20 21 21 21 20 21 21 20 21 19 18 19 17 15 18 21 22 23 23 22 21 23 23 22 21 18 17 16 18 18 18 16 14 12 12 13 12 13 14 13 14 13 12 12 13 15 15 15 15 18 19 20 18 18 17 18 17 15 14 15 17 16 14 16 19 20 19 17 19 20 17 17 16 17 20 22 24 24 20 19 18 18 18 18 19 18 18 19 19 18 18 16 16 15 15 18 18 20 19 20 17 18 20 22 25 25 24 24 24 23 23 24 23 24 23 23 23 22 19 17 16 18 18 19 17 17 17 19 19 22 23 22 22 24 24 22 20 20 22 24 23 22 22 21 23 25 27 27 
27 29 29 30 32 31 29 28 29 29 27 27 27 28 30 29 29 27 25 24 24 24 26 25 23 23 21 19 20 18 17 16 17 17 17 18 20 22 22 21 20 20 21 21 20 19 21 20 21 23 23 24 22 20 19 20 23 25 23 23 25 28 29 26 23 23 25 23 24 22 21 21 23 22 22 22 22 21 20 21 21 20 18 17 16 14 13 12 10 8 7 6 6 3 4 5 6 8 10 10 12 12 10 6 5 6 6 5 3 5 6 7 7 6 7 7 8 7 4 2 3 4 1 0 0 0 1 5 5 6 10 12 12 11 9 8 8 6 3 1 0 0 0 0 2 3 4 2 3 4 2 0 0 0 0 0 0 0 0 0 0 0 0 0 0 0 0 0 0 0 0 0 0 0 0 0 0 0 0 0 0 0 0 0 0 0 0 0 0 0 0 0 0 0 0 0 0 0 0 0 0 0 0 0 0 0 0 0 0 0 0 0 0 0 0 0 0 0 0 0 0 0 0 0 0 0 0 0 0 0 0 0 0 0 0 0 0 0 0 0 0 0 0 0 0 0 0 0 0 0 0 0 0 0 0 0 0 0 0 0 0 0 0 0 0 0 0 0 0 0 0 0 0 0 0 0 0 0 0 0 0 0 0 0 0 0 0 0 0 0 0 0 0 0 0 0 0 0 0 0 0 0 0 0 0 0 0 0 0 0 0 0 0 0 0 0 0 0 0 0 0 0 0 0 0 0 0 0 0 0 0 0 0 0 0 0 0 0 0 0 0 0 0 0 0 0 0 0 0 0 0 0 0 0 0 0 0 0 0 0 0 0 0 0 0 0 0 0 0 0 0 0 0 0 0 0 0 0 0 0 0 0 0 0 0 0 0 0 0 0 0 0 0 0 0 0 0 0 0 0 0 0 0 0 0 0 0 0 0 0 0 0 0 0 0 0 0 0 0 0 0 0 0 0 0 0 0 0 0 0 0 0 0 0 0 0 0 2 4 3 3 3 6 8 9 9 9 8 9 8 6 6 8 8 9 8 9 11 11 11 12 13 12 11 10 7 7 9 9 12 13 13 15 15 16 18 19 17 16 17 19 21 19 19 16 18 16 15 16 19 21 22 23 21 20 21 21 19 21 20 20 18 17 16 16 16 17 19 22 23 23 23 23 23 23 21 19 18 15 15 16 18 16 14 13 11 12 12 11 12 13 12 12 12 12 12 11 14 13 14 16 17 19 19 19 19 18 18 15 14 14 15 18 16 14 16 20 22 21 18 21 22 20 18 16 18 20 22 22 21 20 18 18 18 18 19 19 19 19 17 18 17 16 13 13 13 13 15 14 16 18 19 17 17 21 23 24 26 26 27 25 23 23 24 23 23 23 23 22 21 19 18 18 18 19 20 19 18 17 18 19 21 21 21 22 24 23 22 20 21 22 23 23 25 23 23 22 23 26 27 
27 26 29 30 31 32 32 30 31 30 28 28 27 26 27 28 27 26 25 25 25 26 27 27 24 21 22 19 19 19 18 18 19 19 18 21 23 24 22 23 22 22 22 21 22 20 21 20 22 24 24 26 22 20 18 20 22 24 22 22 25 26 25 23 23 23 25 26 26 24 23 21 22 23 22 22 23 22 20 21 21 18 16 16 17 15 13 12 11 9 7 6 5 4 4 5 5 8 9 11 13 11 9 7 6 6 6 5 4 6 6 6 7 8 9 9 8 8 8 7 8 5 4 4 1 1 3 7 7 9 10 12 11 10 9 8 7 4 3 1 0 0 0 0 1 2 2 3 2 1 0 0 0 0 0 0 0 0 0 0 0 0 0 0 0 0 0 0 0 0 0 0 0 0 0 0 0 0 0 0 0 0 0 0 0 0 0 0 0 0 0 0 0 0 0 0 0 0 0 0 0 0 0 0 0 0 0 0 0 0 0 0 0 0 0 0 0 0 0 0 0 0 0 0 0 0 0 0 0 0 0 0 0 0 0 0 0 0 0 0 0 0 0 0 0 0 0 0 0 0 0 0 0 0 0 0 0 0 0 0 0 0 0 0 0 0 0 0 0 0 0 0 0 0 0 0 0 0 0 0 0 0 0 0 0 0 0 0 0 0 0 0 0 0 0 0 0 0 0 0 0 0 0 0 0 0 0 0 0 0 0 0 0 0 0 0 0 0 0 0 0 0 0 0 0 0 0 0 0 0 0 0 0 0 0 0 0 0 0 0 0 0 0 0 0 0 0 0 0 0 0 0 0 0 0 0 0 0 0 0 0 0 0 0 0 0 0 0 0 0 0 0 0 0 0 0 0 0 0 0 0 0 0 0 0 0 0 0 0 0 0 0 0 0 0 0 0 0 0 0 0 0 0 0 0 0 0 0 0 0 0 0 0 0 0 0 0 0 0 0 0 0 0 0 0 0 0 0 0 0 0 0 0 0 0 0 0 1 3 4 3 5 5 3 6 8 7 7 6 7 6 6 7 8 9 9 10 13 13 12 12 11 11 11 11 9 8 10 10 10 12 12 12 13 15 18 18 17 16 16 18 21 20 19 17 19 18 17 16 20 22 22 24 23 21 22 21 20 20 19 17 17 16 17 16 17 18 20 23 24 23 23 21 22 22 20 19 17 16 17 16 16 16 15 12 11 10 11 11 12 13 14 13 14 13 11 11 12 13 15 16 17 17 18 19 18 18 17 17 16 14 16 20 19 18 19 21 23 21 21 20 21 21 18 17 18 19 20 19 19 17 16 16 17 19 19 18 18 19 17 16 16 14 12 11 13 12 14 14 15 17 19 17 19 20 23 25 26 27 27 26 23 23 23 24 25 25 23 22 21 20 20 19 19 18 20 18 17 19 19 19 21 21 22 22 22 21 21 22 21 21 21 22 23 23 23 22 24 25 26 
26 26 28 29 31 33 32 30 30 32 29 27 26 26 26 27 26 25 25 27 27 27 28 29 25 23 21 20 20 21 20 21 22 22 24 24 25 25 23 22 22 21 21 19 20 21 21 19 21 23 26 26 23 21 20 20 23 24 22 23 24 26 25 25 23 23 24 27 26 26 25 23 22 21 21 22 22 21 20 21 20 17 17 17 16 14 13 12 12 9 8 7 7 6 4 3 6 8 9 11 10 10 10 7 6 6 7 6 6 6 6 6 8 11 10 9 8 8 9 10 8 8 7 7 4 3 4 6 7 8 10 10 12 11 11 7 6 6 5 2 0 0 0 0 0 0 1 1 2 2 1 0 0 0 0 0 0 0 0 0 0 0 0 0 0 0 0 0 0 0 0 0 0 0 0 0 0 0 0 0 0 0 0 0 0 0 0 0 0 0 0 0 0 0 0 0 0 0 0 0 0 0 0 0 0 0 0 0 0 0 0 0 0 0 0 0 0 0 0 0 0 0 0 0 0 0 0 0 0 0 0 0 0 0 0 0 0 0 0 0 0 0 0 0 0 0 0 0 0 0 0 0 0 0 0 0 0 0 0 0 0 0 0 0 0 0 0 0 0 0 0 0 0 0 0 0 0 0 0 0 0 0 0 0 0 0 0 0 0 0 0 0 0 0 0 0 0 0 0 0 0 0 0 0 0 0 0 0 0 0 0 0 0 0 0 0 0 0 0 0 0 0 0 0 0 0 0 0 0 0 0 0 0 0 0 0 0 0 0 0 0 0 0 0 0 0 0 0 0 0 0 0 0 0 0 0 0 0 0 0 0 0 0 0 0 0 0 0 0 0 0 0 0 0 0 0 0 0 0 0 0 0 0 0 0 0 0 0 0 0 0 0 0 0 0 0 0 0 0 0 0 0 0 0 0 0 0 0 0 0 0 0 0 0 0 0 0 0 0 0 0 0 0 0 0 0 0 0 0 0 0 0 0 0 0 0 0 1 2 2 2 4 4 3 4 5 5 5 5 4 5 5 7 7 9 10 12 12 13 11 10 10 11 10 12 11 9 9 10 13 14 13 12 13 14 17 17 15 16 17 18 20 19 18 17 18 18 19 18 19 22 23 23 22 21 23 23 23 21 18 17 17 18 18 19 19 19 22 25 25 25 23 21 20 21 20 19 19 18 17 16 15 16 13 12 11 11 10 13 11 12 12 13 14 12 10 11 10 12 14 13 14 15 16 17 17 17 15 15 15 16 18 22 22 21 22 23 24 24 23 21 22 20 18 16 16 16 18 18 16 15 15 17 19 20 19 18 19 18 18 16 15 13 12 11 13 14 16 15 14 16 18 17 16 19 20 23 26 27 27 26 23 21 23 22 24 25 25 23 23 22 21 20 20 21 19 17 17 18 18 20 22 24 24 23 22 23 21 21 22 20 20 21 20 21 22 22 24 25 26 
27 27 28 29 30 31 31 29 28 30 28 27 26 27 25 25 23 25 25 26 27 27 28 29 26 23 23 21 20 21 22 23 25 27 27 26 25 24 25 23 23 24 21 19 19 20 21 20 22 25 27 26 24 23 20 20 22 24 24 23 24 25 25 26 26 23 23 25 26 27 25 25 23 22 22 21 21 20 19 19 19 19 17 16 16 14 13 12 12 11 8 7 6 4 2 3 5 9 8 9 11 10 11 7 6 8 8 6 7 10 9 9 9 10 10 8 8 9 9 9 9 8 7 8 6 4 6 7 7 8 8 10 12 15 11 9 6 7 5 2 0 0 0 0 0 0 0 0 1 2 2 2 0 0 0 0 0 0 0 0 0 0 0 0 0 0 0 0 0 0 0 0 0 0 0 0 0 0 0 0 0 0 0 0 0 0 0 0 0 0 0 0 0 0 0 0 0 0 0 0 0 0 0 0 0 0 0 0 0 0 0 0 0 0 0 0 0 0 0 0 0 0 0 0 0 0 0 0 0 0 0 0 0 0 0 0 0 0 0 0 0 0 0 0 0 0 0 0 0 0 0 0 0 0 0 0 0 0 0 0 0 0 0 0 0 0 0 0 0 0 0 0 0 0 0 0 0 0 0 0 0 0 0 0 0 0 0 0 0 0 0 0 0 0 0 0 0 0 0 0 0 0 0 0 0 0 0 0 0 0 0 0 0 0 0 0 0 0 0 0 0 0 0 0 0 0 0 0 0 0 0 0 0 0 0 0 0 0 0 0 0 0 0 0 0 0 0 0 0 0 0 0 0 0 0 0 0 0 0 0 0 0 0 0 0 0 0 0 0 0 0 0 0 0 0 0 0 0 0 0 0 0 0 0 0 0 0 0 0 0 0 0 0 0 0 0 0 0 0 0 0 0 0 0 0 0 0 0 0 0 0 0 0 0 0 0 0 0 0 0 0 0 0 0 0 0 0 0 0 0 0 0 0 0 0 0 1 0 1 1 2 2 4 6 6 6 5 4 4 4 3 5 7 7 8 11 13 12 13 12 9 8 8 9 10 9 10 9 10 11 14 14 15 14 15 17 16 15 15 15 17 18 18 18 16 17 18 19 19 20 22 22 22 23 22 22 22 21 20 19 19 20 21 20 19 20 21 23 25 27 26 24 23 23 22 20 19 19 19 18 17 15 14 14 11 10 12 11 13 14 15 15 16 15 11 10 10 11 12 12 12 13 15 16 16 16 15 15 18 18 19 21 22 23 23 24 26 27 27 25 23 23 19 18 16 16 16 19 18 17 17 16 17 19 19 16 18 16 17 16 15 14 14 13 14 14 16 17 16 14 16 17 18 16 16 19 23 24 25 24 22 20 19 19 20 21 25 26 24 25 25 23 22 22 22 20 16 16 18 19 20 22 23 23 23 24 23 22 21 20 17 17 19 18 20 21 22 22 23 26 
27 28 28 27 29 30 31 29 28 29 28 25 24 24 25 25 25 26 26 28 27 27 27 27 25 23 23 23 21 22 22 24 23 26 27 27 25 24 24 24 25 23 20 20 20 23 23 22 24 27 29 27 24 22 22 20 22 23 23 23 25 25 25 26 24 23 24 24 27 28 27 26 24 23 23 22 21 19 18 18 19 19 17 17 17 17 12 12 13 12 9 7 7 5 4 4 6 8 10 12 11 11 10 9 8 9 9 8 9 12 12 10 10 11 10 9 8 8 9 10 9 8 5 5 6 6 7 7 9 10 10 11 14 14 14 9 8 8 6 4 1 0 0 0 0 0 0 0 1 2 3 2 0 0 0 0 0 0 0 0 0 0 0 0 0 0 0 0 0 0 0 0 0 0 0 0 0 0 0 0 0 0 0 0 0 0 0 0 0 0 0 0 0 0 0 0 0 0 0 0 0 0 0 0 0 0 0 0 0 0 0 0 0 0 0 0 0 0 0 0 0 0 0 0 0 0 0 0 0 0 0 0 0 0 0 0 0 0 0 0 0 0 0 0 0 0 0 0 0 0 0 0 0 0 0 0 0 0 0 0 0 0 0 0 0 0 0 0 0 0 0 0 0 0 0 0 0 0 0 0 0 0 0 0 0 0 0 0 0 0 0 0 0 0 0 0 0 0 0 0 0 0 0 0 0 0 0 0 0 0 0 0 0 0 0 0 0 0 0 0 0 0 0 0 0 0 0 0 0 0 0 0 0 0 0 0 0 0 0 0 0 0 0 0 0 0 0 0 0 0 0 0 0 0 0 0 0 0 0 0 0 0 0 0 0 0 0 0 0 0 0 0 0 0 0 0 0 0 0 0 0 0 0 0 0 0 0 0 0 0 0 0 0 0 0 0 0 0 0 0 0 0 0 0 0 0 0 0 0 0 0 0 0 0 0 0 0 0 0 0 0 0 0 0 0 0 0 0 0 0 0 0 0 0 0 0 0 1 2 2 1 4 5 5 6 8 6 6 4 3 3 5 6 7 8 10 13 12 12 11 10 7 6 7 9 9 10 8 10 10 11 14 15 15 16 17 18 17 15 15 17 16 17 16 16 17 18 20 19 18 20 21 21 22 21 20 20 21 22 19 19 20 20 19 20 22 23 25 25 26 27 25 24 24 23 22 20 20 18 19 18 17 15 15 13 12 12 13 14 15 15 16 16 17 14 11 11 10 9 11 11 11 12 13 15 15 16 18 19 20 21 23 23 23 24 24 26 27 28 25 25 24 23 21 18 17 17 18 18 17 17 16 18 20 19 17 18 17 16 15 16 13 12 13 15 16 15 15 14 15 14 15 15 14 15 19 22 23 24 22 19 17 17 18 20 20 23 26 24 26 24 22 22 22 21 19 16 15 17 19 21 22 23 21 20 20 22 23 22 20 16 17 17 17 17 19 20 21 23 25 
27 27 28 27 29 31 30 30 28 28 27 24 23 24 24 24 25 26 29 29 28 26 26 26 24 23 23 23 22 23 24 23 23 24 26 25 23 23 23 23 24 24 21 21 22 23 23 23 23 26 29 26 24 23 22 19 21 23 25 25 25 26 25 25 25 24 25 26 28 28 27 25 25 24 23 21 21 20 18 18 16 16 17 19 17 15 13 13 13 12 10 7 6 4 6 6 7 9 12 13 10 12 11 10 9 10 8 8 10 12 12 11 11 12 11 10 7 7 9 9 9 7 6 6 8 9 8 9 10 11 12 13 13 15 13 9 8 9 9 7 3 0 0 0 0 0 0 0 1 1 0 1 0 0 0 0 0 0 0 0 0 0 0 0 0 0 0 0 0 0 0 0 0 0 0 0 0 0 0 0 0 0 0 0 0 0 0 0 0 0 0 0 0 0 0 0 0 0 0 0 0 0 0 0 0 0 0 0 0 0 0 0 0 0 0 0 0 0 0 0 0 0 0 0 0 0 0 0 0 0 0 0 0 0 0 0 0 0 0 0 0 0 0 0 0 0 0 0 0 0 0 0 0 0 0 0 0 0 0 0 0 0 0 0 0 0 0 0 0 0 0 0 0 0 0 0 0 0 0 0 0 0 0 0 0 0 0 0 0 0 0 0 0 0 0 0 0 0 0 0 0 0 0 0 0 0 0 0 0 0 0 0 0 0 0 0 0 0 0 0 0 0 0 0 0 0 0 0 0 0 0 0 0 0 0 0 0 0 0 0 0 0 0 0 0 0 0 0 0 0 0 0 0 0 0 0 0 0 0 0 0 0 0 0 0 0 0 0 0 0 0 0 0 0 0 0 0 0 0 0 0 0 0 0 0 0 0 0 0 0 0 0 0 0 0 0 0 0 0 0 0 0 0 0 0 0 0 0 0 0 0 0 0 0 0 0 0 0 0 0 0 0 0 0 0 0 0 0 0 0 0 0 1 0 0 0 0 1 2 3 4 5 6 5 6 8 6 5 3 4 5 7 8 8 9 10 11 11 11 9 8 5 5 6 6 7 7 7 8 10 11 12 14 15 17 18 18 17 17 16 16 17 16 16 15 15 17 20 19 18 20 21 20 21 21 21 21 23 22 22 20 21 21 20 23 25 25 25 25 25 25 25 24 24 25 23 22 20 19 20 18 17 16 16 15 14 13 15 17 16 17 18 18 17 17 13 11 11 10 10 9 9 11 13 13 15 16 18 20 21 21 21 21 20 22 23 25 27 26 26 25 25 24 23 20 18 19 18 17 18 20 20 20 21 21 20 17 16 17 17 15 12 10 13 16 17 15 15 13 12 13 15 14 16 17 17 20 22 22 22 20 17 16 17 17 20 22 23 23 25 23 22 22 22 21 19 18 17 18 21 22 23 22 19 20 19 22 21 21 20 17 17 18 19 19 19 20 20 23 25 
25 28 30 28 27 28 29 28 26 26 26 25 25 25 25 26 27 28 29 31 28 27 27 25 24 23 24 23 21 21 23 25 25 26 26 25 25 22 21 20 21 22 22 22 23 25 24 23 22 25 27 26 24 22 23 21 21 25 26 27 26 27 26 25 24 25 26 27 27 27 28 26 25 24 25 23 21 21 18 18 17 17 18 18 16 15 16 16 14 13 10 7 7 5 7 8 8 9 10 12 12 12 11 11 10 8 7 8 9 9 11 10 11 12 10 9 8 9 10 11 8 7 7 8 10 12 10 10 10 12 13 14 14 14 14 11 10 11 8 7 5 2 0 0 0 0 0 0 0 0 0 0 0 0 0 0 0 0 0 0 0 0 0 0 0 0 0 0 0 0 0 0 0 0 0 0 0 0 0 0 0 0 0 0 0 0 0 0 0 0 0 0 0 0 0 0 0 0 0 0 0 0 0 0 0 0 0 0 0 0 0 0 0 0 0 0 0 0 0 0 0 0 0 0 0 0 0 0 0 0 0 0 0 0 0 0 0 0 0 0 0 0 0 0 0 0 0 0 0 0 0 0 0 0 0 0 0 0 0 0 0 0 0 0 0 0 0 0 0 0 0 0 0 0 0 0 0 0 0 0 0 0 0 0 0 0 0 0 0 0 0 0 0 0 0 0 0 0 0 0 0 0 0 0 0 0 0 0 0 0 0 0 0 0 0 0 0 0 0 0 0 0 0 0 0 0 0 0 0 0 0 0 0 0 0 0 0 0 0 0 0 0 0 0 0 0 0 0 0 0 0 0 0 0 0 0 0 0 0 0 0 0 0 0 0 0 0 0 0 0 0 0 0 0 0 0 0 0 0 0 0 0 0 0 0 0 0 0 0 0 0 0 0 0 0 0 0 0 0 0 0 0 0 0 0 0 0 0 0 0 0 0 0 0 0 0 0 0 0 0 0 0 0 0 0 0 0 0 0 0 0 0 0 0 1 2 3 3 4 5 5 6 4 4 5 5 4 5 6 7 9 10 10 11 11 9 11 11 7 7 7 8 7 6 6 5 3 4 5 9 10 12 15 16 18 17 17 18 18 17 17 18 17 16 16 15 16 19 19 18 17 18 19 20 23 25 25 24 23 21 20 24 25 23 25 28 26 26 25 25 25 26 25 25 24 23 24 22 19 19 19 18 16 15 16 16 16 16 17 16 16 16 17 18 17 13 12 12 12 11 11 10 12 13 14 17 16 19 21 21 21 20 19 20 22 23 25 25 25 25 24 24 24 23 22 21 21 19 19 22 21 20 20 21 20 19 17 16 16 16 14 12 10 12 15 15 15 14 14 13 15 15 15 16 15 16 17 20 23 22 21 17 15 16 16 17 18 19 22 22 21 21 22 23 22 21 21 20 20 22 21 22 21 18 17 19 21 22 22 20 18 18 18 20 18 19 19 21 21 22 
25 27 30 28 25 24 26 27 26 27 26 27 26 26 25 27 28 29 29 30 28 26 26 25 25 24 25 24 22 23 24 26 28 30 28 26 26 23 20 20 19 21 22 23 23 25 24 23 23 25 26 25 25 24 23 21 24 23 24 25 26 26 25 24 25 26 28 28 27 27 27 26 24 25 24 25 22 21 19 18 18 17 18 18 19 18 19 17 15 13 11 10 7 5 6 7 9 8 10 11 12 13 13 14 9 8 8 9 10 10 9 10 9 11 12 11 7 6 8 9 8 8 10 11 12 13 10 10 10 11 12 14 14 12 12 13 10 9 7 4 5 4 1 2 2 1 1 3 1 0 0 0 0 0 0 0 0 0 0 0 0 0 0 0 0 0 0 0 0 0 0 0 0 0 0 0 0 0 0 0 0 0 0 0 0 0 0 0 0 0 0 0 0 0 0 0 0 0 0 0 0 0 0 0 0 0 0 0 0 0 0 0 0 0 0 0 0 0 0 0 0 0 0 0 0 0 0 0 0 0 0 0 0 0 0 0 0 0 0 0 0 0 0 0 0 0 0 0 0 0 0 0 0 0 0 0 0 0 0 0 0 0 0 0 0 0 0 0 0 0 0 0 0 0 0 0 0 0 0 0 0 0 0 0 0 0 0 0 0 0 0 0 0 0 0 0 0 0 0 0 0 0 0 0 0 0 0 0 0 0 0 0 0 0 0 0 0 0 0 0 0 0 0 0 0 0 0 0 0 0 0 0 0 0 0 0 0 0 0 0 0 0 0 0 0 0 0 0 0 0 0 0 0 0 0 0 0 0 0 0 0 0 0 0 0 0 0 0 0 0 0 0 0 0 0 0 0 0 0 0 0 0 0 0 0 0 0 0 0 0 0 0 0 0 0 0 0 0 0 0 0 0 0 0 0 0 0 0 0 0 0 0 0 0 0 0 0 0 0 0 0 0 0 0 0 0 0 0 0 0 0 0 0 0 2 3 3 4 4 4 5 5 5 3 5 4 4 5 8 9 9 9 11 12 11 12 12 12 9 8 9 8 7 6 4 4 2 4 6 10 12 12 15 17 17 17 16 17 18 19 18 17 19 19 19 17 18 18 18 16 17 19 21 21 22 23 25 25 22 21 22 25 26 26 27 28 28 27 26 27 25 26 25 23 23 22 23 21 20 18 19 18 18 17 18 18 16 16 17 18 17 18 18 17 15 12 12 15 15 14 13 13 14 15 15 16 18 19 20 22 21 19 19 20 22 24 23 22 23 24 23 25 24 24 24 24 24 22 22 23 21 21 20 19 19 18 17 15 15 13 14 13 12 14 14 13 13 12 12 13 15 15 16 15 16 16 19 19 21 22 21 18 16 16 16 16 16 17 20 21 19 20 21 21 23 24 22 23 21 21 22 21 20 20 19 18 20 21 24 22 19 18 18 20 21 20 19 19 20 22 
25 27 27 24 22 24 24 26 27 26 28 29 28 27 28 27 28 28 29 29 28 27 26 25 24 24 24 23 22 22 26 28 30 32 29 27 25 24 22 21 20 21 23 22 23 23 23 23 22 24 23 25 25 26 24 23 23 22 22 25 25 26 24 23 23 25 27 28 27 28 27 27 24 24 26 26 25 23 23 21 21 18 18 19 19 20 20 18 16 14 12 9 7 5 5 6 8 8 8 11 13 15 15 14 10 7 8 10 11 11 9 9 9 11 12 10 7 7 7 8 8 9 10 12 12 13 11 10 9 10 12 13 13 11 11 10 8 6 4 3 3 3 3 3 2 2 3 5 4 0 0 0 0 0 0 0 0 0 0 0 0 0 0 0 0 0 0 0 0 0 0 0 0 0 0 0 0 0 0 0 0 0 0 0 0 0 0 0 0 0 0 0 0 0 0 0 0 0 0 0 0 0 0 0 0 0 0 0 0 0 0 0 0 0 0 0 0 0 0 0 0 0 0 0 0 0 0 0 0 0 0 0 0 0 0 0 0 0 0 0 0 0 0 0 0 0 0 0 0 0 0 0 0 0 0 0 0 0 0 0 0 0 0 0 0 0 0 0 0 0 0 0 0 0 0 0 0 0 0 0 0 0 0 0 0 0 0 0 0 0 0 0 0 0 0 0 0 0 0 0 0 0 0 0 0 0 0 0 0 0 0 0 0 0 0 0 0 0 0 0 0 0 0 0 0 0 0 0 0 0 0 0 0 0 0 0 0 0 0 0 0 0 0 0 0 0 0 0 0 0 0 0 0 0 0 0 0 0 0 0 0 0 0 0 0 0 0 0 0 0 0 0 0 0 0 0 0 0 0 0 0 0 0 0 0 0 0 0 0 0 0 0 0 0 0 0 0 0 0 0 0 0 0 0 0 0 0 0 0 0 0 0 0 0 0 0 0 0 0 0 0 0 0 0 0 0 0 0 0 0 0 0 0 0 1 2 2 2 3 4 5 4 5 4 3 2 2 4 6 8 8 8 11 12 12 13 14 12 11 10 9 8 7 6 4 5 4 6 8 10 11 13 15 18 18 16 16 18 17 18 17 15 16 19 20 20 20 19 17 16 16 19 19 19 20 23 25 26 23 22 23 24 25 26 26 28 28 28 27 26 26 24 23 24 23 22 23 22 19 20 18 17 16 17 17 16 17 16 14 16 16 16 16 17 15 13 14 15 15 15 15 15 16 15 16 18 21 20 20 20 20 20 21 21 24 25 25 23 22 22 24 25 24 24 26 25 25 25 26 24 23 22 22 20 20 18 18 16 14 16 14 13 14 14 14 14 12 10 11 13 14 15 16 16 16 17 19 19 22 21 21 18 17 16 17 17 18 17 19 20 20 20 21 22 24 23 23 22 21 21 21 21 20 20 18 19 20 22 22 21 20 18 19 20 19 20 19 19 20 22 
24 25 25 24 21 22 26 27 29 27 29 28 26 26 26 26 28 28 28 28 28 27 27 26 25 22 21 22 23 25 26 28 28 31 28 27 26 27 25 23 22 21 21 21 22 22 23 21 21 22 22 22 24 25 23 25 24 23 22 25 26 25 23 21 23 23 25 26 26 28 29 28 25 27 27 27 28 26 25 25 23 22 21 21 20 19 18 17 17 14 12 8 7 5 3 5 8 8 8 10 11 15 14 13 11 8 9 10 11 10 10 9 9 12 14 12 9 7 6 7 7 9 11 12 12 13 11 11 9 11 11 12 12 12 10 9 9 8 7 5 4 4 2 1 2 4 7 8 5 2 0 0 0 0 0 0 0 0 0 0 0 0 0 0 0 0 0 0 0 0 0 0 0 0 0 0 0 0 0 0 0 0 0 0 0 0 0 0 0 0 0 0 0 0 0 0 0 0 0 0 0 0 0 0 0 0 0 0 0 0 0 0 0 0 0 0 0 0 0 0 0 0 0 0 0 0 0 0 0 0 0 0 0 0 0 0 0 0 0 0 0 0 0 0 0 0 0 0 0 0 0 0 0 0 0 0 0 0 0 0 0 0 0 0 0 0 0 0 0 0 0 0 0 0 0 0 0 0 0 0 0 0 0 0 0 0 0 0 0 0 0 0 0 0 0 0 0 0 0 0 0 0 0 0 0 0 0 0 0 0 0 0 0 0 0 0 0 0 0 0 0 0 0 0 0 0 0 0 0 0 0 0 0 0 0 0 0 0 0 0 0 0 0 0 0 0 0 0 0 0 0 0 0 0 0 0 0 0 0 0 0 0 0 0 0 0 0 0 0 0 0 0 0 0 0 0 0 0 0 0 0 0 0 0 0 0 0 0 0 0 0 0 0 0 0 0 0 0 0 0 0 0 0 0 0 0 0 0 0 0 0 0 0 0 0 0 0 0 0 0 0 0 0 0 0 0 0 0 0 0 0 0 0 0 0 0 0 1 3 4 3 3 4 4 2 2 4 4 4 5 6 8 10 11 11 11 12 11 11 11 9 9 7 6 5 5 6 8 10 12 11 11 14 17 18 15 15 17 17 16 14 14 16 19 19 20 19 18 16 15 18 19 19 18 20 23 24 24 24 22 22 22 24 26 25 26 27 27 27 26 25 24 23 24 23 23 25 22 20 21 19 19 17 17 17 18 16 15 15 14 14 15 18 18 17 16 13 13 15 15 15 16 16 17 18 20 21 19 20 20 20 20 22 22 25 27 27 26 24 24 26 24 24 22 25 26 26 25 26 24 23 24 24 26 23 22 19 17 16 19 19 17 16 16 16 16 13 11 13 13 13 14 15 15 17 16 16 16 18 20 19 18 17 17 17 18 20 19 20 21 20 20 22 24 23 22 21 21 22 20 20 20 20 20 18 17 21 22 21 21 21 19 17 20 20 19 20 19 21 22 
22 23 24 25 24 25 26 29 28 28 29 28 26 25 23 25 27 27 25 27 25 26 26 26 27 22 20 20 23 25 26 27 27 29 27 29 28 27 27 24 24 22 21 20 21 20 21 19 19 20 20 21 23 24 23 24 25 23 23 25 25 25 25 23 24 24 23 22 26 28 29 28 28 27 29 29 28 28 28 26 24 25 24 23 21 18 18 18 16 13 11 9 7 5 3 5 6 6 6 8 9 12 12 12 12 10 8 10 9 9 9 10 11 10 11 10 9 8 7 6 7 9 12 13 11 12 11 10 9 11 10 10 10 10 10 10 10 7 6 7 5 3 2 1 3 6 8 8 6 3 0 0 0 0 0 0 0 0 0 0 0 0 0 0 0 0 0 0 0 0 0 0 0 0 0 0 0 0 0 0 0 0 0 0 0 0 0 0 0 0 0 0 0 0 0 0 0 0 0 0 0 0 0 0 0 0 0 0 0 0 0 0 0 0 0 0 0 0 0 0 0 0 0 0 0 0 0 0 0 0 0 0 0 0 0 0 0 0 0 0 0 0 0 0 0 0 0 0 0 0 0 0 0 0 0 0 0 0 0 0 0 0 0 0 0 0 0 0 0 0 0 0 0 0 0 0 0 0 0 0 0 0 0 0 0 0 0 0 0 0 0 0 0 0 0 0 0 0 0 0 0 0 0 0 0 0 0 0 0 0 0 0 0 0 0 0 0 0 0 0 0 0 0 0 0 0 0 0 0 0 0 0 0 0 0 0 0 0 0 0 0 0 0 0 0 0 0 0 0 0 0 0 0 0 0 0 0 0 0 0 0 0 0 0 0 0 0 0 0 0 0 0 0 0 0 0 0 0 0 0 0 0 0 0 0 0 0 0 0 0 0 0 0 0 0 0 0 0 0 0 0 0 0 0 0 0 0 0 0 0 0 0 0 0 0 0 0 0 0 0 0 0 0 0 0 0 0 0 0 0 0 0 0 0 0 0 0 0 0 1 2 1 2 3 4 4 4 5 4 4 5 6 7 9 10 11 10 10 10 8 8 8 8 8 6 7 8 8 11 11 11 10 13 16 17 16 14 15 16 14 12 13 16 17 18 18 17 17 16 18 19 20 19 21 22 23 24 22 22 23 21 21 22 23 23 25 27 25 25 24 23 22 23 22 22 23 24 24 21 22 22 22 20 19 17 16 14 14 15 13 15 16 19 19 18 15 13 13 13 15 17 17 18 17 19 21 21 22 20 21 20 21 20 23 24 25 25 25 26 25 26 27 25 25 25 24 24 25 26 26 25 25 27 28 27 23 23 19 19 20 21 20 20 19 16 16 14 15 16 14 13 15 18 17 17 17 14 13 15 18 19 19 18 18 18 21 21 21 21 21 22 20 20 22 21 20 20 20 21 21 20 20 20 17 17 17 18 19 21 20 19 18 17 19 19 19 19 20 22 21 
23 23 24 25 25 27 27 28 29 29 28 28 27 24 23 23 25 26 25 25 26 26 25 26 26 24 22 22 25 26 27 26 25 26 26 28 28 27 26 23 24 22 22 21 23 22 20 19 18 19 20 22 22 24 22 22 23 23 23 24 25 24 25 24 24 24 24 26 27 30 31 30 29 28 30 31 31 29 29 27 25 25 24 24 22 18 17 16 14 12 11 10 8 5 4 3 3 4 5 6 7 11 12 12 11 10 10 10 10 9 9 9 8 8 8 8 9 9 8 6 9 11 13 14 14 14 13 11 11 10 10 10 10 10 9 10 8 8 7 5 5 4 2 3 5 7 7 8 7 4 0 0 0 0 0 0 0 0 0 0 0 0 0 0 0 0 0 0 0 0 0 0 0 0 0 0 0 0 0 0 0 0 0 0 0 0 0 0 0 0 0 0 0 0 0 0 0 0 0 0 0 0 0 0 0 0 0 0 0 0 0 0 0 0 0 0 0 0 0 0 0 0 0 0 0 0 0 0 0 0 0 0 0 0 0 0 0 0 0 0 0 0 0 0 0 0 0 0 0 0 0 0 0 0 0 0 0 0 0 0 0 0 0 0 0 0 0 0 0 0 0 0 0 0 0 0 0 0 0 0 0 0 0 0 0 0 0 0 0 0 0 0 0 0 0 0 0 0 0 0 0 0 0 0 0 0 0 0 0 0 0 0 0 0 0 0 0 0 0 0 0 0 0 0 0 0 0 0 0 0 0 0 0 0 0 0 0 0 0 0 0 0 0 0 0 0 0 0 0 0 0 0 0 0 0 0 0 0 0 0 0 0 0 0 0 0 0 0 0 0 0 0 0 0 0 0 0 0 0 0 0 0 0 0 0 0 0 0 0 0 0 0 0 0 0 0 0 0 0 0 0 0 0 0 0 0 0 0 0 0 0 0 0 0 0 0 0 0 0 0 0 0 0 0 0 0 0 0 0 0 0 0 0 0 0 0 0 0 0 0 0 0 4 5 4 4 5 6 6 7 7 7 7 8 10 9 7 6 7 9 7 8 7 7 6 7 9 10 11 12 12 12 14 17 18 18 16 15 16 13 12 13 15 17 17 17 16 17 20 20 20 20 21 22 22 24 21 21 21 20 21 22 22 23 23 24 25 27 26 25 24 24 22 21 22 23 24 23 21 22 23 22 20 18 16 15 14 14 13 13 15 17 18 18 17 16 14 13 14 17 18 19 19 19 20 23 23 21 20 21 21 21 21 25 25 24 25 26 25 24 26 28 26 24 25 24 25 27 28 26 24 24 26 26 27 25 24 23 23 21 20 19 18 18 16 16 16 15 15 15 16 17 19 19 17 15 15 14 15 18 18 19 18 18 21 22 23 23 22 22 20 19 20 22 21 19 20 20 22 21 20 19 17 16 17 17 17 19 20 20 20 17 16 18 18 18 18 19 19 22 
22 24 25 27 25 25 26 27 30 30 29 30 28 24 22 24 25 26 27 27 26 26 25 25 25 25 24 26 27 27 26 26 26 26 26 26 27 28 25 25 24 24 21 21 22 22 20 19 20 21 21 21 23 22 22 20 19 21 22 23 22 24 24 26 25 26 27 27 28 30 33 32 30 31 32 32 32 31 30 29 27 25 22 23 23 19 17 16 14 11 10 8 7 7 5 1 2 4 5 4 5 11 11 12 11 11 10 11 10 9 8 8 8 7 7 10 9 8 7 7 9 13 15 14 17 16 14 12 12 11 11 10 10 11 11 12 10 9 6 7 7 6 5 4 5 7 7 7 6 6 1 0 0 0 0 0 0 0 0 0 0 0 0 0 0 0 0 0 0 0 0 0 0 0 0 0 0 0 0 0 0 0 0 0 0 0 0 0 0 0 0 0 0 0 0 0 0 0 0 0 0 0 0 0 0 0 0 0 0 0 0 0 0 0 0 0 0 0 0 0 0 0 0 0 0 0 0 0 0 0 0 0 0 0 0 0 0 0 0 0 0 0 0 0 0 0 0 0 0 0 0 0 0 0 0 0 0 0 0 0 0 0 0 0 0 0 0 0 0 0 0 0 0 0 0 0 0 0 0 0 0 0 0 0 0 0 0 0 0 0 0 0 0 0 0 0 0 0 0 0 0 0 0 0 0 0 0 0 0 0 0 0 0 0 0 0 0 0 0 0 0 0 0 0 0 0 0 0 0 0 0 0 0 0 0 0 0 0 0 0 0 0 0 0 0 0 0 0 0 0 0 0 0 0 0 0 0 0 0 0 0 0 0 0 0 0 0 0 0 0 0 0 0 0 0 0 0 0 0 0 0 0 0 0 0 0 0 0 0 0 0 0 0 0 0 0 0 0 0 0 0 0 0 0 0 0 0 0 0 0 0 0 0 0 0 0 0 0 0 0 0 0 0 0 0 0 0 0 0 0 0 0 0 0 0 0 0 0 0 0 0 0 2 4 4 4 3 5 7 7 7 7 7 8 8 7 6 5 7 7 6 7 8 8 6 7 10 11 15 16 15 13 15 16 19 20 19 16 16 14 14 14 14 16 18 17 19 21 22 22 22 20 21 23 21 23 23 22 22 21 20 21 21 21 23 25 26 27 26 25 24 22 21 21 21 24 24 22 20 21 22 22 20 18 16 15 15 14 14 14 16 17 17 17 17 17 16 14 15 17 19 19 20 21 22 23 23 19 20 21 21 20 22 24 24 24 25 26 25 24 26 29 28 26 26 27 28 29 31 27 25 23 23 26 26 26 25 23 23 21 20 18 18 17 17 16 15 14 15 15 17 18 20 18 15 15 14 15 15 18 18 20 20 20 22 23 26 25 23 22 21 20 19 20 19 18 19 20 21 20 18 17 17 18 18 18 17 18 18 18 20 17 16 18 19 16 17 16 17 19 
21 23 23 24 25 26 26 28 30 30 30 29 28 24 21 24 25 24 26 27 28 28 27 26 27 26 25 26 28 27 28 28 28 27 27 27 27 28 26 24 23 23 23 22 23 23 21 21 21 22 23 23 23 24 21 20 20 21 22 23 22 24 26 26 27 29 30 30 28 32 33 32 31 31 33 33 31 31 31 31 29 26 25 23 23 18 16 15 13 11 9 10 8 7 4 3 4 6 6 4 5 8 12 13 13 11 10 10 10 8 8 9 9 8 9 9 9 7 9 9 10 10 13 15 17 14 13 12 11 12 10 10 11 13 12 12 11 11 7 7 6 6 4 3 5 6 5 5 5 4 1 0 0 0 0 0 0 0 0 0 0 0 0 0 0 0 0 0 0 0 0 0 0 0 0 0 0 0 0 0 0 0 0 0 0 0 0 0 0 0 0 0 0 0 0 0 0 0 0 0 0 0 0 0 0 0 0 0 0 0 0 0 0 0 0 0 0 0 0 0 0 0 0 0 0 0 0 0 0 0 0 0 0 0 0 0 0 0 0 0 0 0 0 0 0 0 0 0 0 0 0 0 0 0 0 0 0 0 0 0 0 0 0 0 0 0 0 0 0 0 0 0 0 0 0 0 0 0 0 0 0 0 0 0 0 0 0 0 0 0 0 0 0 0 0 0 0 0 0 0 0 0 0 0 0 0 0 0 0 0 0 0 0 0 0 0 0 0 0 0 0 0 0 0 0 0 0 0 0 0 0 0 0 0 0 0 0 0 0 0 0 0 0 0 0 0 0 0 0 0 0 0 0 0 0 0 0 0 0 0 0 0 0 0 0 0 0 0 0 0 0 0 0 0 0 0 0 0 0 0 0 0 0 0 0 0 0 0 0 0 0 0 0 0 0 0 0 0 0 0 0 0 0 0 0 0 0 0 0 0 0 0 0 0 0 0 0 0 0 0 0 0 0 0 0 0 0 0 0 0 0 0 0 0 0 0 0 0 0 0 0 1 3 3 4 4 4 4 4 6 5 6 7 9 9 9 8 6 8 8 7 7 8 7 7 8 11 13 15 17 14 13 15 17 19 20 18 16 14 13 14 14 14 17 19 18 19 22 22 23 23 22 22 22 22 23 24 23 23 23 22 21 22 24 25 27 25 26 25 24 24 22 21 20 21 23 23 21 19 18 19 20 20 18 19 17 16 16 15 16 17 17 17 17 17 17 16 15 15 18 18 21 22 23 23 23 23 19 21 21 20 20 21 23 24 24 25 26 27 26 27 30 29 28 27 27 28 30 32 28 26 25 24 28 28 28 27 24 23 22 21 19 17 18 16 15 14 12 15 16 17 20 21 17 16 15 16 17 18 19 18 19 21 20 21 23 25 23 23 21 21 19 19 20 19 17 18 19 19 20 20 18 17 18 19 18 18 19 18 17 17 16 16 18 18 17 16 17 17 19 
20 20 20 21 24 25 26 28 29 30 30 29 25 23 22 22 23 25 27 28 28 28 27 28 26 26 26 27 28 30 29 31 30 29 27 27 29 27 24 22 22 22 22 22 24 24 22 23 23 22 24 25 26 26 22 21 23 24 25 25 25 27 28 28 28 29 31 30 30 31 34 34 32 32 33 32 33 32 31 30 29 27 28 27 24 19 16 15 13 11 9 9 10 7 5 6 6 7 5 5 6 7 10 12 13 11 11 11 11 10 9 10 9 8 10 8 7 8 7 7 9 9 11 13 13 12 12 10 10 11 10 10 11 12 11 11 11 11 7 6 4 4 5 4 4 5 4 5 5 3 2 0 0 0 0 0 0 0 0 0 0 0 0 0 0 0 0 0 0 0 0 0 0 0 0 0 0 0 0 0 0 0 0 0 0 0 0 0 0 0 0 0 0 0 0 0 0 0 0 0 0 0 0 0 0 0 0 0 0 0 0 0 0 0 0 0 0 0 0 0 0 0 0 0 0 0 0 0 0 0 0 0 0 0 0 0 0 0 0 0 0 0 0 0 0 0 0 0 0 0 0 0 0 0 0 0 0 0 0 0 0 0 0 0 0 0 0 0 0 0 0 0 0 0 0 0 0 0 0 0 0 0 0 0 0 0 0 0 0 0 0 0 0 0 0 0 0 0 0 0 0 0 0 0 0 0 0 0 0 0 0 0 0 0 0 0 0 0 0 0 0 0 0 0 0 0 0 0 0 0 0 0 0 0 0 0 0 0 0 0 0 0 0 0 0 0 0 0 0 0 0 0 0 0 0 0 0 0 0 0 0 0 0 0 0 0 0 0 0 0 0 0 0 0 0 0 0 0 0 0 0 0 0 0 0 0 0 0 0 0 0 0 0 0 0 0 0 0 0 0 0 0 0 0 0 0 0 0 0 0 0 0 0 0 0 0 0 0 0 0 0 0 0 0 0 0 0 0 0 0 0 0 0 0 0 0 0 0 0 0 1 3 3 4 4 3 5 4 5 6 4 5 6 8 9 8 8 7 6 6 6 6 7 9 10 11 14 15 17 15 14 12 13 15 18 19 18 16 13 12 14 14 17 19 21 21 21 23 23 22 21 22 22 21 22 23 23 24 25 26 26 25 25 25 26 26 27 25 23 22 23 23 21 18 19 21 21 22 18 18 19 21 20 20 19 18 18 16 16 16 17 17 15 14 15 16 15 14 16 18 20 21 21 22 23 23 21 20 20 23 23 22 23 24 25 27 26 28 29 28 29 29 29 26 28 27 27 30 33 29 27 26 27 29 28 29 27 24 24 24 23 21 19 17 16 16 15 13 13 14 16 18 18 18 17 16 16 16 19 20 21 22 21 21 19 21 22 21 22 20 20 18 19 20 18 17 18 20 20 21 22 19 16 17 19 19 18 18 19 17 16 16 16 18 18 17 17 17 16 17 
21 21 20 20 23 26 27 28 28 28 26 27 25 25 24 24 23 25 28 29 28 28 28 28 26 26 27 29 31 33 31 31 30 29 28 29 29 26 25 22 22 23 23 23 25 24 24 22 24 24 24 26 27 27 25 23 25 25 28 28 30 29 30 29 30 29 29 30 33 34 35 34 34 33 32 32 33 34 33 32 30 29 29 27 23 19 15 16 13 10 10 10 9 7 6 8 9 8 7 7 6 7 10 12 13 12 12 12 12 11 11 12 11 10 9 8 6 7 6 7 7 9 10 11 12 10 9 9 10 11 10 10 12 12 10 10 9 8 7 4 4 6 6 4 3 3 2 4 4 2 1 0 0 0 0 0 0 0 0 0 0 0 0 0 0 0 0 0 0 0 0 0 0 0 0 0 0 0 0 0 0 0 0 0 0 0 0 0 0 0 0 0 0 0 0 0 0 0 0 0 0 0 0 0 0 0 0 0 0 0 0 0 0 0 0 0 0 0 0 0 0 0 0 0 0 0 0 0 0 0 0 0 0 0 0 0 0 0 0 0 0 0 0 0 0 0 0 0 0 0 0 0 0 0 0 0 0 0 0 0 0 0 0 0 0 0 0 0 0 0 0 0 0 0 0 0 0 0 0 0 0 0 0 0 0 0 0 0 0 0 0 0 0 0 0 0 0 0 0 0 0 0 0 0 0 0 0 0 0 0 0 0 0 0 0 0 0 0 0 0 0 0 0 0 0 0 0 0 0 0 0 0 0 0 0 0 0 0 0 0 0 0 0 0 0 0 0 0 0 0 0 0 0 0 0 0 0 0 0 0 0 0 0 0 0 0 0 0 0 0 0 0 0 0 0 0 0 0 0 0 0 0 0 0 0 0 0 0 0 0 0 0 0 0 0 0 0 0 0 0 0 0 0 0 0 0 0 0 0 0 0 0 0 0 0 0 0 0 0 0 0 0 0 0 0 0 0 0 0 0 0 0 0 0 0 0 0 0 0 0 1 1 3 3 2 2 3 4 5 4 3 4 5 6 7 6 7 6 5 5 5 7 8 9 11 12 13 15 15 14 13 14 13 13 15 17 17 15 14 15 14 15 18 20 20 20 21 23 22 20 21 22 21 21 22 21 22 24 26 28 29 28 26 28 27 27 25 23 21 22 21 20 20 17 18 19 20 20 18 18 20 20 20 20 21 19 18 16 16 16 15 15 13 14 14 15 16 16 19 19 20 21 20 21 23 22 21 21 20 23 24 24 25 27 27 28 29 30 29 27 27 29 29 28 28 29 30 31 34 31 27 27 28 27 27 27 27 26 26 25 23 21 20 18 17 16 15 14 14 15 17 19 18 18 17 17 16 17 18 20 22 23 22 20 18 17 18 20 20 20 20 19 19 19 19 19 19 20 20 21 21 20 18 17 18 18 18 19 18 16 15 16 15 18 20 18 18 18 17 19 
23 22 21 23 25 28 30 30 28 26 25 24 25 24 24 25 25 25 26 28 30 30 28 27 27 26 26 30 32 32 30 29 28 27 26 27 27 26 26 23 22 23 24 23 25 26 24 23 24 25 25 25 25 26 25 25 27 28 29 30 29 29 29 30 29 30 31 31 33 34 34 35 35 34 32 32 33 35 34 32 30 30 28 25 23 20 16 16 15 12 11 11 8 8 8 10 10 9 8 9 9 7 10 12 13 12 11 10 9 12 11 12 13 11 10 9 7 7 6 8 7 7 8 10 11 9 9 9 10 11 11 11 11 11 7 7 7 7 6 5 5 4 4 6 3 1 0 0 0 0 0 0 0 0 0 0 0 0 0 0 0 0 0 0 0 0 0 0 0 0 0 0 0 0 0 0 0 0 0 0 0 0 0 0 0 0 0 0 0 0 0 0 0 0 0 0 0 0 0 0 0 0 0 0 0 0 0 0 0 0 0 0 0 0 0 0 0 0 0 0 0 0 0 0 0 0 0 0 0 0 0 0 0 0 0 0 0 0 0 0 0 0 0 0 0 0 0 0 0 0 0 0 0 0 0 0 0 0 0 0 0 0 0 0 0 0 0 0 0 0 0 0 0 0 0 0 0 0 0 0 0 0 0 0 0 0 0 0 0 0 0 0 0 0 0 0 0 0 0 0 0 0 0 0 0 0 0 0 0 0 0 0 0 0 0 0 0 0 0 0 0 0 0 0 0 0 0 0 0 0 0 0 0 0 0 0 0 0 0 0 0 0 0 0 0 0 0 0 0 0 0 0 0 0 0 0 0 0 0 0 0 0 0 0 0 0 0 0 0 0 0 0 0 0 0 0 0 0 0 0 0 0 0 0 0 0 0 0 0 0 0 0 0 0 0 0 0 0 0 0 0 0 0 0 0 0 0 0 0 0 0 0 0 0 0 0 0 0 0 0 0 0 0 0 0 0 0 0 0 0 0 0 0 0 0 0 0 0 0 0 0 0 1 1 2 2 2 2 2 3 2 2 5 4 4 5 4 4 4 4 5 7 9 8 10 10 11 13 15 15 14 15 13 12 14 14 16 17 17 16 16 15 18 19 19 21 21 22 22 21 20 20 21 21 21 22 22 23 24 26 27 26 27 28 28 25 26 24 22 22 21 23 21 18 19 19 19 19 18 17 20 20 21 21 21 19 17 17 16 14 14 15 14 13 13 15 19 18 19 18 19 19 18 19 21 21 20 19 17 20 23 23 25 28 28 29 31 31 28 25 24 25 26 26 28 30 31 33 34 32 29 29 30 28 27 29 30 28 27 27 25 22 20 18 16 16 15 15 16 18 21 23 22 20 20 18 17 18 20 21 22 22 22 20 18 17 19 19 19 20 18 17 18 18 18 19 20 19 19 20 20 19 18 19 17 17 16 18 18 18 16 16 17 19 20 19 20 19 18 21 
23 25 25 27 29 30 29 29 29 27 25 24 27 27 25 26 24 25 25 28 29 29 27 27 27 27 27 28 29 29 29 28 28 26 25 26 27 26 25 24 24 24 25 26 26 25 22 22 23 24 23 25 26 27 27 26 29 29 30 28 28 26 27 28 29 32 32 31 33 34 34 34 35 34 34 34 34 35 36 34 31 30 29 27 26 24 20 18 16 15 14 11 9 9 8 10 10 9 10 11 9 9 10 11 11 10 9 9 8 8 9 10 11 12 11 8 7 7 8 9 9 8 10 10 9 8 9 10 10 11 11 10 9 9 6 7 8 8 8 7 4 4 5 4 2 0 0 0 0 0 0 0 0 0 0 0 0 0 0 0 0 0 0 0 0 0 0 0 0 0 0 0 0 0 0 0 0 0 0 0 0 0 0 0 0 0 0 0 0 0 0 0 0 0 0 0 0 0 0 0 0 0 0 0 0 0 0 0 0 0 0 0 0 0 0 0 0 0 0 0 0 0 0 0 0 0 0 0 0 0 0 0 0 0 0 0 0 0 0 0 0 0 0 0 0 0 0 0 0 0 0 0 0 0 0 0 0 0 0 0 0 0 0 0 0 0 0 0 0 0 0 0 0 0 0 0 0 0 0 0 0 0 0 0 0 0 0 0 0 0 0 0 0 0 0 0 0 0 0 0 0 0 0 0 0 0 0 0 0 0 0 0 0 0 0 0 0 0 0 0 0 0 0 0 0 0 0 0 0 0 0 0 0 0 0 0 0 0 0 0 0 0 0 0 0 0 0 0 0 0 0 0 0 0 0 0 0 0 0 0 0 0 0 0 0 0 0 0 0 0 0 0 0 0 0 0 0 0 0 0 0 0 0 0 0 0 0 0 0 0 0 0 0 0 0 0 0 0 0 0 0 0 0 0 0 0 0 0 0 0 0 0 0 0 0 0 0 0 0 0 0 0 0 0 0 0 0 0 0 0 0 0 0 0 0 0 0 0 0 0 0 0 0 0 0 0 0 0 0 0 2 2 3 5 5 4 3 4 4 5 5 6 8 6 9 9 7 12 14 16 16 15 13 13 14 14 18 18 18 16 14 16 17 19 19 20 20 18 19 20 19 19 20 21 22 23 24 24 24 25 24 25 26 27 26 25 27 24 24 23 25 24 23 19 19 18 17 18 18 17 17 20 20 20 20 20 19 17 13 14 13 13 14 13 15 16 19 19 17 18 17 18 19 20 21 20 18 18 17 19 21 23 24 26 26 26 28 27 26 24 24 25 24 25 26 28 31 33 33 32 31 30 30 29 27 30 29 30 28 27 24 21 20 18 16 17 16 16 17 21 23 23 24 23 21 19 19 20 21 21 20 22 22 19 17 18 19 19 19 21 19 16 17 18 19 19 19 19 20 21 21 21 20 18 16 17 16 17 20 20 18 15 16 18 18 17 19 19 19 22 
26 27 27 28 30 31 32 29 28 27 26 26 26 25 25 25 24 25 25 24 27 27 27 27 26 27 26 27 28 28 27 28 26 27 25 26 27 28 25 25 26 24 25 28 29 27 23 22 23 23 25 25 26 25 26 27 29 28 28 27 25 24 26 28 31 32 32 34 35 35 36 35 35 34 32 33 34 36 37 37 35 31 30 29 28 26 22 20 17 17 15 13 11 8 9 9 9 10 11 12 12 12 11 12 11 10 10 8 7 7 9 9 9 10 8 8 7 7 9 10 8 9 10 10 9 8 9 9 10 9 9 7 6 5 4 4 7 8 7 8 6 3 3 3 0 0 0 0 0 0 0 0 0 0 0 0 0 0 0 0 0 0 0 0 0 0 0 0 0 0 0 0 0 0 0 0 0 0 0 0 0 0 0 0 0 0 0 0 0 0 0 0 0 0 0 0 0 0 0 0 0 0 0 0 0 0 0 0 0 0 0 0 0 0 0 0 0 0 0 0 0 0 0 0 0 0 0 0 0 0 0 0 0 0 0 0 0 0 0 0 0 0 0 0 0 0 0 0 0 0 0 0 0 0 0 0 0 0 0 0 0 0 0 0 0 0 0 0 0 0 0 0 0 0 0 0 0 0 0 0 0 0 0 0 0 0 0 0 0 0 0 0 0 0 0 0 0 0 0 0 0 0 0 0 0 0 0 0 0 0 0 0 0 0 0 0 0 0 0 0 0 0 0 0 0 0 0 0 0 0 0 0 0 0 0 0 0 0 0 0 0 0 0 0 0 0 0 0 0 0 0 0 0 0 0 0 0 0 0 0 0 0 0 0 0 0 0 0 0 0 0 0 0 0 0 0 0 0 0 0 0 0 0 0 0 0 0 0 0 0 0 0 0 0 0 0 0 0 0 0 0 0 0 0 0 0 0 0 0 0 0 0 0 0 0 0 0 0 0 0 0 0 0 0 0 0 0 0 0 0 0 0 0 0 0 0 0 0 0 0 0 0 0 0 0 0 0 0 0 1 2 1 3 4 5 5 5 5 5 6 6 7 7 7 6 8 9 12 14 16 17 16 13 12 14 15 17 18 19 17 14 15 16 19 19 20 20 17 17 18 19 18 20 21 24 24 21 21 21 24 26 26 27 28 26 27 26 26 27 25 25 25 21 20 19 18 18 18 18 17 16 18 19 19 19 19 16 16 15 13 14 13 14 15 17 18 20 19 17 18 18 18 18 19 19 19 18 17 18 20 22 23 25 23 23 23 25 25 26 25 25 25 23 24 24 27 31 32 32 32 32 32 30 30 29 29 29 29 30 29 24 21 20 18 17 18 19 18 19 21 23 23 24 22 22 22 21 20 20 20 20 21 21 19 17 17 17 19 19 20 18 18 17 18 20 19 19 19 18 20 20 19 19 16 16 16 18 19 20 20 17 14 13 16 18 19 20 20 21 23 
27 28 26 28 30 31 31 29 28 27 25 24 25 24 24 23 23 23 24 23 25 26 26 27 27 27 25 26 27 26 26 26 27 27 26 26 27 28 28 26 26 25 26 28 29 27 25 24 25 24 23 24 25 24 25 25 28 26 26 26 26 26 27 30 33 34 35 35 34 34 35 34 36 34 34 35 35 36 36 37 36 33 32 31 28 24 21 20 17 17 16 13 11 9 10 9 10 11 12 13 13 12 12 11 13 11 10 9 8 7 8 8 10 9 6 6 8 9 10 9 7 9 9 10 9 8 9 9 9 8 6 5 4 3 2 4 6 7 5 6 5 3 2 1 0 0 0 0 0 0 0 0 0 0 0 0 0 0 0 0 0 0 0 0 0 0 0 0 0 0 0 0 0 0 0 0 0 0 0 0 0 0 0 0 0 0 0 0 0 0 0 0 0 0 0 0 0 0 0 0 0 0 0 0 0 0 0 0 0 0 0 0 0 0 0 0 0 0 0 0 0 0 0 0 0 0 0 0 0 0 0 0 0 0 0 0 0 0 0 0 0 0 0 0 0 0 0 0 0 0 0 0 0 0 0 0 0 0 0 0 0 0 0 0 0 0 0 0 0 0 0 0 0 0 0 0 0 0 0 0 0 0 0 0 0 0 0 0 0 0 0 0 0 0 0 0 0 0 0 0 0 0 0 0 0 0 0 0 0 0 0 0 0 0 0 0 0 0 0 0 0 0 0 0 0 0 0 0 0 0 0 0 0 0 0 0 0 0 0 0 0 0 0 0 0 0 0 0 0 0 0 0 0 0 0 0 0 0 0 0 0 0 0 0 0 0 0 0 0 0 0 0 0 0 0 0 0 0 0 0 0 0 0 0 0 0 0 0 0 0 0 0 0 0 0 0 0 0 0 0 0 0 0 0 0 0 0 0 0 0 0 0 0 0 0 0 0 0 0 0 0 0 0 0 0 0 0 0 0 0 0 0 0 0 0 0 0 0 0 0 0 0 0 0 0 0 0 0 0 1 1 0 0 3 3 3 5 5 4 3 5 7 7 6 8 8 9 14 16 17 18 16 14 12 14 15 17 19 18 17 12 14 15 17 18 21 19 19 16 17 18 19 20 22 22 22 20 19 23 26 29 29 29 28 27 28 28 28 28 27 23 22 21 22 20 19 20 18 17 17 18 19 19 21 19 18 17 16 16 16 14 14 15 19 20 21 20 19 19 19 19 20 20 19 18 17 17 16 18 23 24 23 23 21 21 21 24 25 25 24 22 21 21 23 23 26 29 30 31 32 32 33 31 31 31 31 30 31 31 28 25 22 21 19 19 20 20 19 19 20 23 23 24 24 23 24 20 20 21 20 18 19 20 17 17 15 16 16 19 19 18 19 19 19 19 19 20 21 21 21 19 18 17 16 17 17 19 20 19 18 14 13 13 15 16 19 19 18 21 24 
28 29 26 28 30 31 30 29 26 25 24 23 24 25 24 22 23 23 21 21 25 25 27 29 28 27 27 25 25 26 26 27 27 26 27 27 28 27 29 27 26 27 26 28 29 28 25 23 24 22 22 23 23 22 24 23 25 27 26 26 26 28 29 30 33 34 35 35 34 32 35 35 35 34 35 35 36 36 37 37 36 34 33 31 27 24 23 18 16 16 15 14 13 10 10 10 10 12 13 13 16 15 14 14 12 11 9 7 6 7 7 7 9 8 7 9 10 9 9 9 9 8 7 7 8 9 10 8 8 7 6 4 3 3 3 5 4 5 6 5 4 2 1 0 0 0 0 0 0 0 0 0 0 0 0 0 0 0 0 0 0 0 0 0 0 0 0 0 0 0 0 0 0 0 0 0 0 0 0 0 0 0 0 0 0 0 0 0 0 0 0 0 0 0 0 0 0 0 0 0 0 0 0 0 0 0 0 0 0 0 0 0 0 0 0 0 0 0 0 0 0 0 0 0 0 0 0 0 0 0 0 0 0 0 0 0 0 0 0 0 0 0 0 0 0 0 0 0 0 0 0 0 0 0 0 0 0 0 0 0 0 0 0 0 0 0 0 0 0 0 0 0 0 0 0 0 0 0 0 0 0 0 0 0 0 0 0 0 0 0 0 0 0 0 0 0 0 0 0 0 0 0 0 0 0 0 0 0 0 0 0 0 0 0 0 0 0 0 0 0 0 0 0 0 0 0 0 0 0 0 0 0 0 0 0 0 0 0 0 0 0 0 0 0 0 0 0 0 0 0 0 0 0 0 0 0 0 0 0 0 0 0 0 0 0 0 0 0 0 0 0 0 0 0 0 0 0 0 0 0 0 0 0 0 0 0 0 0 0 0 0 0 0 0 0 0 0 0 0 0 0 0 0 0 0 0 0 0 0 0 0 0 0 0 0 0 0 0 0 0 0 0 0 0 0 0 0 0 0 0 0 0 0 0 0 0 0 0 0 0 0 0 0 0 0 0 0 0 1 0 0 0 0 0 1 1 2 2 2 2 4 7 7 9 8 9 11 14 16 17 18 18 16 12 13 16 17 18 18 18 15 15 15 19 18 20 20 20 18 19 22 23 23 24 24 22 21 22 25 27 30 30 29 28 27 27 28 27 26 24 21 21 20 19 19 18 19 18 19 17 18 19 20 21 20 18 19 18 18 15 15 16 20 21 23 22 21 22 21 20 21 21 21 18 18 18 17 18 20 23 23 22 21 19 19 22 25 24 23 21 19 20 22 23 25 27 28 30 28 30 32 33 31 30 32 34 32 30 31 26 23 20 19 18 21 22 25 22 23 23 24 23 23 22 24 23 20 21 22 22 19 19 16 14 14 15 16 16 18 17 17 19 18 19 19 19 21 23 22 20 18 17 18 17 17 19 18 18 18 17 15 14 16 19 18 19 18 19 21 24 
29 30 28 29 30 29 27 27 26 26 24 25 25 25 25 24 22 24 23 23 23 25 27 28 27 28 26 26 26 26 26 26 26 26 26 26 27 26 28 27 28 26 25 27 28 27 25 24 23 21 20 21 22 22 22 22 25 27 26 26 27 28 29 29 31 32 33 34 33 33 33 34 34 34 33 33 35 35 36 38 37 34 31 30 28 27 24 19 17 15 15 15 15 14 12 11 11 12 14 15 16 17 17 14 12 11 9 7 5 4 4 6 7 9 7 10 10 10 9 8 8 7 7 7 9 9 9 8 7 6 6 4 3 3 4 2 3 3 3 4 2 1 1 0 0 0 0 0 0 0 0 0 0 0 0 0 0 0 0 0 0 0 0 0 0 0 0 0 0 0 0 0 0 0 0 0 0 0 0 0 0 0 0 0 0 0 0 0 0 0 0 0 0 0 0 0 0 0 0 0 0 0 0 0 0 0 0 0 0 0 0 0 0 0 0 0 0 0 0 0 0 0 0 0 0 0 0 0 0 0 0 0 0 0 0 0 0 0 0 0 0 0 0 0 0 0 0 0 0 0 0 0 0 0 0 0 0 0 0 0 0 0 0 0 0 0 0 0 0 0 0 0 0 0 0 0 0 0 0 0 0 0 0 0 0 0 0 0 0 0 0 0 0 0 0 0 0 0 0 0 0 0 0 0 0 0 0 0 0 0 0 0 0 0 0 0 0 0 0 0 0 0 0 0 0 0 0 0 0 0 0 0 0 0 0 0 0 0 0 0 0 0 0 0 0 0 0 0 0 0 0 0 0 0 0 0 0 0 0 0 0 0 0 0 0 0 0 0 0 0 0 0 0 0 0 0 0 0 0 0 0 0 0 0 0 0 0 0 0 0 0 0 0 0 0 0 0 0 0 0 0 0 0 0 0 0 0 0 0 0 0 0 0 0 0 0 0 0 0 0 0 0 0 0 0 0 0 0 0 0 0 0 0 0 0 0 0 0 0 0 0 0 0 0 0 0 0 0 0 0 0 0 0 0 0 1 1 1 2 2 4 6 7 8 9 10 13 14 17 17 19 18 16 13 12 15 17 17 18 18 17 17 18 20 21 20 21 20 21 20 24 25 25 25 23 20 22 23 27 28 28 29 30 30 27 25 25 25 24 23 21 19 19 18 19 18 20 21 20 19 20 21 20 19 18 17 17 17 17 16 16 18 21 22 22 21 22 22 21 20 20 20 18 18 20 18 19 18 21 23 24 22 20 20 19 22 23 21 22 21 20 21 24 25 27 29 29 29 30 31 32 32 30 30 30 32 31 29 27 25 22 19 18 18 20 22 24 24 24 24 25 23 22 23 23 22 22 20 19 19 19 19 16 15 16 15 15 17 16 15 15 17 17 18 20 21 21 21 19 18 17 18 17 18 17 19 19 20 19 20 17 17 19 19 20 20 20 21 24 25 
30 32 29 29 29 29 27 28 27 26 24 23 24 25 25 26 27 25 25 22 22 25 25 25 26 26 26 26 27 28 27 25 26 27 27 26 25 25 25 27 26 26 26 26 27 26 25 25 24 22 20 20 20 22 21 23 24 27 27 26 27 31 30 29 29 28 30 31 31 31 31 32 32 33 31 33 33 32 33 37 37 34 31 31 29 28 25 21 18 16 15 17 17 17 14 12 13 14 14 15 17 18 17 15 13 12 11 9 6 4 3 4 5 6 6 8 11 10 8 7 7 7 7 7 8 11 9 8 7 7 6 4 3 2 2 1 1 2 1 1 0 1 0 0 0 0 0 0 0 0 0 0 0 0 0 0 0 0 0 0 0 0 0 0 0 0 0 0 0 0 0 0 0 0 0 0 0 0 0 0 0 0 0 0 0 0 0 0 0 0 0 0 0 0 0 0 0 0 0 0 0 0 0 0 0 0 0 0 0 0 0 0 0 0 0 0 0 0 0 0 0 0 0 0 0 0 0 0 0 0 0 0 0 0 0 0 0 0 0 0 0 0 0 0 0 0 0 0 0 0 0 0 0 0 0 0 0 0 0 0 0 0 0 0 0 0 0 0 0 0 0 0 0 0 0 0 0 0 0 0 0 0 0 0 0 0 0 0 0 0 0 0 0 0 0 0 0 0 0 0 0 0 0 0 0 0 0 0 0 0 0 0 0 0 0 0 0 0 0 0 0 0 0 0 0 0 0 0 0 0 0 0 0 0 0 0 0 0 0 0 0 0 0 0 0 0 0 0 0 0 0 0 0 0 0 0 0 0 0 0 0 0 0 0 0 0 0 0 0 0 0 0 0 0 0 0 0 0 0 0 0 0 0 0 0 0 0 0 0 0 0 0 0 0 0 0 0 0 0 0 0 0 0 0 0 0 0 0 0 0 0 0 0 0 0 0 0 0 0 0 0 0 0 0 0 0 0 0 0 0 0 0 0 0 0 0 0 0 0 0 0 0 0 0 0 0 0 0 0 0 0 0 0 0 1 2 2 0 2 5 5 5 6 7 8 9 11 14 16 17 19 20 18 14 13 14 16 17 18 18 19 19 20 20 22 21 22 23 22 22 22 24 25 24 22 21 22 24 26 26 27 29 29 30 27 25 26 25 23 22 21 20 19 19 20 21 21 20 20 21 21 21 21 20 18 17 17 19 19 17 16 18 19 19 19 19 20 22 20 20 19 19 19 20 22 21 21 17 20 21 22 21 20 19 19 21 22 21 21 20 20 22 25 26 28 27 29 30 30 30 32 32 32 30 30 30 28 26 24 24 22 21 19 19 20 23 23 23 23 24 25 21 22 23 25 24 22 19 17 17 20 19 17 19 18 17 18 18 16 16 15 16 17 18 20 21 19 19 18 17 16 18 17 17 19 20 21 23 24 23 21 20 20 22 22 23 23 23 24 27 
30 31 29 28 29 27 26 25 26 26 24 24 24 25 26 28 26 26 23 22 22 23 23 23 23 26 26 26 27 26 27 26 26 27 26 24 25 25 25 27 27 27 27 26 25 26 25 24 25 23 20 19 19 19 20 21 22 23 25 26 29 32 30 29 29 26 27 28 28 29 29 29 30 30 31 31 32 31 33 34 34 32 32 31 30 30 25 21 19 19 18 18 18 16 16 13 14 13 15 15 15 17 18 16 14 14 12 11 8 7 7 5 4 5 6 10 10 8 8 7 8 9 6 6 7 7 8 10 10 8 7 5 2 0 0 0 1 0 0 0 0 0 0 0 0 0 0 0 0 0 0 0 0 0 0 0 0 0 0 0 0 0 0 0 0 0 0 0 0 0 0 0 0 0 0 0 0 0 0 0 0 0 0 0 0 0 0 0 0 0 0 0 0 0 0 0 0 0 0 0 0 0 0 0 0 0 0 0 0 0 0 0 0 0 0 0 0 0 0 0 0 0 0 0 0 0 0 0 0 0 0 0 0 0 0 0 0 0 0 0 0 0 0 0 0 0 0 0 0 0 0 0 0 0 0 0 0 0 0 0 0 0 0 0 0 0 0 0 0 0 0 0 0 0 0 0 0 0 0 0 0 0 0 0 0 0 0 0 0 0 0 0 0 0 0 0 0 0 0 0 0 0 0 0 0 0 0 0 0 0 0 0 0 0 0 0 0 0 0 0 0 0 0 0 0 0 0 0 0 0 0 0 0 0 0 0 0 0 0 0 0 0 0 0 0 0 0 0 0 0 0 0 0 0 0 0 0 0 0 0 0 0 0 0 0 0 0 0 0 0 0 0 0 0 0 0 0 0 0 0 0 0 0 0 0 0 0 0 0 0 0 0 0 0 0 0 0 0 0 0 0 0 0 0 0 0 0 0 0 0 0 0 0 0 0 0 0 0 0 0 0 0 0 0 0 0 0 0 0 0 0 0 0 0 0 0 0 0 0 0 0 0 0 0 0 0 0 0 0 0 0 0 0 1 2 1 1 1 2 4 5 4 5 6 7 9 11 14 17 20 19 20 18 14 15 14 15 16 17 17 18 18 20 20 21 21 22 23 24 22 21 24 26 25 23 22 21 24 25 28 27 28 27 29 28 27 27 26 24 24 22 20 19 19 21 22 20 20 20 20 20 21 19 18 18 17 19 19 20 19 17 16 17 17 17 18 20 21 20 21 19 19 20 21 22 21 20 16 16 18 17 19 18 18 19 22 22 21 21 20 21 21 23 24 26 26 29 31 31 31 32 34 32 30 30 28 27 25 23 24 23 20 19 18 20 21 23 22 23 24 25 23 22 24 23 22 21 18 17 18 19 20 19 19 19 19 18 18 17 17 16 17 16 17 18 20 19 17 17 15 16 19 19 18 19 21 22 24 27 24 23 22 21 23 24 24 24 23 24 26 
28 28 28 29 28 28 26 25 27 27 25 25 25 27 27 27 26 26 24 22 22 23 25 24 24 25 27 26 27 27 27 26 26 26 24 23 23 24 26 29 29 30 28 28 25 26 26 25 24 23 22 20 21 20 19 20 20 21 22 24 28 30 31 28 28 25 25 28 28 27 29 29 30 29 28 31 33 31 31 33 33 33 32 31 29 28 25 22 22 21 20 19 19 19 16 15 13 14 15 16 17 17 18 17 16 14 13 12 11 10 10 10 7 6 7 9 9 7 7 7 7 8 6 5 4 5 7 8 8 8 7 6 3 0 0 0 1 0 1 1 0 0 0 0 0 0 0 0 0 0 0 0 0 0 0 0 0 0 0 0 0 0 0 0 0 0 0 0 0 0 0 0 0 0 0 0 0 0 0 0 0 0 0 0 0 0 0 0 0 0 0 0 0 0 0 0 0 0 0 0 0 0 0 0 0 0 0 0 0 0 0 0 0 0 0 0 0 0 0 0 0 0 0 0 0 0 0 0 0 0 0 0 0 0 0 0 0 0 0 0 0 0 0 0 0 0 0 0 0 0 0 0 0 0 0 0 0 0 0 0 0 0 0 0 0 0 0 0 0 0 0 0 0 0 0 0 0 0 0 0 0 0 0 0 0 0 0 0 0 0 0 0 0 0 0 0 0 0 0 0 0 0 0 0 0 0 0 0 0 0 0 0 0 0 0 0 0 0 0 0 0 0 0 0 0 0 0 0 0 0 0 0 0 0 0 0 0 0 0 0 0 0 0 0 0 0 0 0 0 0 0 0 0 0 0 0 0 0 0 0 0 0 0 0 0 0 0 0 0 0 0 0 0 0 0 0 0 0 0 0 0 0 0 0 0 0 0 0 0 0 0 0 0 0 0 0 0 0 0 0 0 0 0 0 0 0 0 0 0 0 0 0 0 0 0 0 0 0 0 0 0 0 0 0 0 0 0 0 0 0 0 0 0 0 0 0 0 0 0 0 0 0 0 0 0 0 0 0 0 0 0 0 0 3 2 1 0 1 2 4 5 4 3 4 6 8 10 12 16 17 17 18 16 16 15 16 15 16 15 15 14 16 17 18 19 19 20 22 21 22 21 24 26 26 24 21 20 24 26 29 27 27 26 28 29 28 26 24 24 23 21 19 20 20 21 21 20 20 22 22 21 22 20 18 17 17 18 19 18 18 16 16 19 20 19 20 20 20 21 22 21 22 22 21 20 21 19 16 15 15 16 19 19 19 19 23 23 22 22 20 21 21 21 21 23 25 29 31 31 31 32 33 31 29 29 27 27 24 22 24 22 20 19 19 19 20 21 22 22 23 25 25 23 23 22 20 20 19 16 14 16 17 19 19 20 19 19 18 20 19 17 17 16 16 16 18 17 17 17 17 18 20 21 20 21 21 24 28 27 24 24 23 24 24 25 26 25 26 25 26 
28 28 28 28 28 28 27 25 26 27 25 25 26 25 26 27 26 26 26 23 22 24 25 25 24 24 24 26 28 28 29 26 23 21 23 23 24 25 26 29 30 28 28 26 26 27 25 24 24 22 22 22 22 20 19 20 20 21 22 24 27 29 28 26 26 26 26 28 28 27 28 27 28 28 28 30 32 33 31 32 30 31 31 29 29 28 27 23 22 22 21 20 18 20 19 17 15 14 16 14 16 17 17 16 16 16 15 14 13 10 11 12 8 8 8 7 9 8 7 5 6 6 6 4 4 5 8 7 8 8 6 4 3 2 3 2 0 0 0 0 0 0 0 0 0 0 0 0 0 0 0 0 0 0 0 0 0 0 0 0 0 0 0 0 0 0 0 0 0 0 0 0 0 0 0 0 0 0 0 0 0 0 0 0 0 0 0 0 0 0 0 0 0 0 0 0 0 0 0 0 0 0 0 0 0 0 0 0 0 0 0 0 0 0 0 0 0 0 0 0 0 0 0 0 0 0 0 0 0 0 0 0 0 0 0 0 0 0 0 0 0 0 0 0 0 0 0 0 0 0 0 0 0 0 0 0 0 0 0 0 0 0 0 0 0 0 0 0 0 0 0 0 0 0 0 0 0 0 0 0 0 0 0 0 0 0 0 0 0 0 0 0 0 0 0 0 0 0 0 0 0 0 0 0 0 0 0 0 0 0 0 0 0 0 0 0 0 0 0 0 0 0 0 0 0 0 0 0 0 0 0 0 0 0 0 0 0 0 0 0 0 0 0 0 0 0 0 0 0 0 0 0 0 0 0 0 0 0 0 0 0 0 0 0 0 0 0 0 0 0 0 0 0 0 0 0 0 0 0 0 0 0 0 0 0 0 0 0 0 0 0 0 0 0 0 0 0 0 0 0 0 0 0 0 0 0 0 0 0 0 0 0 0 0 0 0 0 0 0 0 0 0 0 0 0 0 0 0 0 0 0 0 0 0 0 0 0 0 0 0 0 0 0 0 0 0 0 0 0 0 0 1 2 3 2 1 1 1 0 3 4 4 3 5 6 8 11 12 12 14 16 16 17 17 15 15 16 17 14 13 13 15 15 15 17 18 19 22 21 21 21 22 25 25 25 23 21 24 26 29 29 27 28 27 30 29 26 24 23 23 21 20 20 19 21 21 21 21 22 23 23 21 21 19 18 18 18 18 18 17 17 17 18 20 21 21 21 21 23 22 21 21 21 20 19 19 18 17 17 16 15 16 18 19 20 22 24 22 21 21 20 19 19 19 20 23 25 26 28 29 31 33 31 29 27 26 24 24 22 21 22 20 20 20 20 20 20 21 23 22 23 22 21 21 20 18 17 16 13 12 16 18 18 19 20 19 19 21 20 18 16 16 17 15 14 17 17 18 18 17 17 21 21 22 24 25 26 27 27 26 23 23 23 24 24 27 26 26 26 28 
29 28 25 26 29 30 26 25 26 28 27 25 25 25 26 26 26 27 26 25 23 25 26 24 24 25 25 26 28 29 29 27 23 20 21 22 23 25 27 28 28 27 27 26 27 26 26 26 26 24 22 23 21 20 19 20 21 22 22 24 25 26 24 26 26 25 24 26 27 26 26 27 28 26 27 29 31 32 30 31 30 30 29 28 27 27 26 23 21 19 17 18 19 20 20 18 17 16 17 17 17 16 16 16 16 15 17 14 12 9 10 12 11 11 9 9 10 9 7 6 7 6 6 6 7 8 9 9 9 9 7 6 5 3 2 1 0 0 0 0 0 0 0 0 0 0 0 0 0 0 0 0 0 0 0 0 0 0 0 0 0 0 0 0 0 0 0 0 0 0 0 0 0 0 0 0 0 0 0 0 0 0 0 0 0 0 0 0 0 0 0 0 0 0 0 0 0 0 0 0 0 0 0 0 0 0 0 0 0 0 0 0 0 0 0 0 0 0 0 0 0 0 0 0 0 0 0 0 0 0 0 0 0 0 0 0 0 0 0 0 0 0 0 0 0 0 0 0 0 0 0 0 0 0 0 0 0 0 0 0 0 0 0 0 0 0 0 0 0 0 0 0 0 0 0 0 0 0 0 0 0 0 0 0 0 0 0 0 0 0 0 0 0 0 0 0 0 0 0 0 0 0 0 0 0 0 0 0 0 0 0 0 0 0 0 0 0 0 0 0 0 0 0 0 0 0 0 0 0 0 0 0 0 0 0 0 0 0 0 0 0 0 0 0 0 0 0 0 0 0 0 0 0 0 0 0 0 0 0 0 0 0 0 0 0 0 0 0 0 0 0 0 0 0 0 0 0 0 0 0 0 0 0 0 0 0 0 0 0 0 0 0 0 0 0 0 0 0 0 0 0 0 0 0 0 0 0 0 0 0 0 0 0 0 0 0 0 0 0 0 0 0 0 0 0 0 0 0 0 0 0 0 0 0 0 0 0 0 0 0 0 0 0 0 0 0 0 0 0 0 0 0 1 2 2 3 3 0 1 3 5 5 5 5 8 10 11 12 12 15 16 16 17 16 14 13 13 13 14 12 14 15 14 15 16 17 19 21 23 23 22 22 22 24 24 24 24 24 26 29 30 29 28 29 31 32 29 26 24 23 23 21 20 19 21 21 21 21 22 23 24 22 22 20 19 19 18 17 19 18 18 18 18 19 20 21 22 24 24 23 22 20 20 20 20 19 19 19 17 16 14 16 20 22 22 23 25 22 20 19 20 18 17 18 19 20 23 25 25 27 30 31 29 28 26 25 24 23 22 22 23 21 20 21 21 19 20 21 21 21 21 21 20 20 19 16 14 12 13 15 16 16 18 18 19 20 18 19 18 18 16 16 15 15 16 16 18 19 18 17 18 21 23 26 26 24 26 26 26 25 21 22 20 20 21 24 28 28 28 29 
29 28 26 26 28 30 29 26 27 28 28 26 26 26 26 26 25 25 26 27 25 24 24 23 23 26 27 28 27 28 29 27 24 22 20 22 24 26 26 27 28 29 29 28 28 28 26 26 27 25 25 26 24 22 21 20 22 22 21 22 22 21 22 24 24 25 23 23 25 25 25 27 28 27 26 29 30 30 30 29 28 27 26 25 23 23 22 20 17 19 18 18 20 20 19 18 17 16 18 18 17 17 15 16 17 17 15 13 9 7 10 12 12 13 12 11 10 11 7 8 8 6 7 9 9 11 11 10 10 9 8 6 4 1 0 0 0 0 0 0 0 0 0 0 0 0 0 0 0 0 0 0 0 0 0 0 0 0 0 0 0 0 0 0 0 0 0 0 0 0 0 0 0 0 0 0 0 0 0 0 0 0 0 0 0 0 0 0 0 0 0 0 0 0 0 0 0 0 0 0 0 0 0 0 0 0 0 0 0 0 0 0 0 0 0 0 0 0 0 0 0 0 0 0 0 0 0 0 0 0 0 0 0 0 0 0 0 0 0 0 0 0 0 0 0 0 0 0 0 0 0 0 0 0 0 0 0 0 0 0 0 0 0 0 0 0 0 0 0 0 0 0 0 0 0 0 0 0 0 0 0 0 0 0 0 0 0 0 0 0 0 0 0 0 0 0 0 0 0 0 0 0 0 0 0 0 0 0 0 0 0 0 0 0 0 0 0 0 0 0 0 0 0 0 0 0 0 0 0 0 0 0 0 0 0 0 0 0 0 0 0 0 0 0 0 0 0 0 0 0 0 0 0 0 0 0 0 0 0 0 0 0 0 0 0 0 0 0 0 0 0 0 0 0 0 0 0 0 0 0 0 0 0 0 0 0 0 0 0 0 0 0 0 0 0 0 0 0 0 0 0 0 0 0 0 0 0 0 0 0 0 0 0 0 0 0 0 0 0 0 0 0 0 0 0 0 0 0 0 0 0 0 0 0 0 0 0 0 0 0 0 0 0 0 0 0 0 0 0 0 0 0 1 0 2 4 2 1 3 5 7 6 6 7 10 11 12 13 12 13 14 15 14 13 13 11 10 12 12 12 13 15 15 14 15 19 21 22 24 22 22 22 21 21 24 24 23 25 25 28 29 30 30 31 34 34 32 29 25 24 25 23 20 20 23 23 22 22 23 24 22 22 22 20 20 17 17 16 17 19 18 17 17 18 19 20 23 25 26 25 22 20 21 21 21 21 22 21 18 16 14 17 20 20 22 22 22 20 19 20 18 17 17 18 21 20 23 25 26 28 29 29 30 29 27 27 25 24 25 23 23 22 21 21 20 19 18 19 20 20 21 21 20 18 17 14 11 11 13 16 17 17 20 18 20 20 20 20 17 16 15 15 15 17 17 19 20 19 19 19 19 23 26 27 26 23 23 24 25 23 22 19 19 18 22 24 27 28 29 30 
29 28 27 26 29 31 29 28 27 28 28 26 27 27 24 25 25 25 26 26 25 24 23 22 25 25 27 28 28 29 29 29 26 24 24 25 25 25 26 28 30 30 28 29 29 28 28 27 27 25 26 28 26 25 23 22 23 21 21 20 21 20 20 22 22 23 21 20 21 24 24 26 27 27 29 28 29 29 28 28 27 26 25 22 22 22 20 17 17 18 18 19 21 20 18 17 16 16 19 19 18 14 15 16 18 16 15 11 9 8 8 9 12 14 13 12 10 11 10 10 10 9 10 9 10 11 11 12 12 11 8 5 3 1 0 0 0 0 0 0 0 0 0 0 0 0 0 0 0 0 0 0 0 0 0 0 0 0 0 0 0 0 0 0 0 0 0 0 0 0 0 0 0 0 0 0 0 0 0 0 0 0 0 0 0 0 0 0 0 0 0 0 0 0 0 0 0 0 0 0 0 0 0 0 0 0 0 0 0 0 0 0 0 0 0 0 0 0 0 0 0 0 0 0 0 0 0 0 0 0 0 0 0 0 0 0 0 0 0 0 0 0 0 0 0 0 0 0 0 0 0 0 0 0 0 0 0 0 0 0 0 0 0 0 0 0 0 0 0 0 0 0 0 0 0 0 0 0 0 0 0 0 0 0 0 0 0 0 0 0 0 0 0 0 0 0 0 0 0 0 0 0 0 0 0 0 0 0 0 0 0 0 0 0 0 0 0 0 0 0 0 0 0 0 0 0 0 0 0 0 0 0 0 0 0 0 0 0 0 0 0 0 0 0 0 0 0 0 0 0 0 0 0 0 0 0 0 0 0 0 0 0 0 0 0 0 0 0 0 0 0 0 0 0 0 0 0 0 0 0 0 0 0 0 0 0 0 0 0 0 0 0 0 0 0 0 0 0 0 0 0 0 0 0 0 0 0 0 0 0 0 0 0 0 0 0 0 0 0 0 0 0 0 0 0 0 0 0 0 0 0 0 0 0 0 0 0 0 0 0 0 0 0 0 0 0 0 0 0 0 0 0 0 0 2 3 5 3 5 6 6 6 6 7 11 12 13 12 10 12 12 12 11 11 11 9 9 11 12 12 12 13 15 14 14 18 20 23 23 22 23 23 22 23 24 24 22 25 25 26 28 30 31 33 35 34 34 30 26 25 27 26 25 23 25 25 25 25 24 23 23 23 21 21 17 16 17 17 18 17 17 18 17 19 21 22 24 26 27 24 21 21 22 22 23 23 22 22 18 15 17 16 19 19 19 19 20 19 18 17 17 17 18 21 22 23 23 25 26 29 29 29 30 29 28 28 26 25 24 23 22 20 21 21 20 18 19 19 19 20 18 18 19 17 17 14 13 12 13 16 18 20 21 21 20 19 19 17 16 14 14 16 16 18 19 21 21 21 19 19 21 23 26 26 27 25 24 25 26 23 21 19 19 18 21 26 29 29 28 29 
29 27 26 26 28 30 31 30 30 29 28 28 29 26 24 25 25 26 27 27 27 25 24 25 27 29 28 28 28 29 30 30 28 26 27 27 26 25 27 31 33 32 28 30 30 28 28 28 27 26 26 27 27 24 22 23 24 22 22 22 21 20 19 18 18 18 20 19 19 21 23 26 28 29 29 29 28 29 28 26 26 25 22 22 21 20 18 17 20 20 20 22 20 20 19 17 14 14 15 15 15 14 14 15 15 14 13 11 9 8 7 10 11 14 14 12 12 12 12 13 12 9 9 10 10 9 10 10 10 10 8 4 3 1 0 0 0 0 0 0 0 0 0 0 0 0 0 0 0 0 0 0 0 0 0 0 0 0 0 0 0 0 0 0 0 0 0 0 0 0 0 0 0 0 0 0 0 0 0 0 0 0 0 0 0 0 0 0 0 0 0 0 0 0 0 0 0 0 0 0 0 0 0 0 0 0 0 0 0 0 0 0 0 0 0 0 0 0 0 0 0 0 0 0 0 0 0 0 0 0 0 0 0 0 0 0 0 0 0 0 0 0 0 0 0 0 0 0 0 0 0 0 0 0 0 0 0 0 0 0 0 0 0 0 0 0 0 0 0 0 0 0 0 0 0 0 0 0 0 0 0 0 0 0 0 0 0 0 0 0 0 0 0 0 0 0 0 0 0 0 0 0 0 0 0 0 0 0 0 0 0 0 0 0 0 0 0 0 0 0 0 0 0 0 0 0 0 0 0 0 0 0 0 0 0 0 0 0 0 0 0 0 0 0 0 0 0 0 0 0 0 0 0 0 0 0 0 0 0 0 0 0 0 0 0 0 0 0 0 0 0 0 0 0 0 0 0 0 0 0 0 0 0 0 0 0 0 0 0 0 0 0 0 0 0 0 0 0 0 0 0 0 0 0 0 0 0 0 0 0 0 0 0 0 0 0 0 0 0 0 0 0 0 0 0 0 0 0 0 0 0 0 0 0 0 0 0 0 0 0 0 0 0 0 0 0 0 0 0 0 0 0 0 0 1 4 5 6 5 5 6 5 5 7 11 12 11 10 9 10 10 9 8 8 7 7 7 8 8 9 11 12 12 12 12 16 19 22 24 22 22 23 23 23 23 23 22 23 26 27 30 32 33 33 32 32 32 30 27 26 27 26 25 23 24 27 26 25 25 24 22 21 21 19 18 18 19 18 16 16 18 18 18 19 21 22 26 29 26 25 24 24 22 23 23 24 22 20 17 14 15 17 17 16 16 17 15 16 16 16 18 20 20 21 23 26 26 25 26 29 30 30 30 29 29 28 27 25 23 23 21 21 20 20 19 17 17 17 18 17 16 16 15 17 17 16 15 13 15 17 19 21 21 22 20 19 17 15 16 13 14 16 15 18 20 21 20 19 18 18 19 23 25 27 27 25 26 27 26 25 22 21 19 19 22 26 29 29 27 29 
29 28 28 27 28 29 30 30 31 32 29 29 29 27 26 25 26 25 25 26 28 29 29 28 29 29 29 29 28 30 31 31 30 27 27 27 28 29 32 34 33 32 31 32 29 27 27 26 25 26 27 26 25 23 22 23 22 21 21 22 20 18 16 16 17 19 20 20 19 21 23 25 27 26 27 28 29 28 27 25 25 23 20 20 19 18 18 18 20 19 21 20 19 20 19 16 13 13 14 14 12 12 11 12 12 12 13 11 10 9 8 10 11 12 14 14 13 12 13 12 10 9 9 10 11 9 9 9 9 8 6 3 1 0 0 0 0 0 0 0 0 0 0 0 0 0 0 0 0 0 0 0 0 0 0 0 0 0 0 0 0 0 0 0 0 0 0 0 0 0 0 0 0 0 0 0 0 0 0 0 0 0 0 0 0 0 0 0 0 0 0 0 0 0 0 0 0 0 0 0 0 0 0 0 0 0 0 0 0 0 0 0 0 0 0 0 0 0 0 0 0 0 0 0 0 0 0 0 0 0 0 0 0 0 0 0 0 0 0 0 0 0 0 0 0 0 0 0 0 0 0 0 0 0 0 0 0 0 0 0 0 0 0 0 0 0 0 0 0 0 0 0 0 0 0 0 0 0 0 0 0 0 0 0 0 0 0 0 0 0 0 0 0 0 0 0 0 0 0 0 0 0 0 0 0 0 0 0 0 0 0 0 0 0 0 0 0 0 0 0 0 0 0 0 0 0 0 0 0 0 0 0 0 0 0 0 0 0 0 0 0 0 0 0 0 0 0 0 0 0 0 0 0 0 0 0 0 0 0 0 0 0 0 0 0 0 0 0 0 0 0 0 0 0 0 0 0 0 0 0 0 0 0 0 0 0 0 0 0 0 0 0 0 0 0 0 0 0 0 0 0 0 0 0 0 0 0 0 0 0 0 0 0 0 0 0 0 0 0 0 0 0 0 0 0 0 0 0 0 0 0 0 0 0 0 0 0 0 0 0 0 0 0 0 0 0 0 0 0 0 0 0 0 0 1 5 6 6 5 4 4 5 5 6 11 13 11 11 10 9 7 8 8 6 5 5 6 7 8 8 9 10 10 9 10 13 17 20 22 22 21 23 23 22 22 24 24 25 25 28 30 31 31 32 31 30 31 28 27 26 26 25 22 24 25 27 26 24 23 21 20 20 21 20 20 19 19 17 17 15 17 18 19 20 23 26 29 29 28 26 25 24 22 23 25 26 22 20 16 14 15 16 16 15 16 17 16 15 16 17 20 21 20 21 24 25 23 24 25 27 28 29 28 28 27 27 26 25 22 22 21 20 20 20 19 17 16 16 16 17 16 14 16 16 16 16 15 13 14 15 16 18 19 21 20 17 16 15 15 14 14 15 14 15 18 19 18 17 18 21 21 22 25 28 27 25 27 28 29 27 24 22 21 21 22 24 28 28 27 28 
30 30 29 28 28 29 31 31 32 31 30 30 31 29 27 26 26 26 27 28 29 29 28 28 28 29 29 30 30 32 32 30 30 28 28 28 30 30 31 33 33 32 32 32 30 30 29 28 27 27 27 26 25 22 21 22 21 22 20 19 16 15 17 16 17 18 18 18 20 21 23 23 25 25 27 27 28 26 26 24 25 23 21 19 20 18 18 18 18 19 19 17 18 17 17 15 13 11 13 13 12 10 11 13 12 12 13 13 11 7 6 9 10 13 14 15 13 12 14 14 12 10 9 9 9 7 7 7 8 8 6 2 0 0 0 0 0 0 0 0 0 0 0 0 0 0 0 0 0 0 0 0 0 0 0 0 0 0 0 0 0 0 0 0 0 0 0 0 0 0 0 0 0 0 0 0 0 0 0 0 0 0 0 0 0 0 0 0 0 0 0 0 0 0 0 0 0 0 0 0 0 0 0 0 0 0 0 0 0 0 0 0 0 0 0 0 0 0 0 0 0 0 0 0 0 0 0 0 0 0 0 0 0 0 0 0 0 0 0 0 0 0 0 0 0 0 0 0 0 0 0 0 0 0 0 0 0 0 0 0 0 0 0 0 0 0 0 0 0 0 0 0 0 0 0 0 0 0 0 0 0 0 0 0 0 0 0 0 0 0 0 0 0 0 0 0 0 0 0 0 0 0 0 0 0 0 0 0 0 0 0 0 0 0 0 0 0 0 0 0 0 0 0 0 0 0 0 0 0 0 0 0 0 0 0 0 0 0 0 0 0 0 0 0 0 0 0 0 0 0 0 0 0 0 0 0 0 0 0 0 0 0 0 0 0 0 0 0 0 0 0 0 0 0 0 0 0 0 0 0 0 0 0 0 0 0 0 0 0 0 0 0 0 0 0 0 0 0 0 0 0 0 0 0 0 0 0 0 0 0 0 0 0 0 0 0 0 0 0 0 0 0 0 0 0 0 0 0 0 0 0 0 0 0 0 0 0 0 0 0 0 0 0 0 0 0 0 0 0 0 0 0 0 0 0 2 4 5 3 2 2 4 4 5 10 11 11 10 9 8 8 7 6 6 5 4 4 7 8 6 6 8 8 7 8 11 14 20 22 22 21 22 22 23 22 22 23 23 25 27 29 30 31 29 28 27 28 27 27 25 25 24 23 24 26 25 23 23 21 20 20 22 23 21 18 18 16 16 16 16 16 19 20 23 24 27 30 31 29 29 28 27 24 24 27 24 20 17 16 16 17 18 17 17 17 17 18 17 17 20 22 23 21 22 21 23 22 23 24 25 26 28 27 24 25 26 26 25 23 23 19 20 19 20 20 17 16 17 15 16 16 15 14 14 15 15 15 14 13 14 14 15 17 19 18 17 16 15 16 15 14 15 15 17 19 18 18 18 18 20 21 22 24 27 27 25 26 30 30 27 24 23 22 23 22 24 27 28 28 28 
29 29 30 29 30 32 33 32 33 32 31 31 30 28 28 29 30 32 31 31 30 30 29 27 27 29 29 30 31 31 32 30 30 30 28 29 29 30 29 31 33 33 32 33 31 32 32 30 29 28 25 27 25 23 21 21 21 21 20 20 17 16 18 18 16 16 18 19 19 19 21 22 24 26 27 25 26 25 25 26 25 22 21 20 19 20 20 20 18 17 16 16 16 16 15 12 11 10 14 14 11 11 11 14 13 14 16 13 10 7 7 9 11 13 14 13 12 10 13 14 11 9 7 5 5 5 7 7 8 7 7 4 0 0 0 0 0 0 0 0 0 0 0 0 0 0 0 0 0 0 0 0 0 0 0 0 0 0 0 0 0 0 0 0 0 0 0 0 0 0 0 0 0 0 0 0 0 0 0 0 0 0 0 0 0 0 0 0 0 0 0 0 0 0 0 0 0 0 0 0 0 0 0 0 0 0 0 0 0 0 0 0 0 0 0 0 0 0 0 0 0 0 0 0 0 0 0 0 0 0 0 0 0 0 0 0 0 0 0 0 0 0 0 0 0 0 0 0 0 0 0 0 0 0 0 0 0 0 0 0 0 0 0 0 0 0 0 0 0 0 0 0 0 0 0 0 0 0 0 0 0 0 0 0 0 0 0 0 0 0 0 0 0 0 0 0 0 0 0 0 0 0 0 0 0 0 0 0 0 0 0 0 0 0 0 0 0 0 0 0 0 0 0 0 0 0 0 0 0 0 0 0 0 0 0 0 0 0 0 0 0 0 0 0 0 0 0 0 0 0 0 0 0 0 0 0 0 0 0 0 0 0 0 0 0 0 0 0 0 0 0 0 0 0 0 0 0 0 0 0 0 0 0 0 0 0 0 0 0 0 0 0 0 0 0 0 0 0 0 0 0 0 0 0 0 0 0 0 0 0 0 0 0 0 0 0 0 0 0 0 0 0 0 0 0 0 0 0 0 0 0 0 0 0 0 0 0 0 0 0 0 0 0 0 0 0 0 0 0 0 0 0 0 0 0 0 2 3 2 0 1 1 3 5 10 10 11 11 11 10 8 9 6 6 4 3 3 4 5 5 5 6 5 6 8 12 14 19 20 22 20 20 20 22 22 21 20 22 25 27 27 28 29 28 27 27 26 26 25 24 25 22 20 24 26 24 22 21 22 19 20 22 23 20 17 17 16 15 16 17 16 20 21 22 23 27 30 31 30 27 28 25 25 25 25 23 20 18 17 17 19 21 21 20 20 20 19 19 19 20 22 22 21 21 20 21 22 22 23 24 26 26 25 23 23 22 24 24 23 22 19 19 19 19 18 18 18 16 15 16 15 14 14 13 13 13 15 17 16 15 15 15 16 17 17 16 16 16 17 15 16 16 17 19 20 19 19 20 20 21 22 23 26 28 27 25 26 29 28 27 25 25 24 24 25 24 26 27 29 29 
29 29 29 30 31 34 33 32 32 31 31 33 31 29 27 30 30 32 34 32 33 30 29 28 27 29 28 30 32 31 33 30 30 28 27 26 28 28 27 28 31 31 31 33 34 35 35 34 31 29 26 25 23 22 22 20 20 18 18 19 18 18 19 18 15 17 18 19 19 19 20 20 22 25 25 25 24 24 24 25 23 23 22 20 20 21 21 21 18 17 18 17 14 14 13 10 7 10 12 12 12 11 12 14 14 14 14 13 10 8 9 12 12 14 13 11 10 10 9 10 11 6 3 4 4 6 8 8 9 8 7 4 1 0 0 0 0 0 0 0 0 0 0 0 0 0 0 0 0 0 0 0 0 0 0 0 0 0 0 0 0 0 0 0 0 0 0 0 0 0 0 0 0 0 0 0 0 0 0 0 0 0 0 0 0 0 0 0 0 0 0 0 0 0 0 0 0 0 0 0 0 0 0 0 0 0 0 0 0 0 0 0 0 0 0 0 0 0 0 0 0 0 0 0 0 0 0 0 0 0 0 0 0 0 0 0 0 0 0 0 0 0 0 0 0 0 0 0 0 0 0 0 0 0 0 0 0 0 0 0 0 0 0 0 0 0 0 0 0 0 0 0 0 0 0 0 0 0 0 0 0 0 0 0 0 0 0 0 0 0 0 0 0 0 0 0 0 0 0 0 0 0 0 0 0 0 0 0 0 0 0 0 0 0 0 0 0 0 0 0 0 0 0 0 0 0 0 0 0 0 0 0 0 0 0 0 0 0 0 0 0 0 0 0 0 0 0 0 0 0 0 0 0 0 0 0 0 0 0 0 0 0 0 0 0 0 0 0 0 0 0 0 0 0 0 0 0 0 0 0 0 0 0 0 0 0 0 0 0 0 0 0 0 0 0 0 0 0 0 0 0 0 0 0 0 0 0 0 0 0 0 0 0 0 0 0 0 0 0 0 0 0 0 0 0 0 0 0 0 0 0 0 0 0 0 0 0 0 0 0 0 0 0 0 0 0 0 0 0 0 0 0 0 0 0 0 2 4 2 1 2 1 1 2 6 8 9 10 11 9 8 6 4 3 1 1 1 3 3 3 3 4 5 5 8 13 14 16 18 17 18 18 20 21 20 19 19 19 23 25 25 25 28 28 26 24 25 25 25 24 24 22 19 20 21 22 23 23 21 20 21 21 21 21 18 17 16 17 17 17 18 20 21 21 23 26 29 28 27 27 27 25 25 25 26 24 21 20 18 20 21 22 23 23 23 23 22 19 18 18 18 18 20 20 20 21 21 21 23 25 24 24 24 22 22 21 20 22 21 20 18 17 18 18 18 18 17 16 15 15 14 14 11 11 14 16 16 18 16 15 16 16 18 18 17 17 16 17 15 17 18 18 19 21 21 20 20 22 21 22 23 24 25 27 27 26 26 27 27 28 26 26 24 25 24 24 25 26 27 27 
28 29 31 31 32 34 33 32 31 30 30 32 31 29 29 29 31 33 34 34 33 32 31 29 27 29 28 29 30 31 32 31 29 27 25 25 25 27 27 28 29 32 32 33 34 36 36 37 34 30 26 24 25 23 22 20 20 19 20 19 20 19 19 20 17 18 18 17 19 18 19 20 22 24 23 23 23 25 24 26 24 24 22 22 21 21 21 20 20 18 19 16 14 14 13 9 9 10 13 12 12 13 13 12 11 12 12 10 8 7 9 10 12 13 14 11 10 7 8 8 7 6 3 4 6 5 6 8 7 8 6 5 2 0 0 0 0 0 0 0 0 0 0 0 0 0 0 0 0 0 0 0 0 0 0 0 0 0 0 0 0 0 0 0 0 0 0 0 0 0 0 0 0 0 0 0 0 0 0 0 0 0 0 0 0 0 0 0 0 0 0 0 0 0 0 0 0 0 0 0 0 0 0 0 0 0 0 0 0 0 0 0 0 0 0 0 0 0 0 0 0 0 0 0 0 0 0 0 0 0 0 0 0 0 0 0 0 0 0 0 0 0 0 0 0 0 0 0 0 0 0 0 0 0 0 0 0 0 0 0 0 0 0 0 0 0 0 0 0 0 0 0 0 0 0 0 0 0 0 0 0 0 0 0 0 0 0 0 0 0 0 0 0 0 0 0 0 0 0 0 0 0 0 0 0 0 0 0 0 0 0 0 0 0 0 0 0 0 0 0 0 0 0 0 0 0 0 0 0 0 0 0 0 0 0 0 0 0 0 0 0 0 0 0 0 0 0 0 0 0 0 0 0 0 0 0 0 0 0 0 0 0 0 0 0 0 0 0 0 0 0 0 0 0 0 0 0 0 0 0 0 0 0 0 0 0 0 0 0 0 0 0 0 0 0 0 0 0 0 0 0 0 0 0 0 0 0 0 0 0 0 0 0 0 0 0 0 0 0 0 0 0 0 0 0 0 0 0 0 0 0 0 0 0 0 0 0 0 0 0 0 0 0 0 0 0 0 0 0 0 0 0 0 0 0 0 1 2 4 2 2 0 0 1 4 5 6 6 6 6 6 3 2 1 0 0 2 1 1 1 0 2 3 4 6 9 12 12 15 14 16 17 18 20 18 19 17 18 20 22 22 23 24 25 25 25 25 26 27 26 25 22 20 20 21 22 23 21 22 22 20 21 20 19 17 15 15 17 17 16 17 19 21 24 24 26 26 26 26 26 26 25 25 25 28 27 24 21 22 21 22 23 24 24 24 24 22 21 19 17 17 17 18 19 20 21 21 22 23 25 26 26 23 23 21 19 18 19 20 18 16 15 16 16 15 15 14 15 13 12 14 14 12 14 17 18 19 17 16 16 17 17 18 17 19 17 16 17 15 15 18 19 18 20 20 22 23 23 22 22 24 25 25 26 27 24 23 25 26 24 23 24 24 25 25 26 26 26 26 27 
30 32 31 32 33 33 32 32 32 31 32 31 31 31 30 30 31 33 33 35 34 32 29 30 28 29 29 29 29 29 29 30 29 28 27 26 26 26 26 28 30 33 33 33 34 36 34 36 35 31 27 26 26 24 23 23 22 20 21 21 20 19 19 19 17 17 17 16 18 18 17 18 20 22 23 23 24 26 26 27 26 25 24 21 21 20 20 21 19 18 17 15 14 13 12 10 9 10 13 13 13 13 11 10 11 12 10 9 8 8 10 10 10 13 12 9 8 6 6 7 5 4 4 4 4 3 4 7 6 7 4 2 0 0 0 0 0 0 0 0 0 0 0 0 0 0 0 0 0 0 0 0 0 0 0 0 0 0 0 0 0 0 0 0 0 0 0 0 0 0 0 0 0 0 0 0 0 0 0 0 0 0 0 0 0 0 0 0 0 0 0 0 0 0 0 0 0 0 0 0 0 0 0 0 0 0 0 0 0 0 0 0 0 0 0 0 0 0 0 0 0 0 0 0 0 0 0 0 0 0 0 0 0 0 0 0 0 0 0 0 0 0 0 0 0 0 0 0 0 0 0 0 0 0 0 0 0 0 0 0 0 0 0 0 0 0 0 0 0 0 0 0 0 0 0 0 0 0 0 0 0 0 0 0 0 0 0 0 0 0 0 0 0 0 0 0 0 0 0 0 0 0 0 0 0 0 0 0 0 0 0 0 0 0 0 0 0 0 0 0 0 0 0 0 0 0 0 0 0 0 0 0 0 0 0 0 0 0 0 0 0 0 0 0 0 0 0 0 0 0 0 0 0 0 0 0 0 0 0 0 0 0 0 0 0 0 0 0 0 0 0 0 0 0 0 0 0 0 0 0 0 0 0 0 0 0 0 0 0 0 0 0 0 0 0 0 0 0 0 0 0 0 0 0 0 0 0 0 0 0 0 0 0 0 0 0 0 0 0 0 0 0 0 0 0 0 0 0 0 0 0 0 0 0 0 0 0 0 0 0 0 0 0 0 0 0 0 0 0 0 0 0 0 0 0 0 2 3 3 1 1 1 1 3 4 5 5 4 4 3 3 3 1 0 0 0 0 0 0 0 0 0 1 2 6 7 9 10 10 12 13 17 19 18 17 17 16 17 18 18 21 23 23 23 23 24 26 29 30 29 25 23 21 21 21 20 21 20 20 23 21 20 19 17 14 12 10 12 14 14 14 16 21 24 25 24 24 25 26 26 27 26 25 26 29 29 27 25 24 23 24 26 25 26 25 25 24 21 20 19 17 18 20 21 21 22 22 22 23 24 26 25 24 22 20 19 17 18 18 15 13 14 13 14 13 13 14 13 13 14 15 15 15 15 18 18 18 17 18 17 16 16 16 17 18 18 17 15 15 15 18 19 19 19 21 22 22 23 22 23 24 25 25 27 27 25 23 24 24 22 22 22 24 23 24 26 28 27 26 28 
32 32 32 31 32 33 35 35 33 31 30 31 30 31 31 29 30 33 34 35 33 30 31 30 30 31 31 28 28 29 30 31 31 29 29 28 27 28 26 28 30 33 34 33 35 34 35 34 36 32 28 27 26 26 26 24 22 22 21 23 21 21 19 19 17 16 15 14 16 17 17 18 19 20 22 23 24 26 26 27 28 26 22 20 21 20 20 20 19 17 15 14 13 13 12 10 10 10 10 13 15 13 11 9 10 10 10 10 8 8 7 8 10 12 10 9 6 5 6 7 6 6 5 3 4 3 2 4 5 5 3 3 0 0 0 0 0 0 0 0 0 0 0 0 0 0 0 0 0 0 0 0 0 0 0 0 0 0 0 0 0 0 0 0 0 0 0 0 0 0 0 0 0 0 0 0 0 0 0 0 0 0 0 0 0 0 0 0 0 0 0 0 0 0 0 0 0 0 0 0 0 0 0 0 0 0 0 0 0 0 0 0 0 0 0 0 0 0 0 0 0 0 0 0 0 0 0 0 0 0 0 0 0 0 0 0 0 0 0 0 0 0 0 0 0 0 0 0 0 0 0 0 0 0 0 0 0 0 0 0 0 0 0 0 0 0 0 0 0 0 0 0 0 0 0 0 0 0 0 0 0 0 0 0 0 0 0 0 0 0 0 0 0 0 0 0 0 0 0 0 0 0 0 0 0 0 0 0 0 0 0 0 0 0 0 0 0 0 0 0 0 0 0 0 0 0 0 0 0 0 0 0 0 0 0 0 0 0 0 0 0 0 0 0 0 0 0 0 0 0 0 0 0 0 0 0 0 0 0 0 0 0 0 0 0 0 0 0 0 0 0 0 0 0 0 0 0 0 0 0 0 0 0 0 0 0 0 0 0 0 0 0 0 0 0 0 0 0 0 0 0 0 0 0 0 0 0 0 0 0 0 0 0 0 0 0 0 0 0 0 0 0 0 0 0 0 0 0 0 0 0 0 0 0 0 0 0 0 0 0 0 0 0 0 0 0 0 0 0 0 0 0 1 1 0 2 1 2 2 1 2 1 3 4 3 3 3 2 2 1 3 1 0 0 0 0 0 0 0 0 0 0 0 1 3 3 5 4 7 10 13 15 16 16 16 16 15 17 18 19 19 21 22 22 22 24 27 28 30 29 25 23 22 20 21 19 21 21 20 22 21 19 17 14 12 9 9 12 14 14 14 15 19 21 23 23 25 25 27 28 27 27 25 28 30 31 30 27 26 25 24 26 25 25 26 24 23 21 21 20 19 19 20 22 23 23 23 24 23 25 26 25 23 20 19 17 15 17 16 14 11 12 13 14 13 13 14 14 14 15 16 17 17 17 18 20 20 20 20 19 19 18 17 16 17 17 16 15 15 16 19 22 22 22 22 23 23 23 22 24 25 26 28 29 28 25 24 23 22 22 22 21 24 24 23 24 26 27 28 30 
32 32 32 32 32 34 36 33 33 31 30 30 30 31 30 30 31 33 33 33 33 31 32 31 31 31 30 29 30 31 32 33 33 31 29 27 28 27 27 29 31 32 33 35 34 34 34 35 35 31 29 29 28 27 28 26 25 23 22 22 22 20 19 19 17 16 16 14 15 15 16 16 15 16 19 22 23 25 25 26 26 24 22 19 19 18 18 18 17 16 13 12 11 13 13 12 10 11 12 15 16 15 10 8 9 10 9 10 8 7 8 7 9 11 11 8 5 5 6 6 6 6 4 2 3 1 0 1 3 4 2 1 0 0 0 0 0 0 0 0 0 0 0 0 0 0 0 0 0 0 0 0 0 0 0 0 0 0 0 0 0 0 0 0 0 0 0 0 0 0 0 0 0 0 0 0 0 0 0 0 0 0 0 0 0 0 0 0 0 0 0 0 0 0 0 0 0 0 0 0 0 0 0 0 0 0 0 0 0 0 0 0 0 0 0 0 0 0 0 0 0 0 0 0 0 0 0 0 0 0 0 0 0 0 0 0 0 0 0 0 0 0 0 0 0 0 0 0 0 0 0 0 0 0 0 0 0 0 0 0 0 0 0 0 0 0 0 0 0 0 0 0 0 0 0 0 0 0 0 0 0 0 0 0 0 0 0 0 0 0 0 0 0 0 0 0 0 0 0 0 0 0 0 0 0 0 0 0 0 0 0 0 0 0 0 0 0 0 0 0 0 0 0 0 0 0 0 0 0 0 0 0 0 0 0 0 0 0 0 0 0 0 0 0 0 0 0 0 0 0 0 0 0 0 0 0 0 0 0 0 0 0 0 0 0 0 0 0 0 0 0 0 0 0 0 0 0 0 0 0 0 0 0 0 0 0 0 0 0 0 0 0 0 0 0 0 0 0 0 0 0 0 0 0 0 0 0 0 0 0 0 0 0 0 0 0 0 0 0 0 0 0 0 0 0 0 0 0 0 0 0 0 0 0 0 0 0 0 0 0 0 0 0 0 0 0 0 0 0 0 0 0 1 2 2 1 0 1 0 0 1 2 2 3 2 1 0 0 0 1 1 0 0 0 0 0 0 0 0 0 0 0 0 0 1 0 0 3 5 7 11 13 13 15 16 15 15 18 18 18 17 18 21 22 22 25 27 28 27 26 24 21 21 19 18 20 19 17 18 20 20 18 16 15 14 11 10 11 13 14 14 16 18 20 22 23 25 25 26 27 28 28 26 28 32 33 30 29 26 26 25 26 25 26 26 23 23 23 23 22 19 18 21 22 23 25 24 23 22 25 26 24 22 20 18 16 15 17 17 14 12 13 13 13 12 13 14 14 15 17 19 19 18 19 19 20 22 22 22 22 22 20 18 17 19 18 18 16 16 18 22 22 22 22 24 24 23 23 23 24 25 26 30 30 31 26 24 23 23 23 24 24 24 25 24 25 27 27 29 31 
31 32 33 33 33 34 35 33 32 31 30 30 30 31 30 30 30 31 32 32 32 33 34 32 32 32 32 30 30 31 32 33 34 31 28 27 27 25 26 27 31 32 33 35 35 35 35 35 33 32 32 31 28 26 26 26 25 23 24 22 21 21 20 19 19 18 15 15 14 16 14 14 13 15 17 20 21 23 25 23 24 24 22 19 16 15 14 15 13 15 13 13 11 13 11 12 11 11 12 16 16 14 10 9 8 8 8 8 7 6 8 6 8 10 10 7 5 5 5 6 4 4 3 3 2 1 0 0 3 4 2 0 0 0 0 0 0 0 0 0 0 0 0 0 0 0 0 0 0 0 0 0 0 0 0 0 0 0 0 0 0 0 0 0 0 0 0 0 0 0 0 0 0 0 0 0 0 0 0 0 0 0 0 0 0 0 0 0 0 0 0 0 0 0 0 0 0 0 0 0 0 0 0 0 0 0 0 0 0 0 0 0 0 0 0 0 0 0 0 0 0 0 0 0 0 0 0 0 0 0 0 0 0 0 0 0 0 0 0 0 0 0 0 0 0 0 0 0 0 0 0 0 0 0 0 0 0 0 0 0 0 0 0 0 0 0 0 0 0 0 0 0 0 0 0 0 0 0 0 0 0 0 0 0 0 0 0 0 0 0 0 0 0 0 0 0 0 0 0 0 0 0 0 0 0 0 0 0 0 0 0 0 0 0 0 0 0 0 0 0 0 0 0 0 0 0 0 0 0 0 0 0 0 0 0 0 0 0 0 0 0 0 0 0 0 0 0 0 0 0 0 0 0 0 0 0 0 0 0 0 0 0 0 0 0 0 0 0 0 0 0 0 0 0 0 0 0 0 0 0 0 0 0 0 0 0 0 0 0 0 0 0 0 0 0 0 0 0 0 0 0 0 0 0 0 0 0 0 0 0 0 0 0 0 0 0 0 0 0 0 0 0 0 0 0 0 0 0 0 0 0 0 0 0 0 0 0 0 0 0 0 0 0 0 0 0 0 0 0 0 0 0 0 0 1 0 0 2 1 1 1 1 0 1 1 1 1 0 0 0 0 0 0 0 0 0 0 0 0 0 0 0 0 0 0 0 0 0 3 5 9 12 13 14 15 15 14 15 15 17 15 16 19 22 22 22 25 25 25 24 22 20 20 20 18 17 17 15 16 17 17 17 15 15 13 11 11 11 13 15 14 14 16 18 21 22 24 24 24 26 28 28 27 30 32 32 31 29 28 27 26 27 25 24 24 23 24 24 24 23 19 16 19 21 23 24 23 23 22 22 24 23 20 19 17 16 15 16 18 18 14 12 14 13 11 12 13 16 17 19 21 20 20 19 19 21 22 23 25 24 24 23 21 22 23 23 24 22 20 21 24 23 24 25 24 24 23 22 24 25 26 27 29 30 30 29 26 26 25 24 24 25 25 27 28 27 28 29 32 31 
32 31 33 34 35 34 33 32 32 30 30 31 31 31 31 30 31 31 32 33 32 34 34 32 34 33 31 30 31 31 31 32 32 32 29 27 28 27 26 27 31 32 32 35 35 36 35 33 33 33 34 33 30 26 26 26 24 24 24 22 19 21 22 21 20 19 15 15 15 15 15 15 14 14 16 17 19 22 23 22 22 22 19 17 14 11 12 13 11 13 13 12 13 13 13 14 12 12 10 13 14 11 9 7 5 7 6 6 6 6 5 5 6 7 8 7 4 4 3 3 3 3 3 3 2 3 3 0 2 2 2 0 0 0 0 0 0 0 0 0 0 0 0 0 0 0 0 0 0 0 0 0 0 0 0 0 0 0 0 0 0 0 0 0 0 0 0 0 0 0 0 0 0 0 0 0 0 0 0 0 0 0 0 0 0 0 0 0 0 0 0 0 0 0 0 0 0 0 0 0 0 0 0 0 0 0 0 0 0 0 0 0 0 0 0 0 0 0 0 0 0 0 0 0 0 0 0 0 0 0 0 0 0 0 0 0 0 0 0 0 0 0 0 0 0 0 0 0 0 0 0 0 0 0 0 0 0 0 0 0 0 0 0 0 0 0 0 0 0 0 0 0 0 0 0 0 0 0 0 0 0 0 0 0 0 0 0 0 0 0 0 0 0 0 0 0 0 0 0 0 0 0 0 0 0 0 0 0 0 0 0 0 0 0 0 0 0 0 0 0 0 0 0 0 0 0 0 0 0 0 0 0 0 0 0 0 0 0 0 0 0 0 0 0 0 0 0 0 0 0 0 0 0 0 0 0 0 0 0 0 0 0 0 0 0 0 0 0 0 0 0 0 0 0 0 0 0 0 0 0 0 0 0 0 0 0 0 0 0 0 0 0 0 0 0 0 0 0 0 0 0 0 0 0 0 0 0 0 0 0 0 0 0 0 0 0 0 0 0 0 0 0 0 0 0 0 0 0 0 0 0 0 0 0 0 0 0 0 0 0 0 0 0 0 0 0 0 0 0 0 0 0 0 0 0 0 0 2 3 1 0 0 0 0 0 0 0 0 0 0 0 0 0 0 0 0 0 0 0 0 0 0 0 0 0 0 0 0 2 3 6 8 10 11 13 14 14 14 16 14 15 16 17 19 21 22 22 23 23 21 19 19 18 18 16 15 16 15 15 16 15 16 14 13 13 12 9 11 12 15 15 14 14 17 18 19 22 22 24 25 27 27 27 29 32 32 31 30 28 25 25 25 25 25 25 25 24 23 24 23 20 17 19 20 23 24 24 21 21 22 23 22 19 18 18 16 15 18 18 18 16 13 15 14 14 15 15 16 16 19 23 22 20 20 19 20 22 24 24 25 26 25 25 24 25 26 26 23 22 22 24 25 25 25 24 23 23 24 24 25 24 26 28 30 28 27 26 27 27 27 27 25 25 28 30 29 28 30 31 32 
33 32 33 33 32 31 34 34 32 31 30 31 30 30 31 32 31 32 32 33 34 34 34 33 32 32 33 32 32 30 31 33 33 33 30 29 27 28 28 30 31 33 34 35 36 36 34 34 33 34 36 34 29 26 27 26 25 26 25 22 20 21 21 20 19 19 17 16 16 13 13 15 13 13 15 16 19 19 21 21 19 19 17 13 11 11 11 11 12 14 13 12 12 12 13 14 12 11 11 11 13 10 9 6 4 5 4 5 5 4 5 6 6 6 7 6 5 5 3 2 0 2 3 4 3 3 2 0 0 1 0 0 0 0 0 0 0 0 0 0 0 0 0 0 0 0 0 0 0 0 0 0 0 0 0 0 0 0 0 0 0 0 0 0 0 0 0 0 0 0 0 0 0 0 0 0 0 0 0 0 0 0 0 0 0 0 0 0 0 0 0 0 0 0 0 0 0 0 0 0 0 0 0 0 0 0 0 0 0 0 0 0 0 0 0 0 0 0 0 0 0 0 0 0 0 0 0 0 0 0 0 0 0 0 0 0 0 0 0 0 0 0 0 0 0 0 0 0 0 0 0 0 0 0 0 0 0 0 0 0 0 0 0 0 0 0 0 0 0 0 0 0 0 0 0 0 0 0 0 0 0 0 0 0 0 0 0 0 0 0 0 0 0 0 0 0 0 0 0 0 0 0 0 0 0 0 0 0 0 0 0 0 0 0 0 0 0 0 0 0 0 0 0 0 0 0 0 0 0 0 0 0 0 0 0 0 0 0 0 0 0 0 0 0 0 0 0 0 0 0 0 0 0 0 0 0 0 0 0 0 0 0 0 0 0 0 0 0 0 0 0 0 0 0 0 0 0 0 0 0 0 0 0 0 0 0 0 0 0 0 0 0 0 0 0 0 0 0 0 0 0 0 0 0 0 0 0 0 0 0 0 0 0 0 0 0 0 0 0 0 0 0 0 0 0 0 0 0 0 0 0 0 0 0 0 0 0 0 0 0 0 0 0 0 0 0 0 0 0 0 0 0 0 0 0 0 0 2 2 0 0 0 0 0 0 0 0 0 0 0 0 0 0 0 0 0 0 0 0 0 0 0 0 0 0 0 0 0 0 2 4 6 9 10 11 12 12 15 15 14 15 15 17 18 21 20 19 18 18 17 18 19 18 15 14 15 16 16 15 14 15 13 14 12 10 10 9 11 13 14 14 14 14 16 16 18 19 20 22 23 26 26 26 30 32 32 31 29 27 23 22 22 24 26 24 25 24 24 24 25 22 21 21 20 21 22 23 22 21 24 23 22 19 19 18 18 17 18 17 16 16 15 15 16 16 17 19 18 19 20 22 23 20 20 20 23 24 25 27 26 27 26 26 26 26 27 27 25 26 25 26 26 24 23 23 23 22 22 23 22 24 25 28 29 26 27 27 27 27 26 26 26 28 28 29 29 28 29 33 33 
32 31 31 31 30 30 34 35 34 33 33 31 31 31 32 33 31 33 31 33 32 34 35 34 33 32 31 30 28 30 30 31 32 34 32 29 29 30 30 32 33 33 34 35 35 33 32 32 33 33 35 32 30 27 26 25 24 24 24 22 19 20 22 21 21 19 18 17 15 13 15 14 13 12 14 16 17 19 20 20 18 17 15 12 12 12 11 10 10 11 12 11 12 11 13 12 11 10 11 10 11 10 7 4 3 2 2 3 3 2 4 5 5 6 5 4 4 1 0 0 0 0 2 3 3 3 2 0 0 0 0 0 0 0 0 0 0 0 0 0 0 0 0 0 0 0 0 0 0 0 0 0 0 0 0 0 0 0 0 0 0 0 0 0 0 0 0 0 0 0 0 0 0 0 0 0 0 0 0 0 0 0 0 0 0 0 0 0 0 0 0 0 0 0 0 0 0 0 0 0 0 0 0 0 0 0 0 0 0 0 0 0 0 0 0 0 0 0 0 0 0 0 0 0 0 0 0 0 0 0 0 0 0 0 0 0 0 0 0 0 0 0 0 0 0 0 0 0 0 0 0 0 0 0 0 0 0 0 0 0 0 0 0 0 0 0 0 0 0 0 0 0 0 0 0 0 0 0 0 0 0 0 0 0 0 0 0 0 0 0 0 0 0 0 0 0 0 0 0 0 0 0 0 0 0 0 0 0 0 0 0 0 0 0 0 0 0 0 0 0 0 0 0 0 0 0 0 0 0 0 0 0 0 0 0 0 0 0 0 0 0 0 0 0 0 0 0 0 0 0 0 0 0 0 0 0 0 0 0 0 0 0 0 0 0 0 0 0 0 0 0 0 0 0 0 0 0 0 0 0 0 0 0 0 0 0 0 0 0 0 0 0 0 0 0 0 0 0 0 0 0 0 0 0 0 0 0 0 0 0 0 0 0 0 0 0 0 0 0 0 0 0 0 0 0 0 0 0 0 0 0 0 0 0 0 0 0 0 0 0 0 0 0 0 0 0 0 0 0 0 0 0 0 0 0 0 0 0 0 0 1 0 0 0 0 0 0 0 0 0 0 0 0 0 0 0 0 0 0 0 0 0 0 0 0 0 0 0 0 0 3 7 10 10 10 11 13 16 15 13 14 15 17 18 18 18 16 15 16 17 17 17 16 15 13 14 16 16 16 16 14 13 12 11 9 9 10 13 13 15 15 14 14 15 16 16 17 17 20 22 24 25 27 29 30 30 29 26 26 22 21 20 22 23 25 25 24 24 25 25 25 22 22 21 21 23 24 23 21 21 21 22 18 17 17 20 20 20 19 19 18 18 17 17 17 17 19 20 21 22 23 23 20 21 21 24 26 28 27 28 29 28 28 28 28 28 27 26 26 28 25 23 22 22 24 25 24 22 22 22 23 26 27 26 25 26 27 26 26 26 28 27 27 27 28 29 29 29 33 34 
32 31 32 29 30 31 34 35 35 33 33 32 32 31 32 32 33 33 33 32 34 33 33 32 33 31 30 28 29 30 31 30 32 33 32 32 30 30 29 31 33 33 33 34 35 33 30 30 31 31 31 30 28 26 26 25 25 25 24 21 20 21 22 22 21 19 17 17 15 14 15 16 17 16 16 15 18 18 19 19 17 16 15 12 10 11 11 11 10 10 10 11 10 10 10 9 8 7 8 9 9 9 6 3 1 1 2 3 1 1 2 3 4 5 6 3 2 1 0 0 0 0 0 1 5 3 2 0 0 0 0 0 0 0 0 0 0 0 0 0 0 0 0 0 0 0 0 0 0 0 0 0 0 0 0 0 0 0 0 0 0 0 0 0 0 0 0 0 0 0 0 0 0 0 0 0 0 0 0 0 0 0 0 0 0 0 0 0 0 0 0 0 0 0 0 0 0 0 0 0 0 0 0 0 0 0 0 0 0 0 0 0 0 0 0 0 0 0 0 0 0 0 0 0 0 0 0 0 0 0 0 0 0 0 0 0 0 0 0 0 0 0 0 0 0 0 0 0 0 0 0 0 0 0 0 0 0 0 0 0 0 0 0 0 0 0 0 0 0 0 0 0 0 0 0 0 0 0 0 0 0 0 0 0 0 0 0 0 0 0 0 0 0 0 0 0 0 0 0 0 0 0 0 0 0 0 0 0 0 0 0 0 0 0 0 0 0 0 0 0 0 0 0 0 0 0 0 0 0 0 0 0 0 0 0 0 0 0 0 0 0 0 0 0 0 0 0 0 0 0 0 0 0 0 0 0 0 0 0 0 0 0 0 0 0 0 0 0 0 0 0 0 0 0 0 0 0 0 0 0 0 0 0 0 0 0 0 0 0 0 0 0 0 0 0 0 0 0 0 0 0 0 0 0 0 0 0 0 0 0 0 0 0 0 0 0 0 0 0 0 0 0 0 0 0 0 0 0 0 0 0 0 0 0 0 0 0 0 0 0 0 0 0 0 0 0 0 0 0 0 0 0 0 0 0 0 0 0 1 1 1 0 0 0 0 0 0 0 0 0 0 0 0 0 0 0 0 0 0 0 0 0 0 0 0 0 0 0 0 0 3 7 10 11 10 11 13 14 14 13 13 15 16 17 17 16 15 13 15 17 16 16 15 13 12 13 15 14 15 15 13 13 11 10 9 10 11 12 15 15 15 16 16 17 15 15 16 17 19 22 23 24 25 26 28 28 28 25 25 23 21 20 21 23 23 24 23 23 25 26 26 25 23 22 23 24 25 23 19 19 19 19 18 17 18 21 21 21 21 19 21 21 20 21 19 18 19 21 22 22 23 23 21 21 23 23 24 26 26 28 29 29 31 29 28 29 29 28 28 27 24 21 22 23 24 27 26 23 23 23 25 26 26 25 25 24 25 25 25 25 28 27 27 28 27 29 28 29 32 33 
31 33 33 31 29 30 33 34 34 35 34 34 33 31 33 32 33 33 33 32 32 33 32 32 32 31 28 29 29 31 30 30 30 31 34 33 32 31 31 31 31 34 35 35 33 31 30 29 30 30 30 29 27 27 25 26 25 25 23 21 19 20 20 20 20 18 17 19 17 16 15 17 17 16 15 16 18 19 20 18 18 15 12 10 9 11 10 9 9 9 8 7 7 6 5 5 4 4 4 5 5 6 4 1 0 0 0 1 0 0 1 2 5 5 5 2 0 0 0 0 0 0 0 1 5 4 0 0 0 0 0 0 0 0 0 0 0 0 0 0 0 0 0 0 0 0 0 0 0 0 0 0 0 0 0 0 0 0 0 0 0 0 0 0 0 0 0 0 0 0 0 0 0 0 0 0 0 0 0 0 0 0 0 0 0 0 0 0 0 0 0 0 0 0 0 0 0 0 0 0 0 0 0 0 0 0 0 0 0 0 0 0 0 0 0 0 0 0 0 0 0 0 0 0 0 0 0 0 0 0 0 0 0 0 0 0 0 0 0 0 0 0 0 0 0 0 0 0 0 0 0 0 0 0 0 0 0 0 0 0 0 0 0 0 0 0 0 0 0 0 0 0 0 0 0 0 0 0 0 0 0 0 0 0 0 0 0 0 0 0 0 0 0 0 0 0 0 0 0 0 0 0 0 0 0 0 0 0 0 0 0 0 0 0 0 0 0 0 0 0 0 0 0 0 0 0 0 0 0 0 0 0 0 0 0 0 0 0 0 0 0 0 0 0 0 0 0 0 0 0 0 0 0 0 0 0 0 0 0 0 0 0 0 0 0 0 0 0 0 0 0 0 0 0 0 0 0 0 0 0 0 0 0 0 0 0 0 0 0 0 0 0 0 0 0 0 0 0 0 0 0 0 0 0 0 0 0 0 0 0 0 0 0 0 0 0 0 0 0 0 0 0 0 0 0 0 0 0 0 0 0 0 0 0 0 0 0 0 0 0 0 0 0 0 0 0 0 0 0 0 0 0 0 0 0 0 0 1 0 0 0 0 0 0 0 0 0 0 0 0 0 0 0 0 0 0 0 0 0 0 0 0 0 0 0 0 0 0 0 0 2 6 8 8 9 8 11 11 12 11 13 14 15 17 16 15 13 13 15 16 14 13 13 13 13 15 15 15 16 16 14 12 12 11 12 11 12 12 12 14 15 16 15 17 18 17 16 18 18 23 24 24 24 24 26 27 25 26 24 21 20 21 23 22 22 23 24 24 23 24 24 26 26 24 22 23 22 21 19 19 19 20 19 17 19 19 21 21 21 21 22 21 21 21 21 19 19 21 20 21 22 21 22 22 23 24 23 25 26 26 27 28 28 29 29 30 29 30 28 28 26 25 22 22 25 28 27 25 25 24 25 26 26 25 25 25 25 27 26 27 27 26 27 28 29 29 29 29 31 32 
32 34 34 31 30 30 31 34 34 34 35 33 32 34 35 34 35 35 34 31 33 32 33 32 32 29 26 28 28 28 28 28 28 30 32 33 33 32 31 29 30 32 33 34 33 31 32 31 31 31 30 29 28 26 26 26 25 22 21 21 20 21 21 20 19 18 19 22 20 17 16 14 15 14 13 15 17 20 19 18 16 14 11 10 9 8 9 8 8 6 7 6 5 6 3 3 2 1 0 2 2 2 0 0 0 0 0 0 1 0 1 4 5 5 3 1 0 0 0 0 0 0 0 3 3 2 0 0 0 0 0 0 0 0 0 0 0 0 0 0 0 0 0 0 0 0 0 0 0 0 0 0 0 0 0 0 0 0 0 0 0 0 0 0 0 0 0 0 0 0 0 0 0 0 0 0 0 0 0 0 0 0 0 0 0 0 0 0 0 0 0 0 0 0 0 0 0 0 0 0 0 0 0 0 0 0 0 0 0 0 0 0 0 0 0 0 0 0 0 0 0 0 0 0 0 0 0 0 0 0 0 0 0 0 0 0 0 0 0 0 0 0 0 0 0 0 0 0 0 0 0 0 0 0 0 0 0 0 0 0 0 0 0 0 0 0 0 0 0 0 0 0 0 0 0 0 0 0 0 0 0 0 0 0 0 0 0 0 0 0 0 0 0 0 0 0 0 0 0 0 0 0 0 0 0 0 0 0 0 0 0 0 0 0 0 0 0 0 0 0 0 0 0 0 0 0 0 0 0 0 0 0 0 0 0 0 0 0 0 0 0 0 0 0 0 0 0 0 0 0 0 0 0 0 0 0 0 0 0 0 0 0 0 0 0 0 0 0 0 0 0 0 0 0 0 0 0 0 0 0 0 0 0 0 0 0 0 0 0 0 0 0 0 0 0 0 0 0 0 0 0 0 0 0 0 0 0 0 0 0 0 0 0 0 0 0 0 0 0 0 0 0 0 0 0 0 0 0 0 0 0 0 0 0 0 0 0 0 0 0 0 0 0 0 0 0 0 0 0 0 0 0 0 0 0 0 0 0 0 0 0 0 0 0 0 0 0 0 0 0 0 0 0 0 0 0 0 0 0 0 0 0 0 0 0 0 0 0 0 0 1 6 5 5 6 6 7 8 11 11 11 12 15 16 15 14 12 12 14 15 13 13 13 11 12 15 15 15 16 15 14 13 13 13 13 12 11 12 13 15 17 15 15 16 18 17 18 19 18 21 23 23 23 24 26 25 25 25 24 21 21 22 24 24 24 23 24 25 25 26 26 26 26 23 21 20 22 21 19 19 21 21 21 19 20 19 20 22 23 22 21 22 22 23 22 22 22 21 21 22 22 20 21 22 23 23 25 25 27 27 25 25 26 28 29 29 28 28 29 27 26 26 25 23 24 28 28 28 27 25 26 26 25 26 25 25 26 26 26 26 27 28 28 29 28 28 28 29 31 33 
34 34 33 30 28 30 32 32 31 33 33 33 32 34 37 36 36 36 34 32 31 31 32 32 31 29 26 27 28 26 27 26 27 27 30 31 32 31 31 29 29 30 31 33 31 32 32 33 32 33 32 30 29 28 27 25 24 22 21 21 20 20 20 22 21 20 21 21 19 17 16 14 14 14 12 13 15 17 19 17 15 13 11 10 8 7 8 8 6 6 4 4 5 6 3 2 2 1 0 0 1 0 0 0 0 0 0 2 3 1 0 4 5 5 3 2 1 2 0 0 0 0 0 0 2 0 0 0 0 0 0 0 0 0 0 0 0 0 0 0 0 0 0 0 0 0 0 0 0 0 0 0 0 0 0 0 0 0 0 0 0 0 0 0 0 0 0 0 0 0 0 0 0 0 0 0 0 0 0 0 0 0 0 0 0 0 0 0 0 0 0 0 0 0 0 0 0 0 0 0 0 0 0 0 0 0 0 0 0 0 0 0 0 0 0 0 0 0 0 0 0 0 0 0 0 0 0 0 0 0 0 0 0 0 0 0 0 0 0 0 0 0 0 0 0 0 0 0 0 0 0 0 0 0 0 0 0 0 0 0 0 0 0 0 0 0 0 0 0 0 0 0 0 0 0 0 0 0 0 0 0 0 0 0 0 0 0 0 0 0 0 0 0 0 0 0 0 0 0 0 0 0 0 0 0 0 0 0 0 0 0 0 0 0 0 0 0 0 0 0 0 0 0 0 0 0 0 0 0 0 0 0 0 0 0 0 0 0 0 0 0 0 0 0 0 0 0 0 0 0 0 0 0 0 0 0 0 0 0 0 0 0 0 0 0 0 0 0 0 0 0 0 0 0 0 0 0 0 0 0 0 0 0 0 0 0 0 0 0 0 0 0 0 0 0 0 0 0 0 0 0 0 0 0 0 0 0 0 0 0 0 0 0 0 0 0 0 0 0 0 0 0 0 0 0 0 0 0 0 0 0 0 0 0 0 0 0 0 0 0 0 0 0 0 0 0 0 0 0 0 0 0 0 0 0 0 0 0 0 0 0 0 0 0 0 0 0 0 0 0 0 0 0 0 0 0 0 0 0 0 0 0 0 0 0 0 0 0 0 0 2 3 3 2 2 3 3 6 9 10 9 11 12 14 13 11 10 9 11 13 12 11 11 9 10 12 14 14 14 14 14 13 13 12 12 12 13 13 15 14 15 16 17 17 18 18 17 19 19 19 21 21 22 24 26 25 25 25 23 23 21 21 23 23 24 23 24 24 26 25 25 25 24 21 19 18 18 18 20 19 20 23 22 22 22 22 24 25 25 24 21 22 26 26 24 22 22 22 22 22 20 19 19 20 23 23 25 27 26 26 25 26 27 29 28 29 29 29 28 28 26 26 26 24 25 27 30 29 29 28 28 27 26 28 28 27 27 28 25 26 29 29 29 29 28 27 28 30 32 34 
34 34 34 31 29 29 30 31 31 33 33 32 33 34 34 34 34 36 33 31 30 29 30 31 32 29 28 29 27 24 23 24 25 26 29 31 30 30 30 30 28 29 29 31 30 32 32 33 33 34 33 33 31 28 28 27 26 24 21 20 18 18 20 21 22 23 22 21 19 17 14 15 15 14 14 12 13 17 19 16 14 14 11 11 9 10 7 6 6 4 4 5 7 7 4 3 2 3 0 0 1 0 0 0 0 0 0 0 2 2 0 3 4 5 5 5 4 2 1 0 0 0 0 0 1 0 0 0 0 0 0 0 0 0 0 0 0 0 0 0 0 0 0 0 0 0 0 0 0 0 0 0 0 0 0 0 0 0 0 0 0 0 0 0 0 0 0 0 0 0 0 0 0 0 0 0 0 0 0 0 0 0 0 0 0 0 0 0 0 0 0 0 0 0 0 0 0 0 0 0 0 0 0 0 0 0 0 0 0 0 0 0 0 0 0 0 0 0 0 0 0 0 0 0 0 0 0 0 0 0 0 0 0 0 0 0 0 0 0 0 0 0 0 0 0 0 0 0 0 0 0 0 0 0 0 0 0 0 0 0 0 0 0 0 0 0 0 0 0 0 0 0 0 0 0 0 0 0 0 0 0 0 0 0 0 0 0 0 0 0 0 0 0 0 0 0 0 0 0 0 0 0 0 0 0 0 0 0 0 0 0 0 0 0 0 0 0 0 0 0 0 0 0 0 0 0 0 0 0 0 0 0 0 0 0 0 0 0 0 0 0 0 0 0 0 0 0 0 0 0 0 0 0 0 0 0 0 0 0 0 0 0 0 0 0 0 0 0 0 0 0 0 0 0 0 0 0 0 0 0 0 0 0 0 0 0 0 0 0 0 0 0 0 0 0 0 0 0 0 0 0 0 0 0 0 0 0 0 0 0 0 0 0 0 0 0 0 0 0 0 0 0 0 0 0 0 0 0 0 0 0 0 0 0 0 0 0 0 0 0 0 0 0 0 0 0 0 0 0 0 0 0 0 0 0 0 0 0 0 0 0 0 0 0 0 0 0 0 0 0 0 0 1 0 0 0 0 0 0 0 0 0 0 0 0 0 0 0 0 0 1 1 1 0 0 0 1 4 7 9 9 9 11 10 11 8 7 8 9 12 11 11 10 9 10 11 13 13 15 14 14 14 14 13 13 13 12 13 15 14 14 18 18 18 17 18 16 17 19 18 19 21 22 24 24 25 26 27 25 24 21 22 22 22 22 21 21 22 21 22 22 23 23 22 20 18 18 17 18 18 18 22 23 24 25 25 25 25 25 25 23 25 26 27 25 24 23 24 23 21 18 18 19 20 22 24 25 27 28 28 27 28 28 28 27 27 29 29 29 28 26 26 27 27 26 28 30 30 31 28 29 27 30 29 29 29 29 30 28 28 30 31 32 31 31 29 29 29 32 34 
33 34 34 32 30 30 31 31 31 31 32 33 32 32 31 30 31 33 32 30 29 30 30 31 32 29 30 29 27 27 25 24 23 23 24 27 28 28 28 28 28 28 29 31 31 32 34 35 34 34 35 35 33 31 29 28 27 24 22 21 19 20 21 21 21 23 22 23 20 19 18 16 14 13 13 12 13 14 16 17 15 14 14 13 11 10 7 6 5 4 3 5 5 6 5 4 3 2 1 0 0 0 0 0 0 0 0 0 0 0 0 3 6 5 5 3 3 1 0 0 0 0 0 2 2 2 2 1 0 0 0 0 0 0 0 0 0 0 0 0 0 0 0 0 0 0 0 0 0 0 0 0 0 0 0 0 0 0 0 0 0 0 0 0 0 0 0 0 0 0 0 0 0 0 0 0 0 0 0 0 0 0 0 0 0 0 0 0 0 0 0 0 0 0 0 0 0 0 0 0 0 0 0 0 0 0 0 0 0 0 0 0 0 0 0 0 0 0 0 0 0 0 0 0 0 0 0 0 0 0 0 0 0 0 0 0 0 0 0 0 0 0 0 0 0 0 0 0 0 0 0 0 0 0 0 0 0 0 0 0 0 0 0 0 0 0 0 0 0 0 0 0 0 0 0 0 0 0 0 0 0 0 0 0 0 0 0 0 0 0 0 0 0 0 0 0 0 0 0 0 0 0 0 0 0 0 0 0 0 0 0 0 0 0 0 0 0 0 0 0 0 0 0 0 0 0 0 0 0 0 0 0 0 0 0 0 0 0 0 0 0 0 0 0 0 0 0 0 0 0 0 0 0 0 0 0 0 0 0 0 0 0 0 0 0 0 0 0 0 0 0 0 0 0 0 0 0 0 0 0 0 0 0 0 0 0 0 0 0 0 0 0 0 0 0 0 0 0 0 0 0 0 0 0 0 0 0 0 0 0 0 0 0 0 0 0 0 0 0 0 0 0 0 0 0 0 0 0 0 0 0 0 0 0 0 0 0 0 0 0 0 0 0 0 0 0 0 0 0 0 0 0 0 0 0 0 0 0 0 0 0 0 0 0 0 0 0 0 0 0 0 0 0 0 0 0 0 0 0 0 0 0 0 0 0 0 0 0 0 0 0 0 0 0 0 0 0 3 5 8 7 7 10 9 8 6 6 6 7 9 10 11 10 9 9 12 13 13 13 13 12 13 12 11 12 14 13 14 16 15 15 18 18 17 16 16 16 15 15 15 17 19 21 22 25 25 26 27 24 21 20 19 19 19 21 19 19 20 20 21 21 23 22 22 20 20 19 18 19 17 19 21 22 25 27 25 24 25 26 26 26 27 27 27 26 22 21 22 22 21 17 17 18 20 21 23 24 27 29 29 30 29 29 27 29 28 29 30 28 27 27 29 29 28 27 28 31 32 31 29 31 29 30 30 30 31 33 33 30 30 30 31 31 33 32 30 29 30 33 33 
33 34 34 32 30 31 32 33 31 30 30 30 31 31 30 30 32 33 32 32 29 29 29 30 30 29 31 29 27 26 23 23 22 21 23 25 26 27 26 29 30 30 30 31 32 32 32 33 33 33 35 36 34 32 30 29 28 26 24 23 22 21 22 21 22 22 23 22 22 23 18 16 15 14 13 11 11 12 15 18 16 16 15 14 12 9 8 7 6 4 2 4 4 5 6 6 5 4 1 0 0 0 0 0 0 0 0 0 0 0 0 2 3 2 2 0 0 0 0 0 0 0 0 1 3 2 2 1 0 0 0 0 0 0 0 0 0 0 0 0 0 0 0 0 0 0 0 0 0 0 0 0 0 0 0 0 0 0 0 0 0 0 0 0 0 0 0 0 0 0 0 0 0 0 0 0 0 0 0 0 0 0 0 0 0 0 0 0 0 0 0 0 0 0 0 0 0 0 0 0 0 0 0 0 0 0 0 0 0 0 0 0 0 0 0 0 0 0 0 0 0 0 0 0 0 0 0 0 0 0 0 0 0 0 0 0 0 0 0 0 0 0 0 0 0 0 0 0 0 0 0 0 0 0 0 0 0 0 0 0 0 0 0 0 0 0 0 0 0 0 0 0 0 0 0 0 0 0 0 0 0 0 0 0 0 0 0 0 0 0 0 0 0 0 0 0 0 0 0 0 0 0 0 0 0 0 0 0 0 0 0 0 0 0 0 0 0 0 0 0 0 0 0 0 0 0 0 0 0 0 0 0 0 0 0 0 0 0 0 0 0 0 0 0 0 0 0 0 0 0 0 0 0 0 0 0 0 0 0 0 0 0 0 0 0 0 0 0 0 0 0 0 0 0 0 0 0 0 0 0 0 0 0 0 0 0 0 0 0 0 0 0 0 0 0 0 0 0 0 0 0 0 0 0 0 0 0 0 0 0 0 0 0 0 0 0 0 0 0 0 0 0 0 0 0 0 0 0 0 0 0 0 0 0 0 0 0 0 0 0 0 0 0 0 0 0 0 0 0 0 0 0 0 0 0 0 0 0 0 0 0 0 0 0 0 0 0 0 0 0 0 0 0 0 0 0 0 0 0 0 0 0 0 0 0 0 0 0 0 0 0 0 0 0 0 0 1 3 6 7 6 7 7 6 5 4 4 5 4 7 9 10 8 8 9 12 12 12 12 12 11 12 12 11 11 13 12 13 16 15 15 16 16 15 14 14 13 13 13 15 16 19 19 22 23 22 23 23 21 19 17 16 16 18 19 19 20 21 19 20 21 22 23 21 21 21 18 17 17 17 19 19 21 22 25 27 26 27 28 28 27 26 25 26 24 21 22 22 22 20 19 18 17 18 20 20 23 27 30 31 31 30 28 26 27 28 29 28 28 28 28 29 27 28 28 28 30 30 30 30 29 29 30 31 33 34 34 32 30 31 30 31 31 31 32 31 30 31 32 33 
33 32 32 31 31 32 32 31 31 30 27 28 29 30 29 32 32 33 32 31 30 29 29 29 29 30 31 30 27 26 22 20 19 20 21 23 26 26 26 28 30 30 31 32 31 32 33 33 31 33 36 36 35 32 32 30 29 28 26 25 23 22 22 20 21 21 24 23 23 22 19 16 16 15 13 12 12 13 16 17 16 14 13 13 12 10 9 7 5 5 4 5 4 6 6 5 3 3 2 0 0 0 0 0 1 0 0 0 0 0 0 0 0 0 0 0 0 0 0 0 0 0 0 1 1 2 0 2 1 0 0 0 0 0 0 0 0 0 0 0 0 0 0 0 0 0 0 0 0 0 0 0 0 0 0 0 0 0 0 0 0 0 0 0 0 0 0 0 0 0 0 0 0 0 0 0 0 0 0 0 0 0 0 0 0 0 0 0 0 0 0 0 0 0 0 0 0 0 0 0 0 0 0 0 0 0 0 0 0 0 0 0 0 0 0 0 0 0 0 0 0 0 0 0 0 0 0 0 0 0 0 0 0 0 0 0 0 0 0 0 0 0 0 0 0 0 0 0 0 0 0 0 0 0 0 0 0 0 0 0 0 0 0 0 0 0 0 0 0 0 0 0 0 0 0 0 0 0 0 0 0 0 0 0 0 0 0 0 0 0 0 0 0 0 0 0 0 0 0 0 0 0 0 0 0 0 0 0 0 0 0 0 0 0 0 0 0 0 0 0 0 0 0 0 0 0 0 0 0 0 0 0 0 0 0 0 0 0 0 0 0 0 0 0 0 0 0 0 0 0 0 0 0 0 0 0 0 0 0 0 0 0 0 0 0 0 0 0 0 0 0 0 0 0 0 0 0 0 0 0 0 0 0 0 0 0 0 0 0 0 0 0 0 0 0 0 0 0 0 0 0 0 0 0 0 0 0 0 0 0 0 0 0 0 0 0 0 0 0 0 0 0 0 0 0 0 0 0 0 0 0 0 0 0 0 0 0 0 0 0 0 0 0 0 0 0 0 0 0 0 0 0 0 0 0 0 0 0 0 0 0 0 0 0 0 0 0 0 0 0 0 0 0 0 0 0 0 0 0 0 0 0 0 0 0 0 0 0 0 0 0 0 0 0 0 0 1 4 6 6 5 5 6 5 5 4 3 2 2 5 8 8 6 8 9 10 11 11 11 10 10 10 13 13 12 12 13 14 16 17 15 15 15 13 12 11 11 11 12 14 15 16 18 19 21 20 20 21 20 17 16 14 15 17 19 18 21 20 20 22 22 22 21 20 21 20 18 18 17 19 19 18 19 21 25 26 27 27 28 26 28 27 27 25 25 22 22 22 22 20 18 18 18 19 19 21 24 25 27 29 30 30 27 26 27 27 27 28 29 28 29 29 30 28 27 28 30 29 30 30 28 28 30 30 31 34 33 33 32 31 30 30 30 31 32 32 31 31 31 33 
32 32 31 31 32 32 32 31 31 29 27 28 27 27 28 32 32 33 32 32 29 28 27 28 28 29 31 29 27 25 22 21 19 17 18 21 23 25 27 30 31 32 33 34 32 32 32 31 31 32 34 35 35 33 32 30 30 31 28 28 24 22 21 20 21 22 23 23 22 20 18 17 16 16 15 14 14 15 18 18 16 13 13 13 12 11 9 7 5 5 5 3 4 4 5 3 4 3 2 2 1 0 0 0 0 0 1 0 0 0 0 0 0 0 0 0 0 0 0 0 0 0 0 0 0 0 1 3 3 0 0 0 0 0 0 0 0 0 0 0 0 0 0 0 0 0 0 0 0 0 0 0 0 0 0 0 0 0 0 0 0 0 0 0 0 0 0 0 0 0 0 0 0 0 0 0 0 0 0 0 0 0 0 0 0 0 0 0 0 0 0 0 0 0 0 0 0 0 0 0 0 0 0 0 0 0 0 0 0 0 0 0 0 0 0 0 0 0 0 0 0 0 0 0 0 0 0 0 0 0 0 0 0 0 0 0 0 0 0 0 0 0 0 0 0 0 0 0 0 0 0 0 0 0 0 0 0 0 0 0 0 0 0 0 0 0 0 0 0 0 0 0 0 0 0 0 0 0 0 0 0 0 0 0 0 0 0 0 0 0 0 0 0 0 0 0 0 0 0 0 0 0 0 0 0 0 0 0 0 0 0 0 0 0 0 0 0 0 0 0 0 0 0 0 0 0 0 0 0 0 0 0 0 0 0 0 0 0 0 0 0 0 0 0 0 0 0 0 0 0 0 0 0 0 0 0 0 0 0 0 0 0 0 0 0 0 0 0 0 0 0 0 0 0 0 0 0 0 0 0 0 0 0 0 0 0 0 0 0 0 0 0 0 0 0 0 0 0 0 0 0 0 0 0 0 0 0 0 0 0 0 0 0 0 0 0 0 0 0 0 0 0 0 0 0 0 0 0 0 0 0 0 0 0 0 0 0 0 0 0 0 0 0 0 0 0 0 0 0 0 0 0 0 0 0 0 0 0 0 0 0 0 0 0 0 0 0 0 0 0 0 0 0 0 0 0 0 0 0 0 0 0 0 0 0 0 0 0 0 0 0 0 0 0 0 0 0 2 5 7 5 4 4 3 4 3 1 0 3 5 7 6 7 8 9 10 11 11 12 10 11 11 13 13 12 12 13 15 16 15 16 16 16 14 12 10 9 9 11 14 13 13 15 18 19 19 19 20 17 15 14 15 17 17 18 18 20 20 21 21 21 21 20 21 20 19 19 19 20 20 19 20 20 21 24 25 27 28 27 28 29 29 27 26 26 25 22 22 22 23 21 19 19 20 21 23 25 24 26 27 30 28 26 25 26 26 25 26 27 29 32 33 32 31 30 30 30 30 28 27 27 26 29 29 32 33 33 33 34 32 31 31 29 30 32 32 31 32 32 33 
34 33 34 32 33 34 34 33 32 30 27 27 29 28 27 29 30 30 30 30 27 27 26 25 25 27 27 27 25 23 21 22 20 18 19 22 23 24 27 30 30 31 33 34 33 31 31 30 30 33 35 34 35 33 32 30 31 30 29 28 24 23 22 21 21 22 22 21 21 20 17 17 16 16 16 15 16 16 16 16 15 14 13 13 14 12 10 7 5 5 4 2 2 3 4 2 2 2 2 1 2 0 0 0 0 0 0 0 0 0 0 0 0 0 0 0 0 0 0 0 0 0 0 0 0 0 1 3 3 0 0 0 0 0 0 0 0 0 0 0 0 0 0 0 0 0 0 0 0 0 0 0 0 0 0 0 0 0 0 0 0 0 0 0 0 0 0 0 0 0 0 0 0 0 0 0 0 0 0 0 0 0 0 0 0 0 0 0 0 0 0 0 0 0 0 0 0 0 0 0 0 0 0 0 0 0 0 0 0 0 0 0 0 0 0 0 0 0 0 0 0 0 0 0 0 0 0 0 0 0 0 0 0 0 0 0 0 0 0 0 0 0 0 0 0 0 0 0 0 0 0 0 0 0 0 0 0 0 0 0 0 0 0 0 0 0 0 0 0 0 0 0 0 0 0 0 0 0 0 0 0 0 0 0 0 0 0 0 0 0 0 0 0 0 0 0 0 0 0 0 0 0 0 0 0 0 0 0 0 0 0 0 0 0 0 0 0 0 0 0 0 0 0 0 0 0 0 0 0 0 0 0 0 0 0 0 0 0 0 0 0 0 0 0 0 0 0 0 0 0 0 0 0 0 0 0 0 0 0 0 0 0 0 0 0 0 0 0 0 0 0 0 0 0 0 0 0 0 0 0 0 0 0 0 0 0 0 0 0 0 0 0 0 0 0 0 0 0 0 0 0 0 0 0 0 0 0 0 0 0 0 0 0 0 0 0 0 0 0 0 0 0 0 0 0 0 0 0 0 0 0 0 0 0 0 0 0 0 0 0 0 0 0 0 0 0 0 0 0 0 0 0 0 0 0 0 0 0 0 0 0 0 0 0 0 0 0 0 0 0 0 0 0 0 0 0 0 0 0 0 0 0 0 0 0 0 0 0 0 0 0 0 0 0 0 0 0 4 6 6 5 2 1 3 2 3 2 0 2 5 6 6 7 9 10 10 12 12 13 12 11 14 15 14 16 15 17 16 15 15 16 14 15 15 13 9 9 10 10 11 11 12 15 18 19 19 20 19 18 16 15 16 16 18 18 19 21 22 22 23 22 20 19 19 21 20 20 21 21 21 20 20 20 21 23 24 25 27 26 27 28 29 29 26 25 25 23 22 23 25 25 23 23 24 24 26 25 23 25 28 28 28 27 25 25 25 24 27 29 31 31 33 33 33 32 31 31 30 26 24 24 25 27 29 32 34 33 35 33 33 34 34 34 34 34 32 33 34 35 33 
34 35 34 33 34 35 35 35 33 31 31 31 29 26 25 26 29 30 29 28 25 24 24 25 24 24 26 25 25 23 21 22 22 21 21 23 23 23 25 28 30 30 31 33 32 31 31 30 31 34 34 35 34 34 34 33 33 33 30 27 24 25 23 22 22 22 23 22 22 20 19 18 16 16 17 18 16 15 14 16 17 15 13 13 15 14 9 8 7 4 3 2 1 2 2 1 1 2 1 0 0 0 0 0 0 0 0 0 0 0 0 0 0 0 0 0 0 0 0 0 0 0 0 0 0 0 0 3 0 0 0 0 0 0 0 0 0 0 0 0 0 0 0 0 0 0 0 0 0 0 0 0 0 0 0 0 0 0 0 0 0 0 0 0 0 0 0 0 0 0 0 0 0 0 0 0 0 0 0 0 0 0 0 0 0 0 0 0 0 0 0 0 0 0 0 0 0 0 0 0 0 0 0 0 0 0 0 0 0 0 0 0 0 0 0 0 0 0 0 0 0 0 0 0 0 0 0 0 0 0 0 0 0 0 0 0 0 0 0 0 0 0 0 0 0 0 0 0 0 0 0 0 0 0 0 0 0 0 0 0 0 0 0 0 0 0 0 0 0 0 0 0 0 0 0 0 0 0 0 0 0 0 0 0 0 0 0 0 0 0 0 0 0 0 0 0 0 0 0 0 0 0 0 0 0 0 0 0 0 0 0 0 0 0 0 0 0 0 0 0 0 0 0 0 0 0 0 0 0 0 0 0 0 0 0 0 0 0 0 0 0 0 0 0 0 0 0 0 0 0 0 0 0 0 0 0 0 0 0 0 0 0 0 0 0 0 0 0 0 0 0 0 0 0 0 0 0 0 0 0 0 0 0 0 0 0 0 0 0 0 0 0 0 0 0 0 0 0 0 0 0 0 0 0 0 0 0 0 0 0 0 0 0 0 0 0 0 0 0 0 0 0 0 0 0 0 0 0 0 0 0 0 0 0 0 0 0 0 0 0 0 0 0 0 0 0 0 0 0 0 0 0 0 0 0 0 0 0 0 0 0 0 0 0 0 0 0 0 0 0 0 0 0 0 0 0 0 0 0 0 0 0 0 0 0 0 0 0 0 0 0 0 0 0 0 0 0 3 4 4 1 0 0 1 2 3 1 0 3 5 6 5 5 9 10 11 13 15 15 14 15 14 17 17 16 16 17 17 15 14 13 13 15 15 13 12 9 10 11 11 12 12 14 18 20 22 21 19 18 18 16 15 16 17 19 19 20 22 25 25 25 21 19 20 20 21 20 20 21 22 22 22 22 20 22 25 27 28 26 26 28 30 29 27 24 24 23 22 25 27 27 28 27 27 28 28 27 26 25 29 30 29 28 26 26 24 25 28 30 30 32 33 34 34 32 30 30 30 28 25 25 24 26 29 33 33 34 34 33 32 33 35 35 35 35 35 35 36 35 35 
