P2
640 480
255
3 3 3 4 5 6 6 3 3 4 4 2 2 2 2 1 2 3 3 2 1 0 0 0 0 0 0 0 0 0 0 1 2 2 1 1 1 0 0 2 2 3 5 5 4 2 3 1 2 1 1 2 1 3 4 5 5 4 4 3 2 1 2 0 1 2 3 4 3 1 2 0 0 0 0 0 2 0 0 0 0 0 0 0 0 0 0 0 0 0 0 0 0 0 0 0 0 0 0 0 0 0 0 0 0 0 0 0 0 0 0 0 0 0 0 0 0 0 0 0 0 0 0 0 1 3 3 3 2 1 0 0 0 0 1 2 1 0 1 2 3 3 2 1 0 0 0 0 1 1 0 0 0 1 1 0 1 1 0 1 0 0 1 0 0 0 2 0 1 0 0 0 0 0 0 0 0 0 0 0 0 0 0 0 0 1 1 2 2 3 2 2 1 0 0 0 0 0 0 0 0 0 3 3 2 3 3 4 4 3 3 0 0 1 1 2 2 1 1 2 3 3 4 5 5 5 5 6 4 2 3 6 4 4 3 5 5 4 4 5 3 3 2 1 1 2 1 1 1 2 3 2 2 0 1 0 2 0 0 1 0 0 0 0 0 0 0 0 0 0 0 0 0 0 0 0 0 0 0 0 0 0 0 0 0 0 0 0 0 2 1 1 1 1 1 0 1 1 2 1 1 1 1 1 0 0 0 0 1 1 0 1 1 0 0 1 0 0 0 0 0 0 0 0 0 0 0 0 0 0 0 0 0 0 0 0 0 0 0 0 0 0 0 0 0 0 0 0 0 0 1 1 2 2 2 1 1 2 1 1 2 0 0 0 0 0 0 1 1 0 2 2 1 2 4 2 3 2 1 2 1 1 1 2 2 3 2 0 0 2 1 2 2 1 1 1 2 3 3 3 2 0 2 3 2 1 2 0 1 1 2 1 2 2 2 3 3 2 2 1 2 2 0 0 0 0 1 1 2 1 3 2 1 2 2 2 2 3 2 2 2 1 1 1 2 1 0 2 3 3 3 4 5 5 7 5 3 4 5 5 5 4 3 3 4 6 7 8 6 5 4 3 4 5 3 4 4 5 4 3 3 3 2 1 0 0 0 0 0 0 0 0 0 0 0 0 0 0 0 0 0 0 0 0 0 0 0 0 0 0 0 0 0 0 0 0 0 0 0 0 0 1 1 1 1 0 0 0 0 0 0 0 0 0 1 0 0 0 0 0 0 0 0 0 0 0 0 0 0 0 0 0 0 0 0 0 0 0 1 0 0 0 0 0 0 0 0 0 0 0 0 0 0 0 0 0 0 0 0 0 0 0 0 0 0 0 0 0 0 0 1 2 1 3 3 2 2 2 2 2 2 2 2 2 2 2 0 0 0 0 1 1 1 3 2 2 2 0 2 2 3 3 2 4 4 4 4 3 4 3 4 3 5 4 6 5 5 4 4 4 
3 4 4 3 5 6 5 4 4 2 1 1 1 2 2 1 3 3 3 3 1 0 0 0 1 0 1 1 2 0 0 1 2 2 2 1 1 1 1 0 2 2 4 4 4 2 2 1 0 1 2 1 2 2 3 6 5 4 3 2 2 2 0 1 2 2 3 4 1 2 2 1 0 0 0 0 0 0 0 0 0 0 0 0 0 0 0 0 0 0 0 0 0 0 0 0 0 0 0 0 0 0 0 0 0 0 0 0 0 0 0 0 0 0 0 0 0 0 0 0 0 0 0 0 0 2 2 2 0 1 0 0 0 0 0 1 2 2 2 2 2 2 1 1 0 0 0 1 1 0 0 0 0 0 0 1 1 1 2 1 0 0 0 1 0 1 2 2 2 1 0 0 0 0 0 0 0 1 1 0 0 0 0 1 0 0 2 1 3 1 0 0 0 0 0 0 0 0 0 0 0 1 1 1 2 2 3 4 4 4 4 2 2 1 2 2 2 1 2 3 3 3 4 4 4 5 4 5 4 5 6 5 4 4 4 4 5 3 3 3 2 3 3 1 1 1 1 2 2 2 2 2 2 2 0 0 1 0 0 0 0 0 0 0 0 0 0 0 0 0 0 0 0 0 0 0 0 0 0 0 0 0 0 0 0 0 0 0 1 1 3 2 1 1 1 1 0 2 1 1 0 0 0 0 0 0 0 0 0 0 0 1 0 0 0 0 0 1 0 0 0 0 0 0 0 0 0 0 0 0 0 0 0 0 0 0 0 0 0 0 0 0 0 0 0 0 0 0 0 0 0 0 2 1 2 3 0 1 0 2 1 0 0 0 0 0 0 0 0 0 1 2 1 1 3 3 3 3 3 1 1 2 2 4 3 3 2 1 1 2 4 2 3 2 2 2 2 1 1 2 2 3 2 1 2 3 1 1 0 0 1 4 2 3 3 2 2 3 3 3 2 1 0 0 0 0 1 1 0 1 0 0 0 1 2 1 2 3 1 1 2 1 2 2 2 1 2 0 0 3 4 4 6 6 4 5 5 4 4 3 5 4 4 4 5 5 5 6 6 4 3 4 3 4 3 4 3 4 4 4 2 2 1 1 0 0 0 0 0 0 0 0 0 0 0 0 0 0 0 0 0 0 0 0 0 0 0 0 0 0 0 0 0 0 0 0 0 0 0 0 0 0 0 0 0 0 0 0 0 0 0 0 0 0 0 0 0 0 0 0 0 0 0 0 0 0 0 0 0 0 0 1 0 0 0 0 0 0 0 0 1 0 0 0 0 0 0 0 0 0 0 0 0 0 0 0 0 0 1 0 1 1 2 0 0 0 0 0 0 0 1 2 0 1 2 2 2 2 1 3 2 3 1 1 1 1 2 1 2 2 1 2 2 2 1 1 1 2 4 4 3 3 3 5 6 6 6 3 5 4 3 3 3 4 5 5 5 4 2 3 
4 6 4 5 4 4 5 3 3 2 1 0 1 2 1 4 3 2 3 1 0 0 0 0 0 0 0 1 3 1 0 0 1 1 1 1 2 2 0 0 2 1 3 2 2 2 2 2 1 1 0 1 0 2 4 3 4 5 3 1 1 1 2 1 2 3 3 4 3 2 2 0 0 0 0 0 0 0 0 0 0 1 0 0 0 0 0 0 0 0 0 0 0 0 0 0 0 0 0 0 0 0 0 0 0 0 0 0 0 0 0 0 0 0 0 0 0 0 0 0 0 0 0 0 0 1 1 1 2 0 0 0 0 0 0 0 1 2 3 3 2 2 2 0 0 0 0 2 2 2 1 2 1 1 2 1 2 2 0 1 1 1 0 0 1 1 1 1 1 1 2 2 2 2 2 2 0 0 1 1 1 1 1 2 1 1 2 2 0 1 0 0 0 0 1 1 0 0 0 0 0 1 1 2 2 2 3 4 3 4 3 2 1 1 2 2 2 1 3 3 4 4 4 4 4 3 4 3 4 4 6 4 4 5 5 5 4 3 3 3 2 2 3 2 1 1 1 3 2 2 2 2 2 0 0 0 0 0 0 0 0 0 0 0 0 0 0 0 0 0 0 0 0 0 0 0 0 0 0 0 0 0 0 0 0 1 0 0 0 0 1 2 2 1 2 2 0 1 1 0 0 0 0 0 0 0 0 0 0 1 1 1 0 0 0 0 0 0 0 0 0 0 0 0 0 0 0 0 0 0 0 0 0 0 0 0 0 0 0 0 0 0 0 0 0 0 0 0 0 0 0 0 1 1 2 1 0 0 0 0 1 0 0 0 0 0 0 0 0 1 1 1 2 1 3 3 2 3 3 3 2 2 3 5 3 1 2 0 3 2 2 3 3 4 3 3 1 2 1 3 2 4 3 3 2 3 1 1 0 1 1 3 2 1 2 3 2 2 2 2 3 1 0 0 0 1 0 0 1 0 0 1 1 2 1 1 2 1 1 1 2 1 0 1 1 1 1 1 2 4 4 5 6 4 5 5 4 4 3 3 4 4 3 3 4 4 4 5 4 3 4 3 3 4 2 3 3 3 4 2 2 1 0 2 0 0 0 0 0 0 0 0 0 0 0 0 0 0 0 0 0 0 0 0 0 0 0 0 0 0 0 0 0 0 0 0 0 0 0 0 0 0 0 0 0 0 0 0 0 0 0 0 0 0 0 0 0 0 0 0 0 0 0 0 0 0 0 1 0 0 0 0 0 0 0 0 0 0 0 0 0 0 0 0 0 0 0 0 0 0 0 0 0 0 0 0 0 0 1 0 1 2 1 1 0 0 0 0 1 1 1 1 0 1 1 1 1 1 1 2 2 3 3 2 0 2 1 2 1 2 2 2 2 0 2 3 2 3 4 5 3 4 4 5 5 6 5 5 5 6 5 4 5 5 5 5 5 3 3 3 
4 4 4 4 6 3 2 2 3 3 1 2 1 2 2 2 3 4 1 1 0 0 0 0 0 1 0 1 3 1 1 0 0 0 2 3 1 0 1 0 0 1 2 2 2 2 1 2 2 2 1 0 2 3 3 4 4 4 3 2 2 2 3 3 1 3 3 2 2 3 0 0 0 0 0 0 0 0 1 0 0 0 0 0 0 0 0 0 0 0 0 0 0 0 0 0 0 0 0 0 0 0 0 0 0 0 0 0 0 0 0 0 0 0 0 0 0 0 0 0 0 0 0 0 0 0 0 0 0 0 0 0 0 0 0 0 0 1 3 1 0 2 1 2 0 1 1 0 2 1 1 1 1 2 3 2 3 2 2 4 2 2 2 1 2 2 1 1 1 1 2 3 3 3 1 2 1 0 1 1 1 2 3 1 1 2 1 0 0 0 1 0 0 0 0 0 1 1 0 0 0 0 2 1 1 2 2 3 4 4 3 3 3 2 2 2 3 1 3 2 4 4 4 5 4 4 4 5 5 7 6 6 5 6 6 4 5 3 3 2 2 2 2 1 1 2 2 2 3 2 2 1 2 1 0 0 0 0 0 0 0 0 0 0 0 0 0 0 0 0 0 0 0 0 0 0 0 0 0 0 0 0 0 0 0 0 0 0 0 0 0 0 1 0 0 0 0 0 0 0 0 0 0 0 0 0 0 0 0 0 1 0 1 0 0 0 0 0 0 0 0 0 0 0 0 0 0 0 0 0 0 0 0 0 0 0 0 0 0 0 0 0 0 0 0 0 0 0 0 0 0 1 2 2 1 1 1 0 0 0 1 1 0 0 0 0 0 0 0 2 1 1 3 1 1 1 3 5 4 2 3 3 3 3 3 4 3 2 1 2 2 3 2 2 3 3 2 2 4 3 4 4 5 4 6 4 2 2 2 1 3 3 2 3 4 4 4 2 2 2 1 1 2 1 1 1 1 0 0 0 0 0 0 1 1 1 1 1 1 0 0 0 0 0 0 1 2 1 2 4 3 5 5 6 5 6 5 2 3 3 3 3 3 2 3 2 4 4 2 2 3 3 4 3 2 2 5 4 3 3 1 1 2 2 0 0 0 0 0 0 0 0 0 0 0 0 0 0 0 0 0 0 0 0 0 0 0 0 0 0 0 0 0 0 0 0 0 0 0 0 0 0 0 0 0 0 0 0 0 0 0 0 0 0 0 0 0 0 0 0 0 0 0 0 0 0 0 0 0 0 0 0 0 0 0 0 0 0 0 0 0 0 0 0 0 0 0 0 0 0 0 0 0 0 0 0 1 2 2 1 2 3 3 3 1 1 0 0 0 1 0 0 0 1 2 0 1 0 0 1 1 1 2 2 4 4 2 2 1 2 0 0 1 1 2 1 2 4 5 4 4 5 5 4 4 5 5 6 4 6 6 6 4 5 6 4 4 3 3 4 
4 4 3 3 4 4 5 3 3 2 1 2 2 2 1 3 1 1 0 0 0 0 0 0 0 0 1 1 1 0 0 0 0 0 0 0 0 0 0 1 1 1 1 1 0 2 2 2 2 2 1 1 2 3 3 5 4 3 4 3 3 3 3 2 2 2 2 2 1 2 0 0 0 0 0 0 0 0 0 0 0 0 0 0 0 0 0 0 0 0 0 0 0 0 0 0 0 0 0 0 0 0 0 0 0 0 0 0 0 0 0 0 0 0 0 0 0 0 0 0 0 0 0 0 0 0 0 1 0 0 0 0 0 0 0 0 0 1 1 1 1 0 0 1 0 0 0 0 0 0 0 0 2 2 2 3 3 3 3 5 4 2 3 2 1 0 0 0 1 2 2 3 3 2 2 1 0 1 1 3 2 2 1 1 3 2 1 1 0 0 0 0 0 0 0 0 0 1 1 0 0 1 1 0 1 2 3 3 3 4 4 2 2 3 2 2 2 1 3 4 5 3 5 4 5 4 4 5 6 6 7 7 8 5 4 4 3 4 4 1 3 4 3 4 1 1 1 2 3 2 1 0 1 0 0 0 0 0 0 0 0 0 0 0 0 0 0 0 0 0 0 0 0 0 0 0 0 0 0 0 0 0 0 0 0 2 0 0 0 0 0 0 0 1 0 0 0 0 0 0 0 0 0 0 0 0 0 0 0 0 0 0 0 0 0 0 0 0 0 0 0 0 0 0 0 0 0 0 0 0 0 1 1 1 0 0 0 0 0 0 0 0 0 0 0 0 0 0 0 0 1 1 1 1 2 2 0 0 0 0 0 0 0 0 0 0 1 3 1 2 3 4 3 3 2 2 3 3 3 3 1 2 3 3 4 5 3 3 3 2 3 4 3 4 5 3 4 3 2 4 5 7 7 6 4 4 4 2 2 1 2 2 2 3 3 3 2 3 1 1 1 0 1 1 0 1 0 0 0 0 0 0 0 0 0 2 1 0 1 1 0 0 0 0 0 0 1 2 3 3 3 5 5 5 5 4 4 4 4 3 3 3 3 3 3 3 4 4 3 2 3 3 2 2 3 3 3 5 4 3 2 0 0 1 0 0 0 0 0 0 0 0 0 0 0 0 0 0 0 0 0 0 0 0 0 0 0 0 0 0 0 0 0 0 0 0 0 0 0 0 0 0 0 0 0 0 0 0 0 0 0 0 0 0 0 0 0 0 0 0 0 0 0 0 0 0 0 0 0 0 0 0 0 0 0 0 0 0 0 0 0 0 0 0 0 0 0 0 0 0 0 0 0 1 0 0 2 3 1 2 3 4 4 2 2 1 0 0 0 0 0 0 0 0 0 0 0 0 0 0 1 2 2 1 3 3 3 1 0 0 0 0 2 1 1 2 4 4 5 6 5 4 5 3 4 4 5 6 7 5 6 5 3 5 6 4 4 4 3 3 
2 3 4 3 3 5 5 5 5 4 1 2 1 0 1 3 1 0 0 0 0 0 0 0 0 1 0 1 1 0 0 0 0 0 0 0 0 0 1 1 1 1 0 0 0 1 2 0 1 1 1 1 1 2 3 3 2 4 4 3 2 3 3 1 2 1 2 1 0 0 0 0 0 0 0 0 0 0 0 0 0 0 0 0 0 0 0 0 0 0 0 0 0 0 0 0 0 0 0 0 0 0 0 0 0 0 0 0 0 0 0 0 0 0 0 0 0 0 0 0 0 0 0 0 0 0 1 2 0 0 0 0 0 0 0 0 1 1 1 1 1 0 0 0 0 1 2 2 2 2 1 3 2 2 1 2 4 4 5 4 5 4 3 3 3 1 1 1 1 2 4 3 3 1 3 1 0 1 3 1 2 1 1 2 2 2 1 2 0 0 0 0 0 0 1 0 1 2 0 1 0 0 1 0 2 1 2 2 2 2 3 1 1 3 1 2 2 3 2 3 4 4 5 5 5 5 6 6 5 4 6 6 6 5 4 5 4 3 3 3 3 4 3 3 2 2 2 2 2 2 2 0 1 0 1 0 0 0 0 0 1 0 0 0 0 0 0 0 0 0 0 0 0 0 0 0 0 0 0 0 0 0 0 0 0 0 0 0 0 0 0 0 0 0 0 0 0 0 0 0 0 0 1 0 0 0 0 0 0 0 0 0 0 0 0 0 0 0 0 0 0 0 0 0 0 0 0 0 0 0 0 0 0 0 0 0 0 0 0 0 0 0 0 0 0 0 0 0 0 0 0 0 0 0 0 1 0 0 0 0 0 0 0 0 0 0 0 0 0 1 1 3 2 1 4 3 2 3 2 0 1 4 2 3 4 3 2 3 3 3 4 4 4 3 4 4 5 5 5 5 8 7 8 8 4 4 3 2 2 2 3 1 3 3 4 3 2 2 1 1 0 1 1 0 0 0 0 0 0 0 0 0 0 0 1 0 1 2 0 0 0 0 0 0 0 0 0 1 4 3 4 3 5 5 5 3 4 4 3 3 2 4 3 3 4 4 4 4 2 2 2 2 2 2 2 3 3 3 4 3 2 1 0 1 0 0 0 0 0 0 0 0 0 0 0 0 0 0 0 0 0 0 0 0 0 0 0 0 0 0 0 0 0 0 0 0 0 0 0 0 0 0 0 0 0 0 0 0 0 0 0 0 0 0 0 0 0 0 0 0 0 0 0 0 0 0 0 0 0 0 0 0 0 0 0 0 0 0 1 0 1 1 0 0 0 1 0 0 0 0 0 0 0 1 2 2 4 4 4 4 4 2 3 2 2 1 0 0 0 0 0 0 1 0 1 1 0 0 0 0 1 2 2 1 0 1 1 1 2 1 1 1 0 1 2 3 4 5 6 5 5 4 3 3 4 6 7 7 6 7 5 5 4 4 5 5 4 3 4 3 
3 3 3 3 4 6 5 5 5 4 3 3 2 0 0 0 0 1 0 0 0 0 0 0 0 0 0 0 1 0 0 0 0 0 0 0 0 0 0 0 0 0 0 1 0 0 1 0 0 1 2 3 2 1 3 2 2 3 3 3 2 2 2 3 2 0 0 0 0 0 0 0 0 0 0 0 0 0 0 0 0 0 0 0 0 0 0 0 0 0 0 0 0 0 0 0 0 0 0 0 0 0 0 0 0 0 0 0 0 0 0 0 0 0 0 0 0 0 0 0 0 0 0 0 0 0 1 1 0 0 1 0 0 0 0 0 0 0 0 0 0 0 0 0 2 3 4 3 4 3 1 2 2 3 3 3 3 4 4 4 6 4 5 4 3 2 1 1 3 2 4 3 4 4 2 1 1 2 2 2 2 1 3 3 3 3 2 0 0 0 1 0 0 0 0 0 1 1 1 1 0 0 2 2 2 2 2 0 3 2 4 3 3 1 1 1 2 3 3 4 4 5 5 4 4 4 5 4 4 3 3 3 4 4 4 4 4 3 3 2 2 3 2 3 1 0 1 1 1 2 2 2 0 1 2 1 0 0 0 1 0 0 0 0 0 0 0 0 0 0 0 0 0 0 0 0 0 0 0 0 0 0 0 0 0 0 0 0 0 0 0 0 0 0 0 0 0 0 0 0 0 0 1 0 0 0 0 0 0 0 0 0 0 0 0 0 0 0 0 0 0 0 0 0 0 0 0 0 0 0 0 0 0 0 0 0 0 0 0 0 0 0 0 0 0 0 0 0 0 0 0 2 1 0 1 0 0 0 0 0 0 0 0 1 0 0 0 0 1 1 1 3 2 3 4 4 1 1 1 2 0 2 1 1 4 3 2 3 3 4 6 5 4 4 4 6 5 5 4 6 7 6 8 8 6 4 3 4 2 2 4 2 2 3 4 2 2 1 1 2 1 0 0 0 1 1 1 0 0 0 0 0 0 0 0 0 1 0 0 0 0 0 0 0 0 0 1 0 3 3 3 3 4 4 3 3 5 4 4 3 3 2 3 2 3 4 2 1 1 2 3 2 2 4 2 3 4 4 2 2 1 0 0 0 0 0 0 0 0 0 0 0 0 0 0 0 0 0 0 0 0 0 0 0 0 0 0 0 0 0 0 0 0 0 0 0 0 0 0 0 0 0 0 0 0 0 0 0 0 0 0 0 0 0 0 0 0 0 0 0 0 0 0 0 0 0 0 0 0 0 0 0 1 0 0 0 0 0 0 0 1 2 1 1 1 2 1 2 3 3 2 0 0 1 2 2 3 4 4 4 4 2 3 3 2 0 0 0 0 0 0 0 0 0 1 0 1 0 0 2 2 2 2 2 1 1 2 1 1 2 0 1 2 2 2 3 4 5 4 5 6 6 4 4 4 4 6 7 7 8 7 6 5 5 5 4 4 3 4 4 
5 4 4 3 4 6 6 4 5 4 2 2 1 1 0 0 0 0 0 0 0 0 0 0 0 0 0 0 0 0 0 1 0 0 0 0 0 0 1 1 0 0 0 0 0 0 0 0 0 0 2 3 2 0 2 3 2 1 1 1 2 3 0 0 0 0 0 0 0 0 0 0 0 0 0 0 0 0 0 0 0 0 0 0 0 0 0 0 0 0 0 0 0 0 0 0 0 0 0 0 0 0 0 0 0 0 0 0 0 0 0 0 0 0 0 0 0 0 0 0 0 0 0 0 0 0 0 0 0 0 0 0 0 0 0 0 0 0 0 0 0 0 0 0 1 1 2 3 2 3 2 2 3 3 4 4 4 4 5 5 7 5 6 6 3 3 2 3 3 2 3 3 3 3 2 3 2 3 3 3 1 2 3 5 4 3 2 0 0 1 1 1 0 0 0 1 0 2 0 0 1 1 2 2 2 2 1 1 3 3 4 2 2 1 2 1 2 2 3 5 4 4 5 5 4 4 5 5 3 4 3 4 4 4 5 6 4 3 3 2 1 2 3 1 0 0 0 1 1 1 1 1 1 2 1 0 0 0 0 0 0 0 0 0 0 0 0 0 0 0 0 0 0 0 0 0 0 0 0 0 0 0 0 0 0 0 0 0 0 0 0 0 0 0 0 0 0 0 0 0 0 0 0 0 0 0 0 0 0 0 0 0 0 0 0 0 0 0 0 0 0 0 0 1 0 0 0 0 0 0 0 0 0 0 0 1 0 0 0 0 0 0 0 0 0 0 0 0 0 0 1 3 1 1 2 1 0 0 0 0 0 0 0 0 0 0 0 0 0 1 1 3 3 3 3 3 3 2 1 2 2 1 1 2 3 3 3 3 4 6 6 7 6 5 4 5 6 7 5 5 6 6 7 6 5 5 5 3 3 4 4 3 3 2 2 2 1 2 1 1 0 0 1 3 2 1 3 2 0 0 0 0 0 0 0 0 0 0 1 1 0 0 1 0 0 0 0 1 1 0 2 2 2 2 4 4 4 3 4 3 3 3 3 2 3 2 2 1 1 1 0 2 1 3 3 3 4 4 3 2 0 0 0 0 0 0 0 0 0 0 0 0 0 0 0 0 0 0 0 0 0 0 0 0 0 0 0 0 0 0 0 0 0 0 0 0 0 0 0 0 0 0 0 0 0 0 0 0 0 0 0 0 0 0 0 0 0 0 0 0 0 0 0 0 0 0 0 0 0 0 0 0 0 1 0 0 0 0 2 1 2 2 2 2 2 3 2 3 4 3 2 0 0 0 0 1 4 5 4 4 4 2 1 2 1 0 0 0 0 0 0 0 0 0 2 1 1 1 1 1 3 3 3 2 3 1 2 3 2 1 0 0 2 2 2 4 4 4 4 7 6 5 6 5 6 6 6 7 7 7 5 5 4 4 4 5 3 4 4 2 
4 5 4 5 5 5 6 5 3 3 3 3 2 0 0 0 0 0 0 0 0 0 0 0 0 1 0 0 0 0 0 0 0 0 0 0 0 0 0 0 0 0 0 0 0 0 0 0 0 0 2 2 2 1 1 0 0 2 1 1 1 1 0 1 0 0 0 0 0 0 0 0 0 0 0 0 0 0 0 0 0 0 0 0 0 0 1 0 0 0 0 0 0 0 0 0 0 0 0 0 0 0 0 0 0 0 0 0 0 0 0 0 0 0 0 0 0 0 0 0 0 0 0 0 0 0 0 0 0 0 0 0 0 0 0 0 0 0 0 0 0 0 0 1 1 1 0 3 4 3 2 3 3 4 4 4 4 5 5 4 5 5 4 4 4 3 4 3 4 3 3 3 4 2 4 2 2 2 3 2 2 3 4 4 4 5 4 1 2 1 0 0 1 0 1 2 1 2 1 1 2 1 1 2 2 3 3 2 2 3 2 2 2 2 3 2 2 2 3 4 5 3 4 3 3 4 4 4 3 4 4 4 4 4 4 4 4 4 2 3 2 1 0 0 0 1 1 1 0 2 3 0 0 2 1 0 0 0 1 0 0 0 0 0 0 0 0 0 0 0 0 0 0 0 0 0 0 0 0 0 0 0 0 0 0 0 0 0 0 0 0 0 0 0 0 0 0 0 0 0 0 0 0 1 0 0 0 0 0 0 0 0 0 0 0 0 0 0 0 0 0 0 0 0 0 0 0 0 0 0 0 0 0 0 0 0 0 0 0 0 0 0 0 0 0 0 0 0 0 1 2 1 1 2 2 2 1 0 0 0 0 0 0 0 0 0 0 0 1 2 2 3 4 4 3 4 5 2 2 3 1 2 2 2 4 4 4 4 5 4 5 5 6 7 7 5 6 6 5 6 5 7 6 6 7 6 4 3 3 3 4 3 1 2 1 2 1 0 1 1 0 0 0 0 0 0 0 0 0 0 0 0 0 0 0 0 0 0 0 0 0 1 0 0 0 0 0 0 1 1 3 3 1 2 3 2 2 2 2 2 3 3 1 2 4 3 0 1 1 0 1 1 3 2 3 3 4 3 2 0 0 0 0 0 0 0 0 0 0 0 0 0 0 0 0 1 0 0 0 0 0 0 0 0 0 0 0 0 0 0 0 0 0 0 0 0 0 0 0 0 0 0 0 0 0 0 1 0 0 0 0 0 0 0 0 0 0 0 0 0 0 0 0 0 0 0 0 0 0 0 0 0 2 1 2 1 2 1 2 3 3 1 0 1 2 2 3 4 5 4 2 3 2 2 1 2 3 4 4 4 3 2 1 1 1 0 0 0 1 0 0 0 2 0 0 1 1 1 2 3 3 4 3 2 2 2 1 2 3 1 1 0 2 1 3 4 5 4 7 7 5 6 6 6 7 7 5 6 6 5 5 4 4 3 4 3 3 3 4 3 
3 4 5 4 3 5 5 5 4 3 2 1 0 0 1 0 0 0 0 0 0 0 0 0 0 2 1 1 0 0 0 0 0 0 0 0 0 0 0 0 0 0 1 0 1 1 1 0 0 0 0 1 0 0 0 0 0 0 0 0 0 0 0 0 0 0 0 0 0 0 0 0 0 0 0 0 0 0 1 0 0 0 0 0 0 0 0 0 0 0 0 0 0 0 0 0 0 0 0 0 0 0 0 0 0 0 0 0 0 0 0 0 0 0 0 0 0 0 0 0 0 0 0 0 0 0 0 0 0 0 0 0 0 0 2 1 1 1 1 0 0 0 0 1 2 3 2 3 5 4 3 4 7 6 5 4 3 3 4 5 5 5 5 3 5 4 4 5 5 5 5 5 3 2 3 4 2 2 2 2 3 2 2 3 4 4 3 1 1 1 1 0 0 0 0 0 0 1 2 3 1 1 2 1 1 2 2 2 2 2 2 2 2 2 2 1 2 2 3 4 3 2 3 3 3 3 2 3 4 4 3 5 4 3 3 3 3 2 2 0 1 0 0 0 0 0 0 1 0 1 2 2 1 1 2 1 1 0 0 0 0 0 0 0 0 0 0 0 0 0 0 0 0 0 0 0 0 0 0 0 0 0 0 0 0 0 0 0 0 0 0 0 0 0 0 0 0 0 0 0 0 0 0 0 0 0 0 0 0 0 0 0 0 0 0 0 0 0 0 0 0 0 1 0 0 0 0 0 0 0 0 0 0 0 1 2 0 0 0 0 0 0 0 0 0 0 1 0 1 2 1 1 2 2 2 1 0 0 0 0 0 0 0 0 0 0 0 1 2 3 3 4 4 4 3 3 3 2 3 2 3 3 4 5 3 5 4 5 3 4 5 6 5 6 6 7 8 6 6 6 5 5 7 5 6 5 3 3 4 5 3 2 1 2 2 2 3 2 2 2 0 1 0 0 0 0 1 0 0 0 0 0 0 1 1 0 0 0 0 0 0 0 0 0 0 0 0 0 0 2 2 2 1 3 3 1 1 0 0 0 1 1 0 0 1 2 1 0 0 0 1 1 1 1 1 3 2 2 1 0 0 0 0 0 0 0 0 0 0 0 0 0 0 0 0 0 0 0 0 0 0 0 0 0 0 0 0 0 0 0 0 0 0 0 0 0 0 0 0 0 0 0 0 0 0 0 0 0 0 0 0 0 0 0 0 0 0 0 0 0 0 0 0 0 0 0 0 0 0 0 0 1 1 1 4 2 2 3 2 3 2 2 2 2 4 3 3 3 5 3 3 4 4 3 3 3 4 5 6 4 3 1 2 0 1 1 0 0 0 0 0 1 1 1 0 0 1 1 2 3 4 4 4 1 2 1 2 1 1 0 1 1 1 2 3 4 6 5 6 5 5 6 4 6 7 7 6 5 5 4 5 4 5 3 2 4 3 3 4 4 
3 3 3 3 2 3 3 6 3 3 2 1 0 0 0 0 0 0 0 0 0 0 0 0 0 0 2 1 0 1 0 0 0 0 0 0 0 0 0 0 2 1 0 0 0 1 1 0 0 0 0 0 0 0 0 0 0 0 0 0 0 0 0 0 0 0 0 0 0 0 0 0 0 0 0 0 1 2 1 0 0 0 0 1 2 0 1 0 0 0 0 0 0 0 0 0 0 0 0 0 0 0 0 0 0 0 0 0 0 0 0 0 0 0 0 0 0 0 0 0 0 0 0 0 0 0 0 0 0 0 0 0 0 0 1 1 2 1 0 0 0 0 2 1 2 3 4 4 4 3 3 3 6 5 5 5 4 4 5 6 5 6 6 5 5 5 6 6 6 7 5 6 6 3 2 4 3 3 3 3 2 4 3 3 5 3 2 1 1 1 1 1 0 1 0 0 1 1 2 1 0 0 0 1 0 2 3 4 2 1 2 2 2 2 1 2 2 3 1 4 3 2 1 0 0 0 2 3 4 5 3 5 2 4 2 2 2 2 0 0 0 0 0 0 0 0 1 0 1 1 2 1 1 1 1 1 0 0 0 0 0 0 0 0 0 0 0 0 0 0 0 0 0 0 0 0 0 0 0 0 0 0 0 0 0 0 0 0 0 0 0 0 0 0 0 0 0 0 0 0 0 0 0 0 0 0 0 0 0 0 0 0 0 0 0 0 0 0 0 0 0 1 1 0 0 0 0 0 0 0 0 0 1 2 2 2 1 0 0 0 0 0 0 0 0 2 0 0 1 0 1 3 3 2 1 0 0 0 0 0 0 0 0 0 0 0 0 1 2 2 2 4 4 4 2 2 1 4 2 3 4 4 3 5 6 6 6 5 5 4 4 6 6 6 6 6 8 6 5 6 6 5 5 6 5 5 4 5 5 2 3 3 2 3 3 4 2 2 2 1 0 0 0 0 0 0 0 0 0 0 0 0 0 1 0 0 0 0 0 0 0 0 0 0 0 0 0 0 0 0 1 1 1 1 1 1 1 0 0 1 0 1 1 0 0 0 1 0 0 0 1 0 0 0 0 2 1 1 1 0 0 0 0 0 0 0 0 0 0 0 0 0 0 0 0 0 0 0 0 0 0 0 1 0 0 0 0 0 0 0 0 0 0 0 0 0 0 0 0 0 0 0 0 0 0 0 0 0 0 0 0 0 0 0 0 0 0 0 0 0 0 0 0 0 0 0 0 0 0 1 1 0 0 2 2 2 2 2 4 4 3 3 2 3 4 4 4 4 5 5 4 3 3 3 3 2 3 6 5 4 3 3 1 2 0 0 0 1 0 0 0 0 1 0 0 1 2 1 2 3 4 4 2 3 3 3 2 2 1 1 1 2 2 2 4 3 4 5 7 6 5 6 7 7 6 6 5 5 6 4 3 3 3 4 4 3 3 3 4 4 
3 3 4 1 3 3 2 2 3 3 1 1 1 0 0 0 0 0 0 0 0 0 0 0 0 0 1 1 2 1 0 0 0 0 0 0 0 0 0 0 0 0 0 0 0 0 0 0 0 0 0 0 0 0 0 0 0 0 0 0 0 0 0 0 0 0 0 0 0 0 0 0 0 0 0 0 0 0 0 0 0 0 0 1 1 0 0 0 0 0 0 0 0 0 0 0 0 0 0 0 0 0 0 1 2 0 0 0 0 0 0 0 0 0 0 0 0 0 0 0 0 0 0 0 0 0 0 0 0 0 0 0 0 0 0 1 1 1 1 0 0 1 3 2 2 2 3 4 4 4 5 6 6 6 5 6 5 5 5 5 5 5 5 6 6 6 6 5 5 4 6 5 5 4 3 4 5 4 4 5 3 3 2 2 3 3 1 0 1 1 2 0 0 1 0 1 3 2 1 0 0 1 2 3 2 1 2 1 3 4 4 2 3 1 1 0 1 1 0 3 3 1 0 0 0 0 1 3 4 4 5 3 2 1 2 3 2 1 0 0 0 1 0 0 0 0 0 0 0 0 0 0 0 1 1 1 0 0 0 0 0 0 0 0 0 0 0 0 0 0 0 0 0 0 0 0 0 0 0 0 0 0 0 0 0 0 0 0 0 0 0 0 0 0 0 0 0 0 0 0 0 0 0 0 0 0 0 0 0 0 0 0 0 0 0 0 0 0 0 0 0 1 1 0 1 0 0 0 0 0 1 0 1 1 1 1 0 0 0 0 0 0 0 0 0 0 0 0 1 0 2 2 1 0 1 0 0 0 0 0 0 0 0 0 0 0 0 0 1 2 2 3 3 3 3 3 2 4 4 4 5 4 6 6 8 6 5 5 5 5 5 4 7 6 7 6 6 5 6 6 6 6 5 6 6 4 3 5 4 3 2 2 3 4 4 3 2 1 0 0 1 1 0 0 0 0 0 0 1 0 0 0 0 0 0 1 0 1 0 0 0 0 0 0 0 0 0 0 1 1 1 1 1 1 1 0 0 0 0 0 0 1 0 1 0 0 1 0 0 0 0 1 0 0 0 0 1 0 0 0 0 0 0 0 0 0 0 0 0 0 0 0 0 0 0 0 0 1 1 1 1 0 1 0 0 0 0 0 0 0 0 0 0 0 0 0 0 0 0 0 0 0 0 0 0 0 0 0 0 0 0 0 0 0 0 0 0 0 0 0 0 0 0 0 0 0 0 0 0 0 1 1 3 2 1 1 0 2 3 4 3 1 2 3 3 4 4 4 4 4 3 3 3 3 2 4 4 5 5 5 3 2 1 1 1 0 1 1 1 1 1 1 0 0 1 1 1 2 2 4 4 4 4 4 3 1 1 1 1 0 1 2 1 3 4 3 4 5 6 6 6 5 6 8 6 6 5 6 5 4 3 5 4 3 4 3 3 2 3 2 
2 3 1 2 2 2 2 1 1 2 2 2 0 0 0 0 0 0 0 0 0 0 0 0 1 0 0 0 0 0 0 0 0 0 0 0 0 0 0 0 0 0 0 0 0 0 0 0 0 0 0 0 0 0 0 0 0 0 0 0 0 0 0 0 0 0 0 0 0 0 0 0 0 0 0 0 0 0 0 0 0 0 0 0 1 1 0 0 0 0 0 0 0 1 0 0 0 0 0 0 0 0 0 0 2 0 0 0 0 0 0 0 0 0 0 0 0 0 0 0 0 0 0 0 0 0 0 0 0 0 0 0 0 0 0 1 0 1 0 1 1 1 3 3 2 3 3 3 4 5 4 6 6 6 8 6 6 6 5 5 6 6 5 5 5 4 4 6 6 6 5 6 4 4 4 5 5 5 5 5 3 4 3 3 3 4 3 2 2 1 1 1 1 1 1 1 2 2 1 0 0 1 2 4 3 3 3 3 3 3 4 2 1 1 2 0 0 1 1 1 1 1 1 2 0 0 0 3 3 4 3 3 2 2 2 3 2 0 0 0 0 0 1 0 0 0 0 0 0 0 0 0 0 0 0 0 0 0 0 0 0 0 0 0 0 0 0 0 0 0 0 0 0 0 0 0 0 0 0 0 0 0 0 0 0 0 0 0 0 0 0 0 0 0 0 0 0 0 0 0 0 0 0 0 0 0 0 0 0 0 0 0 0 0 0 0 0 0 0 0 0 1 0 1 1 1 1 2 1 0 1 1 0 2 3 2 1 1 0 0 0 0 1 2 2 0 1 1 1 1 0 0 0 0 0 0 0 0 0 0 0 0 0 0 0 0 0 0 0 1 1 2 3 2 3 3 3 3 2 3 4 5 4 7 6 6 4 4 6 5 5 5 5 8 8 7 7 6 5 7 6 4 5 6 5 5 5 3 4 3 4 3 2 3 4 4 1 1 1 1 1 0 0 0 0 0 2 0 0 0 0 0 0 0 0 0 0 0 0 0 0 0 0 0 1 0 0 0 0 1 0 0 0 0 0 0 0 1 0 0 0 1 1 0 0 0 1 0 1 0 0 1 0 0 0 2 0 1 1 0 0 0 0 0 0 0 0 0 0 0 0 0 0 0 0 0 1 0 2 1 2 2 0 0 0 0 0 0 0 0 0 0 0 0 0 0 0 0 0 0 0 0 0 0 0 0 0 0 0 0 0 0 0 0 0 0 0 0 0 0 0 0 0 0 0 0 0 0 0 2 1 3 4 2 3 2 1 2 3 3 4 2 3 3 3 3 5 4 4 4 3 4 3 3 4 5 5 4 5 4 4 2 2 0 0 2 1 1 1 0 1 0 1 0 0 1 1 2 3 4 4 4 4 3 1 1 0 0 0 1 1 1 3 4 3 3 4 7 3 5 4 4 4 5 5 5 4 5 4 5 5 3 4 3 4 3 3 2 3 3 
2 4 1 3 3 2 2 2 1 1 2 2 0 0 0 0 0 0 0 0 1 1 1 0 0 0 0 0 0 0 0 0 0 0 0 0 0 0 0 0 0 0 0 0 0 0 0 0 0 0 0 0 0 0 0 0 0 0 0 0 0 0 0 0 0 0 0 0 0 0 0 0 0 0 0 0 0 0 0 0 1 0 0 0 0 2 0 1 0 0 0 0 0 0 0 0 0 0 0 0 0 0 0 2 2 2 2 0 0 0 0 0 0 0 0 0 0 0 0 0 0 0 0 0 0 0 0 1 0 1 0 0 0 0 0 1 0 0 1 0 1 2 2 3 2 2 2 3 3 4 4 5 5 7 7 6 6 6 5 4 6 4 5 5 5 4 5 5 5 6 5 6 6 4 5 3 4 4 4 5 4 3 3 3 4 3 3 3 3 2 1 3 1 1 0 0 0 0 0 0 0 0 2 1 3 3 1 2 3 2 2 2 1 0 0 0 0 0 0 0 1 2 0 1 0 1 2 3 3 2 2 1 1 1 1 1 1 0 1 1 0 0 0 1 0 0 0 0 0 0 0 1 1 1 0 0 0 0 0 0 0 0 0 0 0 0 0 0 0 0 0 0 0 0 0 0 0 0 0 0 0 0 0 0 0 0 0 0 0 0 0 0 0 0 0 0 0 0 0 0 0 0 0 0 0 0 0 0 0 0 1 0 0 0 0 0 0 0 0 0 0 0 2 1 1 1 2 3 1 1 2 2 2 4 2 1 2 2 1 0 0 0 0 0 0 2 1 1 2 2 1 0 0 0 0 0 0 0 0 0 0 0 0 0 0 0 0 0 0 0 0 1 0 1 2 2 2 3 4 5 5 5 5 4 5 6 4 3 5 6 5 5 5 5 5 7 6 7 8 6 5 6 4 6 7 6 5 3 2 3 3 2 3 2 3 4 2 3 1 1 0 1 0 0 0 1 1 0 0 0 0 0 0 0 0 0 0 0 0 0 0 0 0 0 1 1 1 1 0 1 0 1 2 0 0 0 0 0 0 2 1 0 0 0 0 0 0 0 0 0 0 0 0 0 0 0 1 0 0 0 0 0 0 0 0 0 0 0 0 0 1 0 0 0 1 0 2 2 1 1 3 1 0 0 0 0 0 0 0 0 0 0 0 0 0 0 0 0 0 0 0 0 0 0 0 0 0 0 0 0 0 0 0 0 0 0 0 0 0 0 0 0 0 0 0 0 0 1 1 2 1 1 3 4 2 4 3 3 4 4 4 3 3 3 4 5 5 5 6 5 5 4 4 5 4 4 5 4 4 6 6 5 2 1 1 1 1 0 1 2 1 2 2 0 2 3 2 2 3 4 3 2 2 3 2 2 1 0 0 1 3 3 3 3 3 4 6 5 5 3 4 2 5 5 4 4 4 6 5 5 4 5 4 2 3 3 2 2 3 2 
1 2 1 3 2 2 0 0 0 2 2 2 0 0 0 0 0 0 0 1 3 2 0 0 0 0 0 0 0 0 0 0 0 0 0 0 0 0 0 0 0 0 0 0 0 0 0 0 0 0 0 0 0 0 0 0 0 0 0 0 0 0 0 0 0 0 0 0 0 0 0 0 0 0 0 0 0 0 0 0 1 1 0 1 2 2 2 3 3 1 0 0 0 0 0 0 0 0 0 0 0 0 1 2 2 1 1 0 0 0 0 0 0 0 0 0 0 0 0 0 0 0 0 0 0 0 0 0 0 0 0 0 0 0 0 1 0 0 0 2 1 2 3 2 2 1 4 3 4 4 5 5 6 7 7 6 6 6 6 6 6 4 5 5 4 3 4 5 5 5 5 5 5 5 4 5 4 3 4 4 3 4 4 4 4 5 4 3 3 3 3 2 1 0 0 0 0 0 0 0 0 1 1 1 1 2 0 3 2 2 1 0 0 0 0 1 0 0 0 0 0 0 0 0 1 2 1 2 2 1 1 1 1 0 0 0 1 1 0 0 0 0 0 0 0 0 0 0 0 0 0 0 0 0 0 0 0 0 0 0 0 0 0 0 0 0 0 0 0 0 0 0 0 0 0 0 0 0 0 0 0 0 0 0 0 0 0 0 0 0 0 0 0 0 0 0 0 0 0 0 0 0 0 0 0 0 0 0 0 1 1 0 0 0 0 0 0 0 0 0 0 1 2 1 1 1 3 3 2 2 3 3 2 2 2 2 3 2 1 0 0 0 1 1 0 0 2 0 0 1 0 0 1 1 1 1 2 2 1 0 0 0 0 0 0 0 0 0 0 0 0 0 2 3 3 2 3 4 4 6 5 3 6 5 6 5 4 4 4 4 4 4 4 5 6 6 6 7 7 6 6 4 5 6 7 6 5 2 1 2 2 3 3 3 2 4 3 2 2 1 1 1 0 0 1 1 1 1 0 0 0 0 0 0 0 0 0 0 0 0 0 0 0 0 0 0 0 0 0 0 0 0 2 0 0 0 0 0 0 1 0 0 0 0 0 0 0 0 0 0 0 0 0 0 0 0 1 0 0 0 0 0 0 0 0 0 0 0 0 1 1 0 0 0 0 0 0 3 3 3 2 1 0 1 0 0 0 0 0 0 0 0 0 0 0 0 0 0 0 0 0 0 0 0 0 0 0 0 0 0 0 0 0 0 0 0 0 0 0 0 0 0 0 0 0 0 2 2 3 3 3 3 3 3 3 5 4 4 6 5 4 4 4 3 3 4 3 5 4 5 4 4 5 4 5 4 3 4 4 6 6 4 3 1 0 0 1 1 1 1 1 2 1 1 1 4 2 2 2 3 4 3 2 3 1 2 2 3 3 3 3 4 4 3 4 3 3 4 3 5 4 4 4 3 3 4 5 5 3 5 5 4 3 1 1 2 2 3 0 1 
2 2 0 1 0 1 1 2 2 3 4 2 0 0 0 0 0 2 1 1 1 1 1 1 0 0 0 0 0 0 0 0 0 0 0 0 0 0 0 0 0 0 0 0 0 0 0 0 0 0 0 0 0 0 0 0 0 0 0 0 0 0 0 0 0 0 0 0 0 0 0 0 0 0 0 0 0 0 0 1 3 3 2 2 3 3 4 3 1 2 0 1 0 0 0 0 0 0 0 0 0 2 1 2 2 2 0 0 0 0 0 0 0 0 0 0 0 0 0 0 0 0 0 0 0 0 0 0 0 0 1 0 0 1 1 2 0 1 0 1 3 2 1 2 1 3 3 4 5 6 5 5 5 4 6 6 5 5 5 5 6 6 6 4 4 4 4 4 4 4 4 5 4 4 5 3 3 2 4 3 4 4 3 3 4 4 3 3 3 3 1 1 1 2 0 0 1 0 0 0 1 0 1 2 2 2 3 3 2 0 0 0 0 0 0 1 1 1 0 0 0 1 0 1 0 2 1 1 1 1 0 0 0 1 0 0 0 0 0 0 0 0 0 0 0 0 0 0 0 0 0 0 1 1 1 0 0 0 0 0 0 0 0 0 0 0 0 0 0 0 0 0 0 0 0 0 0 0 0 0 0 0 0 0 0 0 0 0 0 0 0 0 0 0 0 0 0 0 0 0 0 0 0 0 0 0 0 0 0 0 0 0 0 0 0 0 1 0 1 2 0 1 2 2 2 1 3 1 2 3 3 2 3 3 4 2 2 2 1 0 0 0 0 0 0 0 1 0 0 0 0 1 1 1 1 1 1 0 0 0 0 0 0 0 0 0 1 0 0 0 1 1 2 3 3 2 3 4 4 5 5 4 6 4 4 3 4 2 4 4 3 4 4 5 6 6 8 8 6 7 7 6 6 6 5 6 3 3 1 2 0 1 1 2 3 3 2 1 2 0 2 1 1 1 0 1 0 0 1 1 0 0 0 0 0 0 0 0 0 0 0 0 0 0 0 0 0 0 0 0 0 0 1 0 0 0 0 0 0 0 0 0 0 0 0 0 0 0 0 0 0 0 0 0 0 0 0 0 0 1 0 0 0 0 0 0 0 0 0 1 1 0 0 0 1 1 1 1 1 1 2 2 0 0 0 0 0 0 0 0 0 0 0 0 0 0 0 0 0 0 0 0 0 0 0 0 0 0 0 0 0 0 0 0 0 0 0 0 0 0 0 0 0 0 0 0 2 2 3 3 4 4 4 3 4 4 4 4 4 4 3 4 4 2 4 4 4 5 6 5 5 5 5 4 5 4 4 4 4 4 4 3 3 3 2 1 1 2 2 3 3 2 1 2 2 4 4 3 4 4 4 4 3 3 1 2 2 3 3 4 4 5 4 4 3 3 3 4 4 5 5 5 4 3 4 4 3 3 4 4 3 2 2 1 0 0 0 0 0 0 
2 1 0 1 1 1 2 2 2 3 3 0 0 1 0 0 0 0 0 0 0 0 1 1 0 0 0 0 0 0 0 0 0 0 0 0 0 0 0 0 0 0 0 0 0 0 0 0 0 0 0 0 0 0 0 0 0 0 0 0 0 0 0 0 0 0 0 0 0 0 0 0 0 0 0 0 0 0 0 2 5 2 4 5 4 3 2 2 1 1 1 0 0 1 0 0 0 0 0 0 2 3 3 2 1 1 1 1 0 0 0 0 0 0 0 0 0 0 0 0 0 0 0 0 0 0 0 1 0 1 2 2 0 1 1 1 1 2 1 1 2 2 1 1 1 3 4 5 6 5 6 5 5 5 5 6 6 5 4 5 5 7 5 6 5 3 2 3 4 3 3 3 5 5 4 4 4 4 5 4 5 3 3 4 4 3 3 2 4 2 3 1 1 0 0 3 0 0 0 0 1 2 1 1 1 2 2 3 3 0 0 0 0 0 0 0 0 1 1 0 0 0 0 0 0 0 0 0 0 0 0 0 0 0 0 0 0 0 0 0 0 0 0 0 0 0 0 0 0 0 0 0 1 1 2 0 0 1 0 0 0 0 0 0 0 0 0 0 0 0 0 0 0 0 0 0 0 0 0 0 0 0 0 0 0 0 0 0 0 0 0 0 0 0 0 0 0 0 0 0 0 0 0 0 0 0 0 0 0 0 0 1 0 0 1 1 1 2 2 1 1 2 1 0 2 2 2 2 3 3 3 3 4 4 2 2 2 2 0 0 0 0 0 0 1 1 0 0 0 0 1 1 2 3 1 0 1 2 1 0 0 0 0 0 1 0 0 1 0 0 0 3 3 3 1 3 5 4 5 8 6 4 4 5 4 4 3 3 2 3 2 3 4 4 6 7 7 7 7 5 5 6 6 6 6 4 3 2 1 1 0 0 0 2 2 2 1 1 2 2 2 1 0 1 1 1 2 1 0 0 1 0 0 1 0 0 0 0 0 0 0 0 0 0 0 0 0 0 0 0 0 0 1 0 0 0 0 0 0 0 0 0 0 0 0 0 0 0 0 0 0 0 0 0 0 0 0 0 2 0 0 0 0 0 0 0 0 2 0 2 0 1 1 0 0 2 1 2 2 1 1 2 1 0 0 0 0 0 0 0 0 0 0 0 0 0 0 0 0 0 0 0 0 0 0 0 0 0 0 0 0 0 0 0 0 0 0 0 0 0 0 0 0 0 0 1 1 2 3 4 4 4 5 5 6 6 5 4 5 2 4 4 5 4 3 4 4 5 5 6 6 5 3 3 4 3 3 2 4 3 3 3 3 3 1 1 1 2 2 1 1 0 1 1 3 3 1 4 3 3 5 5 4 4 3 3 3 2 2 1 3 5 4 3 2 3 3 4 4 5 6 5 4 3 3 3 5 5 3 2 1 1 0 0 0 0 0 0 0 1 
1 1 1 2 2 1 0 1 1 3 1 1 1 1 0 0 0 0 0 0 0 0 0 0 0 0 0 0 0 0 0 0 0 0 0 0 0 0 0 0 0 0 0 0 0 0 0 0 0 0 0 0 0 0 0 0 0 0 0 0 0 0 0 0 0 0 0 0 0 0 0 0 0 0 0 0 0 0 1 3 3 2 2 3 4 4 4 3 1 1 1 2 1 1 0 0 1 0 0 1 2 2 4 3 2 1 1 1 0 0 0 0 0 0 0 0 0 0 0 0 0 0 0 0 0 0 2 2 0 1 1 2 2 1 1 1 3 2 3 3 2 2 1 2 1 3 4 4 5 5 4 5 6 5 5 6 5 5 6 6 5 6 6 6 6 5 3 3 3 3 4 5 4 4 5 4 4 5 5 4 4 5 4 4 4 3 4 2 2 2 2 1 1 0 2 0 1 0 0 0 0 2 2 2 1 1 2 1 1 1 0 0 0 0 0 0 0 0 0 0 0 0 0 0 0 0 1 0 0 0 0 0 0 0 0 0 0 0 0 0 0 0 0 0 0 0 0 0 0 0 0 0 1 1 1 1 2 0 0 0 0 0 0 0 0 0 0 0 0 0 0 0 0 0 0 0 0 0 0 0 0 0 0 0 0 0 0 0 0 0 0 0 0 0 0 0 0 0 0 0 0 0 0 0 1 0 0 0 0 0 0 0 0 0 0 1 2 2 1 1 0 0 0 1 2 1 3 4 3 3 4 6 6 4 3 3 1 1 2 0 0 0 0 0 0 2 2 3 1 1 2 2 1 3 2 0 1 0 0 0 0 0 0 0 1 1 1 1 2 1 0 1 1 2 1 3 4 4 5 5 5 4 5 3 5 5 4 3 3 2 3 5 4 4 5 6 5 6 6 6 5 4 6 5 5 3 3 2 2 2 0 0 1 2 2 2 2 2 1 2 1 0 1 0 2 2 2 1 1 0 0 0 0 0 0 0 0 0 0 0 0 0 0 0 0 0 0 1 0 0 0 0 0 0 0 0 0 0 0 0 0 0 0 0 0 0 0 0 0 0 0 0 0 0 0 0 0 0 0 0 0 0 0 0 0 0 0 0 0 1 0 0 0 0 0 0 1 2 1 2 2 2 1 1 0 0 0 0 0 0 0 0 0 0 0 0 0 0 0 0 0 0 0 0 0 0 0 0 0 0 0 0 0 0 0 0 0 0 0 0 0 0 0 0 0 2 2 3 4 6 3 3 4 5 4 5 4 5 5 4 5 5 5 3 2 3 5 5 5 6 5 5 4 5 5 3 2 2 3 4 4 3 4 3 2 2 2 3 3 3 1 1 0 1 3 2 3 4 4 4 4 5 5 3 3 2 3 1 0 1 1 3 3 2 2 4 4 3 3 4 4 4 4 2 3 3 3 2 2 1 0 0 0 0 0 0 0 0 1 0 
2 3 2 2 3 2 1 1 1 2 0 1 1 0 0 0 0 0 0 0 0 0 0 0 0 0 0 0 0 0 0 0 0 0 0 0 0 0 0 0 0 0 0 0 0 0 0 0 0 0 0 0 0 0 0 0 0 0 0 0 0 0 0 0 0 0 0 0 0 0 0 0 0 0 0 0 0 0 1 2 4 4 2 2 2 4 4 3 2 2 1 2 3 0 0 0 2 1 1 2 2 2 5 4 4 0 1 1 1 0 0 0 0 0 0 0 0 0 0 0 0 0 0 0 1 2 2 1 0 0 1 3 2 1 0 0 2 3 3 4 2 2 1 1 1 2 2 3 5 5 4 4 4 6 4 4 5 5 6 6 7 5 6 6 5 6 5 4 4 3 4 6 5 3 5 6 4 6 5 4 5 4 2 3 4 4 3 3 3 3 2 2 3 0 1 1 1 1 1 0 1 2 3 3 2 2 2 1 2 1 0 0 0 0 0 0 0 0 0 0 0 0 0 0 0 0 0 0 0 0 0 0 0 0 0 0 0 0 0 0 0 0 0 0 0 0 0 0 0 0 0 0 1 2 0 0 1 0 0 0 0 0 0 0 0 0 0 0 0 0 0 0 0 0 0 0 0 0 0 0 0 0 0 0 0 0 0 0 0 0 0 0 0 0 0 0 0 0 0 0 0 0 0 0 1 0 0 0 0 0 1 0 0 0 1 1 1 1 1 1 0 0 0 0 1 3 3 3 4 6 6 5 7 5 4 1 1 2 1 1 1 1 0 2 1 2 2 3 2 3 2 3 2 2 2 1 1 0 0 0 0 0 0 0 2 1 3 2 3 2 1 2 2 3 2 4 4 5 5 5 6 4 4 5 3 6 3 2 1 1 3 5 4 4 4 5 4 5 5 3 5 4 5 5 4 4 4 3 3 3 1 0 1 2 3 2 2 2 1 1 3 2 1 0 2 2 1 1 1 1 0 0 0 0 0 0 0 0 0 0 0 0 0 0 0 0 0 0 0 0 0 0 0 0 0 0 0 0 0 0 0 0 0 0 0 0 0 0 0 0 0 0 0 0 0 0 0 0 0 0 0 0 0 0 0 0 0 0 1 0 0 0 0 1 2 2 2 2 2 3 3 2 1 0 0 0 0 0 0 0 0 0 0 0 0 0 0 0 0 0 0 0 0 0 0 0 0 0 0 0 0 0 0 0 0 0 0 0 0 0 0 0 0 0 1 3 3 4 6 4 4 2 3 4 4 3 5 5 4 3 5 5 4 3 3 4 4 4 3 5 4 5 5 5 4 3 3 3 4 4 3 2 3 4 3 1 2 1 1 2 1 1 3 2 4 5 4 5 4 6 6 4 5 5 3 2 1 1 1 2 1 3 1 2 1 1 1 3 2 3 2 3 2 1 2 1 3 3 1 0 1 0 0 0 0 0 0 0 0 0 
1 2 3 1 1 3 2 3 1 0 0 0 0 0 0 0 0 0 0 0 0 0 0 0 1 0 0 1 1 0 0 0 0 0 0 0 0 0 0 0 0 0 0 0 0 0 0 0 0 0 0 0 0 0 0 0 0 0 0 0 0 0 0 0 0 0 0 0 0 0 0 0 0 0 2 2 2 1 2 2 3 3 3 3 3 3 3 2 3 2 1 3 1 0 0 1 2 2 1 2 1 2 5 3 3 2 1 1 2 0 0 0 0 0 0 0 0 0 0 0 0 0 0 1 2 3 4 3 3 4 2 2 2 1 1 1 1 1 0 2 3 1 2 2 0 1 1 3 4 4 4 5 4 5 5 6 5 5 5 6 5 5 5 4 6 5 5 6 4 4 6 5 4 4 3 6 6 5 5 4 4 2 4 3 4 4 5 2 3 2 2 2 2 1 1 2 2 3 3 2 0 0 1 3 3 1 1 1 1 0 0 0 0 0 0 0 0 0 0 0 0 0 0 0 0 0 0 0 0 0 0 0 0 0 0 0 0 0 0 0 0 0 0 0 0 0 0 0 0 0 0 0 0 1 1 1 1 1 0 0 0 0 0 0 0 0 0 0 0 0 0 0 0 0 0 0 0 0 0 0 0 0 0 0 0 0 0 0 0 0 0 0 0 0 0 0 0 0 0 0 0 0 0 1 0 1 0 0 0 0 0 0 1 0 1 0 0 0 0 1 2 1 1 2 3 3 5 6 6 6 7 6 5 5 4 2 1 2 2 2 2 1 1 1 1 1 4 4 4 3 2 2 3 1 2 1 0 0 0 0 0 0 0 0 2 3 5 4 4 3 2 2 3 4 4 4 4 4 5 5 5 5 4 3 4 2 2 1 2 2 2 3 5 4 5 5 5 5 4 2 4 5 5 5 3 4 4 2 3 4 4 2 2 2 1 3 2 1 1 2 1 2 3 2 2 1 1 0 0 0 0 0 0 0 0 0 0 0 0 0 0 0 0 0 0 0 0 0 0 0 0 0 0 0 0 0 0 0 0 0 0 0 0 0 0 0 0 0 0 0 0 0 0 0 0 0 1 1 1 0 0 0 0 0 0 0 0 0 0 0 1 0 0 1 2 1 4 5 4 4 3 2 1 0 0 0 1 0 0 0 0 0 0 0 0 0 0 0 0 0 0 0 0 0 0 0 0 0 0 0 0 0 0 0 0 0 0 0 0 0 0 0 0 1 2 4 3 5 4 4 3 2 4 3 1 3 5 3 3 5 4 4 3 4 4 3 3 3 3 4 4 3 4 5 4 3 3 5 5 3 3 2 3 2 2 2 1 1 0 0 2 2 4 3 5 4 5 6 5 5 5 4 4 3 1 1 0 1 1 2 0 2 1 0 0 0 0 0 1 2 2 1 0 2 1 3 2 1 1 2 0 0 0 0 0 0 0 0 0 0 
1 1 2 1 1 3 2 3 0 0 0 0 0 0 0 0 0 0 0 0 0 0 1 2 1 0 0 0 1 0 0 0 0 0 0 0 0 0 0 0 0 0 0 0 0 0 0 0 0 0 0 0 0 0 0 0 0 0 0 0 0 0 0 0 0 0 0 0 0 0 0 0 1 1 3 2 2 2 2 2 2 2 3 4 3 3 3 2 2 2 2 2 1 0 0 0 1 2 1 0 1 2 4 4 3 2 4 2 2 2 2 2 3 1 0 0 0 0 0 0 0 0 1 2 3 3 3 3 2 2 3 2 3 2 2 1 2 2 0 0 1 3 1 1 1 1 2 4 3 5 4 5 6 5 6 5 4 5 5 6 5 5 4 4 5 5 4 3 3 3 5 5 4 5 5 6 6 4 4 4 3 4 3 2 2 3 3 3 3 2 2 2 1 0 1 1 2 2 2 2 0 0 2 2 1 0 1 0 0 0 0 0 0 0 0 0 0 0 0 0 0 0 0 0 0 0 0 0 0 0 0 1 1 0 0 0 0 0 0 0 0 0 0 0 0 0 0 0 0 0 0 0 0 0 0 1 1 0 0 0 0 0 0 0 0 0 0 0 0 0 0 0 0 0 0 0 0 0 0 0 0 0 0 0 0 0 0 0 0 0 0 0 0 0 0 0 0 0 0 0 0 0 0 1 1 0 0 1 0 0 0 0 1 0 0 2 2 1 0 1 2 2 2 3 5 6 6 7 6 7 5 3 5 5 4 2 0 3 3 5 2 1 1 1 2 2 3 3 3 2 3 1 3 3 2 2 2 2 1 1 0 0 0 0 0 3 3 5 4 4 3 5 4 4 3 3 2 5 4 4 4 5 3 2 2 2 1 0 1 1 3 4 2 4 5 4 4 5 4 2 2 4 3 4 2 3 2 3 2 1 1 3 3 2 0 3 2 2 2 2 0 2 2 3 3 0 2 0 0 0 0 0 0 0 0 0 1 1 0 0 0 0 0 0 0 0 0 0 0 0 0 0 0 0 0 0 0 0 0 0 0 0 0 0 0 0 0 0 0 0 0 0 0 0 0 1 0 0 0 0 0 0 0 0 0 0 0 0 0 0 0 0 0 1 2 3 4 4 4 3 2 4 2 1 2 1 0 0 0 0 0 0 0 0 0 0 0 0 0 0 0 0 0 0 0 0 0 0 0 0 0 0 0 0 0 0 0 1 1 0 1 1 2 1 2 4 4 6 4 5 3 1 1 2 3 2 3 2 4 5 3 5 4 3 4 3 1 1 2 4 5 4 4 5 4 4 5 6 5 3 4 3 3 2 1 2 1 1 3 3 2 3 3 3 5 6 4 5 4 5 5 5 3 2 0 0 0 0 0 1 0 1 0 0 0 0 0 0 0 0 2 1 2 2 3 0 2 0 1 1 0 0 0 0 0 0 0 0 0 1 
0 0 2 3 2 3 2 0 0 0 0 0 0 0 0 0 0 0 0 0 0 1 1 1 1 0 0 0 1 0 0 0 0 0 0 0 0 0 0 0 0 0 0 0 0 0 0 0 0 0 0 0 0 0 0 0 0 0 0 0 0 0 0 0 0 0 0 0 0 0 0 0 0 2 2 2 3 2 2 3 3 3 3 5 3 3 2 0 1 2 1 3 2 1 1 0 1 1 2 0 2 3 4 4 4 2 3 3 5 3 2 3 1 2 0 0 0 0 0 0 1 3 3 2 3 2 2 2 3 2 3 1 1 1 2 2 2 2 2 1 1 2 2 0 0 0 2 3 3 4 5 4 5 5 6 5 5 3 3 3 3 3 4 3 5 3 3 3 1 2 3 4 2 5 6 6 5 4 4 3 3 2 3 3 4 3 2 2 3 2 2 3 1 0 1 2 2 1 2 0 0 0 2 3 2 0 0 0 0 0 0 0 0 0 0 0 0 0 0 0 0 0 0 0 0 0 0 0 0 0 1 0 0 0 0 0 0 0 0 0 0 0 0 0 0 0 0 0 0 0 0 0 0 0 0 1 1 0 0 0 0 0 0 0 0 0 0 0 0 0 0 0 0 0 0 0 0 0 0 0 0 0 0 0 0 0 0 0 0 0 0 0 0 0 0 0 0 0 0 0 0 1 2 3 2 2 0 1 0 0 0 0 0 2 3 3 2 1 1 3 2 4 4 4 5 6 6 6 6 5 5 4 3 4 3 3 1 4 3 3 2 2 0 0 1 2 3 4 2 3 2 3 3 3 3 4 2 1 1 0 1 1 0 0 0 1 2 3 4 5 4 4 5 4 3 2 2 2 3 4 2 3 3 1 3 2 2 0 2 2 2 3 2 1 4 4 4 3 3 2 3 3 3 2 3 2 1 2 2 1 1 4 4 3 2 2 1 2 2 1 1 3 3 3 3 2 1 1 0 0 1 0 0 0 0 0 0 1 1 0 0 0 0 0 0 0 0 0 0 0 0 0 0 0 0 0 0 0 0 0 0 0 0 0 0 0 0 0 0 0 0 0 0 0 0 0 0 0 0 0 0 0 0 0 0 1 1 0 0 0 0 0 0 1 4 4 5 4 5 6 3 2 1 1 1 0 0 0 0 0 0 0 0 0 0 0 0 0 0 0 0 0 0 0 0 0 0 0 0 0 0 0 0 0 0 1 0 2 1 1 1 1 2 3 4 4 5 5 4 2 2 3 2 2 2 4 2 2 1 4 5 5 5 4 4 3 1 2 3 5 4 5 4 3 4 3 5 6 5 4 4 3 2 2 2 2 1 2 2 3 3 5 4 5 4 5 5 4 5 5 6 3 2 1 1 2 0 0 0 0 1 1 0 0 0 0 0 0 0 0 1 1 2 1 1 2 0 0 0 0 0 0 0 0 0 0 0 0 0 0 
0 0 1 1 2 2 2 0 0 0 0 0 0 0 0 0 0 0 0 0 0 1 1 0 1 0 1 1 0 0 0 0 0 0 0 0 0 0 0 0 0 0 0 0 0 0 0 0 0 0 0 0 0 0 0 0 0 0 0 0 0 0 0 0 0 0 0 0 0 0 0 0 2 2 3 1 2 2 2 3 4 3 5 4 5 3 2 1 3 2 4 2 1 1 0 1 2 4 3 3 2 3 3 3 4 3 2 3 4 4 4 3 2 2 1 1 1 0 0 0 1 1 3 3 3 2 3 3 3 2 3 3 1 1 2 2 3 2 3 2 1 1 1 1 0 2 1 3 5 4 4 6 3 4 4 4 3 4 3 2 1 1 2 3 2 3 1 2 2 4 2 2 2 4 6 5 4 6 6 4 3 3 4 4 4 4 3 3 3 2 3 1 1 0 1 1 2 1 1 0 0 0 1 2 2 1 0 0 0 0 0 0 0 0 0 0 0 0 0 0 0 0 0 0 0 0 0 0 0 0 0 0 0 0 0 0 0 0 0 0 0 0 0 0 0 0 1 0 0 0 0 0 0 1 0 1 1 0 0 0 0 0 0 0 0 0 0 0 0 0 0 0 0 0 0 0 0 0 0 0 0 0 0 0 0 0 0 0 0 0 0 0 0 0 0 0 0 0 0 0 0 0 1 1 2 2 2 0 0 0 0 0 0 2 4 4 5 3 3 3 4 4 3 4 5 5 6 5 7 6 5 4 3 3 4 3 3 4 3 2 3 3 1 1 3 3 2 5 4 5 6 3 2 3 4 3 3 3 1 2 1 2 0 1 0 1 3 2 2 5 4 3 4 4 3 2 3 2 2 3 2 3 3 1 2 2 2 1 0 1 1 2 1 1 2 3 4 3 2 2 2 3 1 1 0 1 1 0 1 0 1 2 2 1 2 2 0 2 3 2 3 3 2 3 3 3 2 2 0 1 0 0 0 0 0 0 0 0 1 0 0 0 0 0 0 0 0 0 0 0 0 0 0 0 0 0 0 0 0 0 0 0 0 0 0 0 0 0 0 0 0 0 0 0 0 0 1 0 0 0 0 0 0 0 0 0 0 0 0 0 0 0 1 2 4 5 4 4 4 4 2 0 0 0 1 0 0 0 0 0 0 1 0 0 0 0 0 0 0 0 0 0 0 0 0 0 0 0 0 0 1 1 1 0 1 0 0 1 0 1 0 1 3 3 4 5 5 3 2 3 2 2 2 2 2 2 1 2 3 2 2 4 3 2 2 3 2 3 3 3 4 5 4 4 4 3 4 6 5 4 5 3 4 3 1 3 2 3 2 4 4 5 4 5 6 5 5 4 4 5 5 4 3 2 2 1 0 1 1 0 1 1 1 0 0 0 0 0 0 0 0 1 1 0 0 0 0 1 0 0 0 0 0 0 0 0 0 0 0 0 
1 0 1 2 2 1 2 1 0 0 0 1 0 0 0 0 0 1 0 0 1 0 1 0 0 0 0 0 0 0 0 0 0 0 0 0 0 0 0 0 0 0 0 0 0 0 0 0 0 0 0 0 0 0 0 0 0 0 0 0 0 0 0 0 0 0 0 0 0 0 0 0 0 1 2 1 0 0 1 3 3 4 6 5 4 3 3 2 2 2 2 2 1 0 1 3 5 6 5 5 3 3 2 4 3 2 4 5 3 5 3 2 2 2 2 1 1 0 0 1 1 2 2 3 2 3 3 3 3 3 3 2 2 2 3 3 3 3 2 1 0 1 1 1 0 1 3 4 4 3 4 4 5 4 4 3 1 2 3 2 1 1 1 1 1 0 1 2 3 3 2 2 3 4 4 5 4 4 4 3 3 4 5 5 5 4 3 3 3 2 1 1 0 0 0 0 3 1 0 0 0 0 0 0 1 2 0 0 0 0 0 0 0 0 0 0 0 0 0 0 0 0 0 0 0 0 0 0 0 0 0 0 0 0 0 0 0 0 0 0 0 0 0 0 0 0 0 0 1 1 1 0 1 2 1 0 0 0 0 0 0 0 0 0 0 0 0 0 0 0 0 0 0 0 0 0 0 0 0 0 0 0 0 0 0 0 0 0 0 0 0 0 0 0 0 0 0 1 0 1 0 0 2 3 3 2 1 0 0 0 0 0 3 3 2 5 4 3 2 1 3 3 2 4 4 5 6 6 6 8 4 3 3 3 3 3 3 2 3 2 3 2 1 2 2 3 2 4 4 5 6 4 4 3 4 5 3 3 3 1 2 2 2 1 1 1 1 2 1 2 4 3 3 2 1 2 1 2 2 2 1 2 2 1 1 0 0 1 2 1 1 0 0 0 0 1 2 3 2 1 3 1 1 1 0 1 0 0 0 0 0 1 1 4 2 1 1 1 2 3 3 4 4 3 1 2 2 1 1 2 1 1 0 0 0 0 0 0 0 0 0 0 0 0 0 0 0 0 0 0 0 0 0 0 0 0 0 0 0 0 0 0 0 0 0 0 0 0 0 0 0 0 0 0 0 0 0 0 0 0 0 0 0 0 0 0 0 1 1 1 1 0 1 1 3 3 3 2 3 3 1 1 0 0 0 1 1 1 0 0 0 0 0 0 1 0 0 0 0 2 1 1 1 1 1 0 0 0 0 0 0 0 1 2 2 1 0 0 0 1 1 2 0 3 4 4 5 4 4 3 2 2 2 2 1 1 1 2 2 1 1 2 2 1 2 2 2 3 4 4 4 4 5 5 4 4 4 6 5 4 5 5 3 5 3 2 3 3 3 4 5 5 5 5 5 6 4 4 5 4 4 3 2 1 1 2 1 1 0 0 0 1 1 1 1 0 0 0 0 0 0 1 0 0 0 0 0 0 0 0 0 0 0 0 0 0 0 0 0 0 
0 0 1 2 2 2 1 0 2 1 0 0 1 0 1 0 0 0 0 0 1 2 1 2 0 0 0 0 0 0 0 0 0 0 0 0 0 0 0 0 0 0 0 0 0 0 0 0 0 0 0 0 0 0 0 0 0 0 0 0 0 0 0 0 0 0 0 0 0 0 0 0 0 1 1 2 1 1 1 2 3 3 4 6 6 4 4 3 2 2 3 3 1 0 1 3 5 5 6 6 5 4 4 5 5 5 4 5 3 4 4 3 4 3 2 2 0 0 0 2 2 2 3 4 4 3 1 2 4 4 3 2 2 1 1 1 3 1 0 1 1 0 0 2 2 1 3 2 2 3 4 4 4 2 3 3 1 1 1 1 0 0 0 0 0 1 1 1 2 2 4 3 3 3 3 5 5 4 4 5 4 5 5 5 5 4 3 3 2 1 1 1 0 0 0 1 0 0 0 0 0 0 0 0 0 0 1 0 0 0 0 0 0 0 0 0 0 0 0 0 0 0 0 0 0 0 0 0 0 0 0 0 0 0 0 0 0 0 0 0 0 0 0 0 0 0 0 1 1 1 1 1 3 1 1 1 0 0 0 0 0 0 0 0 0 0 0 0 0 0 0 0 0 0 0 0 0 0 0 0 1 0 0 0 0 0 0 0 0 0 0 0 0 0 0 0 0 0 0 0 0 1 1 1 1 1 2 2 0 0 2 1 2 3 4 4 3 2 3 3 3 3 4 1 3 4 4 5 6 5 3 3 3 2 3 4 2 3 3 3 3 3 2 1 3 3 3 5 5 6 5 4 4 3 4 4 5 4 3 3 2 2 3 1 1 0 0 0 1 2 3 2 2 1 2 3 3 2 1 2 2 2 1 1 0 0 0 0 0 1 0 0 0 0 0 0 1 1 3 2 1 1 0 1 0 0 0 1 0 0 0 0 0 1 0 1 2 1 1 2 3 3 2 1 0 2 2 1 1 2 1 0 0 0 0 0 0 0 0 0 0 0 0 0 0 0 0 0 0 0 0 0 0 0 0 0 0 0 0 0 0 0 0 0 0 0 0 0 0 0 0 0 0 0 0 0 0 0 0 0 0 0 0 0 0 0 0 0 0 2 1 1 1 2 4 3 3 5 3 4 2 1 0 0 0 0 0 0 0 0 0 0 1 1 0 1 2 0 0 1 1 2 3 2 0 0 2 1 0 1 1 2 3 2 2 1 0 0 0 0 1 1 0 4 3 4 6 5 4 4 4 2 2 1 1 2 2 2 2 1 3 2 3 3 1 3 2 2 2 2 4 3 4 4 3 3 3 3 4 4 4 4 3 3 3 1 3 3 4 3 3 4 4 4 4 4 5 5 5 3 4 3 2 2 1 1 1 1 1 0 0 0 2 2 2 1 0 0 0 0 0 0 0 0 0 0 0 0 0 0 0 0 0 0 0 0 0 0 0 0 
0 1 1 1 1 1 1 1 2 0 0 0 0 0 0 0 0 0 0 0 1 1 3 0 0 0 0 0 0 0 0 0 0 0 0 0 0 0 0 0 0 0 0 0 0 0 0 0 0 0 0 0 0 0 0 0 0 0 0 0 0 0 0 0 0 0 0 0 0 0 0 1 1 2 2 1 0 0 1 2 1 2 3 5 5 6 4 2 4 3 2 2 0 0 1 1 3 4 5 5 7 5 7 5 5 5 4 4 4 3 5 4 5 4 3 3 2 2 1 2 3 4 3 3 5 3 4 3 5 4 2 2 2 2 0 3 2 0 0 0 0 0 0 0 0 0 1 1 1 2 3 2 2 2 0 1 1 1 0 1 0 0 0 0 0 0 1 1 1 3 4 3 4 3 4 4 3 4 2 4 4 4 5 5 5 4 3 1 2 0 0 0 0 0 0 0 3 1 1 0 0 0 0 0 0 0 0 0 0 0 0 0 0 0 0 0 0 0 0 0 0 0 0 0 0 0 0 0 0 0 0 0 0 0 0 0 0 0 0 0 0 0 0 0 0 0 0 2 1 0 2 2 2 3 3 1 0 0 0 0 0 0 0 0 0 0 0 0 0 0 1 0 0 0 0 1 0 0 0 1 1 0 0 0 0 0 0 0 0 0 0 0 0 0 0 0 1 2 1 0 1 0 0 2 2 2 1 1 0 1 1 2 3 3 3 4 4 5 4 5 3 3 2 3 3 3 5 4 5 5 4 3 3 3 4 5 3 4 4 4 5 3 2 3 2 5 3 5 5 3 3 5 5 4 4 4 4 4 4 4 4 2 2 0 2 2 0 0 0 1 0 1 2 2 3 2 2 1 2 3 3 2 0 0 0 0 0 0 0 0 0 0 0 0 0 0 1 1 2 1 2 1 1 0 0 0 1 1 0 1 1 1 1 1 1 1 1 1 2 1 2 3 2 2 1 1 1 1 2 2 1 1 0 0 0 0 0 0 0 0 0 0 0 0 0 0 0 0 0 0 0 0 0 0 0 0 0 0 0 0 0 0 0 0 0 0 0 0 0 0 0 0 0 0 0 0 0 0 0 0 0 1 2 1 0 0 0 0 1 0 0 1 2 2 5 4 4 5 4 2 1 1 1 0 0 0 0 0 0 0 0 0 1 1 0 1 0 2 2 2 2 2 3 3 1 3 3 1 1 2 2 3 2 3 2 1 1 0 1 1 1 1 1 2 5 3 4 4 4 3 2 1 1 1 1 1 3 3 2 1 2 3 2 1 2 2 3 3 2 3 4 4 5 4 4 4 3 4 3 4 6 5 4 2 3 3 3 3 5 4 3 4 4 3 3 5 4 4 4 2 3 2 2 2 1 0 0 0 0 0 0 0 0 2 2 1 1 0 0 0 0 0 0 0 0 0 0 0 0 0 0 0 0 0 0 0 0 0 0 0 
0 0 1 0 1 2 0 0 1 0 0 0 0 0 0 1 0 0 0 0 1 0 0 1 0 0 0 0 0 0 0 0 0 0 0 0 0 0 0 0 0 0 0 0 0 0 0 0 0 0 0 0 0 0 0 0 0 0 0 0 0 1 2 1 0 0 0 0 0 0 0 0 0 2 2 2 1 1 1 2 2 2 4 5 4 3 5 3 3 2 2 3 2 1 0 2 2 4 4 5 7 8 7 6 5 5 6 6 5 4 3 4 3 4 2 2 2 3 1 2 2 3 3 3 3 4 5 5 4 3 1 2 1 2 2 2 2 1 0 0 0 0 0 0 0 0 0 0 0 1 1 2 2 2 2 1 0 1 0 0 0 0 0 0 1 2 0 1 2 3 4 3 6 5 3 3 2 2 3 2 2 3 3 4 3 3 3 2 1 0 0 1 0 0 0 0 0 0 2 0 0 0 0 0 0 0 0 0 0 0 0 0 0 0 0 0 0 0 0 0 0 0 0 0 0 0 0 0 0 0 0 0 0 0 0 0 0 0 0 0 0 0 0 0 0 0 0 0 1 2 2 3 3 2 2 1 1 2 0 0 0 0 0 0 0 0 2 1 0 0 0 0 0 1 1 0 1 3 1 0 0 0 0 0 0 0 0 0 0 0 0 1 0 0 0 0 1 1 1 2 1 1 0 0 2 2 2 1 2 2 2 2 0 3 3 4 4 5 4 4 4 1 2 2 2 3 6 6 5 4 3 4 3 3 2 3 4 4 4 3 5 3 2 4 3 4 4 4 2 2 3 4 5 3 3 2 3 4 4 4 4 3 2 1 1 1 0 0 1 2 2 2 2 2 2 1 1 2 2 2 0 1 0 0 0 0 0 0 0 0 0 0 0 0 0 0 1 1 0 1 1 0 0 0 0 0 1 1 2 1 2 1 1 1 0 1 0 0 0 2 3 3 2 1 3 2 1 2 2 1 1 1 1 0 0 0 0 0 0 0 0 0 0 0 0 0 0 0 0 0 0 0 0 0 0 0 0 0 0 0 0 0 0 0 0 0 0 0 0 0 0 0 0 0 0 0 0 0 0 0 0 2 2 2 0 0 0 0 0 0 0 0 2 3 4 5 5 3 3 2 1 0 1 0 0 1 0 0 0 1 1 2 2 1 1 2 1 2 1 3 3 3 4 3 2 3 3 1 2 2 3 3 3 3 2 3 1 1 1 1 1 1 2 2 2 3 4 4 4 4 2 2 2 2 0 2 2 1 1 1 2 3 2 2 1 2 2 3 3 3 4 4 4 4 3 2 2 4 4 5 6 4 5 3 3 2 2 2 3 6 5 4 3 4 5 4 4 3 4 3 4 4 3 3 1 1 0 0 0 0 0 0 0 0 0 0 0 0 0 0 0 0 0 0 0 0 0 0 0 0 0 0 0 0 0 0 0 0 0 0 
1 0 0 1 1 0 1 1 1 0 2 1 0 2 0 0 0 0 0 0 0 0 2 1 0 0 0 0 0 0 0 0 0 0 0 0 0 0 0 0 0 0 0 0 0 0 0 0 0 0 0 0 0 0 0 0 0 0 0 0 0 1 0 0 0 0 0 0 0 0 0 0 0 0 0 0 1 1 2 1 3 4 4 5 3 3 3 3 2 1 2 2 1 1 2 2 1 3 4 5 6 7 6 7 5 5 6 5 5 5 4 4 3 4 3 2 2 2 1 2 2 3 3 4 4 6 5 4 3 3 3 3 3 3 3 3 2 0 0 0 0 0 0 0 0 0 0 0 0 1 1 0 1 1 0 0 0 0 0 0 0 0 0 0 1 1 1 0 2 1 2 3 4 4 2 1 0 1 0 1 0 1 2 4 4 2 2 1 1 0 1 2 2 0 0 0 0 2 1 0 0 0 0 1 1 0 0 0 0 0 0 0 0 0 0 0 0 0 0 0 0 0 0 0 0 0 0 0 0 0 0 0 0 0 0 0 0 0 0 0 0 0 0 0 0 0 0 0 0 1 1 2 1 2 3 1 0 0 0 0 0 0 0 0 0 0 0 1 0 0 0 1 0 0 1 1 2 1 1 1 2 0 0 0 0 0 0 0 0 0 1 0 0 0 0 1 0 3 2 3 1 2 1 1 2 2 1 1 1 2 1 1 0 1 2 4 3 4 5 4 2 3 1 3 3 4 5 6 5 3 3 3 5 4 3 2 2 3 3 3 4 4 4 4 5 4 5 4 4 3 4 4 5 3 3 2 2 5 5 5 5 4 2 1 0 0 0 0 0 1 2 1 1 2 1 0 0 0 2 2 2 0 0 0 0 0 0 0 0 0 0 0 0 0 0 0 0 1 2 1 0 0 0 0 0 0 1 0 0 0 0 1 1 1 1 0 0 0 1 3 3 2 1 1 1 3 2 1 2 1 0 1 0 0 0 0 0 0 0 0 0 0 0 0 0 0 0 0 0 0 0 0 0 0 0 0 0 0 0 0 0 0 0 0 0 0 0 0 0 0 0 0 0 0 0 0 0 0 0 0 0 2 2 0 0 0 0 0 0 0 0 1 2 2 4 6 5 4 2 1 1 0 2 0 1 1 1 2 1 2 1 2 1 1 2 2 1 3 3 3 4 4 5 4 4 3 4 2 1 3 5 4 4 2 3 3 3 3 2 1 0 0 1 2 2 2 3 3 4 2 3 2 1 0 1 0 0 0 0 1 2 2 0 1 1 2 3 4 2 3 3 3 4 3 3 3 1 2 3 4 5 4 3 3 2 3 4 2 3 3 3 3 4 5 6 4 5 3 4 3 2 2 2 2 1 1 0 0 0 0 0 0 0 0 0 0 0 0 0 0 0 0 0 0 0 0 0 0 0 0 0 0 0 0 0 0 0 0 0 1 
0 0 1 2 0 0 0 0 0 0 3 0 0 0 0 0 0 0 0 0 1 0 0 0 0 0 0 0 0 0 0 0 0 0 1 0 0 0 0 0 0 0 0 0 0 0 0 0 0 0 0 0 0 0 0 0 0 0 0 1 0 0 0 0 0 0 0 0 0 0 0 0 0 0 0 0 0 1 2 2 2 3 3 3 4 2 2 0 2 2 2 1 1 1 0 1 1 4 4 4 5 7 7 6 6 5 5 6 5 5 3 4 3 3 3 3 4 3 4 3 2 3 3 4 3 4 4 3 5 4 4 3 2 3 2 3 1 0 0 0 0 0 0 0 0 0 0 1 0 0 0 1 2 1 1 0 0 0 0 0 0 0 0 1 2 1 1 2 2 3 2 3 3 2 1 1 0 0 1 1 2 2 2 3 2 2 2 2 2 0 1 1 2 1 0 1 1 3 1 1 1 0 2 0 1 0 0 0 0 0 0 0 0 0 0 0 0 0 0 0 0 0 0 0 0 0 0 0 0 0 0 0 0 0 0 0 0 0 0 0 0 0 0 0 0 0 0 0 0 0 0 3 3 2 0 0 1 0 0 0 0 0 0 0 0 0 0 0 0 0 0 0 0 0 1 2 1 2 1 0 0 0 0 0 0 0 0 0 0 0 1 1 2 1 1 0 1 2 4 3 2 2 2 2 3 1 2 3 3 3 2 1 2 0 1 1 1 3 4 3 4 3 2 2 2 2 3 4 5 3 4 4 5 1 1 1 3 4 2 2 1 3 4 4 3 3 5 4 4 4 5 4 4 3 3 2 4 4 4 5 4 3 3 2 1 2 1 0 0 1 2 0 0 1 0 0 0 1 1 2 0 0 0 0 0 0 0 0 0 0 0 0 0 0 0 0 0 1 2 0 0 0 0 0 0 0 0 0 0 0 1 1 0 1 0 1 0 1 2 3 3 2 1 2 2 3 3 1 2 1 1 0 0 0 0 0 0 0 0 0 0 0 0 0 0 0 0 0 0 0 0 0 0 0 0 0 0 0 0 0 0 0 0 0 0 0 0 0 0 0 0 0 0 1 0 0 0 0 0 0 0 0 1 0 0 0 0 0 0 0 0 0 0 3 2 4 3 4 3 3 3 1 0 1 1 2 1 1 1 1 1 3 3 1 3 2 1 3 2 3 3 3 5 5 5 4 5 5 3 2 3 4 4 3 4 4 4 3 2 3 1 1 2 1 2 2 2 2 3 1 2 2 0 1 0 0 1 1 0 0 1 2 1 0 0 2 3 4 3 2 3 3 4 3 3 2 3 3 4 4 3 4 2 2 2 2 3 4 3 3 3 5 6 7 6 4 4 4 2 3 2 2 3 1 1 1 0 0 0 0 0 0 0 0 0 0 0 0 0 0 0 0 0 0 0 0 0 0 0 0 0 0 0 0 0 0 0 0 0 0 
0 0 1 2 0 0 0 0 0 0 1 0 0 0 0 0 0 0 0 0 0 0 0 0 0 0 0 0 1 0 0 0 0 0 0 1 0 0 0 0 0 0 0 0 0 0 0 0 0 0 0 0 0 0 0 0 1 0 0 0 0 0 0 0 0 0 0 0 0 0 0 0 0 1 0 0 1 1 2 2 2 2 2 3 3 2 1 0 0 2 4 1 1 0 0 0 2 5 4 4 5 5 5 5 6 5 7 5 5 4 5 3 2 2 3 4 5 4 4 4 2 3 4 4 4 4 3 2 3 4 4 4 3 3 3 3 0 0 0 0 0 0 0 0 0 0 1 0 0 1 0 0 1 2 2 1 0 0 0 0 0 0 0 0 0 0 1 1 1 3 3 1 2 1 2 0 0 2 1 0 1 3 3 2 3 2 5 3 2 1 1 1 1 0 0 1 2 0 1 1 0 1 0 2 1 0 1 0 0 0 0 0 0 0 0 0 0 0 0 0 0 0 0 0 0 0 0 0 0 0 0 0 0 0 0 0 0 0 0 0 0 0 0 0 0 0 0 0 0 0 0 3 2 1 2 0 0 0 0 0 0 0 0 0 0 0 0 0 0 0 0 0 0 0 1 2 1 2 0 1 0 1 0 0 0 0 0 0 0 1 1 1 2 0 1 1 0 1 1 2 1 0 1 3 2 1 2 4 3 2 1 0 0 0 0 1 2 2 2 3 4 3 2 4 3 3 2 3 4 4 3 4 5 3 3 2 2 3 2 1 2 3 3 4 3 4 3 5 5 6 6 4 4 4 4 3 4 3 3 4 4 3 2 1 1 2 1 1 0 1 1 1 1 0 0 0 0 1 0 0 0 0 0 0 0 0 0 0 0 0 0 0 0 0 0 0 1 0 1 1 0 0 0 1 1 0 0 0 0 0 0 1 0 0 0 1 2 2 3 3 4 0 1 1 2 2 1 1 1 1 1 1 0 0 0 0 0 0 0 0 0 0 0 0 0 0 0 0 0 0 0 0 0 0 0 0 0 0 0 0 0 0 0 0 0 0 0 0 0 0 0 0 0 0 0 0 0 0 0 0 0 0 1 0 0 0 0 0 0 0 0 0 1 1 2 3 5 3 3 2 2 2 1 1 4 2 2 2 1 2 2 3 3 3 3 4 4 2 2 4 3 5 5 6 4 4 4 6 6 3 3 4 4 5 3 2 2 2 2 3 2 2 2 2 2 1 4 3 2 2 1 0 1 0 2 0 1 1 1 0 0 0 1 0 1 3 2 2 4 4 2 2 3 2 3 3 3 2 3 3 4 5 3 3 3 2 2 3 4 4 5 6 4 5 5 5 5 3 4 2 1 1 2 1 1 0 0 0 0 0 0 0 0 0 0 0 0 0 0 0 0 0 0 0 0 0 0 0 0 0 0 0 0 0 0 0 0 0 0 0 
0 2 1 0 0 0 0 1 0 0 0 0 0 0 0 0 0 1 0 0 0 0 0 1 0 0 0 1 1 1 0 0 1 1 2 0 0 0 0 0 0 0 0 0 0 0 0 0 0 0 0 1 0 0 0 1 0 2 0 1 0 0 0 0 0 0 0 0 0 0 0 1 0 1 1 2 1 0 1 2 1 2 1 2 2 1 1 1 2 1 1 2 2 1 1 1 3 4 3 3 4 6 6 7 6 6 7 6 4 5 4 4 3 2 3 3 4 4 4 4 4 5 5 4 4 5 4 3 3 3 3 3 2 1 1 1 0 0 0 0 0 0 0 0 0 0 0 0 0 0 1 0 0 0 1 0 0 0 0 0 0 0 0 0 0 0 0 0 1 2 2 2 2 2 2 1 2 0 1 1 2 4 3 2 3 3 3 3 1 0 0 0 0 0 0 0 0 0 2 1 1 0 2 3 2 1 1 0 0 0 0 0 0 0 0 0 0 0 0 0 0 0 0 0 0 0 0 0 0 0 0 0 0 0 0 0 0 0 0 0 0 0 0 0 0 0 0 0 0 1 2 2 1 0 1 0 0 0 0 0 0 0 0 0 1 0 1 1 0 1 0 0 0 0 0 1 1 1 2 1 3 1 0 0 0 0 1 0 1 1 1 1 1 1 1 1 2 3 2 2 1 2 2 2 2 2 3 3 4 2 0 0 0 0 0 0 1 2 1 2 2 3 2 2 3 3 3 3 4 4 3 4 3 2 3 4 3 4 3 2 1 1 1 3 4 4 5 6 6 7 7 7 7 5 5 4 4 3 2 3 2 4 1 1 1 1 0 1 0 0 0 1 1 0 0 0 0 0 0 0 1 0 0 0 0 0 0 0 0 0 0 0 0 0 0 0 0 0 0 0 0 0 0 1 0 0 0 0 0 0 0 0 0 0 2 2 1 2 2 1 2 1 1 0 0 0 0 0 0 0 1 1 0 0 0 0 0 0 0 0 0 0 0 0 0 0 0 0 0 0 0 0 0 0 0 0 0 0 0 0 0 0 0 0 0 0 0 0 0 0 0 0 0 0 0 0 0 0 0 0 0 0 1 0 0 0 0 0 0 0 0 0 1 2 2 3 2 2 2 2 3 3 1 2 3 3 1 2 2 2 2 2 2 4 3 5 5 3 5 5 5 5 6 6 5 4 6 6 5 4 2 3 4 3 3 1 2 1 1 3 3 3 2 3 3 3 3 3 2 2 0 0 0 2 1 1 1 0 0 0 0 0 0 2 1 1 1 2 2 3 2 2 2 4 3 3 3 4 3 5 4 3 3 4 3 3 2 3 3 4 4 4 4 4 4 5 5 4 2 1 1 1 1 1 0 0 0 0 0 0 0 0 0 0 0 0 0 0 0 0 0 0 0 0 0 0 0 0 0 0 0 0 0 0 0 0 0 0 0 0 
0 0 0 0 0 0 0 2 1 1 0 0 0 0 0 0 1 0 0 0 0 0 0 1 0 0 1 1 1 1 0 0 1 2 0 0 0 0 0 0 0 0 0 0 0 0 0 0 0 0 0 0 0 0 0 1 0 0 0 0 0 0 0 0 0 0 0 0 0 0 0 0 1 0 1 1 1 1 3 3 2 1 1 2 2 2 0 0 0 0 1 1 0 1 1 2 4 3 4 4 4 5 6 6 7 7 6 6 6 5 4 5 4 3 3 6 6 6 4 5 4 5 6 5 5 4 4 4 3 4 3 2 0 1 2 1 0 0 0 0 0 0 0 0 0 0 0 0 0 0 0 0 0 0 0 0 0 0 0 0 0 0 0 0 0 0 0 0 0 2 0 2 2 2 2 2 1 0 1 1 2 3 2 2 3 4 4 3 1 0 0 0 0 0 0 0 1 0 2 1 0 0 1 2 0 0 0 0 0 0 0 0 0 0 0 0 0 0 0 0 0 0 0 0 0 0 0 0 0 0 0 0 0 0 0 0 0 0 0 0 0 0 0 0 0 0 0 0 1 2 0 0 0 0 0 0 0 0 0 0 0 0 0 0 0 0 0 1 0 1 1 0 0 0 1 3 2 2 2 4 3 2 1 1 1 0 0 0 0 0 0 0 1 2 2 1 1 4 3 4 4 4 3 2 3 2 1 3 2 1 1 0 0 0 0 1 1 0 1 0 1 1 1 2 2 3 4 4 2 3 3 5 4 3 2 3 3 4 6 3 4 1 2 3 3 4 4 5 7 7 7 7 6 6 4 4 4 4 3 3 3 2 2 1 0 0 0 0 0 1 0 2 0 0 0 0 0 0 0 0 0 0 0 0 0 0 0 0 0 0 0 0 0 0 0 0 0 0 0 0 0 0 0 0 0 0 0 0 0 0 0 0 0 1 2 2 3 4 2 1 1 1 1 0 0 0 0 0 0 0 0 0 0 0 0 0 0 0 0 0 0 0 0 0 0 0 0 0 0 0 0 0 0 0 0 0 0 0 0 0 0 0 0 0 0 0 0 0 0 0 0 0 0 0 0 0 0 0 0 0 0 0 0 0 0 0 0 0 0 0 0 0 1 1 1 1 2 2 2 3 3 2 3 2 4 3 2 3 4 4 4 3 3 5 5 4 4 4 5 5 6 6 6 7 4 5 6 5 5 4 4 4 4 3 2 2 0 0 2 1 4 3 3 4 4 5 3 2 1 2 1 0 0 0 0 1 0 1 0 0 0 0 0 0 1 0 1 2 3 3 2 3 2 4 4 4 5 4 5 4 3 2 3 3 4 4 3 3 3 3 3 5 4 4 3 3 2 2 1 1 0 1 1 0 0 0 0 0 0 0 0 0 0 0 0 0 0 0 0 0 0 0 0 0 0 0 0 0 0 0 0 0 0 0 0 0 0 0 0 0 
0 0 0 1 1 1 1 1 1 1 0 0 0 0 0 0 0 0 0 0 0 0 0 0 0 0 0 0 0 0 0 1 1 0 1 0 0 0 0 0 0 0 0 0 0 0 0 0 0 0 2 1 0 0 1 0 0 1 0 0 0 0 0 0 0 0 0 0 0 0 0 0 0 0 1 1 1 2 2 2 1 2 0 1 1 0 0 0 0 0 0 0 0 0 1 1 4 5 5 5 5 5 4 7 8 6 6 6 6 6 4 6 4 3 5 5 6 7 5 7 6 5 6 6 4 3 4 4 3 3 2 2 1 1 1 0 0 0 1 0 0 0 0 0 0 0 1 0 0 0 0 0 0 0 0 0 0 0 0 0 0 0 0 0 0 0 0 0 0 0 0 2 2 2 2 2 2 3 2 1 2 2 1 1 2 4 2 3 0 0 0 0 0 0 0 0 0 1 0 0 0 0 0 0 0 0 0 0 0 0 0 0 0 0 0 0 0 0 0 0 0 0 0 0 0 0 0 0 0 0 0 0 0 0 0 0 0 0 0 0 0 0 0 0 0 0 0 0 1 1 2 0 0 0 0 0 0 0 0 0 0 0 0 0 0 0 2 1 1 1 1 0 0 1 2 4 3 4 4 4 2 2 2 2 2 1 1 0 0 1 2 0 1 3 2 3 2 4 4 4 4 4 4 4 2 0 0 2 4 1 0 1 1 1 0 0 2 1 1 1 2 2 1 1 2 3 2 5 4 5 3 5 4 4 3 1 3 3 4 4 3 3 2 2 4 4 4 6 6 6 6 6 7 6 5 4 2 2 4 2 2 0 0 0 0 0 0 0 2 1 1 1 1 0 0 0 0 1 0 0 0 0 0 0 0 0 0 0 0 0 0 0 0 0 0 0 0 0 0 0 0 0 0 0 0 0 0 0 0 0 0 0 0 0 1 2 3 3 1 1 1 1 1 0 0 0 0 0 0 0 0 0 0 0 0 0 0 0 0 0 0 0 0 0 0 0 0 0 0 0 0 0 0 0 0 0 0 0 0 0 0 0 0 0 0 0 0 0 0 0 0 0 0 0 0 0 0 0 0 0 0 1 0 0 0 0 0 0 0 0 0 0 1 1 1 1 1 1 1 3 3 1 3 3 3 3 3 3 5 4 3 3 4 4 5 6 4 6 6 6 5 6 5 5 6 5 7 5 5 4 5 4 2 2 1 0 0 1 1 2 3 2 2 4 4 5 2 2 2 1 0 1 0 0 0 1 0 0 0 0 0 0 0 2 0 1 0 3 4 4 2 1 2 3 5 6 5 3 4 3 5 3 2 3 3 3 3 3 3 3 1 3 3 3 2 1 2 2 0 0 0 0 0 1 0 0 0 0 0 0 0 0 0 0 0 0 0 0 0 0 0 0 0 0 0 0 0 0 0 0 0 0 0 0 0 0 0 0 0 0 
0 0 0 1 2 1 1 0 1 1 0 0 0 0 0 0 0 0 0 0 0 0 0 1 0 0 0 0 0 0 0 0 0 0 1 0 0 0 0 0 0 0 0 0 0 0 0 0 1 2 1 2 1 1 1 2 3 0 1 0 1 1 0 0 0 0 0 0 0 0 0 0 0 0 1 0 1 1 1 0 0 0 0 0 0 0 1 0 1 0 0 1 0 1 3 3 4 6 6 6 6 6 5 6 8 7 6 7 6 6 6 5 4 4 5 3 4 5 5 6 5 4 6 5 5 5 5 3 4 3 2 3 4 1 2 0 0 0 1 0 0 0 0 0 0 0 0 0 1 1 0 0 0 0 0 0 0 0 0 0 0 0 0 0 0 0 0 0 0 0 0 1 2 1 2 2 1 2 2 1 2 2 3 2 2 2 2 0 0 0 0 0 0 0 0 0 0 0 1 1 0 0 0 0 0 0 0 0 0 0 0 0 0 0 0 0 0 0 0 0 0 0 0 0 0 0 0 0 0 0 0 0 0 0 0 0 0 0 0 0 0 0 0 0 0 0 0 0 0 0 0 0 0 0 0 0 0 0 0 0 0 0 0 0 0 0 2 0 2 3 0 1 2 2 3 2 3 4 4 3 3 2 3 2 2 1 0 0 0 1 2 0 2 3 2 3 2 3 5 4 4 4 4 4 3 1 2 1 3 2 3 3 1 2 2 2 2 2 1 0 0 1 0 1 2 3 3 2 2 4 4 4 4 4 4 2 2 2 3 5 5 3 4 4 4 4 5 6 7 6 7 6 6 6 4 6 3 2 2 2 1 1 0 0 0 0 0 1 0 1 0 0 1 0 0 0 1 0 0 0 0 0 0 0 0 0 0 0 0 0 0 0 0 0 0 0 0 0 0 0 0 0 0 0 0 0 0 0 0 0 0 0 0 0 1 3 2 3 2 0 2 0 0 0 0 0 0 0 0 1 0 0 1 0 0 0 0 0 0 0 0 0 0 0 0 0 0 0 0 0 0 0 0 0 0 0 0 0 0 0 0 0 0 0 0 0 0 0 0 0 0 0 0 0 0 0 0 0 0 0 0 0 0 0 0 0 0 0 0 0 0 0 0 1 0 0 0 1 2 2 2 3 2 2 2 2 4 3 4 3 4 3 3 3 5 6 5 4 5 6 7 8 6 6 7 6 6 5 4 3 3 3 3 4 1 1 0 1 0 2 2 3 4 4 5 4 3 0 1 2 2 1 0 0 0 0 0 0 0 0 0 0 0 0 1 1 0 3 3 2 2 1 2 3 4 3 3 3 3 3 4 4 4 3 1 2 2 1 2 2 1 3 2 3 2 1 2 0 1 0 0 1 0 0 0 0 0 0 0 0 0 0 0 0 0 0 0 0 0 0 0 0 0 0 0 0 0 0 0 0 0 0 0 0 0 0 0 0 0 0 
0 0 1 1 1 1 0 0 1 1 0 0 0 0 0 0 0 0 0 0 0 0 1 0 0 0 0 0 0 0 0 0 0 0 0 0 0 0 0 0 1 0 0 0 0 0 0 0 1 2 2 2 2 2 2 1 1 1 1 1 0 0 0 0 0 0 0 0 0 0 0 0 0 0 2 1 0 0 1 0 0 0 0 1 1 1 0 0 0 0 2 2 3 3 3 4 6 7 6 5 5 6 6 6 7 6 5 6 5 6 6 7 4 4 4 6 5 6 5 4 6 5 5 4 6 5 5 4 4 4 3 5 3 3 2 2 0 1 0 0 0 0 0 0 0 0 0 1 0 0 0 0 0 0 0 0 0 0 0 0 0 0 0 0 0 0 0 0 0 0 1 0 1 0 1 2 1 1 2 0 0 0 1 1 3 1 1 0 0 0 0 0 0 0 0 0 0 0 1 1 0 0 0 0 0 0 0 0 0 0 0 0 0 0 0 0 0 0 0 0 0 0 0 0 0 0 1 0 0 0 0 0 0 0 0 0 0 0 0 0 0 0 0 0 0 0 0 1 0 0 0 0 0 0 0 0 0 0 0 0 0 0 0 0 1 2 2 2 2 2 2 1 2 2 2 3 4 4 5 5 3 3 2 2 2 1 0 0 0 2 2 0 1 2 2 4 4 4 5 3 5 4 4 2 1 1 0 1 0 0 1 2 1 1 3 2 1 1 0 0 0 0 0 2 1 2 2 3 3 3 5 4 4 3 3 2 1 2 3 5 6 4 4 3 4 5 7 6 7 8 6 5 6 6 5 4 3 2 1 1 2 1 1 1 0 1 0 0 1 0 0 0 0 0 0 0 0 0 0 0 0 0 0 0 0 0 0 0 0 0 0 0 0 0 0 0 0 0 0 0 0 0 0 0 0 0 0 0 0 0 0 0 0 0 0 0 1 0 2 0 0 0 0 0 0 0 0 0 0 0 0 1 1 1 0 0 0 0 0 0 0 0 0 0 0 0 0 1 0 0 0 0 0 0 0 0 0 0 0 0 0 0 0 0 0 0 0 0 0 0 0 0 0 0 1 0 0 0 0 0 0 0 0 0 0 0 0 0 0 0 0 0 1 1 0 0 1 2 2 1 2 3 3 3 2 3 3 3 4 2 3 2 2 3 6 5 6 6 5 5 8 10 8 6 7 8 7 5 5 3 4 5 3 3 3 1 1 1 1 3 3 2 2 5 4 3 2 1 3 2 0 0 0 0 0 0 0 0 0 0 1 0 1 0 0 2 0 3 2 2 1 2 3 4 4 2 2 2 2 2 2 1 2 3 1 1 2 1 1 2 2 2 2 3 2 1 2 0 0 0 0 0 0 0 0 0 0 0 0 0 0 0 0 0 0 0 0 0 0 0 0 0 0 0 0 0 0 0 0 0 0 0 0 0 0 0 0 0 0 0 
0 0 0 0 0 0 0 0 0 0 0 0 0 0 0 0 0 0 0 0 0 0 0 0 0 0 0 0 0 0 0 0 0 0 1 1 1 1 1 0 2 0 0 1 1 1 1 2 1 3 3 3 2 2 2 2 3 2 3 2 2 0 0 0 0 0 0 0 0 0 0 0 0 0 0 0 1 0 0 0 0 0 0 0 0 1 0 1 0 2 2 2 3 3 3 3 4 6 5 5 5 4 5 5 6 6 7 6 4 6 7 6 5 5 5 5 6 4 5 5 4 5 7 7 5 4 7 6 4 4 4 3 4 3 0 1 1 0 0 0 0 0 0 0 0 0 0 0 1 1 0 0 0 0 0 0 0 0 0 0 0 0 0 0 0 0 0 0 0 0 0 0 1 0 1 2 0 2 1 0 0 0 0 1 1 0 0 0 0 0 0 0 0 0 0 0 0 0 1 0 0 0 0 0 0 0 0 0 0 0 0 0 0 0 0 0 0 0 0 0 0 0 0 0 0 0 1 1 0 0 0 0 0 0 0 0 0 0 0 0 0 0 0 0 0 0 0 0 0 0 0 1 1 0 0 0 0 0 0 0 0 0 0 0 1 1 1 2 3 2 3 3 3 2 3 4 3 4 4 3 2 2 2 2 1 2 2 2 3 3 4 3 5 3 2 4 5 5 5 4 5 4 3 3 1 0 0 0 0 0 0 0 1 0 1 2 1 1 1 2 1 0 2 1 2 3 2 1 3 3 5 3 4 4 4 1 1 2 2 4 4 3 3 4 5 5 4 4 6 7 5 4 5 4 3 3 2 2 1 2 0 0 0 0 0 0 1 0 0 0 0 0 0 0 0 1 0 0 0 0 0 0 0 0 0 0 0 0 0 0 0 0 0 0 0 0 0 0 0 0 0 0 0 0 0 0 0 0 0 0 0 0 0 0 0 0 0 0 0 0 0 0 0 0 0 0 0 0 0 0 0 0 0 1 0 0 0 0 0 0 0 0 0 0 0 0 0 0 1 0 1 1 0 0 0 0 0 0 0 0 0 0 0 0 0 0 0 0 0 0 0 0 0 1 1 0 0 0 0 0 0 0 0 0 0 0 0 0 0 0 0 0 1 0 2 0 0 1 2 2 3 3 4 3 4 3 2 3 3 3 2 3 3 3 5 8 7 6 6 7 7 6 7 8 9 9 7 5 5 4 4 4 3 2 1 1 1 0 2 2 3 3 1 3 3 3 3 1 3 1 0 0 0 0 0 0 1 0 0 0 1 2 2 2 1 1 0 2 3 2 3 3 4 3 3 3 2 0 2 1 3 1 3 2 2 2 0 0 0 0 1 2 3 2 1 1 2 1 0 0 0 0 0 0 0 0 0 0 0 0 0 0 0 0 0 0 0 0 0 0 0 0 0 0 0 0 0 0 0 0 0 0 0 0 0 0 0 0 0 0 
0 0 0 0 0 0 0 0 0 0 0 0 0 0 0 0 0 0 0 0 0 0 0 0 0 0 0 0 0 0 0 1 0 0 1 1 1 2 1 1 0 1 1 1 1 2 2 2 2 3 4 2 3 2 3 3 2 3 1 1 1 0 0 0 0 0 0 0 1 0 0 0 0 1 0 0 0 0 0 0 0 0 0 1 2 2 1 1 1 2 3 2 4 2 2 4 4 3 4 5 4 5 6 6 5 6 6 5 6 8 7 6 5 5 6 4 4 5 6 5 4 5 6 7 6 4 4 5 4 3 4 2 2 2 1 1 0 0 0 0 0 0 0 0 0 0 0 0 1 0 1 0 0 0 0 0 0 0 0 0 0 0 0 0 0 0 0 0 0 0 0 0 0 0 1 2 1 0 0 0 0 0 0 0 0 0 0 0 0 0 0 0 0 0 0 0 0 1 0 2 0 0 0 0 0 0 0 0 0 0 0 0 0 0 0 0 0 0 0 0 0 0 0 0 0 0 0 0 0 0 0 0 0 0 0 0 0 0 0 0 0 0 0 0 0 0 0 0 0 0 1 0 2 0 0 0 0 0 0 0 0 0 0 0 0 0 1 2 2 1 3 3 3 1 3 3 2 3 1 3 4 4 4 4 3 4 3 1 3 3 4 5 5 4 2 4 3 4 4 4 4 2 2 0 1 0 0 0 0 0 0 0 1 2 2 1 0 0 0 3 3 3 1 0 1 3 3 4 2 2 3 3 3 3 2 1 1 2 2 4 3 3 2 2 4 5 4 6 5 5 5 3 4 3 1 2 3 3 0 1 1 0 0 0 1 1 0 0 2 0 0 0 0 0 0 0 0 0 0 0 0 0 0 0 0 0 0 0 0 0 0 0 0 0 0 0 0 0 0 0 0 0 0 0 0 0 0 0 0 0 0 0 0 0 0 0 0 0 0 0 0 0 0 0 0 0 0 0 0 0 0 0 0 0 0 0 0 0 0 0 0 0 1 0 0 0 0 0 0 0 0 0 0 0 0 0 0 0 0 0 1 0 0 0 0 0 0 0 0 0 0 0 0 2 2 0 0 0 0 0 0 0 0 0 0 0 0 0 0 0 0 0 2 2 2 2 2 2 3 3 2 3 3 3 3 4 4 3 4 2 3 5 2 3 3 7 6 7 6 6 7 7 9 9 9 8 7 5 5 4 4 3 2 1 1 2 1 2 1 1 2 4 3 5 4 4 1 1 2 2 1 0 0 0 1 0 1 1 0 2 3 2 2 2 2 3 2 1 2 2 1 2 2 3 4 3 2 0 1 1 1 0 1 1 1 2 1 1 0 1 1 1 2 2 2 1 1 2 0 0 0 0 0 0 0 0 0 0 0 0 0 0 0 0 0 0 0 0 0 0 0 0 0 0 1 0 0 0 0 0 0 0 0 0 0 0 0 0 0 0 
0 0 0 0 0 0 0 0 0 0 0 0 0 0 0 0 0 0 0 0 0 0 0 0 0 0 0 1 0 0 0 0 0 1 2 2 1 2 2 1 1 1 2 1 0 2 3 3 4 2 4 2 3 1 2 2 3 2 1 1 1 0 0 0 0 0 0 2 3 1 0 0 0 0 0 0 0 0 1 1 0 2 1 2 2 2 2 0 2 2 1 2 1 1 0 2 2 2 2 5 5 4 4 5 5 6 6 6 7 7 7 7 6 6 4 5 4 5 6 5 4 5 5 6 5 4 4 3 4 4 3 3 2 2 1 0 0 0 0 0 0 0 0 0 0 0 0 0 0 0 0 1 0 0 0 0 0 0 0 0 0 0 0 0 0 0 0 0 0 0 0 0 0 0 0 0 0 0 0 0 0 0 0 0 0 0 0 0 0 0 0 0 0 0 0 0 0 1 2 1 1 0 0 0 0 0 0 0 0 0 0 0 0 0 0 0 0 0 0 0 0 1 0 0 0 0 0 0 1 0 0 0 0 0 0 0 0 0 0 0 0 0 0 0 0 0 0 0 0 0 0 1 1 0 0 0 0 0 1 1 0 0 0 0 1 0 2 3 2 2 1 2 3 4 3 2 2 4 3 3 4 4 5 4 4 3 4 3 4 3 5 7 5 4 5 5 4 3 2 5 4 2 2 0 0 0 0 0 0 1 1 0 0 0 1 2 1 1 2 3 3 2 1 1 2 4 4 2 3 3 3 2 1 0 1 3 1 3 1 3 2 4 3 2 4 3 3 3 4 5 5 4 3 4 1 1 0 2 2 0 2 2 0 0 0 0 0 1 0 0 0 0 0 0 0 0 0 0 0 0 0 0 0 0 0 0 0 0 0 0 0 0 0 0 0 0 0 0 0 0 0 0 0 0 0 0 0 0 0 0 0 0 0 0 0 0 0 0 0 0 0 0 0 0 0 1 1 0 0 0 0 0 0 0 0 0 0 0 0 0 0 0 1 0 0 0 0 1 0 1 2 2 0 1 2 0 1 0 1 0 0 0 0 1 0 0 0 1 0 0 0 0 0 0 1 1 0 0 0 0 0 0 0 0 0 0 0 0 0 0 0 0 2 2 2 2 2 1 2 2 2 3 3 2 3 3 3 4 4 3 4 3 4 3 5 7 6 6 8 5 7 8 8 7 8 8 8 4 4 5 5 4 3 2 2 1 3 4 3 2 3 4 4 5 4 5 1 1 2 0 0 0 0 0 0 0 0 1 0 0 1 2 1 0 1 1 2 2 1 0 0 1 2 4 2 2 2 2 1 1 0 1 2 1 0 0 0 0 1 1 2 2 2 3 2 1 0 0 0 1 0 0 0 0 0 0 0 0 0 0 0 0 0 0 0 0 0 0 0 0 0 0 0 0 1 1 0 0 0 0 0 0 0 0 0 0 0 0 0 0 
0 0 0 0 0 0 0 0 0 0 0 0 0 0 0 0 0 0 0 0 0 0 0 0 0 1 1 1 0 1 2 1 0 2 3 2 3 1 0 1 3 3 2 3 2 1 3 2 4 5 5 3 2 2 1 2 1 2 2 0 0 0 0 0 0 0 1 2 2 2 1 1 0 0 0 0 1 0 1 0 1 2 2 2 3 1 1 2 0 1 1 1 1 2 2 2 3 3 4 4 6 5 4 5 6 5 6 7 9 7 7 6 6 5 6 5 5 6 5 6 4 5 3 4 4 3 3 3 3 5 4 2 3 2 2 0 0 0 0 0 0 0 0 0 0 0 0 1 0 0 0 0 0 0 0 0 0 0 0 0 0 0 0 0 0 0 0 0 0 0 0 0 0 0 0 0 0 0 0 0 0 0 0 0 0 0 0 0 0 0 0 0 0 0 0 0 1 2 2 0 0 0 0 0 0 0 0 0 0 0 0 0 0 0 0 0 0 0 0 0 0 0 0 0 0 0 0 2 0 0 0 0 0 0 0 0 0 0 0 0 0 0 0 0 0 0 0 0 0 0 1 0 0 0 0 0 0 0 0 0 1 1 1 0 0 0 2 2 2 2 2 3 4 5 5 4 4 4 4 4 4 4 4 4 4 3 4 4 2 3 4 6 3 2 3 3 2 4 3 4 4 2 2 0 0 0 0 0 0 0 1 1 1 0 0 1 2 3 2 3 2 2 2 1 1 3 4 3 3 2 2 0 1 2 2 1 2 2 1 2 4 4 4 3 3 2 1 3 4 3 5 4 4 3 2 1 2 3 0 0 0 1 1 0 1 1 0 0 0 0 0 0 0 0 0 1 0 0 0 0 0 0 0 0 0 0 0 0 0 0 0 0 0 0 0 0 0 0 0 0 0 0 0 0 0 0 0 0 0 0 0 0 0 0 0 0 0 0 0 0 0 0 0 0 0 0 0 0 0 0 0 0 0 0 0 0 0 0 0 0 0 0 0 1 1 1 1 1 1 2 2 1 2 1 1 1 0 2 2 0 0 0 0 0 0 0 0 0 0 0 0 0 2 1 0 0 0 0 0 0 0 0 0 0 0 0 0 0 0 0 1 2 1 3 3 3 4 4 3 4 3 3 3 2 3 3 3 4 4 3 4 5 5 5 5 8 6 6 7 6 7 6 7 7 8 8 7 5 5 5 2 3 3 2 3 3 4 2 2 2 3 4 5 5 5 3 1 1 0 0 0 0 0 0 0 0 1 1 1 0 0 0 0 1 1 0 1 0 1 0 0 1 1 3 2 1 1 1 1 0 0 0 2 1 1 0 0 0 0 0 0 1 2 1 2 2 0 0 0 0 0 0 0 0 0 0 0 0 0 0 0 0 0 0 0 0 0 0 0 0 0 0 0 0 1 0 0 0 0 0 0 0 0 0 0 0 0 0 0 0 
0 0 0 0 0 0 0 0 0 0 0 0 0 0 0 0 0 0 0 0 0 0 0 0 0 2 3 2 2 2 3 2 2 2 3 3 3 1 0 2 2 4 3 3 3 4 4 3 5 5 3 3 3 5 3 3 1 2 3 1 0 0 0 0 0 0 1 1 0 1 0 0 0 0 0 0 2 1 1 0 0 1 2 1 0 1 2 2 1 0 1 1 1 2 1 2 3 2 4 4 4 6 6 7 6 6 5 6 5 6 6 7 5 5 5 4 4 3 4 4 4 3 3 3 3 2 3 3 2 3 1 4 3 1 2 1 0 0 0 0 0 0 0 0 0 0 2 1 1 1 1 1 0 0 0 0 0 0 0 0 0 0 0 0 0 0 0 0 0 0 0 0 0 0 0 0 0 0 0 0 0 0 0 0 0 0 0 0 0 0 0 0 0 0 0 0 1 3 1 1 0 1 2 0 0 0 0 0 1 1 0 0 0 0 0 0 0 0 1 1 0 0 0 0 0 0 0 1 1 0 0 1 1 0 0 0 0 0 0 0 0 0 0 0 0 0 0 0 0 0 0 0 1 0 0 0 0 0 0 0 0 0 1 1 1 2 2 2 1 2 2 2 4 4 4 5 4 5 6 6 7 5 4 5 4 4 3 2 1 3 3 3 4 3 3 2 3 4 4 3 3 4 2 3 2 0 0 1 0 1 1 0 1 1 1 0 0 3 4 1 2 1 1 2 2 3 5 2 2 2 0 0 2 1 3 3 3 3 1 1 3 3 3 1 2 2 3 3 2 2 4 3 2 2 1 2 2 1 1 1 2 0 1 0 0 1 1 0 0 0 0 0 0 1 0 0 0 0 0 0 0 0 0 0 0 0 0 0 0 0 0 0 0 0 0 0 0 0 0 0 0 0 0 0 0 0 0 0 0 0 0 0 0 0 0 0 0 0 0 0 0 0 0 0 0 1 0 0 0 0 0 0 0 0 0 0 0 0 0 0 1 1 1 2 0 1 3 2 3 3 3 2 1 2 2 0 1 1 1 1 2 0 0 0 1 0 0 0 0 0 0 1 0 2 0 0 0 0 0 0 0 0 0 0 0 0 0 0 0 0 1 2 1 1 2 4 4 4 3 4 4 3 4 4 4 3 4 4 4 5 4 5 4 6 7 6 6 6 6 5 5 6 6 6 6 6 6 5 4 2 3 2 3 3 4 3 2 2 3 2 4 4 4 4 5 3 2 1 0 0 0 0 0 0 0 0 0 1 0 0 0 0 0 2 2 1 1 0 0 1 0 2 1 2 2 1 0 0 0 0 0 0 1 1 0 0 0 0 0 0 0 0 0 0 0 0 0 0 0 0 0 0 0 0 0 0 0 0 0 0 0 0 0 0 0 0 0 0 0 0 0 0 0 1 0 0 0 0 0 0 0 0 0 0 0 0 0 0 0 0 
0 0 0 0 0 0 0 0 0 0 0 0 0 0 0 0 0 0 0 0 0 0 0 0 2 1 3 3 3 4 4 2 4 4 3 2 0 1 2 1 2 3 3 3 5 5 5 3 4 3 2 3 4 3 3 3 2 2 3 3 1 1 1 0 0 1 0 0 1 0 1 2 1 1 1 1 0 1 2 0 1 1 0 0 0 0 0 0 0 0 1 1 1 2 4 4 1 4 4 5 6 6 5 6 6 5 5 5 5 7 6 5 5 5 3 3 3 3 4 5 3 4 3 3 2 1 3 3 3 2 3 3 2 3 3 2 0 0 0 0 0 0 0 0 1 1 3 1 2 2 2 2 0 0 0 0 0 0 0 0 0 0 0 0 0 0 0 0 0 0 0 0 0 0 0 0 0 0 0 0 0 0 0 0 0 0 0 0 0 0 0 0 0 0 0 0 0 1 2 0 0 2 0 1 2 2 0 1 0 1 0 0 0 0 0 0 2 2 1 0 0 0 0 0 0 0 0 0 0 0 0 0 0 0 0 0 0 0 0 0 0 0 0 0 0 0 0 0 0 0 0 0 0 0 0 0 0 0 0 0 0 0 1 0 1 1 1 1 2 1 3 3 5 5 4 4 3 5 5 6 6 4 4 4 3 5 2 1 2 3 3 1 2 3 2 3 4 5 6 5 6 4 2 2 2 1 1 0 0 1 1 1 1 0 0 2 0 0 0 1 2 1 1 2 2 2 4 4 3 2 2 1 0 1 2 1 2 3 3 3 3 2 3 1 0 1 2 3 2 3 3 4 2 1 2 2 1 0 0 0 0 0 0 0 0 0 0 0 0 0 0 0 0 1 0 0 0 0 0 0 0 0 0 0 0 0 0 0 0 0 0 0 0 0 0 0 0 0 0 0 0 0 0 0 0 0 0 0 0 0 0 0 0 0 0 0 0 0 0 0 0 0 0 0 0 0 0 0 0 0 0 0 0 0 0 0 0 0 0 1 2 1 2 2 2 3 3 4 4 5 4 3 0 0 1 1 1 2 2 0 1 1 1 2 0 0 0 1 0 0 0 0 0 1 0 1 1 0 0 0 0 0 0 0 0 0 0 0 0 0 0 1 0 2 2 2 3 3 2 3 4 3 3 4 3 3 3 4 5 5 6 4 6 6 7 6 7 7 7 4 4 6 6 6 5 7 5 3 3 3 3 4 3 3 3 2 3 2 2 2 2 3 5 4 5 2 1 1 0 0 1 0 0 1 0 0 0 0 0 0 0 0 0 0 0 2 1 1 0 1 0 2 2 1 1 0 0 0 0 0 0 0 0 0 0 0 0 0 0 0 0 0 0 0 0 0 0 0 0 0 0 0 0 0 0 0 0 0 0 0 0 0 0 0 0 0 0 0 0 0 0 0 0 1 1 0 0 0 0 0 0 0 0 0 0 0 0 0 0 0 
0 0 0 0 0 0 0 0 0 0 0 0 0 0 0 0 0 0 0 0 0 0 0 0 1 1 2 3 4 5 4 4 4 4 5 4 2 1 2 2 2 3 5 4 5 6 5 4 4 4 1 3 3 2 2 5 4 3 2 2 3 2 3 3 1 0 2 1 1 2 1 0 1 0 0 0 0 1 2 2 1 1 1 0 1 0 0 0 0 1 2 1 1 2 3 3 4 4 5 5 5 6 6 5 4 5 5 4 5 5 6 4 2 1 1 2 2 2 3 2 4 3 3 2 3 2 2 4 3 2 2 2 3 2 2 2 1 0 0 0 0 0 0 0 0 1 1 1 2 0 1 0 0 0 0 0 0 0 0 0 0 0 0 0 0 0 0 0 0 0 0 0 0 0 0 0 0 0 0 0 0 0 0 0 0 0 0 0 0 0 0 0 0 0 0 0 0 0 1 0 1 1 0 1 1 0 1 1 1 1 0 1 0 1 0 1 2 1 1 0 1 0 0 0 0 0 0 0 0 0 0 0 0 0 0 0 0 0 0 0 0 0 0 0 0 0 0 0 0 0 0 0 0 0 0 0 0 0 0 1 1 1 1 2 3 2 3 1 1 3 3 4 4 5 6 6 5 6 5 5 6 3 3 3 2 3 1 2 1 2 3 4 3 2 3 3 3 4 4 4 5 4 2 1 2 1 2 2 1 2 2 1 1 0 0 1 1 0 0 0 0 1 2 2 2 3 3 1 2 1 1 2 0 1 0 0 2 1 2 1 3 1 1 0 1 2 2 2 3 1 4 4 4 4 2 2 2 0 0 0 0 0 0 0 0 0 1 0 0 0 0 1 1 1 0 1 0 0 0 0 0 0 0 0 0 0 0 0 0 0 0 0 0 0 0 0 0 0 0 0 0 0 0 0 0 0 0 0 0 0 0 0 0 0 0 0 0 0 0 0 0 0 0 0 0 0 0 1 0 0 0 0 0 0 0 0 0 1 1 2 3 2 3 3 3 4 4 4 4 4 3 3 1 1 1 0 2 2 1 1 0 1 3 3 1 1 1 0 0 1 1 0 0 1 1 1 0 2 1 1 0 0 0 0 0 0 0 0 0 0 0 0 0 2 3 3 5 3 1 2 2 3 3 3 4 3 2 2 4 4 4 6 6 7 6 6 7 6 6 4 4 6 6 6 4 4 3 3 4 4 4 2 3 3 2 1 0 0 1 2 2 2 3 5 5 4 2 2 0 1 0 0 0 0 0 0 1 1 0 0 0 0 0 0 0 1 0 0 1 0 1 0 0 0 0 0 0 0 0 0 1 0 0 0 0 0 0 0 0 0 0 0 0 0 0 0 0 0 0 0 0 0 0 0 0 0 0 0 0 0 0 0 0 0 0 0 1 0 0 0 0 0 0 0 0 0 0 0 0 0 0 0 0 0 0 0 0 0 0 0 
0 0 0 0 0 0 0 0 0 0 0 0 0 0 0 0 0 0 0 0 0 0 0 0 0 0 2 2 5 6 4 4 4 5 5 4 1 2 3 2 3 2 3 4 3 6 4 3 3 2 2 3 4 5 3 3 4 4 3 2 2 3 3 1 1 0 1 2 2 1 1 1 0 0 0 0 0 0 2 2 2 1 2 2 1 1 1 0 0 1 1 2 3 3 2 2 4 5 6 5 4 5 5 4 3 3 3 5 5 4 5 4 1 0 1 1 3 3 3 2 4 2 3 3 3 3 2 3 2 3 4 4 4 3 1 1 0 0 0 0 2 1 1 0 1 1 1 3 2 0 2 0 0 0 0 0 0 0 0 0 0 0 0 0 0 0 0 0 0 0 0 0 0 0 0 0 0 0 0 0 0 0 0 0 0 0 0 0 0 0 0 0 0 0 0 0 0 0 0 1 0 0 1 1 0 1 2 1 0 0 1 1 2 1 1 0 2 1 0 1 1 0 1 0 1 0 1 0 0 1 1 1 0 0 0 0 0 0 0 0 0 0 0 0 0 0 0 0 0 0 0 0 1 1 0 0 0 0 1 3 2 2 1 2 1 2 4 2 3 4 5 6 4 6 6 6 6 5 4 4 4 2 2 3 3 4 1 1 2 1 3 4 3 3 4 3 3 2 4 4 4 4 3 1 3 1 1 2 2 2 2 2 2 2 1 0 0 0 0 0 0 0 2 2 2 3 4 3 1 1 0 0 0 0 3 1 1 1 2 1 2 1 0 2 1 0 2 3 2 3 2 4 3 2 1 2 1 0 0 0 0 0 0 0 0 0 0 0 0 0 0 0 1 1 1 0 1 0 0 0 0 0 0 0 0 0 0 0 0 0 0 0 0 0 0 0 0 0 0 0 0 0 0 0 0 0 0 0 0 0 0 0 0 0 0 0 0 0 0 0 0 0 0 0 0 0 0 0 0 0 0 0 0 0 0 1 1 0 1 2 2 3 4 4 4 4 3 4 4 3 3 5 3 2 2 1 1 2 3 0 2 4 2 3 1 3 2 1 1 1 0 0 0 0 2 1 0 1 1 0 0 0 0 0 0 1 0 0 0 0 0 1 2 4 2 3 3 3 2 2 3 2 4 5 5 4 5 4 3 4 4 5 5 4 5 5 5 5 5 5 6 5 6 6 6 5 5 4 3 2 3 2 3 2 0 0 0 2 2 2 1 2 4 2 5 4 4 3 2 0 0 0 0 0 1 1 0 1 0 0 0 0 0 0 0 1 0 0 0 0 0 0 0 0 0 0 0 0 0 0 0 0 0 0 0 0 0 0 0 0 0 0 0 0 0 0 0 0 0 0 0 0 0 0 0 1 0 0 0 0 0 0 0 0 0 0 0 1 0 0 0 0 0 0 0 0 0 0 0 0 0 0 0 0 0 0 0 0 0 0 
0 0 0 0 0 0 0 0 0 0 0 0 0 0 0 0 0 0 0 0 0 0 0 1 0 1 2 1 4 2 4 3 5 4 5 3 4 3 3 2 2 3 1 4 4 5 4 4 6 5 4 4 5 3 4 3 3 5 4 3 0 1 2 1 2 1 1 0 2 2 2 0 1 0 0 0 0 1 2 2 1 2 3 3 2 2 2 0 0 1 1 2 3 4 4 4 2 4 4 3 3 5 4 4 2 3 3 4 4 3 3 3 0 0 2 1 2 2 2 3 4 2 3 4 2 2 2 3 2 3 5 4 2 1 1 1 0 0 0 0 0 2 1 1 0 0 2 2 1 2 1 1 0 0 0 0 0 0 0 0 0 0 0 0 0 0 0 0 0 0 0 0 0 0 0 0 0 0 0 0 0 0 0 0 0 0 0 0 0 0 0 0 0 0 0 0 0 0 0 0 0 0 1 1 1 2 2 1 1 1 0 0 1 2 0 1 0 2 2 1 0 0 0 2 1 2 0 0 0 0 1 0 0 0 0 0 0 0 0 0 0 0 0 0 0 0 0 0 0 0 0 0 0 1 0 0 0 2 2 1 2 1 2 1 1 3 3 1 3 4 6 5 6 6 6 6 5 6 5 2 3 2 3 4 3 4 3 2 3 2 4 4 3 4 4 4 2 2 2 2 3 3 3 3 1 3 2 1 1 2 3 2 2 0 1 0 0 1 0 0 0 0 1 3 4 2 2 2 1 1 0 0 0 1 0 0 0 2 0 1 0 1 2 0 0 1 1 1 1 1 1 2 1 0 0 0 0 0 0 0 0 0 0 0 0 0 0 0 0 0 0 1 1 1 3 2 1 1 0 0 0 0 0 0 0 0 0 0 0 0 0 0 0 0 0 0 0 0 0 0 0 0 0 0 0 0 0 0 0 0 0 0 0 0 0 0 0 0 0 0 0 0 0 0 0 0 0 1 1 1 0 0 0 0 0 1 1 1 2 3 4 3 5 5 5 4 5 5 5 4 3 3 3 2 1 1 2 4 2 3 3 4 2 3 3 2 2 3 3 1 1 0 0 0 1 1 0 1 0 0 1 1 0 0 0 0 0 0 0 0 0 2 3 2 2 3 3 3 1 1 1 3 4 4 5 5 5 4 6 3 3 2 3 2 4 2 4 5 4 5 6 6 5 4 6 6 4 2 2 2 3 2 1 1 0 0 0 1 2 2 2 3 3 3 4 3 1 2 1 0 0 1 0 0 0 1 2 1 1 0 0 0 0 0 0 0 0 0 0 0 0 0 0 0 0 0 0 0 0 0 0 0 0 0 0 0 0 0 0 0 0 0 0 0 0 0 0 0 0 0 0 0 0 0 0 0 0 0 0 0 0 0 0 0 0 1 1 1 1 0 0 0 0 0 0 0 0 0 0 0 0 0 0 0 0 0 0 0 0 0 
0 0 0 0 0 0 0 0 0 0 0 0 0 0 0 0 0 0 0 0 0 0 1 1 1 2 1 2 4 3 3 3 4 5 5 4 5 4 3 4 3 5 3 4 4 3 5 6 6 7 5 5 6 5 6 5 5 4 3 2 2 0 0 1 1 1 0 1 1 1 2 1 1 1 0 0 1 2 2 1 1 1 2 2 3 4 2 1 0 1 1 2 3 2 4 2 3 3 2 3 3 2 3 3 4 3 2 2 3 2 0 1 0 1 1 2 3 3 2 2 3 2 2 3 3 2 2 2 3 4 3 4 2 1 2 1 2 1 1 1 0 0 1 0 1 0 1 1 1 0 1 2 0 0 0 0 0 0 0 0 0 0 0 0 0 0 0 0 0 0 0 0 0 0 0 0 0 0 0 0 0 0 0 0 0 0 0 0 0 0 0 0 0 0 0 0 0 0 0 0 0 0 1 0 0 0 1 2 1 2 1 0 0 1 1 2 1 2 3 2 1 0 1 2 1 2 0 0 0 0 0 0 0 0 0 0 0 0 0 0 0 0 0 0 0 0 0 0 0 1 1 3 2 2 2 0 0 0 0 1 1 1 1 1 2 2 2 2 3 4 4 5 4 4 4 6 6 5 4 4 4 3 2 3 2 3 3 3 4 4 3 3 3 3 3 4 3 2 5 3 4 3 3 2 1 1 0 0 1 2 2 3 3 1 3 1 1 1 1 1 0 0 2 3 2 1 2 2 1 1 0 0 0 1 1 0 0 0 0 0 0 0 1 0 0 2 3 2 2 1 1 1 1 0 0 0 1 0 0 0 0 0 0 0 0 0 0 0 0 1 0 0 1 1 1 2 1 1 0 0 0 0 0 0 0 0 0 0 0 0 0 0 0 0 0 0 0 0 0 0 0 0 0 0 0 0 0 0 0 0 0 0 0 0 0 0 0 0 0 0 0 0 0 0 0 1 0 2 1 0 1 0 0 0 0 0 0 1 2 3 5 4 4 4 5 5 5 6 5 5 4 4 4 4 3 3 2 3 4 4 4 4 2 1 3 2 2 2 2 2 1 0 0 0 1 2 1 0 0 0 0 0 1 1 0 0 0 1 0 0 1 1 3 3 4 2 1 1 2 4 2 1 2 2 3 3 4 2 1 2 1 1 2 2 4 4 4 4 4 4 4 6 5 6 5 5 4 4 2 0 2 1 1 1 1 0 0 2 2 3 3 2 2 2 4 1 1 1 2 1 1 0 1 2 1 1 1 1 0 0 0 0 0 0 0 0 0 0 1 0 0 0 0 0 0 0 0 0 0 0 0 0 0 0 0 0 0 0 0 0 0 0 0 0 0 0 0 0 0 0 0 0 0 0 0 0 1 0 0 0 0 0 0 0 0 1 1 2 2 1 0 0 0 0 0 1 0 1 0 0 0 0 0 0 0 0 0 0 0 0 
0 0 0 0 0 0 0 0 0 0 0 0 0 0 0 0 0 0 0 0 0 0 0 0 1 0 1 3 5 6 3 3 3 4 4 4 5 5 3 5 4 4 5 4 4 4 5 6 5 6 6 6 7 7 6 5 5 4 2 2 1 1 0 1 1 1 1 3 2 2 4 2 1 1 0 0 0 1 2 2 2 3 4 4 3 3 1 0 0 1 1 1 2 2 1 2 3 3 3 2 1 1 3 2 3 2 2 2 3 2 1 0 0 0 2 2 2 1 2 2 2 1 2 2 1 1 2 2 2 3 4 3 2 2 2 2 0 1 0 1 1 1 0 0 0 0 1 0 0 0 0 1 1 0 0 0 0 0 0 0 0 0 0 0 0 0 0 0 0 0 0 0 0 0 0 0 0 0 0 0 0 0 0 0 0 0 0 0 0 0 0 0 0 0 0 0 0 0 0 0 0 1 1 1 1 0 0 1 1 2 1 2 0 0 0 0 1 0 1 3 1 1 1 2 2 2 2 0 0 0 0 0 0 0 0 0 0 0 0 0 0 0 0 0 0 0 0 0 0 2 2 2 3 3 3 2 0 1 1 1 2 2 1 2 2 1 1 2 2 2 3 4 4 5 6 7 4 5 5 5 4 4 3 2 3 2 2 3 3 2 3 4 4 3 2 3 2 2 3 5 5 4 2 2 0 1 1 0 0 2 2 2 2 2 2 2 2 1 2 1 0 0 2 3 2 1 0 0 1 1 0 0 0 1 1 0 0 0 0 0 0 0 0 1 0 0 1 0 1 2 0 0 0 0 0 0 0 0 0 0 0 0 0 0 0 0 0 0 1 0 1 0 1 0 2 2 0 0 0 0 0 0 0 0 0 0 0 0 0 0 0 0 0 0 0 0 0 0 0 0 0 0 0 0 0 0 0 0 0 0 0 0 0 0 0 0 0 0 0 0 0 0 0 0 0 0 0 0 0 1 1 1 0 0 0 0 0 1 2 2 3 3 5 4 4 4 5 5 4 4 5 4 5 4 3 3 1 3 4 2 4 2 3 3 2 3 2 2 3 2 1 1 1 1 1 3 3 0 1 1 0 1 1 1 2 0 0 1 0 0 0 2 2 2 1 2 2 2 2 3 4 1 3 1 3 4 2 2 2 2 0 1 2 2 4 2 3 3 5 5 5 6 6 5 4 4 5 5 2 1 2 0 2 1 1 1 1 2 2 4 3 3 2 2 3 2 1 1 1 0 1 0 1 3 1 0 1 1 0 0 0 0 0 0 0 0 0 0 0 0 0 0 0 0 0 0 0 0 0 0 0 0 0 0 0 0 0 0 0 0 0 0 0 0 0 0 0 0 0 0 0 0 0 0 0 0 0 0 0 0 0 0 0 0 0 0 1 2 2 1 1 1 0 2 0 0 1 0 0 0 0 0 0 0 0 0 0 0 0 0 
0 0 0 0 0 0 0 0 0 0 0 0 0 0 0 0 0 0 0 0 0 0 1 1 1 1 3 3 4 5 6 3 3 4 4 4 4 3 3 5 4 5 3 5 4 4 7 4 5 5 7 6 7 6 6 4 3 2 0 2 0 0 2 1 1 1 2 2 3 4 3 5 2 0 0 0 1 2 2 3 2 3 3 2 3 4 2 1 1 2 2 1 1 1 1 0 1 1 2 1 3 2 1 1 2 2 0 0 1 1 1 1 2 2 1 0 1 2 2 2 2 0 1 1 2 1 1 2 3 4 4 2 2 2 2 1 0 0 0 0 2 1 0 0 1 2 1 0 0 1 1 1 2 1 0 0 0 0 0 0 0 0 0 0 0 0 0 0 0 0 0 0 0 0 0 0 0 0 0 0 0 0 0 0 0 0 0 0 0 0 0 0 0 0 0 0 0 0 0 0 0 0 0 1 1 1 1 1 2 2 3 2 2 1 0 0 0 0 0 2 1 2 2 1 2 2 1 2 0 0 0 2 2 1 0 0 0 0 0 0 0 1 1 1 0 1 2 1 0 2 2 2 3 2 3 2 1 1 1 2 2 3 2 2 1 1 2 2 2 3 2 4 5 5 6 6 4 4 4 4 4 3 4 2 3 1 3 4 4 2 2 3 3 4 4 5 3 3 5 4 5 3 2 1 2 2 2 2 1 1 2 2 1 2 3 4 3 2 1 1 1 1 2 2 2 1 0 0 0 0 0 0 0 0 1 0 0 0 0 0 0 0 0 0 0 0 1 1 1 0 0 0 0 0 0 0 0 0 0 0 0 0 0 0 0 0 0 0 1 3 3 0 1 0 1 1 1 0 0 0 0 1 0 0 0 0 0 0 0 0 0 0 0 0 0 0 0 0 0 0 0 0 0 0 0 0 0 0 0 0 0 0 0 0 0 0 0 0 0 0 0 0 0 0 0 0 0 0 0 0 0 1 0 0 0 0 0 0 2 3 4 3 2 4 4 4 4 5 6 6 5 5 4 3 2 2 3 2 2 2 2 3 4 2 1 2 2 2 2 2 1 1 2 1 2 3 3 1 1 0 0 0 0 2 1 1 0 1 0 1 1 1 2 2 3 2 2 1 1 3 3 3 3 3 1 2 4 2 1 1 0 0 0 2 2 2 3 3 6 6 6 5 4 5 4 2 4 3 2 3 2 1 2 0 0 0 1 1 4 3 4 3 3 3 1 1 1 2 2 1 0 1 0 1 0 0 0 0 0 0 0 0 0 0 0 0 0 1 0 0 0 0 0 0 0 0 0 0 0 0 0 0 0 0 0 0 0 0 0 0 0 0 0 0 0 0 0 0 0 0 0 1 0 0 0 0 0 0 0 0 0 0 0 0 0 2 3 4 2 1 1 0 0 0 0 0 0 0 0 0 0 0 0 0 0 0 0 0 0 0 
0 0 0 0 0 0 0 0 0 0 0 0 0 0 0 0 0 0 1 1 0 0 1 1 2 2 1 4 4 7 5 5 4 4 4 4 3 3 3 4 5 5 5 4 5 5 6 3 4 5 7 6 5 5 4 3 4 2 1 2 2 1 1 4 2 2 2 3 3 6 5 4 3 1 1 0 2 2 2 3 4 4 2 2 1 2 1 2 2 2 1 1 1 1 1 0 1 0 0 1 1 1 2 1 0 1 0 0 1 0 2 3 3 3 3 0 0 1 1 0 0 0 0 0 0 1 2 3 4 4 2 3 2 2 0 0 0 0 0 1 3 1 1 1 1 0 0 0 0 0 1 1 1 1 0 0 0 0 0 0 0 0 0 0 0 0 0 0 0 0 0 0 0 0 0 0 0 0 0 0 0 0 0 0 0 0 0 0 0 0 0 0 0 0 0 1 0 0 0 2 1 2 0 1 2 1 1 0 0 3 2 4 1 0 0 0 1 0 0 1 0 2 1 1 2 2 3 2 0 0 0 0 2 1 0 0 0 1 0 1 1 3 2 2 1 2 2 2 1 2 3 2 2 3 1 2 2 0 0 1 2 3 3 2 2 2 1 1 2 3 3 3 4 3 4 6 6 4 3 2 2 2 2 2 3 2 3 3 3 2 1 2 3 2 4 5 7 5 5 4 4 3 2 2 2 1 2 2 0 2 3 2 1 3 4 2 2 1 2 1 0 1 1 2 1 2 1 0 0 0 0 0 0 0 0 0 0 0 0 0 0 0 0 0 0 0 0 1 2 1 0 0 0 0 0 0 0 0 0 1 0 0 0 1 0 0 1 1 2 1 1 0 1 2 2 1 2 1 0 0 0 0 0 0 0 0 0 0 0 0 0 0 0 0 0 0 0 0 0 0 0 0 0 0 0 0 0 0 0 0 0 0 0 0 0 0 0 0 0 0 0 0 0 0 0 0 0 0 0 0 0 0 0 0 1 3 1 1 3 3 3 3 3 3 3 5 4 5 4 3 5 4 5 4 2 3 3 3 2 2 2 2 2 1 2 3 3 3 4 2 2 2 2 2 1 3 3 2 1 1 1 1 1 1 0 0 0 1 1 1 1 1 2 3 3 2 1 2 1 3 2 1 2 3 2 2 2 3 0 0 0 0 0 1 1 2 3 2 4 5 4 4 3 3 3 3 2 1 1 0 0 0 0 0 0 1 2 3 2 4 3 4 3 3 4 3 2 2 2 1 2 1 2 1 1 0 0 0 0 0 0 0 0 0 0 0 0 1 0 0 0 0 0 0 0 0 0 0 0 0 0 0 0 0 0 0 0 0 0 0 0 0 0 0 0 0 0 0 0 0 0 0 0 0 0 0 0 0 0 0 0 0 0 0 0 2 3 4 3 0 0 0 1 0 0 0 0 0 0 0 0 0 0 0 0 0 0 0 0 0 
0 0 0 0 1 0 0 0 0 0 0 0 0 0 0 0 0 1 1 2 1 2 2 4 3 3 4 5 5 6 6 6 5 5 4 5 4 2 2 3 3 4 5 4 3 5 3 5 3 4 6 6 5 5 3 3 4 3 3 1 2 1 2 2 3 3 4 3 4 5 5 4 3 3 4 3 4 3 3 2 2 3 2 2 2 2 2 2 3 1 1 1 2 0 0 0 0 0 0 0 0 0 2 0 0 1 0 0 0 0 0 1 1 1 0 0 0 0 0 0 0 0 0 0 0 1 3 3 3 2 3 2 0 1 0 1 0 0 0 1 1 2 2 1 0 1 0 0 0 0 0 1 1 2 1 0 0 0 0 0 0 0 0 0 0 0 0 0 0 0 0 0 0 0 0 0 0 0 0 0 0 0 0 0 0 0 0 0 0 0 0 0 0 0 1 1 0 0 2 2 2 2 1 2 2 1 0 0 1 2 2 2 2 1 0 0 0 0 0 3 2 2 0 2 2 0 0 1 1 1 1 0 3 1 2 1 1 2 2 2 1 1 2 2 1 3 2 2 1 2 2 2 2 3 2 2 0 1 2 2 3 4 2 3 2 1 2 1 2 1 3 3 4 4 5 5 5 3 2 1 2 2 2 1 1 2 3 3 2 3 2 3 4 4 6 7 7 6 4 2 2 3 2 1 3 2 1 1 1 1 2 2 2 3 2 1 1 0 2 1 1 2 2 1 1 2 0 1 1 0 0 0 0 0 0 0 0 0 0 0 0 0 0 0 0 0 0 0 0 0 0 0 0 0 0 0 0 0 0 0 1 2 1 0 1 0 1 0 1 2 1 2 1 1 1 1 1 0 0 0 0 0 0 0 0 0 0 0 0 0 0 0 0 0 0 0 0 0 0 0 0 0 0 0 0 0 0 0 0 0 0 0 0 0 0 0 0 0 0 0 0 0 0 0 0 0 0 0 0 0 0 0 1 1 1 3 2 4 3 4 2 3 3 3 3 4 4 3 3 4 4 4 4 4 4 4 3 3 1 2 3 3 3 3 2 3 3 3 3 5 4 2 3 3 2 2 3 4 2 3 1 1 0 1 0 0 0 2 2 1 2 2 2 3 3 2 0 2 2 2 2 2 2 2 3 3 2 2 0 0 0 0 0 0 0 1 2 2 2 2 3 2 3 2 1 1 1 1 0 0 0 1 0 0 1 1 2 2 2 3 3 4 4 3 5 3 2 2 1 2 1 1 1 0 1 0 1 0 0 0 0 0 0 0 0 0 0 0 0 0 0 0 0 0 0 0 0 0 0 0 0 0 0 0 0 0 0 0 0 0 0 0 0 0 0 0 0 0 0 0 0 0 0 0 0 0 0 0 0 0 0 0 0 1 0 1 3 3 2 1 0 0 0 0 0 1 1 1 0 0 0 0 0 0 0 0 0 0 0 0 
0 0 0 0 0 0 0 0 0 0 0 0 0 0 0 0 0 2 2 4 3 4 4 5 5 4 4 4 5 6 6 7 5 6 5 5 4 2 2 2 3 2 3 4 4 6 4 3 4 4 4 5 5 5 4 4 3 3 4 2 1 0 3 3 3 3 3 3 5 5 4 5 4 3 2 3 4 3 2 3 1 2 3 3 1 1 2 2 2 2 0 1 1 0 0 0 0 0 0 0 0 0 0 0 1 1 0 0 0 0 0 0 0 0 0 0 0 1 0 0 0 0 0 0 0 1 2 1 2 2 2 1 2 1 3 0 0 1 0 2 2 2 1 0 2 1 0 0 0 0 0 0 2 0 0 0 0 0 0 0 0 0 0 0 0 0 0 0 0 0 0 0 0 0 0 0 0 0 0 0 0 0 0 0 0 0 0 0 0 0 0 0 0 1 2 1 2 1 1 2 3 2 2 2 2 0 0 1 2 1 1 1 1 1 1 0 0 0 1 3 3 3 1 1 1 2 3 2 2 1 1 1 2 2 2 1 1 1 2 2 2 2 2 0 2 2 2 1 3 3 1 1 2 3 1 2 1 0 1 3 3 5 5 3 2 1 3 2 1 1 2 2 3 5 5 6 5 5 4 3 1 1 3 2 1 1 3 2 2 2 0 2 3 4 5 5 6 3 5 4 4 3 3 2 3 1 2 1 2 1 1 3 2 2 2 1 1 2 1 1 1 1 0 1 0 1 0 0 0 0 0 0 0 0 0 0 0 0 0 0 0 0 0 0 0 0 0 0 0 0 0 0 0 0 0 0 0 0 0 0 0 1 2 1 1 0 1 0 0 1 1 0 0 0 0 0 2 1 0 0 0 0 0 0 0 0 0 0 0 0 0 0 0 0 0 0 0 0 0 0 0 0 0 0 0 0 0 0 0 0 0 0 0 0 0 0 0 0 0 0 0 0 0 0 0 0 1 3 1 0 0 0 0 0 1 0 3 3 3 4 4 4 5 5 4 4 2 3 4 3 3 3 4 5 6 4 4 3 2 3 3 5 3 3 3 4 3 3 3 4 2 1 3 3 4 3 4 3 3 0 1 1 1 0 0 0 1 1 2 0 1 2 1 3 3 3 3 2 5 4 3 1 1 1 1 1 1 1 0 0 1 0 0 0 0 0 1 2 1 0 0 1 3 1 2 1 0 1 0 0 0 0 0 0 1 2 2 3 2 2 4 3 4 4 2 3 2 3 1 1 1 0 0 0 0 0 0 0 0 0 0 0 0 0 0 0 0 0 0 0 0 0 0 0 0 0 0 0 0 0 0 0 0 0 0 0 0 0 0 0 0 0 0 0 0 0 0 0 0 0 0 0 0 0 0 1 1 1 1 0 0 0 0 1 0 1 1 1 1 1 0 0 1 0 0 1 0 1 1 0 0 0 0 0 0 0 0 0 0 0 
1 0 0 0 1 0 0 0 0 0 0 0 0 0 0 0 0 2 2 3 3 4 4 4 3 2 3 5 5 5 5 5 5 5 5 5 2 3 2 3 3 3 2 5 4 5 5 4 4 5 4 4 6 6 5 4 3 3 2 1 2 1 3 4 4 4 4 3 4 4 5 4 2 2 2 3 3 2 2 3 2 1 0 2 1 1 1 1 3 1 0 1 1 0 0 0 0 0 0 0 0 0 0 0 0 0 0 0 0 0 0 0 0 0 0 0 0 0 0 0 0 0 0 0 0 1 2 1 2 2 2 0 1 0 1 2 0 0 1 2 2 1 2 0 1 1 0 0 0 0 0 0 0 0 0 0 0 0 0 0 0 0 0 0 0 0 0 0 0 0 0 0 0 0 0 0 0 0 0 0 0 0 0 0 0 0 0 0 0 0 0 0 1 2 1 3 2 1 2 1 0 1 0 1 0 0 0 0 0 0 2 1 1 1 2 1 0 2 2 4 4 4 3 2 2 2 3 2 3 3 1 2 1 3 4 3 1 2 3 3 2 1 2 2 0 1 2 2 2 2 1 2 3 2 2 2 1 1 3 3 4 4 4 2 2 2 2 1 1 1 3 2 3 4 3 4 4 3 2 1 1 1 2 1 0 1 1 1 2 2 1 1 4 3 4 5 4 5 5 4 2 2 3 2 3 2 1 2 1 2 2 2 2 2 1 0 0 2 2 1 1 1 0 0 1 1 0 0 0 0 0 0 0 0 0 0 0 0 0 0 0 0 0 0 0 0 0 0 0 0 0 0 0 0 0 0 0 0 0 0 0 0 1 0 0 0 1 2 0 1 1 1 0 1 1 1 2 0 0 0 0 0 0 0 0 0 0 0 0 0 0 0 0 1 0 0 0 0 0 0 0 0 0 0 0 0 0 0 0 0 0 0 0 0 0 0 0 0 0 0 0 0 0 0 0 0 0 1 0 1 1 0 0 0 1 1 3 4 3 2 6 4 5 4 4 3 4 4 3 4 4 3 3 5 6 5 3 3 4 4 4 3 4 3 4 3 3 3 3 3 3 3 2 4 3 4 3 3 4 3 2 1 1 2 1 0 1 2 3 1 3 2 2 3 2 2 1 3 3 3 2 3 1 0 1 0 0 0 0 1 1 1 0 0 0 1 2 2 2 1 1 1 2 2 2 1 1 1 0 0 0 0 0 0 0 2 2 3 3 3 4 5 3 2 4 2 2 1 1 1 1 0 0 0 0 0 1 1 0 0 0 0 0 0 0 0 0 0 0 0 0 0 0 0 0 0 0 0 0 0 0 0 0 0 0 0 0 0 0 0 0 0 0 0 0 0 0 0 0 0 0 0 0 0 0 1 0 1 2 1 0 0 1 0 0 2 1 2 1 0 0 0 1 1 2 1 1 1 1 0 2 0 0 0 0 0 0 0 1 1 
1 1 1 0 1 2 0 0 0 0 0 0 0 1 0 0 1 1 2 2 2 4 3 2 2 2 2 3 3 5 3 3 3 5 5 2 2 1 1 2 3 3 4 3 4 5 3 5 4 4 5 6 6 5 3 3 3 1 2 1 3 3 4 3 4 4 6 4 4 3 3 2 1 1 4 3 3 4 3 2 2 0 0 0 0 2 1 0 0 1 1 0 0 0 0 0 0 0 0 0 0 0 0 0 0 0 0 0 0 0 0 0 0 0 0 0 0 0 0 0 0 0 0 0 0 0 2 4 3 3 1 1 2 1 1 2 1 1 0 0 0 2 1 1 1 2 0 0 1 0 0 0 1 1 0 0 0 0 0 0 0 0 0 0 0 0 0 0 0 0 0 0 0 0 0 0 0 0 0 0 0 0 0 0 0 0 0 0 0 0 0 0 0 0 1 1 0 1 1 2 2 0 1 0 0 0 0 0 1 1 1 2 2 2 2 0 1 2 3 4 5 4 3 3 2 3 2 3 3 3 1 3 2 3 3 4 4 4 2 2 3 1 2 2 2 3 2 5 3 2 3 3 4 1 1 1 2 3 3 2 3 4 3 4 2 2 0 1 1 1 2 2 4 3 3 3 3 1 2 1 2 1 2 1 0 1 1 1 2 0 1 2 2 3 5 4 5 5 3 3 2 2 2 3 3 2 3 2 2 1 1 2 3 3 1 0 1 0 1 1 1 1 0 0 0 0 0 0 0 0 0 0 0 0 0 0 0 0 0 0 0 0 0 0 0 0 0 0 0 0 0 0 0 0 0 0 0 0 0 0 0 0 0 0 0 0 0 1 1 1 1 1 0 0 0 0 0 0 0 0 0 0 0 0 0 0 1 0 0 0 0 0 0 0 0 0 0 0 0 0 0 0 0 0 0 0 0 0 0 0 0 0 0 0 0 0 0 0 0 0 0 0 0 0 0 0 1 3 2 1 0 0 0 0 0 2 2 2 2 3 5 4 4 4 4 3 2 1 2 3 4 4 4 3 4 5 6 4 4 4 2 3 2 4 4 3 3 4 5 4 4 5 4 3 5 4 4 4 2 3 3 1 1 3 3 3 2 3 4 3 3 2 1 2 0 0 2 2 1 2 2 0 1 1 0 0 0 0 0 1 0 0 0 0 0 0 2 1 1 1 1 1 2 1 1 2 1 1 0 0 0 0 0 0 1 0 3 3 4 3 3 4 4 3 2 1 2 0 0 0 1 0 0 0 0 0 0 0 0 1 1 0 0 0 0 0 0 0 0 0 0 0 0 0 0 0 0 0 0 0 0 0 0 0 0 0 0 0 0 0 0 0 0 0 0 0 0 0 0 0 0 0 1 0 2 0 0 0 0 0 1 0 1 1 1 0 2 2 2 0 0 0 0 1 0 0 0 0 0 0 0 0 0 0 0 0 1 0 0 0 
1 2 1 3 2 2 2 0 2 2 3 2 2 1 1 0 1 2 1 1 0 3 3 2 2 1 2 3 4 4 3 4 4 4 3 3 2 2 1 2 2 1 2 4 4 5 5 4 3 3 2 4 4 3 3 4 3 2 2 3 4 3 4 4 4 5 5 5 3 2 1 2 3 3 2 3 4 4 2 3 2 2 2 1 1 1 0 0 0 0 0 0 0 0 0 0 0 0 0 0 0 0 0 0 0 0 0 0 0 0 0 0 0 1 0 0 0 0 0 0 0 0 0 0 0 1 2 3 3 2 1 2 2 3 1 2 2 3 0 0 0 0 1 1 0 0 1 1 0 1 1 0 0 0 0 0 0 0 0 0 0 0 0 0 0 0 0 0 0 0 0 0 0 0 0 0 0 0 0 0 0 0 0 0 0 0 0 0 0 0 0 0 0 0 1 0 0 2 0 0 0 0 0 0 0 0 1 1 0 1 4 3 4 3 2 2 3 4 4 5 5 4 3 2 3 1 2 3 4 3 1 2 3 2 3 5 3 2 2 1 2 3 2 4 3 4 4 5 3 2 2 4 5 4 4 1 2 2 2 4 2 1 2 2 2 1 2 1 0 0 1 1 1 1 1 2 2 2 2 2 2 2 1 3 2 2 1 0 0 1 0 2 2 4 4 4 4 4 3 3 2 3 3 3 2 4 3 2 2 2 2 2 2 1 1 0 0 0 1 2 1 0 0 0 0 0 0 0 0 0 0 0 0 0 0 0 0 0 0 0 0 0 0 0 0 0 0 0 0 0 0 0 0 0 0 0 0 0 0 0 0 0 0 0 0 0 0 0 0 0 0 0 0 0 1 0 2 2 0 0 0 0 0 0 0 0 1 0 0 0 0 0 0 0 0 0 0 0 0 0 0 0 0 0 0 0 0 0 0 0 0 0 0 0 0 0 0 0 0 0 0 1 0 1 1 0 0 2 0 0 1 0 0 0 1 1 2 2 3 3 2 2 4 4 3 4 3 2 2 2 3 4 2 3 3 3 5 5 5 5 3 4 3 3 3 3 3 3 5 5 5 4 5 5 5 6 5 4 4 4 2 2 2 2 3 2 3 3 3 2 3 2 1 1 0 2 0 0 0 1 1 0 1 0 0 0 0 0 0 0 0 0 1 1 0 0 0 1 0 1 1 0 0 0 0 1 1 1 1 0 0 0 0 0 0 1 2 3 3 3 2 2 3 2 2 0 0 1 2 3 2 0 0 0 0 0 1 1 0 1 0 0 0 0 0 0 0 0 0 0 0 0 0 0 0 0 0 0 0 0 0 0 0 0 0 0 0 0 0 0 0 0 0 0 0 0 0 0 0 0 1 1 2 1 2 1 1 0 0 2 1 1 1 2 0 1 3 1 2 1 0 1 1 2 1 1 1 0 0 0 0 0 0 0 0 0 0 0 0 0 
1 2 3 3 2 3 2 2 2 4 4 4 2 2 2 1 1 1 1 2 3 2 3 1 2 1 1 3 3 2 2 3 4 4 3 2 1 1 2 0 1 1 2 3 3 4 4 5 4 3 2 3 3 3 2 2 1 2 3 3 4 3 5 4 5 5 6 4 3 1 0 1 3 3 4 4 4 4 4 3 2 1 1 1 1 0 0 0 0 0 0 0 0 0 0 0 0 0 0 0 0 0 0 0 0 0 0 0 0 0 0 0 0 0 0 0 0 0 0 0 0 0 0 0 2 3 2 3 3 4 3 2 1 2 1 2 2 0 0 0 0 0 2 1 2 2 2 2 1 1 1 0 0 0 0 0 0 0 0 0 0 0 0 0 0 0 0 0 0 0 0 0 0 0 0 0 0 0 0 0 0 0 0 0 0 0 0 0 0 0 0 0 0 1 1 0 0 1 0 0 0 0 0 0 0 0 0 1 1 2 2 4 4 5 3 2 4 4 3 5 4 3 2 2 3 2 2 1 1 1 3 5 4 2 2 4 4 4 1 1 2 1 4 4 3 2 4 3 3 4 6 4 5 6 5 4 2 2 4 3 1 1 3 3 3 1 1 2 1 1 1 0 1 1 0 1 2 1 1 1 2 2 2 3 1 3 1 0 0 0 0 1 2 4 4 4 3 3 5 4 4 3 2 3 2 3 1 2 2 2 2 1 0 0 0 0 0 0 1 0 0 0 0 0 0 0 0 0 0 0 0 0 0 0 0 0 0 0 0 0 0 0 0 0 0 0 0 0 0 0 0 0 0 0 0 0 0 0 0 0 0 0 0 0 0 0 0 0 0 0 0 0 0 0 1 2 2 2 0 0 0 0 0 0 0 0 0 1 0 0 0 0 0 0 0 0 0 0 0 0 0 0 0 0 0 0 0 0 0 0 0 0 0 0 0 0 0 0 0 0 0 1 1 1 0 1 1 0 1 0 0 0 0 0 0 1 0 2 2 2 1 3 4 4 5 3 3 2 1 2 2 3 1 2 4 3 3 4 5 4 5 5 6 4 4 4 4 5 4 4 7 5 6 6 4 4 4 3 3 4 4 3 3 1 3 3 2 3 2 4 3 1 1 2 1 0 2 0 0 1 0 0 0 0 0 0 0 0 0 0 0 0 0 0 0 0 0 0 0 0 1 0 0 0 0 1 0 0 0 0 0 0 0 0 0 1 1 4 3 2 2 1 0 1 1 1 0 1 3 2 2 2 1 0 1 0 1 1 0 1 0 0 0 0 0 0 0 0 0 0 0 0 0 0 0 0 0 0 0 0 0 0 0 0 0 0 0 0 0 0 0 0 0 0 0 0 0 0 0 0 2 1 2 1 2 2 1 0 0 1 3 1 1 1 0 1 2 2 3 2 1 1 2 1 2 0 1 0 1 0 0 0 0 0 0 0 0 0 1 1 
2 2 3 2 2 3 4 3 3 3 3 3 2 2 2 2 1 1 1 1 2 3 1 1 1 3 2 3 4 2 2 2 1 3 4 1 1 2 1 2 1 2 1 2 2 2 4 4 3 2 3 4 3 3 2 3 1 0 2 4 4 4 4 4 4 4 5 5 2 3 2 2 3 3 3 4 4 4 4 3 2 1 2 1 2 0 0 0 0 0 0 0 0 0 0 0 0 0 0 0 0 0 0 0 0 0 0 0 0 0 0 0 0 0 0 0 0 0 0 0 0 0 0 0 0 2 3 3 4 2 3 2 3 1 0 0 0 0 0 0 1 2 2 2 2 1 1 1 0 1 0 0 0 0 0 0 0 0 0 0 0 0 0 0 0 0 0 0 0 0 0 0 0 0 0 0 0 0 0 0 0 0 0 0 0 0 0 0 0 0 0 0 0 0 0 0 0 0 0 0 0 0 0 0 0 0 1 1 0 2 3 2 4 3 2 1 2 3 3 3 3 2 1 0 1 1 1 1 3 3 5 5 4 5 5 4 3 1 2 4 3 2 4 4 4 4 3 3 3 3 5 5 6 6 4 4 3 2 3 2 0 0 0 0 1 1 1 1 1 0 1 1 0 0 0 0 1 1 1 3 3 2 3 2 2 2 2 1 1 0 1 1 2 3 4 2 3 4 2 3 2 1 2 1 1 1 1 2 2 2 2 2 0 1 1 0 0 0 0 1 0 0 0 0 0 0 0 0 0 0 0 0 0 0 0 0 0 0 0 0 0 0 0 0 0 0 0 0 0 0 0 0 0 0 0 0 0 0 0 1 1 0 0 0 0 0 0 0 0 0 0 0 1 0 1 1 2 1 1 1 2 1 0 0 0 0 1 1 0 0 0 0 0 0 0 0 0 0 0 0 0 0 0 0 0 0 0 0 0 0 0 0 0 0 0 0 0 0 0 0 1 0 1 0 0 1 1 0 1 0 0 0 0 0 0 0 0 0 3 2 2 1 4 4 3 4 3 4 4 4 3 4 2 3 2 2 2 4 6 6 5 7 5 5 3 3 3 3 5 4 4 6 7 6 5 5 4 4 4 3 3 3 2 2 2 3 3 4 4 4 2 0 1 2 1 2 2 2 1 0 0 0 0 0 0 0 0 0 0 0 0 0 0 0 0 0 0 0 0 0 0 0 0 0 0 0 1 0 0 0 0 1 0 0 0 0 2 2 3 2 2 2 2 1 1 1 2 3 2 3 1 2 2 0 0 0 0 0 0 1 0 0 0 0 0 0 0 0 0 0 0 0 0 0 0 0 0 0 0 0 0 0 0 0 0 0 0 0 0 0 0 0 0 0 0 0 0 0 0 0 0 2 0 1 1 2 0 0 0 1 1 2 1 0 1 1 1 2 3 1 1 2 1 0 1 2 1 2 1 1 0 0 0 0 0 0 0 1 1 2 
1 1 3 3 3 3 3 5 3 2 3 3 2 2 2 2 1 2 2 0 1 1 2 1 2 3 3 2 3 1 1 1 1 3 3 1 0 2 0 1 0 2 1 1 1 2 3 3 3 3 3 3 3 2 3 2 1 1 1 3 5 4 5 5 6 5 6 5 4 4 3 3 3 4 3 3 4 3 4 3 3 2 0 2 3 0 0 0 0 0 0 0 0 0 0 0 0 0 0 0 0 0 0 0 0 0 0 0 0 0 0 0 0 0 0 0 0 0 0 0 0 0 0 0 0 0 1 1 2 2 3 2 1 1 0 0 0 0 0 0 0 2 2 3 1 0 1 2 0 0 0 1 0 0 0 0 0 0 0 0 0 0 0 0 0 0 0 0 0 0 0 0 0 0 0 0 0 0 0 0 0 0 0 0 0 0 0 0 0 0 0 0 1 0 1 1 1 0 0 0 0 1 1 0 0 0 0 1 2 2 1 1 2 3 2 2 0 2 4 2 3 1 1 1 1 1 1 3 3 5 5 5 6 5 5 4 4 5 4 3 3 3 5 4 5 5 4 2 3 3 3 4 3 4 5 2 4 3 2 1 1 0 0 0 0 0 0 0 0 0 0 1 0 1 0 1 1 2 2 2 2 2 1 4 1 1 1 0 1 0 0 1 2 3 3 3 3 4 3 1 0 1 1 1 1 1 1 3 3 3 4 1 1 0 0 1 0 1 1 1 0 0 1 1 0 0 0 0 0 0 0 0 0 0 0 0 0 0 0 0 0 0 0 0 0 0 0 0 0 0 0 0 0 0 0 0 0 0 1 0 0 0 0 0 0 0 0 0 0 1 1 1 1 2 0 1 2 1 2 2 2 1 0 0 1 0 1 0 0 0 0 0 0 0 0 0 0 0 0 0 0 0 0 0 1 0 0 1 0 0 0 0 0 0 0 0 0 0 1 2 1 0 0 1 0 0 1 1 1 0 0 0 0 0 0 0 1 2 2 2 3 3 4 2 3 4 4 4 3 4 3 3 1 1 2 1 3 4 3 4 6 5 4 6 3 4 3 3 4 3 5 5 5 5 4 4 4 5 6 3 4 4 3 3 4 4 5 4 3 2 2 0 0 1 2 1 2 2 1 1 0 0 0 0 0 0 0 0 0 0 0 0 0 0 0 0 0 0 0 0 0 0 0 0 0 0 0 0 1 0 1 0 0 0 0 0 0 1 1 2 3 2 3 2 2 1 1 1 0 1 2 0 1 0 0 0 0 0 0 0 0 0 0 0 0 0 0 0 0 0 0 0 0 0 0 0 0 0 0 0 0 0 0 0 0 0 0 0 0 0 0 0 0 0 0 0 0 0 1 0 0 1 1 2 2 0 0 0 0 0 1 2 2 1 0 0 2 2 2 1 1 1 1 1 1 2 0 1 0 0 2 1 1 2 1 0 0 1 0 1 
1 2 3 2 2 4 2 3 1 3 2 3 3 2 1 1 0 1 1 1 0 1 3 3 3 2 2 2 2 2 2 2 1 0 0 0 0 0 1 0 0 0 0 0 2 3 3 2 2 2 4 1 3 3 3 3 2 2 1 3 3 4 4 5 8 6 6 5 3 3 4 4 3 3 2 2 3 3 3 2 2 1 1 1 1 0 0 0 0 0 0 0 0 0 0 0 0 0 0 0 0 0 0 0 0 0 0 0 0 0 0 0 0 0 0 0 0 0 0 0 0 0 0 1 0 0 0 1 1 1 1 2 1 1 0 1 1 0 0 2 0 1 0 1 2 3 2 2 0 0 0 0 0 0 0 0 1 0 0 0 0 0 0 0 0 0 0 0 0 0 0 0 0 0 0 0 0 0 0 0 0 0 0 0 0 0 0 0 0 0 0 0 1 1 0 2 1 1 0 0 0 1 1 0 1 2 1 1 1 1 1 1 2 2 1 1 1 2 0 2 1 1 1 3 3 3 3 3 4 6 7 5 7 7 6 6 4 4 4 4 3 5 4 4 5 5 4 2 2 2 2 3 3 4 4 4 2 2 1 0 0 0 0 0 0 0 0 0 0 0 0 1 1 1 2 2 2 0 0 0 1 0 2 1 0 0 1 1 0 1 0 2 2 1 3 2 1 2 1 0 1 0 1 0 1 0 0 0 0 2 2 0 0 0 0 1 0 1 1 0 0 0 1 0 1 0 0 0 0 0 0 0 0 0 0 0 0 0 0 0 0 0 0 0 0 0 0 0 0 0 0 0 0 0 0 0 0 1 0 1 1 0 0 0 0 0 0 0 0 0 1 0 2 1 2 2 2 1 1 1 0 0 0 0 0 0 0 0 1 0 0 1 1 0 1 1 0 0 0 0 0 0 1 1 1 1 2 2 0 1 0 0 0 0 0 0 0 0 0 2 1 1 1 0 1 1 0 0 1 0 0 0 0 0 0 0 1 1 2 2 1 3 2 3 3 2 2 3 3 2 3 3 2 1 3 2 3 4 3 4 4 6 5 5 3 2 3 2 4 4 5 4 4 5 5 5 5 4 5 3 5 5 2 4 2 3 4 4 3 2 2 0 1 0 2 1 1 1 0 0 0 0 0 0 0 0 0 0 0 0 0 0 0 0 0 0 0 0 0 0 0 0 0 0 0 0 1 1 0 0 0 0 1 1 0 1 1 1 2 2 2 2 2 3 2 1 1 0 1 2 1 0 0 0 0 0 0 0 0 0 0 0 0 0 0 0 0 0 0 0 0 0 0 0 0 0 0 0 0 0 0 0 0 0 0 0 0 0 0 0 0 0 1 0 0 0 0 1 0 0 1 0 0 0 0 1 1 0 0 0 1 1 1 2 0 0 0 1 0 0 1 1 1 1 1 1 2 0 0 0 0 0 0 1 2 2 1 1 0 0 
3 2 1 2 2 2 1 1 2 3 3 3 2 1 2 1 1 2 1 0 0 1 1 3 2 2 2 3 2 3 2 2 0 0 0 0 0 0 0 0 0 1 0 0 2 3 2 3 3 1 1 3 3 4 3 3 3 4 4 5 2 4 5 6 8 6 4 5 3 4 4 3 3 2 3 3 4 3 4 4 2 0 1 3 1 0 0 0 0 0 0 0 0 0 0 0 0 0 0 0 0 0 0 0 0 0 0 0 0 0 0 0 0 0 0 0 0 0 0 0 0 0 0 0 0 0 0 0 0 0 2 2 0 2 0 1 0 1 0 0 0 0 0 0 1 2 2 0 1 0 1 0 0 0 1 0 0 0 1 0 0 1 0 0 0 0 0 0 0 0 0 0 0 0 0 0 1 0 0 0 0 0 0 0 0 0 0 0 0 0 0 1 1 1 0 1 1 0 0 0 0 0 0 1 0 1 1 1 1 1 0 0 2 2 1 1 1 1 1 1 1 1 3 3 2 2 2 3 6 5 8 7 7 7 7 5 6 4 3 4 5 5 4 5 5 4 3 2 1 1 1 3 3 5 5 4 3 2 1 1 0 0 0 0 0 0 0 0 0 1 0 2 2 1 2 3 3 1 0 0 0 0 0 0 0 0 1 0 0 0 0 1 2 3 3 2 3 1 2 1 1 1 0 0 0 1 2 1 0 1 1 2 1 0 0 1 0 0 1 0 0 0 0 0 0 0 0 0 0 0 0 0 0 0 0 0 0 0 0 0 0 0 0 0 0 0 0 0 0 0 0 0 0 0 0 0 0 0 0 0 0 1 0 0 0 0 0 0 1 0 1 1 1 1 2 3 2 2 2 0 0 0 0 0 0 1 1 2 3 1 1 1 2 3 2 3 1 1 0 0 1 1 0 1 2 1 1 0 1 1 1 0 0 0 0 0 0 1 0 0 1 0 0 1 0 1 0 0 0 0 0 0 0 0 0 1 1 1 2 0 2 2 2 2 2 2 2 2 3 2 2 2 2 2 2 3 3 3 3 4 4 6 4 3 3 4 4 4 4 5 7 5 4 4 4 6 6 5 4 3 3 4 3 3 4 4 3 4 4 3 1 2 2 1 1 0 0 0 0 0 0 0 0 0 0 0 0 0 0 0 0 0 0 0 0 0 0 0 0 0 0 0 0 0 1 0 0 0 1 0 0 1 0 0 0 0 1 0 2 2 2 1 1 2 3 2 0 0 0 1 1 2 0 0 1 1 0 0 0 0 0 0 0 0 0 0 0 0 0 0 0 0 0 0 0 0 0 0 0 0 0 0 0 0 0 0 0 0 0 0 0 0 0 1 1 0 0 0 0 1 0 0 0 1 0 0 0 0 0 0 0 1 1 0 0 1 0 1 0 0 1 1 1 2 3 3 2 1 2 0 0 0 0 1 3 3 2 2 2 2 
5 3 2 2 2 1 1 1 1 3 2 2 3 3 2 2 2 2 1 0 1 2 2 2 1 1 2 2 2 3 2 1 2 0 0 0 0 0 0 0 0 1 0 1 3 2 3 3 2 2 2 2 4 3 5 4 6 4 4 4 5 2 4 5 5 5 3 5 4 4 4 3 3 2 3 2 3 3 2 2 2 1 1 2 0 1 0 0 0 0 0 0 0 0 0 0 0 0 0 0 0 0 0 0 0 0 0 0 0 0 0 0 0 0 0 0 0 0 0 0 0 0 0 0 0 0 0 0 1 2 1 2 1 0 0 0 0 0 0 0 0 0 0 0 0 1 2 2 1 1 1 1 1 2 1 1 0 0 1 0 0 0 0 1 0 0 0 0 0 0 1 0 0 0 0 0 0 0 0 0 0 0 0 0 0 0 0 0 0 0 0 0 0 0 0 0 0 0 0 0 1 1 0 1 0 0 0 0 0 1 1 0 1 1 1 2 1 1 2 1 1 1 1 3 3 3 4 4 6 7 8 8 7 7 6 4 3 4 4 4 4 4 3 3 2 2 3 3 1 1 2 4 4 4 5 3 4 1 1 2 0 0 0 0 0 0 0 0 1 2 1 0 1 0 0 2 3 2 0 0 0 0 0 0 0 0 0 0 1 0 0 1 1 4 4 3 2 2 1 0 1 1 1 2 1 0 0 1 0 1 1 1 1 1 0 1 0 0 0 0 0 0 0 0 0 0 0 0 0 0 0 0 0 0 0 0 0 0 0 0 0 0 0 0 0 0 0 0 0 0 0 0 0 0 0 0 0 0 0 1 0 1 0 1 0 0 0 0 0 0 0 0 0 0 0 1 1 0 3 1 0 0 1 0 0 0 1 1 1 0 1 2 2 0 3 2 2 3 1 0 3 1 1 1 1 0 1 0 1 1 0 0 0 0 0 0 0 1 1 2 2 0 0 1 2 1 0 0 1 0 0 0 0 0 0 0 1 0 0 0 2 1 1 2 0 0 1 2 1 2 1 2 2 2 3 2 3 3 4 5 5 5 5 4 2 3 6 5 6 5 6 6 3 3 3 5 5 4 5 4 2 2 4 3 3 4 4 3 4 3 2 2 1 0 1 0 0 0 2 1 0 0 0 0 0 0 0 0 0 0 0 0 0 0 0 0 0 0 0 0 0 0 0 0 0 0 0 0 0 2 1 0 0 0 1 1 0 0 2 1 2 2 2 2 2 1 0 0 0 1 1 0 0 0 0 0 0 0 0 0 0 0 0 0 0 0 0 1 2 1 1 0 0 0 0 0 0 0 0 0 0 0 0 0 0 0 0 0 0 1 0 0 1 2 0 0 0 0 0 0 0 0 1 1 0 0 0 0 0 0 0 0 0 0 0 0 1 0 0 1 1 2 1 2 2 3 3 2 1 0 0 1 0 2 2 3 2 3 4 5 
5 5 2 2 2 2 3 1 1 2 3 2 2 3 1 2 0 0 1 0 2 2 1 1 2 0 1 1 0 2 1 0 1 0 0 0 0 0 0 0 0 0 0 0 1 2 3 3 2 2 1 2 3 4 4 5 5 5 5 4 4 4 5 3 5 6 4 4 5 4 3 1 2 2 2 2 2 2 2 0 2 2 0 0 1 1 0 0 0 0 0 0 0 0 0 0 0 0 0 0 0 0 0 0 0 0 0 0 0 0 0 0 0 0 0 0 0 0 0 0 0 0 0 0 0 0 0 1 1 2 1 1 0 0 0 0 0 0 0 0 0 0 0 0 0 0 0 0 1 0 0 0 1 3 1 0 0 0 0 0 0 0 0 0 0 0 0 0 0 0 0 1 0 0 1 1 0 0 1 1 0 1 0 0 0 0 0 0 0 0 0 0 0 0 0 0 0 0 0 0 0 0 0 0 0 0 0 0 0 0 0 0 0 1 2 4 3 2 2 2 1 1 3 2 3 3 4 5 5 7 7 8 7 5 5 5 4 4 2 3 3 3 3 3 3 3 3 2 1 2 2 3 5 6 4 2 2 2 1 0 0 0 0 0 0 0 0 0 0 1 0 0 1 1 1 0 1 2 2 0 0 0 0 0 0 0 0 0 0 0 1 2 4 5 4 3 2 2 2 1 1 0 1 0 0 1 1 1 1 2 2 0 0 0 0 0 0 0 0 0 0 0 0 0 0 0 0 0 0 0 0 0 0 0 0 0 0 0 0 0 0 0 0 0 0 0 0 0 0 0 0 0 0 0 0 0 1 0 0 1 0 0 0 0 0 0 0 0 0 1 0 0 0 0 1 0 0 0 0 0 1 2 1 1 0 0 1 1 1 1 1 0 1 1 2 3 2 1 1 0 2 1 0 0 2 1 1 1 2 0 0 0 0 0 0 1 0 1 2 4 1 0 0 1 1 0 0 0 0 0 0 0 0 0 0 0 0 0 0 1 0 1 1 1 0 0 1 1 1 1 2 1 2 2 2 3 4 3 3 4 6 6 5 5 4 5 6 5 5 6 5 4 6 4 4 5 4 4 4 5 5 5 4 5 3 2 2 3 4 2 1 1 1 1 1 0 0 0 1 2 1 0 0 0 0 0 0 0 0 0 0 0 0 0 0 0 0 0 0 0 0 0 0 0 0 0 0 0 1 1 2 0 0 0 0 0 0 0 0 1 0 1 0 2 1 0 0 0 0 1 1 0 1 1 0 0 0 0 0 0 0 0 0 0 0 0 0 1 2 0 1 0 0 0 0 0 0 0 0 0 0 0 0 0 0 0 0 1 1 1 2 1 1 1 0 0 0 0 0 0 0 0 0 0 0 0 0 0 0 0 0 0 0 0 0 0 0 0 0 1 2 0 1 1 2 2 2 3 1 1 1 0 0 1 4 5 5 5 6 6 
5 5 3 3 2 3 3 2 3 4 3 3 3 3 2 3 1 1 2 1 1 2 2 2 2 0 1 0 0 1 1 0 1 1 0 0 0 0 0 0 0 0 1 1 1 3 2 2 2 2 2 3 4 3 3 4 5 4 4 4 4 3 5 5 3 6 5 4 3 4 3 2 2 4 5 3 1 1 2 1 1 1 0 1 2 1 0 0 0 0 0 0 0 0 0 0 0 0 0 0 0 0 0 0 0 0 0 0 0 0 0 0 0 0 0 0 0 0 0 0 0 0 0 0 0 0 0 1 0 0 0 0 0 0 0 0 0 0 1 0 0 0 0 0 0 0 0 0 0 0 1 2 1 0 2 1 1 0 0 0 0 1 1 0 2 0 1 1 0 0 1 1 0 0 1 2 2 3 1 0 1 1 0 0 0 0 0 0 0 0 0 0 0 0 0 0 0 0 0 0 0 0 0 0 0 0 0 0 0 0 0 0 1 0 2 3 3 2 2 2 1 1 2 4 2 5 4 6 7 6 7 6 6 5 3 4 4 2 2 4 5 5 5 4 3 3 4 3 3 1 3 3 5 4 5 3 1 2 1 0 1 1 0 0 0 0 0 0 3 1 0 0 0 2 3 2 1 0 0 0 0 0 0 0 0 0 0 0 1 1 2 2 1 2 2 3 3 3 3 2 2 2 0 0 0 0 1 1 1 2 0 0 0 1 0 0 0 0 0 0 0 0 0 0 0 0 0 0 0 0 0 0 0 0 0 0 0 0 0 0 0 0 0 0 0 0 0 0 0 0 0 0 0 0 0 0 0 0 0 0 0 0 0 0 0 0 0 0 0 0 0 0 0 0 1 0 0 0 0 0 0 2 3 1 0 1 0 0 0 0 0 0 0 3 3 3 3 3 1 2 1 3 1 1 1 2 2 1 2 1 0 0 0 0 1 2 0 2 2 3 2 2 2 1 1 0 0 0 0 0 0 0 0 0 0 0 0 0 0 0 1 0 0 1 0 1 1 0 0 0 2 1 1 1 3 3 3 4 4 4 6 5 5 3 4 5 5 7 6 5 5 5 3 5 4 4 5 5 6 6 4 5 6 5 3 3 2 4 2 3 2 0 1 2 0 0 0 1 1 2 0 0 0 0 0 0 0 0 0 0 0 0 0 0 0 0 0 0 0 0 0 0 0 0 0 0 0 0 0 0 0 0 0 0 0 0 0 0 0 0 1 0 0 0 1 1 1 0 0 0 0 0 0 0 1 0 0 0 0 0 0 0 0 0 0 0 0 0 0 0 1 0 0 0 0 0 0 0 0 0 0 0 0 0 0 1 1 1 1 1 0 0 0 0 0 0 0 0 0 1 0 1 0 0 0 0 0 0 0 0 0 0 0 1 0 0 0 0 0 0 1 1 0 2 1 1 2 2 2 3 1 0 1 3 2 3 6 5 6 6 
3 5 4 3 2 5 4 3 3 3 6 6 5 3 4 4 2 1 1 0 0 2 2 2 0 2 0 0 1 0 0 0 0 1 0 0 0 0 0 0 0 0 0 2 4 2 1 1 1 1 1 2 4 3 4 4 5 4 5 4 3 4 4 4 6 5 5 6 4 3 3 3 4 4 4 3 2 2 2 1 1 1 0 0 1 0 0 0 0 0 0 0 0 0 0 0 0 0 0 0 0 0 0 0 0 0 0 0 0 0 0 0 0 0 0 0 0 0 0 0 0 0 0 0 0 0 0 0 0 0 0 0 0 0 0 0 0 0 0 0 0 0 0 0 0 0 0 0 0 0 0 0 3 1 2 2 0 0 0 1 0 2 1 0 1 2 1 1 0 2 4 3 2 3 3 1 2 3 0 1 1 1 0 0 0 0 0 0 1 0 0 0 0 0 0 0 0 0 0 0 0 0 0 0 0 1 0 0 0 0 0 0 0 2 1 2 3 2 1 2 1 1 1 2 5 5 6 6 7 6 6 6 6 5 4 4 4 4 3 3 4 4 4 4 3 4 3 4 4 3 4 4 3 3 2 2 2 0 1 0 0 1 0 0 0 0 0 0 0 0 0 1 1 0 1 2 1 0 0 1 0 0 0 0 0 0 0 2 2 1 2 2 2 1 2 2 3 1 3 1 0 0 0 0 0 1 2 0 2 1 1 1 1 0 0 0 0 0 0 0 0 0 0 0 0 0 0 0 0 0 0 0 0 0 0 0 0 0 0 0 0 0 0 0 0 0 0 0 0 0 0 0 0 0 0 0 0 0 0 0 0 0 0 0 0 0 0 0 0 0 0 0 0 0 0 0 0 0 0 0 0 1 3 2 0 0 0 1 1 1 0 0 1 1 3 1 3 2 2 4 4 2 1 3 3 4 2 1 0 1 0 0 1 1 1 1 2 2 4 3 2 3 1 2 0 0 0 0 0 0 0 0 0 0 0 0 0 0 0 0 0 0 0 0 0 0 0 2 1 1 1 3 1 2 1 2 3 5 4 3 4 5 5 5 6 6 5 5 6 4 5 5 4 5 7 4 5 5 6 6 6 5 4 4 3 3 2 3 5 1 1 1 2 0 0 0 0 0 0 1 0 0 0 0 0 0 0 0 0 0 0 0 0 0 0 0 0 0 0 0 0 0 0 0 0 0 0 0 0 0 0 0 0 0 0 0 0 0 0 1 1 0 0 0 0 1 0 0 0 1 0 0 0 0 0 0 0 0 0 0 0 0 0 0 0 0 0 0 0 0 0 0 0 0 0 0 0 0 0 0 0 0 0 0 0 0 1 0 0 0 0 0 0 0 0 0 0 0 0 1 1 0 0 0 0 0 0 0 0 0 1 0 0 1 2 0 0 0 0 0 0 1 2 1 1 0 3 3 4 3 3 2 2 1 2 4 6 5 7 5 
3 4 3 3 2 5 5 5 4 5 5 5 5 3 2 2 1 0 0 0 0 0 0 0 0 1 1 0 1 0 0 0 0 1 0 0 0 0 0 0 0 0 2 4 3 3 3 3 2 2 2 2 4 3 4 4 4 3 3 4 3 3 1 3 6 5 4 5 4 4 2 2 3 3 4 3 2 2 2 2 1 1 2 0 0 0 0 0 1 0 0 0 0 0 0 0 0 0 0 0 0 0 0 0 0 0 0 0 0 0 0 0 0 0 0 0 0 0 0 0 0 0 0 0 0 0 0 0 0 0 0 0 0 0 0 0 0 0 1 0 0 0 0 0 0 0 0 0 0 0 0 1 0 2 1 2 0 0 1 0 2 1 0 1 4 2 3 2 3 2 2 2 2 3 3 3 3 2 2 2 1 0 0 0 0 0 0 1 0 1 0 0 0 0 0 0 0 0 0 0 0 0 0 0 0 0 0 0 0 0 1 1 0 2 2 1 2 2 2 4 3 2 3 2 3 3 5 5 5 5 4 5 4 4 3 2 4 4 5 5 5 4 5 4 4 4 3 2 3 3 1 2 3 5 4 2 0 1 2 0 1 0 1 0 1 1 0 0 0 0 0 0 0 0 0 1 1 0 0 1 0 1 0 0 0 0 0 2 1 1 2 3 2 2 1 1 1 1 0 2 1 1 0 0 0 1 2 2 2 1 1 2 2 0 0 0 0 0 0 0 0 0 0 0 0 0 0 0 0 0 0 0 0 0 0 0 0 0 0 0 0 0 0 0 0 0 0 0 0 0 0 0 0 0 0 0 0 0 0 0 0 0 0 0 0 0 0 0 0 0 0 0 0 1 0 0 0 0 1 0 1 1 2 1 1 1 1 0 0 0 1 0 2 2 3 4 3 5 3 2 3 2 2 3 3 3 3 1 2 2 1 0 0 0 0 0 1 2 3 3 3 2 1 0 0 0 0 0 0 0 0 0 0 0 0 0 0 0 1 1 2 0 0 0 1 1 0 0 0 0 1 0 0 2 2 3 3 4 4 4 3 3 5 3 4 4 4 3 4 3 4 5 5 5 6 5 5 6 4 6 5 6 4 3 3 2 1 3 3 2 0 0 0 0 1 0 0 0 0 0 1 0 0 0 0 0 0 0 0 0 0 0 0 0 0 0 0 0 0 0 0 0 0 0 0 0 0 0 0 0 0 0 0 0 0 0 0 0 0 1 1 0 0 0 0 0 0 0 0 0 0 0 1 0 0 0 0 0 0 0 0 0 0 0 0 0 0 0 0 0 0 1 0 0 0 0 0 0 0 0 0 0 0 0 0 0 1 2 1 0 0 0 0 0 0 0 0 0 0 0 0 0 0 0 1 0 0 0 0 0 0 0 0 1 1 0 0 0 0 0 0 0 2 2 2 1 3 3 3 2 3 3 2 2 2 5 5 4 5 4 
5 4 4 3 4 5 5 5 5 5 4 5 4 3 3 1 2 1 0 0 0 0 0 0 0 0 1 0 0 0 0 0 0 0 1 0 1 0 0 1 0 0 0 2 3 4 2 2 3 1 2 2 1 2 3 3 3 3 3 4 3 3 3 3 5 4 4 3 2 1 3 2 3 2 3 1 2 1 2 1 1 1 1 0 0 0 0 0 0 0 0 0 0 0 0 0 0 0 0 0 0 0 0 0 0 0 0 0 0 0 0 0 0 0 0 0 0 0 0 0 0 0 0 0 0 0 0 0 0 0 0 0 0 0 0 0 0 0 0 0 0 0 0 0 0 0 0 0 0 0 0 0 1 3 1 1 1 1 1 1 1 2 1 3 2 3 3 3 3 1 2 3 2 3 2 4 3 2 2 1 2 0 0 0 0 0 0 0 0 0 0 0 0 0 0 0 0 0 0 0 0 0 0 0 0 0 0 1 1 0 0 2 1 3 2 2 2 3 3 2 2 2 3 2 3 4 5 4 4 5 4 3 3 3 3 2 5 5 4 5 4 4 5 4 3 4 3 2 3 2 1 1 2 3 4 3 2 1 1 0 1 1 1 1 1 0 0 0 0 0 0 0 0 0 1 1 0 0 0 0 0 0 0 0 0 0 0 1 0 1 0 2 1 1 1 0 0 0 1 0 0 0 0 0 1 1 0 0 1 1 1 1 1 0 0 0 0 0 0 0 0 0 0 0 0 0 0 0 0 0 0 0 0 0 0 0 0 0 0 0 0 0 0 0 0 0 0 0 0 0 0 0 0 0 0 0 0 0 0 0 0 0 0 0 0 0 0 0 0 0 0 1 0 0 2 0 0 1 0 1 1 1 2 1 1 0 1 0 1 1 1 1 2 3 2 3 4 4 4 4 4 3 3 3 4 3 3 2 3 1 2 3 2 1 0 1 1 2 2 2 2 2 1 1 0 0 1 0 0 0 0 0 0 0 0 0 0 0 2 2 2 1 1 0 1 1 0 0 1 0 1 1 1 0 0 2 3 3 3 4 3 3 5 5 5 2 3 3 3 4 5 5 6 5 4 5 6 4 6 5 4 4 5 4 2 2 2 2 2 1 1 0 1 1 1 1 0 1 1 0 0 0 0 0 0 0 0 0 0 0 0 0 0 0 0 0 0 0 0 0 0 0 0 0 0 0 0 0 0 0 0 0 0 0 0 0 0 0 0 0 1 0 0 0 0 0 0 0 0 0 0 0 0 0 0 0 0 0 0 0 0 0 1 0 0 0 0 0 0 1 0 0 1 0 0 0 0 0 0 0 0 0 1 0 0 2 1 1 1 0 0 0 0 0 0 0 0 0 0 0 0 0 0 0 0 1 0 0 0 0 0 0 0 1 0 1 1 0 0 0 0 1 2 4 4 1 2 3 2 2 2 1 1 2 3 3 3 4 3 3 
4 3 3 3 5 6 6 5 6 6 5 4 2 3 2 3 2 2 2 0 0 0 1 1 0 0 0 0 0 0 0 1 1 0 1 0 0 0 0 0 1 0 1 1 3 3 3 2 2 1 2 2 1 3 2 3 3 3 3 3 1 1 1 3 4 5 4 3 4 1 1 1 1 1 0 1 1 1 1 0 1 0 0 0 0 0 0 0 0 0 0 0 0 0 0 0 0 0 0 0 0 0 0 0 0 0 0 0 0 0 0 0 0 0 0 0 0 0 0 0 0 0 0 0 0 0 0 0 0 0 0 0 0 0 0 0 0 0 0 0 0 0 0 0 0 0 0 1 1 0 0 1 2 1 2 3 3 2 1 1 1 1 3 4 4 4 4 3 2 2 2 2 2 3 5 5 3 3 3 0 2 0 0 0 0 0 0 0 0 0 0 0 0 0 0 0 0 0 0 0 0 0 0 0 0 0 0 0 0 0 1 3 3 2 2 1 2 2 2 2 3 2 3 2 3 3 3 5 6 5 4 3 3 3 3 4 4 5 4 4 4 4 4 2 4 1 2 2 2 2 2 2 2 2 1 3 2 2 1 2 1 1 1 2 0 0 1 0 0 0 0 1 0 1 0 1 0 1 1 1 0 2 0 0 0 0 0 1 1 0 0 1 0 0 0 0 0 0 0 0 0 0 0 0 0 0 0 0 0 1 0 0 0 0 0 0 0 0 0 0 0 0 0 0 0 0 0 0 0 0 0 0 0 0 0 0 0 0 0 0 0 0 0 0 0 0 0 0 0 0 0 0 0 0 0 0 0 0 0 0 0 0 0 0 0 0 0 0 0 0 0 0 0 0 0 0 0 0 1 1 1 3 2 0 1 0 0 0 2 0 1 3 3 2 2 3 3 6 4 4 3 3 4 4 5 5 4 4 4 3 2 3 2 3 2 1 0 1 3 3 2 2 1 2 1 0 0 0 0 0 0 1 0 0 0 0 0 0 1 3 2 1 0 1 2 1 0 0 0 1 2 1 0 0 3 3 3 3 3 4 3 3 5 4 3 4 4 4 4 5 6 5 5 4 4 4 6 5 3 4 3 4 4 3 2 2 2 2 4 1 2 1 0 0 0 0 0 1 1 2 0 0 0 0 0 0 0 0 0 0 0 0 0 0 0 0 0 0 0 0 0 0 0 0 0 0 0 0 0 0 0 0 0 0 0 0 0 0 1 0 0 0 0 0 0 0 0 0 0 0 0 0 0 0 0 0 0 0 0 0 0 0 1 0 0 0 0 0 0 0 0 1 0 0 0 0 0 0 0 0 0 0 0 0 0 0 1 2 0 0 0 0 0 0 0 0 0 0 0 0 0 0 0 0 1 1 0 0 0 0 0 0 0 0 0 0 0 0 0 0 1 3 3 4 4 3 3 5 5 3 3 2 2 2 3 3 4 4 3 4 
3 2 4 4 5 5 5 7 5 6 4 3 2 3 3 2 2 0 0 0 0 2 2 2 2 0 0 0 0 0 0 1 0 0 0 0 0 0 0 0 0 0 2 0 1 2 2 2 1 1 0 2 1 3 3 3 2 3 3 2 1 2 2 3 2 1 2 3 3 3 1 1 1 2 1 0 1 2 1 1 2 1 0 1 0 0 0 0 0 0 0 0 0 0 0 0 0 0 0 0 0 0 0 0 0 0 0 0 0 0 0 0 0 0 0 0 0 0 0 0 0 0 0 0 0 0 0 0 0 0 0 0 0 0 0 0 0 0 0 0 0 0 0 0 0 0 0 1 0 0 0 2 1 3 3 2 3 2 1 3 3 4 3 5 4 3 2 3 4 2 1 0 1 3 3 4 4 3 1 1 2 0 0 0 0 0 0 0 1 0 0 0 0 0 0 0 0 1 0 0 0 0 0 0 0 0 0 0 0 0 1 2 2 3 1 1 1 2 2 0 2 1 1 3 3 4 5 5 4 2 2 4 4 5 4 4 3 4 4 5 5 5 3 2 4 2 3 1 1 2 3 2 2 2 2 2 2 2 1 2 1 1 2 2 0 0 0 0 0 0 0 0 0 0 1 0 0 0 1 1 0 0 0 0 0 0 3 2 1 0 0 0 0 0 0 0 0 0 0 0 0 0 0 0 0 0 0 0 0 0 0 0 0 0 0 0 0 0 0 0 0 0 0 0 0 0 0 0 0 0 1 1 0 0 0 0 0 0 0 0 0 0 0 0 0 0 0 0 0 0 0 0 0 0 0 0 0 1 0 0 0 0 0 0 0 0 0 0 0 0 1 0 1 0 0 0 0 0 0 2 3 3 1 1 0 0 0 1 1 1 1 2 2 3 3 4 5 4 5 3 4 5 6 6 5 5 4 5 4 3 4 3 3 3 2 2 3 5 2 4 2 2 2 2 1 0 0 0 0 1 0 1 0 0 0 0 1 3 2 2 2 2 1 0 1 0 0 0 0 3 2 2 2 3 4 4 4 2 4 4 3 4 2 5 4 5 4 4 3 3 3 3 1 2 4 5 4 3 5 3 3 4 3 2 3 1 2 4 3 2 0 2 0 0 0 1 2 0 0 0 0 0 1 1 0 0 1 0 0 0 0 0 0 0 0 0 0 0 0 0 0 0 0 0 0 0 0 0 0 0 0 0 0 0 0 0 0 0 0 0 0 0 0 0 0 0 0 0 0 0 0 0 0 0 0 0 0 0 0 0 0 1 2 0 0 0 0 0 0 0 0 1 2 0 0 0 0 0 0 0 0 2 1 1 0 1 1 1 0 0 1 0 0 0 0 0 0 0 0 0 0 0 0 0 1 1 1 0 0 0 0 0 0 0 0 0 0 0 0 0 2 3 4 4 4 4 4 5 4 3 3 5 2 4 5 3 4 5 4 4 
4 3 3 2 3 5 4 6 6 4 4 3 1 1 1 3 0 0 2 1 2 2 2 2 3 1 1 0 0 1 2 2 0 0 0 0 0 0 0 0 0 1 2 1 1 2 2 2 2 0 1 2 2 4 3 2 2 2 2 2 2 2 2 2 2 2 3 1 1 1 0 1 2 0 1 0 0 0 1 0 1 0 0 1 0 1 2 0 0 0 0 0 0 0 0 0 0 0 0 0 0 0 0 0 0 0 0 0 0 0 0 0 0 0 0 0 0 0 0 0 0 0 0 0 0 0 0 0 0 0 0 0 0 0 0 0 0 0 0 0 0 0 0 0 0 0 1 0 1 0 1 1 2 3 5 2 3 4 2 2 2 3 4 3 4 3 2 3 3 1 0 2 2 3 4 4 3 1 2 2 0 1 1 1 0 0 0 1 0 0 0 1 0 0 0 0 1 0 0 0 0 0 0 0 0 0 1 1 0 2 2 2 1 1 2 1 0 1 0 0 1 0 1 2 2 4 5 6 5 4 4 5 6 5 5 4 5 4 3 3 2 3 3 1 3 2 2 2 3 3 3 2 2 1 1 0 1 1 0 0 0 1 0 1 1 1 0 0 0 0 0 0 0 0 1 0 0 0 0 0 0 0 0 1 0 0 1 0 0 0 0 0 0 0 0 0 0 0 0 0 0 0 0 0 0 0 0 0 0 0 0 0 0 0 0 0 0 0 0 0 1 0 0 0 0 0 0 0 0 0 0 0 0 0 0 0 0 0 0 0 0 0 0 0 0 0 0 0 0 0 0 0 0 0 0 0 0 0 0 0 0 0 0 0 0 0 0 0 0 0 0 0 0 0 0 0 0 0 0 1 1 2 3 1 1 1 1 0 1 1 1 3 2 3 4 5 4 4 4 3 6 5 6 7 6 5 5 6 4 4 2 3 3 3 2 4 3 5 5 3 2 2 2 2 1 0 0 0 0 1 1 0 0 0 0 1 1 2 1 1 1 1 2 0 0 0 0 0 2 2 2 1 2 4 4 5 5 4 3 2 3 3 4 3 3 3 3 2 2 2 3 3 3 2 5 5 3 4 5 3 1 2 3 0 2 1 2 3 3 4 2 0 2 0 0 1 0 0 0 2 0 1 0 1 1 0 0 0 0 0 0 0 0 0 0 0 0 0 0 0 0 0 0 0 0 0 0 0 0 0 0 0 0 0 0 0 0 0 0 0 0 0 0 0 0 0 0 0 0 0 0 0 0 0 0 0 0 0 0 0 0 0 1 1 1 0 1 0 0 0 1 2 0 0 0 0 0 0 0 1 3 2 2 2 2 0 2 2 1 0 0 0 0 0 0 0 0 0 0 0 0 0 0 0 0 0 0 0 0 1 0 0 0 0 0 0 0 0 1 0 1 4 5 6 5 5 3 3 5 4 4 5 4 4 5 3 5 4 2 2 
3 2 3 4 4 4 6 5 5 4 3 3 2 3 1 2 0 0 1 1 0 2 4 2 2 1 3 1 1 0 1 1 0 0 0 0 0 0 0 0 1 2 2 2 2 3 2 2 1 1 0 1 2 2 2 1 2 3 1 1 1 1 2 2 1 1 1 1 0 0 0 0 0 2 0 0 1 1 1 0 0 0 0 1 0 0 1 1 1 0 0 0 0 0 0 0 0 0 0 0 0 0 0 0 0 0 0 0 0 0 0 0 1 0 0 0 0 0 0 0 0 0 0 0 0 0 0 0 0 0 0 0 0 0 0 0 0 0 0 0 0 0 0 0 0 0 1 1 1 2 1 2 2 3 3 3 3 3 4 3 4 3 3 3 3 4 3 2 2 1 2 3 3 3 4 6 3 3 4 3 1 2 1 2 2 1 2 2 2 2 1 1 0 1 0 1 1 0 1 0 0 0 0 0 0 0 0 1 1 2 3 3 1 0 0 1 0 1 0 0 2 1 1 3 2 5 4 4 4 5 5 5 6 3 4 4 5 4 4 3 2 1 1 3 1 1 1 2 3 4 2 1 2 2 3 1 3 2 1 0 0 0 0 0 0 0 0 0 0 0 0 0 1 2 0 1 0 0 0 0 0 0 0 0 0 0 0 1 0 0 0 0 0 0 0 0 0 0 0 0 0 0 0 0 0 0 0 0 0 0 0 0 0 0 0 0 0 0 0 0 0 0 0 1 0 0 0 0 0 0 0 0 1 0 0 0 0 0 0 0 0 0 0 0 0 0 0 0 0 0 0 0 0 0 0 0 0 0 0 0 0 1 0 0 0 0 0 0 0 0 0 0 0 0 0 0 0 0 0 0 1 3 2 1 2 2 1 2 3 2 2 3 6 5 5 4 4 3 4 5 5 6 6 6 7 7 6 4 3 4 4 4 4 2 2 2 4 4 5 4 3 4 2 3 2 2 0 1 3 1 0 0 0 0 0 0 0 2 0 0 0 1 1 1 0 0 0 0 0 1 0 0 3 2 4 3 3 5 4 4 3 2 2 3 3 3 1 2 1 2 2 3 3 3 2 3 4 3 3 4 2 3 2 1 2 1 1 3 2 2 2 0 0 0 0 0 0 0 0 0 0 1 0 0 0 0 0 0 0 0 0 0 0 0 0 0 0 0 0 0 0 1 0 0 0 0 0 0 0 0 0 0 0 0 0 0 0 0 0 0 0 0 0 0 0 0 0 0 0 0 0 0 0 0 0 0 0 0 1 0 0 0 1 0 0 1 0 0 1 1 1 4 2 1 2 1 1 1 1 2 3 3 3 1 0 2 2 2 0 0 0 0 0 0 0 0 0 1 0 0 0 0 0 0 0 0 0 0 0 1 0 0 1 0 0 0 0 0 1 2 1 1 4 5 7 5 4 4 4 5 5 6 4 4 4 4 5 5 3 4 
5 3 4 4 5 6 4 4 3 4 5 4 2 0 1 1 0 0 1 1 0 3 1 0 1 0 0 0 1 2 2 0 0 0 0 0 0 0 0 1 1 2 2 0 1 2 2 1 1 1 0 0 0 1 1 1 1 2 2 1 0 1 2 0 0 0 1 0 0 0 0 0 1 1 0 0 1 1 0 0 0 1 0 0 0 1 1 1 2 1 0 1 0 1 0 0 0 0 0 0 0 0 0 0 0 0 0 0 1 1 0 0 0 1 0 0 0 0 0 0 0 0 0 0 0 0 0 0 0 0 0 0 0 0 0 0 0 0 0 0 0 0 0 0 0 0 0 1 1 1 1 2 3 2 4 2 3 3 3 2 4 4 3 4 3 3 3 3 3 2 1 3 2 4 4 4 5 4 3 2 2 1 2 1 2 0 1 1 1 0 1 1 2 1 1 1 0 0 1 0 0 0 0 0 0 0 0 1 3 3 4 4 3 2 2 0 0 0 0 0 1 1 2 2 3 3 3 3 5 5 6 6 4 3 2 3 4 4 3 2 1 2 1 2 3 0 1 1 4 3 4 1 2 1 2 2 2 2 1 2 0 0 0 0 0 0 0 0 0 0 0 1 2 2 0 1 1 0 1 1 0 0 0 0 0 0 0 0 0 0 0 0 0 0 0 0 0 0 0 0 0 0 0 0 0 0 0 0 0 0 0 0 0 0 0 0 0 0 0 0 0 2 0 1 1 1 0 0 0 0 0 0 0 0 0 0 0 0 0 0 0 0 0 0 0 0 0 0 0 0 0 0 0 1 0 1 0 0 0 0 0 0 0 0 0 0 0 0 0 0 0 0 0 0 0 0 0 0 1 1 2 3 2 1 2 2 1 3 4 4 4 4 3 5 5 6 5 5 4 4 4 3 6 6 7 5 5 5 4 5 3 3 3 3 1 2 3 5 5 3 4 1 3 3 3 3 2 1 2 1 0 0 0 2 0 1 1 1 0 0 0 0 1 0 0 0 0 0 0 0 2 1 1 3 1 2 3 2 2 4 3 1 1 3 2 1 0 2 1 1 1 1 3 2 2 3 3 2 2 3 4 3 2 3 2 1 2 3 2 0 0 0 0 0 1 0 1 0 0 0 0 0 0 0 1 1 0 0 0 0 0 0 0 0 0 0 0 0 0 0 0 0 0 0 0 0 0 0 0 0 0 0 0 0 0 0 0 0 0 0 0 0 0 0 0 0 0 0 0 0 0 0 0 0 0 0 0 0 0 0 0 2 2 0 0 1 1 0 2 1 3 4 3 2 3 3 2 2 3 3 3 2 1 0 0 1 2 1 1 0 0 0 0 0 0 0 0 1 0 0 1 0 0 0 1 0 0 1 0 0 0 0 1 0 0 0 0 2 3 2 1 3 3 4 5 5 5 4 3 5 3 5 5 6 5 5 3 4 3 5 
5 5 4 4 5 6 5 4 4 4 3 3 2 1 1 1 1 1 1 1 1 1 1 0 0 1 1 0 1 1 2 1 0 0 0 0 0 0 1 0 1 0 1 1 0 2 3 2 1 0 0 0 0 0 0 0 1 3 0 0 0 1 0 1 0 0 0 0 0 0 0 0 1 1 0 0 0 0 0 2 2 0 0 0 0 2 2 3 2 1 0 0 0 0 1 2 0 0 2 0 0 0 0 0 0 1 0 0 1 0 0 0 0 0 0 0 0 0 0 0 0 0 0 0 0 0 0 0 0 0 0 0 0 0 0 0 0 0 0 0 0 0 0 0 0 0 0 0 1 2 1 2 2 4 3 2 3 1 2 2 3 4 4 4 4 3 3 4 4 3 2 4 3 4 4 5 4 4 3 1 2 1 2 2 2 1 1 2 3 1 0 0 1 0 0 0 1 1 0 1 0 0 0 0 0 0 1 2 4 3 5 3 3 2 1 2 2 0 0 0 1 1 1 3 2 3 3 2 4 5 5 6 4 3 2 2 2 3 1 1 0 0 1 1 1 1 2 4 4 4 4 4 3 1 2 1 2 1 0 0 1 1 0 1 0 0 0 0 0 0 0 0 0 0 0 0 1 0 1 0 0 0 0 0 0 0 0 0 0 0 0 0 0 0 0 0 0 0 0 0 0 0 0 0 0 0 0 0 0 0 0 0 0 0 0 0 0 0 0 0 0 0 0 0 0 0 0 0 0 0 0 1 1 0 0 0 0 0 0 0 0 0 1 0 0 0 0 0 0 0 0 0 0 0 1 0 0 0 0 0 0 0 0 0 0 0 0 0 0 0 0 0 0 0 0 0 0 0 1 1 1 2 3 2 0 1 2 3 1 3 3 3 4 3 5 5 5 5 3 3 6 6 6 7 5 5 4 4 2 4 1 0 2 2 3 3 3 4 4 4 4 4 5 4 2 2 2 1 1 1 1 1 0 1 0 0 1 2 0 0 0 0 0 0 0 0 0 0 0 0 0 1 1 3 2 0 3 2 0 0 2 1 2 1 1 1 0 0 0 0 1 1 3 3 1 3 2 2 4 2 2 3 1 0 2 2 1 0 0 0 0 0 0 0 0 0 0 1 0 0 1 0 0 1 2 1 0 0 0 0 0 0 0 0 0 0 0 0 0 0 0 0 0 0 0 0 0 0 0 0 0 0 0 0 0 0 0 0 0 0 0 0 0 0 0 0 0 0 1 0 0 0 0 0 0 0 0 0 0 0 2 2 1 0 0 2 1 0 1 1 2 3 1 4 3 2 3 1 1 1 1 2 0 0 1 0 1 1 1 0 0 0 0 0 0 1 0 0 0 1 1 0 0 0 0 1 0 0 0 0 0 0 0 1 2 0 0 2 3 3 3 4 4 5 5 4 5 5 4 4 4 5 5 5 5 5 4 6 5 5 
5 4 5 4 4 5 6 4 3 4 3 2 2 1 1 1 0 0 1 1 1 2 0 1 0 1 1 2 1 0 2 2 1 1 3 1 1 1 2 1 1 2 1 1 0 2 3 1 1 0 0 0 0 0 0 0 1 1 0 0 0 0 0 1 0 0 0 0 0 0 0 0 0 0 0 0 0 0 0 0 0 0 0 0 0 2 1 2 2 2 1 0 1 0 1 2 0 0 0 0 0 0 0 0 0 0 0 0 0 0 0 0 0 0 0 0 0 0 0 0 0 0 0 0 0 0 0 0 0 0 0 0 0 0 0 0 0 0 0 0 0 0 0 0 0 0 0 0 1 1 1 1 3 2 2 2 2 2 3 2 1 2 3 4 3 3 3 3 2 3 3 4 5 5 5 4 4 3 2 2 2 1 2 2 1 0 2 2 3 2 0 0 0 0 0 0 0 0 0 2 2 0 1 1 1 2 1 3 3 4 3 3 2 3 3 3 2 1 1 0 1 0 1 1 2 2 3 3 3 4 4 4 3 2 1 2 2 2 2 1 0 0 1 0 0 1 2 3 2 4 3 3 2 2 2 2 2 1 1 0 0 1 0 1 1 0 0 0 1 0 1 2 2 1 1 0 1 0 0 0 0 0 0 0 0 0 0 0 0 0 0 0 0 0 0 0 0 0 0 0 0 0 1 0 0 0 0 0 0 0 0 0 0 0 0 0 0 0 0 0 3 1 0 0 0 0 0 0 0 1 2 3 2 0 0 0 0 0 0 0 0 1 2 0 0 0 0 0 0 0 0 0 0 0 0 0 0 0 0 0 0 0 0 0 0 0 0 0 0 0 0 0 0 0 0 0 0 0 0 2 2 2 2 3 3 1 1 2 2 2 2 2 4 5 6 6 4 4 3 5 5 5 5 6 6 6 5 4 5 2 2 3 2 1 3 3 3 5 3 3 3 4 3 3 5 4 2 1 1 1 1 1 1 1 0 0 2 1 0 1 1 1 1 0 0 0 0 0 0 0 0 0 2 0 1 1 1 0 1 1 2 1 2 2 0 0 0 0 0 0 1 0 2 3 3 3 1 1 1 0 2 2 1 0 2 2 1 0 0 0 0 0 0 0 0 0 2 0 0 1 1 1 1 1 2 1 2 2 1 0 0 0 0 0 0 0 0 0 0 0 0 0 0 0 0 0 0 0 0 0 0 0 0 0 0 0 0 0 0 0 0 0 0 0 0 0 0 1 0 0 0 0 0 0 1 0 0 0 0 0 1 1 1 1 1 1 2 2 2 2 2 1 3 3 4 2 1 0 1 0 1 2 1 0 1 1 1 1 0 0 0 0 0 0 1 1 0 0 1 2 0 0 0 0 2 3 2 0 0 0 0 1 0 1 0 1 2 3 2 4 5 3 4 4 3 4 4 3 4 4 6 4 4 5 4 5 5 5 7 5 
4 5 4 4 6 5 5 5 4 3 3 1 2 2 0 1 0 0 1 1 0 2 1 2 2 1 1 3 2 2 2 3 3 2 1 0 0 1 1 2 1 0 1 0 0 1 2 0 0 0 0 0 0 0 0 0 0 0 0 0 0 0 0 0 0 0 0 0 0 0 0 0 0 0 0 0 0 0 1 0 0 0 0 0 1 1 2 2 3 3 2 1 0 0 1 2 0 0 0 0 1 0 0 0 0 0 0 0 0 0 0 0 0 0 0 0 0 0 0 0 0 0 0 0 0 0 0 0 0 0 0 0 0 0 0 0 0 0 0 0 0 0 0 0 0 0 1 1 0 1 1 1 1 1 1 4 3 2 2 2 1 1 3 4 3 4 4 4 3 4 4 4 5 4 5 5 4 4 2 2 3 2 2 2 1 1 3 3 3 1 1 0 0 0 1 0 1 1 0 1 0 0 2 3 4 4 4 4 3 4 4 3 2 1 2 1 1 1 3 2 1 3 2 0 1 1 1 1 1 2 2 3 3 1 1 2 2 1 1 0 1 0 0 1 0 0 1 2 3 0 3 3 2 2 2 2 3 2 1 0 1 1 1 0 0 0 0 1 0 0 1 0 0 0 0 0 2 0 0 0 0 0 0 0 0 0 0 0 0 0 0 0 0 0 0 0 0 0 0 0 0 0 0 0 0 0 0 0 0 0 0 0 0 0 0 0 0 0 0 0 0 0 1 1 0 0 0 0 1 1 1 2 0 0 1 2 1 2 2 1 2 2 2 2 1 0 0 0 0 0 0 0 0 0 0 0 0 0 0 0 0 0 0 0 0 0 0 0 0 0 0 1 0 1 1 1 2 2 2 2 2 2 3 4 3 1 1 0 2 3 2 2 3 5 4 4 5 4 4 5 6 4 5 5 4 5 5 4 3 3 2 4 2 3 5 4 3 4 4 2 4 4 4 4 4 4 2 1 0 0 1 1 1 0 0 1 1 2 1 1 3 1 0 0 0 0 0 0 0 0 0 0 2 3 2 1 2 0 0 1 1 0 0 0 0 0 1 1 0 0 1 0 1 0 1 1 2 1 1 1 0 0 1 0 0 0 0 0 0 0 0 0 0 0 0 0 2 3 2 2 2 1 1 1 2 1 1 1 0 0 0 0 0 0 0 0 0 0 0 0 0 0 0 0 0 0 0 0 0 0 0 0 0 0 0 0 0 0 0 0 0 0 0 0 0 0 0 0 0 0 1 0 0 0 0 0 0 0 0 0 0 1 1 1 1 1 2 1 3 5 3 3 3 4 1 1 1 1 1 1 1 0 1 1 1 0 1 0 0 0 0 0 0 0 0 1 1 1 1 2 1 1 3 3 2 2 2 2 2 1 0 2 0 0 1 0 3 3 4 5 4 3 2 3 4 4 3 2 3 3 4 5 4 5 3 3 5 4 4 5 
3 3 3 3 6 5 5 6 3 3 2 2 3 3 1 3 1 0 1 1 2 3 1 2 3 1 2 2 3 3 1 4 4 2 1 0 0 0 1 1 0 1 0 1 0 0 0 0 0 0 0 0 0 0 0 0 0 0 0 0 0 0 0 0 0 0 0 0 0 0 0 0 0 0 0 0 0 0 1 0 0 0 0 0 0 0 1 1 3 4 1 1 0 2 2 0 0 0 0 0 0 0 0 0 0 0 1 1 0 0 0 0 0 0 0 0 0 0 0 0 0 0 0 0 0 0 0 0 0 0 0 0 0 0 0 0 0 0 0 0 0 0 0 0 0 0 0 0 2 1 0 1 0 1 1 1 2 2 4 4 4 3 3 6 5 4 3 4 3 4 4 4 5 2 5 5 3 3 4 1 3 3 3 2 3 2 2 2 3 3 2 0 0 0 0 2 1 2 2 1 2 0 1 2 2 2 2 3 3 3 3 2 3 2 0 0 1 0 1 2 3 1 2 1 1 1 0 1 1 1 2 3 3 1 1 2 2 1 1 0 0 0 0 0 0 1 1 1 2 2 1 2 2 3 3 2 2 3 1 1 0 2 1 0 0 0 1 0 0 1 0 1 1 0 1 1 2 1 0 0 0 0 0 0 0 0 0 0 0 0 0 0 0 0 0 0 0 0 0 0 0 0 0 0 0 0 0 0 0 0 0 0 0 0 0 0 0 0 0 0 0 0 0 2 2 0 0 0 0 0 1 3 2 1 2 2 2 1 2 2 1 2 1 0 1 0 0 0 0 0 0 0 0 0 0 0 0 0 0 0 0 0 0 0 0 0 0 0 0 0 0 0 1 2 1 1 2 3 3 1 2 3 3 0 2 1 1 1 1 3 3 3 4 4 4 4 3 5 5 7 6 5 5 5 5 6 5 3 2 2 1 3 3 4 3 5 5 4 4 2 3 3 3 3 2 2 2 0 1 0 2 2 2 1 1 1 2 3 2 0 1 0 0 0 0 0 0 0 0 0 0 0 0 2 2 0 0 1 0 0 0 0 0 0 0 0 0 0 0 0 0 0 0 0 0 0 0 0 0 0 0 1 2 0 0 0 0 0 0 0 0 0 0 0 2 2 3 3 3 3 1 1 1 0 2 3 0 1 0 0 0 0 0 0 0 0 0 0 0 0 0 0 0 0 0 0 0 0 0 0 0 0 0 0 0 0 0 0 0 0 0 0 0 0 0 0 0 0 0 0 1 0 0 0 0 0 0 0 0 0 0 1 1 1 1 4 3 3 3 3 3 3 2 2 2 0 0 2 1 2 2 2 2 2 1 0 0 0 1 0 0 1 0 0 0 0 0 0 2 2 1 3 2 2 3 3 2 1 3 1 1 2 0 2 2 1 3 3 4 4 5 3 4 5 5 5 4 3 4 4 4 3 5 5 4 4 5 3 3 3 
3 2 2 3 4 3 4 4 4 4 2 2 2 2 3 1 2 2 0 2 3 2 2 2 3 2 1 2 1 1 1 2 2 2 0 0 1 0 1 1 0 0 0 0 0 0 0 0 0 0 0 0 0 0 0 0 0 0 0 0 0 0 0 0 0 0 0 0 0 0 0 0 0 0 0 0 0 0 0 0 0 0 0 0 0 0 1 0 0 1 2 0 0 0 1 0 1 1 1 2 0 0 1 0 0 0 0 0 2 0 0 0 0 0 0 0 0 0 0 0 0 0 0 0 0 0 0 0 0 0 0 0 0 0 0 0 0 0 0 0 0 0 0 0 0 0 0 0 0 1 1 2 1 2 3 3 4 4 4 3 4 3 3 2 3 3 2 2 5 4 4 5 3 4 4 5 3 1 3 3 4 2 4 3 2 2 2 4 3 4 0 1 2 3 3 2 3 1 1 2 2 0 0 1 2 2 2 3 3 3 3 1 0 0 0 0 1 0 1 2 2 2 2 2 3 1 0 1 1 2 1 1 2 1 0 0 1 2 1 0 1 1 0 0 0 0 2 2 2 1 1 2 2 3 3 3 2 2 1 0 1 0 1 0 0 0 1 0 1 1 2 1 1 0 2 2 1 2 0 0 0 0 0 0 0 0 0 0 0 0 0 0 0 0 0 0 0 0 0 0 0 0 0 0 0 0 0 0 0 0 0 0 0 0 0 0 0 0 0 0 0 0 2 1 2 1 1 0 0 3 4 4 2 0 1 0 0 0 1 2 2 0 0 0 0 0 0 0 0 0 0 0 0 0 0 0 0 0 0 0 0 0 0 0 0 0 0 0 0 0 0 0 1 2 2 1 2 3 2 2 1 2 0 2 1 1 0 1 1 2 4 3 3 3 4 4 5 5 6 5 6 6 4 4 5 6 5 5 3 2 2 3 5 3 4 6 5 4 4 3 2 4 3 3 3 2 2 0 1 2 4 3 3 1 2 1 1 1 1 1 0 2 1 1 0 0 0 0 0 0 0 0 0 2 1 1 0 0 0 0 0 0 0 0 0 0 0 0 0 0 0 0 0 0 0 0 0 0 0 0 1 0 1 1 0 2 0 0 0 0 1 0 0 0 1 2 2 3 3 3 4 3 1 1 2 3 1 0 0 0 0 0 0 0 0 0 0 0 0 0 0 0 0 0 0 0 0 0 0 0 0 0 0 0 0 0 0 0 0 0 0 0 0 0 0 0 0 0 0 0 0 0 0 0 0 0 1 0 0 1 0 0 0 0 1 2 4 3 3 3 3 3 2 2 1 0 0 2 3 2 2 2 3 4 2 2 0 0 1 1 1 0 0 0 0 0 0 0 0 1 2 2 2 2 3 3 3 2 0 0 0 0 1 0 2 2 3 3 4 4 4 5 5 5 6 5 4 3 4 4 3 2 3 4 4 2 3 3 2 1 
2 2 4 3 2 3 3 4 4 4 4 4 3 3 3 2 0 2 2 2 3 0 1 1 2 1 1 2 3 3 2 2 1 0 1 0 1 0 0 0 0 0 0 0 0 0 0 0 0 0 0 0 0 0 0 0 0 0 0 0 0 0 0 0 0 0 0 0 0 0 0 0 0 0 0 0 0 0 0 0 0 0 1 0 0 0 0 0 0 1 1 1 2 0 0 0 0 1 1 1 0 1 2 0 0 0 2 2 0 0 0 0 0 0 0 0 0 0 0 0 0 0 0 0 0 0 0 0 0 0 0 0 0 0 0 0 0 0 0 0 0 0 0 0 0 0 0 2 1 0 1 1 2 1 1 2 4 4 4 2 3 5 4 2 1 2 3 4 4 3 4 3 4 3 5 5 4 2 2 3 3 2 4 3 2 2 3 5 5 3 2 3 2 2 3 3 3 2 3 2 3 1 0 2 2 1 1 3 4 4 3 2 0 0 0 1 0 0 1 2 2 1 1 1 2 1 2 1 1 1 0 1 1 0 0 0 1 1 1 1 1 1 1 0 1 0 0 0 0 1 1 1 3 1 2 2 2 0 0 1 2 2 1 1 0 0 0 0 0 0 1 1 0 1 3 3 0 0 0 0 0 0 0 0 0 0 0 0 0 0 0 0 0 0 0 0 0 0 0 0 0 0 0 0 0 0 0 0 0 0 0 0 0 2 0 1 0 0 0 0 0 2 1 1 2 3 3 1 0 1 4 4 3 3 1 0 0 0 0 0 0 0 0 0 0 0 0 0 0 0 0 0 0 0 1 0 0 0 0 0 0 0 0 0 0 0 0 0 0 0 0 0 1 3 4 3 3 2 2 2 2 1 2 1 1 1 0 2 0 2 2 3 3 4 4 4 4 4 4 6 4 4 4 5 5 6 6 4 3 2 2 3 4 4 3 4 5 4 3 4 4 2 2 2 4 2 1 2 2 4 3 3 2 2 1 1 1 1 1 0 2 2 3 3 2 1 0 0 0 0 0 0 1 1 1 2 0 0 0 0 0 0 0 0 0 0 0 0 0 0 0 0 0 0 1 0 0 0 0 0 0 2 2 1 0 1 0 1 1 0 0 1 0 1 1 3 2 3 4 2 1 1 1 0 0 1 1 0 0 0 0 0 0 0 0 0 0 0 0 0 0 0 0 0 0 0 0 0 0 0 0 0 0 0 0 0 0 0 0 0 0 0 0 0 0 0 0 0 0 0 0 0 0 0 0 0 1 1 0 0 0 1 0 2 2 3 4 3 4 4 3 3 2 0 1 1 1 3 2 3 3 4 3 5 4 3 1 2 2 2 2 1 1 1 1 1 0 0 1 3 2 2 2 3 2 4 4 3 2 1 0 0 0 0 2 3 3 4 4 4 5 4 3 4 3 3 4 4 4 5 4 3 1 2 2 1 3 2 1 1 
1 0 2 2 3 4 4 5 5 6 3 4 3 2 1 2 2 2 3 4 2 2 2 1 0 1 1 2 2 1 0 0 1 1 0 0 1 0 0 0 0 0 0 0 0 0 0 0 0 0 0 0 0 0 0 0 0 0 0 0 0 0 0 0 0 0 0 0 0 0 0 0 0 0 0 0 0 0 0 0 0 0 1 0 0 0 0 1 1 1 1 1 1 1 0 0 1 0 2 1 2 2 0 0 0 1 1 0 0 0 0 0 0 0 0 0 0 0 0 0 0 0 0 0 0 0 0 0 0 0 0 0 0 0 0 0 0 0 0 0 0 0 0 0 0 0 0 2 2 2 2 2 2 1 4 5 5 3 3 3 3 2 2 1 2 2 2 3 4 4 4 3 3 3 4 5 3 4 2 3 4 3 3 4 3 4 4 5 5 3 3 3 3 2 2 3 3 3 4 2 4 2 2 2 0 1 3 3 5 4 3 2 2 2 1 0 0 0 1 1 1 0 0 2 1 2 2 2 1 0 0 0 0 0 0 0 1 1 2 1 1 0 1 1 0 0 0 0 1 1 1 3 5 2 2 2 3 0 2 1 1 2 0 0 0 1 0 1 0 0 1 2 1 1 2 1 0 0 1 0 0 0 0 0 0 0 0 0 0 0 0 0 0 0 0 0 0 0 0 0 0 0 0 0 0 0 0 0 0 0 0 0 0 1 0 0 0 0 0 0 1 1 2 2 2 2 1 0 1 0 2 2 2 0 0 0 0 0 1 0 0 0 0 0 0 0 0 0 0 0 0 0 1 0 1 0 0 0 0 0 0 0 0 0 0 0 0 0 0 0 0 0 0 2 3 1 2 1 1 1 0 1 2 1 0 0 0 1 1 1 3 3 2 2 3 4 4 3 2 4 3 4 3 3 3 5 4 3 3 1 3 3 3 3 3 4 5 5 4 4 3 3 3 3 5 3 2 3 1 2 3 1 1 1 1 1 1 2 1 1 1 2 3 3 3 1 0 0 0 0 0 0 0 1 0 0 0 0 0 0 0 0 0 0 0 0 0 0 0 0 0 0 0 0 0 0 1 1 0 2 1 1 1 2 1 2 0 1 2 0 0 0 1 3 2 1 1 2 4 3 2 1 2 1 1 0 1 0 0 0 0 0 0 0 0 0 0 0 0 0 0 0 0 0 0 0 0 0 0 0 0 0 0 0 0 0 0 0 0 0 0 0 0 0 0 0 0 0 0 0 0 0 0 0 0 0 1 2 1 1 1 1 1 2 1 4 5 4 3 3 3 1 1 1 1 2 3 2 2 3 3 4 4 4 4 3 3 2 1 2 2 1 3 2 0 1 0 1 2 2 3 3 2 3 3 5 5 3 2 2 0 0 0 1 2 2 3 4 4 4 4 4 5 3 3 4 4 5 4 6 4 4 1 1 2 1 2 1 1 1 
1 1 1 0 2 3 3 3 5 5 4 3 4 3 1 2 1 2 4 3 2 1 2 1 2 2 2 0 2 1 2 1 2 1 1 1 0 0 0 0 0 0 0 0 0 0 0 0 0 0 0 0 0 0 0 0 0 0 0 0 0 0 0 0 0 0 0 0 0 0 0 0 0 0 0 0 0 0 0 0 0 0 1 0 0 0 0 1 2 2 4 2 0 0 0 0 1 1 1 0 2 1 0 1 0 1 0 1 1 0 0 0 0 0 0 0 0 0 0 0 0 0 0 0 0 0 0 0 0 0 0 0 0 0 0 0 0 0 0 0 0 0 0 0 0 0 1 1 2 2 3 3 2 2 3 3 3 4 3 4 3 3 3 2 2 1 2 3 2 3 4 3 4 5 5 2 3 2 2 1 2 2 3 4 4 5 6 6 6 5 1 4 3 3 2 2 3 5 5 5 4 5 4 4 3 2 3 3 4 3 2 1 2 2 1 2 0 0 0 0 1 0 0 1 2 2 2 3 0 0 0 0 0 0 0 0 0 1 1 2 3 3 2 2 1 1 0 0 0 1 2 3 2 3 2 2 2 2 2 1 1 1 1 1 1 2 2 1 1 1 0 0 1 2 1 1 0 0 0 0 0 0 0 0 0 0 0 0 0 0 0 0 0 0 0 0 0 0 0 0 0 0 0 0 0 0 0 0 0 0 0 0 0 1 0 0 0 0 0 0 1 2 1 2 2 2 2 2 1 1 1 1 2 1 2 0 1 0 0 0 0 0 0 0 0 0 0 0 0 0 0 1 3 1 2 1 1 0 0 0 0 0 0 0 0 0 0 0 0 0 0 0 0 1 2 3 3 2 2 1 1 2 1 0 0 0 0 1 0 2 2 2 2 3 2 2 2 3 3 3 5 5 3 2 4 5 4 3 2 2 3 3 3 4 3 5 5 5 5 5 4 3 3 3 3 3 2 2 1 2 3 2 2 2 1 1 2 0 0 2 1 1 3 3 1 0 0 0 0 0 0 1 0 0 0 0 0 0 0 0 0 0 0 0 0 0 0 0 0 0 0 0 0 0 0 0 0 0 0 2 0 1 1 1 2 1 1 0 1 1 0 0 0 0 0 0 0 1 4 3 3 2 2 2 2 2 2 0 0 0 0 0 0 0 0 0 0 0 0 0 0 0 0 0 0 0 0 0 0 0 0 0 0 0 0 0 0 0 0 0 0 0 0 0 0 0 0 0 0 0 0 0 0 0 0 0 2 3 1 1 2 1 3 1 1 3 4 3 3 3 2 0 1 2 2 2 1 1 1 2 3 4 5 4 4 4 4 2 1 2 2 2 1 2 2 1 2 2 2 2 4 3 3 3 3 5 3 4 3 3 1 0 1 1 2 1 1 4 4 3 3 4 4 2 3 4 3 2 4 4 4 3 2 1 1 0 1 0 1 1 
0 0 2 0 0 1 2 1 4 3 4 3 3 2 0 0 0 3 2 2 1 3 2 2 1 2 2 2 2 0 2 2 2 2 2 1 0 0 0 0 0 0 0 0 0 0 0 0 0 0 0 0 0 0 0 0 0 0 0 0 0 0 0 0 0 0 0 0 0 0 0 0 0 0 0 0 0 0 0 0 0 0 1 1 0 0 0 1 3 2 4 2 1 1 0 0 1 0 0 0 0 2 0 0 0 0 1 1 2 0 0 0 0 1 0 0 0 0 0 0 0 0 0 0 0 0 0 0 0 0 0 0 0 0 0 0 0 0 0 0 0 0 0 0 0 1 0 2 3 3 4 3 2 1 1 2 3 4 5 4 2 3 3 2 2 1 1 1 2 3 3 3 2 5 5 4 6 4 2 3 3 3 5 4 4 5 6 5 5 3 3 3 4 3 3 3 4 5 4 4 5 6 4 4 4 4 4 4 4 4 3 2 2 2 1 0 0 0 0 0 0 0 0 0 0 1 2 2 0 0 0 0 0 0 0 0 0 0 0 1 2 1 1 1 1 0 0 0 0 0 1 2 2 3 1 4 3 2 2 1 2 1 0 1 2 1 2 1 0 0 0 0 0 0 0 0 0 0 0 0 0 0 0 0 0 0 0 0 0 0 0 0 0 0 0 0 0 0 0 0 0 0 0 0 0 0 0 0 0 0 0 0 0 0 0 0 0 0 1 2 1 1 0 1 1 1 0 1 1 0 2 2 2 1 1 0 1 2 0 0 0 0 0 0 0 0 0 0 0 1 0 0 1 2 2 2 2 0 0 0 0 0 0 0 0 0 0 0 0 0 1 0 1 1 2 2 3 3 2 3 3 2 2 1 2 1 1 0 2 1 1 1 2 1 3 3 3 2 4 4 5 4 3 4 3 3 3 2 1 1 3 3 5 5 5 5 5 6 7 4 3 2 3 3 4 4 3 3 2 5 4 3 4 3 2 2 1 2 2 1 1 2 1 1 0 1 0 0 0 0 0 1 0 0 0 0 0 0 0 0 0 0 0 0 0 0 0 0 0 0 0 0 0 0 0 0 0 0 0 1 0 1 1 1 1 0 0 0 1 1 0 0 0 0 0 0 1 1 2 2 3 3 2 2 2 2 1 0 0 0 0 0 0 0 0 0 0 0 0 0 0 0 0 0 0 0 0 0 0 0 0 0 0 0 0 0 0 0 0 0 0 0 0 0 0 0 0 0 0 0 0 0 0 0 0 0 2 1 1 1 0 2 1 1 2 4 2 3 2 3 2 1 1 3 3 2 2 2 2 3 3 5 3 4 4 4 3 3 2 2 1 2 0 1 1 2 2 2 2 3 4 4 4 2 3 4 3 4 3 3 1 1 0 2 1 1 1 1 3 3 4 4 4 3 3 2 2 2 3 4 3 2 2 1 1 2 1 0 0 0 
1 2 2 0 0 0 1 2 4 4 5 4 1 1 1 0 0 2 1 2 1 2 2 1 1 2 3 3 2 2 1 2 1 2 3 1 0 0 0 0 0 0 0 0 0 0 0 0 0 0 0 0 0 0 0 0 0 0 0 0 0 0 0 0 0 0 0 0 0 0 0 0 0 0 0 0 0 0 0 0 0 0 1 1 0 2 1 2 2 2 3 2 1 1 1 1 0 0 0 0 0 0 0 1 0 1 1 1 1 1 1 0 0 1 0 0 0 0 0 0 0 0 0 0 0 0 0 0 0 0 0 0 0 0 0 1 0 0 0 0 0 0 1 1 0 0 0 0 2 3 3 3 2 1 0 2 2 3 4 3 3 4 3 3 2 2 3 1 1 3 2 2 4 5 5 5 4 5 2 3 2 4 5 5 4 5 5 4 6 5 4 4 5 4 3 5 5 3 6 4 2 3 4 2 4 4 4 3 3 3 3 3 2 1 0 0 0 0 0 0 0 0 0 0 1 1 0 0 0 1 0 1 1 0 0 0 0 0 0 0 0 0 1 1 0 0 0 0 0 0 1 0 2 2 3 3 2 2 0 3 2 1 1 0 0 0 1 1 0 0 0 0 0 0 0 0 0 0 0 0 0 0 0 0 0 0 0 0 0 0 0 0 0 0 0 0 0 0 0 0 0 0 0 0 0 0 0 0 0 0 0 0 0 0 0 0 0 0 0 0 0 0 1 1 1 1 0 0 0 0 1 2 1 0 1 2 2 1 0 1 0 2 0 0 0 0 0 0 0 1 1 2 1 1 1 2 3 2 0 0 0 0 0 0 0 2 1 0 1 1 0 1 1 0 1 3 4 2 3 2 1 0 2 2 2 2 2 1 1 0 0 2 1 3 3 3 3 2 3 4 4 5 4 5 5 3 3 3 2 2 3 2 3 3 4 4 5 5 5 3 4 3 4 4 6 2 3 4 3 5 5 5 4 3 2 2 1 2 1 2 0 1 0 0 0 0 0 0 0 0 0 0 0 0 0 0 0 0 0 0 0 0 0 0 0 0 0 0 0 0 0 0 0 0 0 0 0 0 0 0 0 0 0 0 0 0 0 0 0 0 0 0 0 0 0 0 0 1 2 3 3 2 1 2 1 2 2 2 0 0 0 0 0 0 0 0 0 0 0 1 0 0 0 0 0 0 0 0 0 0 0 0 0 0 0 0 0 0 0 0 0 0 0 0 0 0 0 0 0 0 0 0 0 1 0 1 1 1 2 0 0 0 0 0 1 3 1 4 2 2 3 1 1 1 2 3 2 3 3 2 4 4 3 5 3 3 4 2 2 2 0 0 1 0 1 1 1 2 5 4 5 4 4 3 3 4 3 4 3 2 2 0 0 1 0 0 1 1 1 3 3 4 3 3 1 1 2 3 3 3 2 0 1 0 0 0 0 0 0 1 
2 1 1 0 0 0 3 4 4 4 3 2 2 2 0 0 0 1 0 1 1 0 3 3 2 4 5 2 2 1 3 2 2 1 1 0 0 0 0 1 0 0 0 0 0 0 0 0 0 0 0 0 0 0 0 0 0 0 0 0 0 0 0 0 0 0 0 0 0 0 0 0 0 0 0 0 0 0 0 0 0 1 1 1 2 1 2 1 0 3 4 2 2 2 2 0 0 1 0 0 0 0 0 2 1 0 1 2 2 2 1 1 0 0 0 0 0 0 0 0 0 0 0 0 0 1 0 0 0 0 0 2 1 1 1 1 0 0 0 0 0 0 0 0 0 0 0 1 2 2 1 2 0 0 0 1 2 3 5 2 3 2 3 2 3 2 0 1 1 1 2 3 2 5 5 4 5 4 4 1 1 3 4 5 4 7 6 5 6 6 5 4 5 4 5 5 5 3 4 4 3 2 3 2 3 4 3 2 2 2 3 3 2 0 1 0 0 0 0 0 0 0 0 0 0 1 0 0 0 0 0 0 0 0 0 0 0 0 0 0 0 0 0 0 0 1 0 0 0 1 0 0 0 2 3 3 3 4 3 3 1 1 0 0 0 0 0 0 0 0 0 0 0 0 0 0 0 0 0 0 0 0 0 0 0 0 0 0 0 0 0 0 0 0 0 0 0 0 0 0 0 0 0 0 0 0 0 0 0 0 0 0 1 0 0 0 0 0 0 0 0 0 0 1 2 2 2 1 0 0 0 0 3 1 2 2 0 0 0 0 0 2 2 1 0 0 0 1 1 3 3 2 2 1 1 1 1 1 1 0 0 1 0 0 0 0 1 1 1 0 0 0 1 2 1 4 3 3 2 3 1 1 2 1 1 1 1 1 1 1 1 0 4 3 2 3 3 4 5 3 4 6 6 5 4 3 2 1 2 1 1 2 2 2 3 4 3 5 5 5 5 6 4 4 4 4 5 5 4 4 7 6 4 3 2 2 4 2 0 2 2 1 0 0 0 0 0 0 0 0 0 0 0 0 0 0 0 0 0 0 0 0 0 0 0 0 0 0 0 0 0 0 0 0 0 0 0 0 0 0 0 0 0 0 0 0 0 0 0 0 0 0 0 0 0 0 0 0 0 3 2 2 3 3 2 3 3 2 1 0 0 0 0 0 0 0 0 1 0 0 0 0 0 0 0 0 1 0 0 0 0 0 0 0 0 0 0 0 0 0 0 0 0 1 1 0 0 0 1 0 0 2 2 1 0 1 2 2 0 0 0 0 0 0 1 2 3 3 2 2 2 2 2 1 2 2 3 3 3 4 5 4 3 3 2 1 4 2 0 1 2 1 2 1 3 2 3 5 6 6 5 6 5 3 2 2 3 3 4 3 1 0 0 0 0 0 0 0 0 2 3 2 2 1 2 2 2 3 3 2 1 0 1 0 1 0 0 0 0 1 
1 1 1 0 0 1 3 3 3 3 3 1 1 0 0 0 2 1 0 1 3 2 2 2 3 2 3 1 1 3 3 2 2 1 0 0 0 0 0 0 1 0 0 0 0 0 0 0 0 0 0 0 0 0 0 0 0 0 0 0 0 0 0 0 0 0 0 0 0 0 0 0 0 0 0 0 0 0 0 0 0 0 0 1 2 2 1 1 3 4 3 1 2 3 1 0 0 0 0 0 1 1 1 1 1 1 1 3 3 1 1 0 0 0 0 0 0 0 0 0 0 0 0 0 1 0 0 0 2 3 2 3 2 1 1 0 0 0 0 1 0 0 0 0 0 0 0 0 1 0 1 0 2 2 2 2 2 3 3 2 2 0 0 2 2 1 1 1 2 1 1 2 3 4 4 5 6 4 3 3 3 3 3 5 6 7 7 6 6 6 5 5 5 5 5 4 5 4 3 3 3 3 3 3 4 4 5 4 3 4 2 1 1 0 1 0 0 0 0 0 0 0 0 0 0 1 0 0 0 0 0 0 0 0 0 0 0 0 0 0 0 0 0 0 0 0 0 0 0 1 0 1 2 2 3 2 3 3 3 2 2 0 1 0 0 0 0 0 0 0 0 0 0 1 0 1 0 0 0 0 0 0 0 0 0 0 0 0 0 0 0 0 0 0 0 0 0 0 0 0 0 1 0 0 0 0 0 0 0 0 0 0 0 0 0 0 0 0 0 0 0 0 0 1 1 1 2 1 0 0 0 2 2 1 2 3 2 3 2 0 0 0 0 0 0 1 1 2 1 1 3 2 1 0 1 2 3 1 0 0 0 0 0 1 3 3 1 0 0 2 1 2 1 2 3 3 3 3 1 1 1 2 2 3 1 0 0 0 0 0 0 1 1 2 3 2 2 4 3 2 2 2 3 4 5 3 2 1 2 1 0 1 2 3 3 4 5 5 5 4 5 4 5 6 5 4 6 5 5 4 5 6 5 4 2 4 2 1 2 0 1 2 0 0 0 0 0 0 0 0 0 0 0 1 0 0 0 0 0 0 0 0 0 0 0 0 0 0 0 0 0 0 0 0 0 0 1 0 0 0 0 0 0 0 0 0 0 2 0 0 0 0 0 0 1 1 0 2 1 3 2 4 4 4 2 3 3 1 0 0 0 0 0 0 0 0 1 0 0 1 0 0 0 0 1 0 0 0 0 0 0 0 0 0 0 0 0 0 0 0 0 0 0 0 0 0 0 0 1 0 0 1 1 1 2 1 1 2 1 0 0 0 1 1 1 3 3 2 1 2 2 1 2 2 2 2 2 2 4 3 3 3 3 3 2 2 2 1 1 1 3 2 1 2 3 3 3 5 6 5 6 6 4 3 2 3 2 2 3 2 1 1 0 0 0 0 1 1 0 0 1 1 3 3 2 1 2 1 2 1 0 0 0 0 0 0 0 0 1 1 
2 2 1 2 1 1 4 3 3 3 1 1 0 1 0 1 0 1 2 1 1 2 2 1 2 3 2 2 3 1 5 3 2 1 0 0 0 0 0 0 1 0 0 0 0 0 0 0 0 0 0 0 0 0 0 0 0 0 0 0 0 0 0 0 0 0 0 0 0 0 0 0 0 0 0 0 0 0 0 0 0 0 1 0 1 1 1 2 2 4 3 4 2 2 0 0 0 0 0 0 0 1 0 0 1 3 2 4 3 2 2 1 1 0 0 0 0 0 0 0 0 0 0 0 1 0 2 1 2 1 3 2 1 2 1 0 0 0 0 0 0 0 0 0 0 0 1 2 1 1 0 0 1 1 0 2 3 4 3 2 1 1 2 1 0 1 0 1 1 3 3 3 3 4 6 5 5 5 3 3 3 4 5 4 5 6 7 5 5 5 5 5 5 4 5 4 4 3 4 3 4 3 3 3 4 2 4 3 2 4 3 2 1 0 1 0 0 0 0 0 0 0 0 0 0 0 0 0 0 0 0 0 0 0 0 0 0 0 0 0 0 0 0 0 0 0 0 0 0 0 2 1 1 3 3 3 3 4 3 0 0 0 0 0 0 0 0 0 0 0 0 0 0 0 0 0 0 0 0 0 0 0 0 0 0 0 0 0 0 0 0 0 0 0 0 0 0 0 0 0 1 1 0 0 0 0 0 0 0 0 0 0 0 0 0 0 0 0 0 0 0 0 0 1 1 2 0 0 2 2 2 3 3 3 2 2 2 2 0 0 0 0 0 0 1 1 2 1 2 3 3 3 1 2 2 2 3 2 2 0 0 0 1 1 2 3 2 2 3 2 2 1 1 1 2 2 1 2 2 1 1 2 0 1 0 0 0 0 1 0 0 0 0 1 2 2 1 2 0 1 1 1 3 3 3 2 3 2 2 3 0 2 3 2 3 3 3 4 4 3 4 4 5 5 5 4 4 4 5 6 5 6 5 4 2 4 3 1 1 1 1 0 0 0 0 0 0 0 0 0 0 2 0 0 0 0 0 0 0 0 0 0 0 0 0 0 0 0 0 0 0 0 0 0 0 0 0 0 0 0 0 0 0 0 0 0 0 0 0 0 0 0 0 0 2 1 2 1 1 3 3 3 4 4 2 3 0 0 0 0 0 0 0 0 0 0 0 0 0 0 0 0 0 0 1 2 0 0 0 0 0 0 0 0 0 0 0 0 0 0 0 0 0 0 0 0 0 1 1 1 1 1 1 0 2 2 1 1 0 0 0 0 0 0 2 3 2 2 2 0 1 1 1 2 2 3 2 2 3 4 3 2 3 2 4 1 0 2 3 2 2 2 2 4 2 4 6 6 6 6 6 5 4 2 3 2 2 3 2 2 1 1 1 0 0 1 1 0 2 2 2 2 3 4 4 3 1 2 1 0 0 0 0 0 0 0 0 0 0 1 
0 2 1 1 3 4 4 3 2 2 1 1 2 1 0 0 1 2 2 2 0 1 1 1 3 2 1 2 3 2 2 2 1 2 0 0 0 0 0 0 1 0 0 0 0 0 0 0 0 0 0 0 0 0 0 0 0 0 0 0 0 0 0 0 0 0 0 0 0 0 0 0 0 0 0 0 0 0 0 1 0 0 0 0 0 0 1 1 1 2 3 2 2 1 1 1 0 0 0 0 0 0 0 0 1 4 3 2 3 3 2 2 0 0 0 0 0 0 0 0 0 0 0 1 1 2 1 2 3 3 3 2 3 3 2 0 0 1 1 1 0 0 0 0 0 1 1 2 1 1 1 1 1 3 1 0 1 3 3 3 0 0 0 0 0 0 0 0 0 1 3 1 2 4 5 6 4 5 3 2 3 3 4 5 5 6 5 5 4 4 6 6 5 4 5 4 3 4 3 4 5 4 2 2 2 3 4 4 5 3 3 2 0 0 0 0 0 0 0 0 0 0 0 0 0 0 0 0 0 0 0 0 0 0 0 0 0 0 0 0 0 0 0 0 0 0 0 0 1 0 0 1 2 2 2 4 4 2 2 0 0 0 0 0 0 0 0 0 0 0 0 0 0 0 1 0 0 0 0 0 0 0 0 0 0 0 0 0 0 0 0 0 0 0 0 0 0 0 0 1 0 0 0 0 0 0 0 0 0 0 0 0 0 0 0 0 0 0 0 0 0 1 2 2 1 0 1 0 0 1 2 1 1 3 3 2 4 2 0 0 1 1 3 2 1 0 0 2 2 2 4 3 3 5 4 4 4 2 1 2 1 1 1 0 1 1 4 2 4 2 1 3 2 2 2 2 0 1 2 1 1 2 2 1 0 0 0 0 2 0 0 0 0 1 2 1 0 0 1 2 2 2 3 3 4 3 3 3 4 2 3 3 3 2 4 2 4 4 4 4 4 4 5 4 5 4 3 5 5 4 3 3 2 3 2 3 1 1 1 1 1 0 0 0 0 0 0 0 0 0 0 1 0 0 1 0 0 0 0 0 0 0 0 0 0 0 0 0 0 0 0 0 0 0 0 0 0 0 0 0 0 0 0 0 0 0 0 0 0 0 0 0 0 0 1 1 0 1 2 2 2 4 5 3 2 0 0 0 0 0 0 0 0 0 0 0 0 0 0 0 0 0 0 0 1 2 0 0 0 0 0 0 0 0 0 0 0 0 0 0 0 0 0 0 0 0 0 0 1 1 1 2 2 1 1 0 1 1 0 1 0 0 0 0 0 0 2 1 1 2 2 3 2 2 3 2 1 4 2 4 3 4 3 4 4 2 1 2 3 2 3 2 1 2 2 4 4 5 7 6 6 4 4 2 2 4 3 3 4 2 2 1 2 2 0 0 3 1 3 3 2 3 2 3 3 2 0 0 1 0 0 0 0 0 0 0 0 0 0 0 
1 1 2 3 1 3 3 4 4 3 2 3 2 1 1 1 1 1 3 2 2 1 1 1 1 3 2 3 3 2 3 2 2 2 0 0 0 0 0 0 0 0 0 0 0 0 0 0 0 0 0 0 0 0 0 0 0 0 0 0 0 0 0 0 0 0 0 0 0 0 0 0 0 0 0 0 0 0 0 0 0 1 0 0 0 0 1 0 1 2 1 1 0 1 1 0 0 0 0 0 1 1 2 1 2 3 4 4 5 5 4 5 4 2 2 0 0 0 0 0 0 0 0 1 1 2 2 2 2 4 3 2 4 4 2 3 2 0 3 2 0 0 0 0 0 1 1 2 2 1 2 1 0 2 0 1 1 1 2 0 0 0 1 0 0 0 0 1 1 2 2 1 3 3 6 5 4 4 6 3 4 5 4 3 5 4 5 6 4 5 4 5 6 5 4 4 5 4 4 3 4 4 4 2 3 2 3 4 4 2 0 0 0 0 0 0 0 0 0 0 0 0 0 0 0 0 0 0 0 0 0 0 0 0 0 0 0 0 0 0 0 0 0 0 0 0 0 0 0 1 0 1 1 1 3 3 2 1 1 0 0 0 0 0 0 0 0 0 0 0 0 0 0 0 0 1 0 0 0 0 0 0 0 0 0 0 0 0 0 0 0 0 0 0 0 0 0 0 0 0 0 0 0 0 0 0 0 0 0 0 0 0 1 0 0 0 3 1 1 0 0 0 0 0 0 2 1 0 0 0 1 2 0 0 2 1 2 2 1 1 1 2 2 0 0 0 1 1 3 3 4 6 5 5 5 4 3 3 2 3 2 1 1 1 1 3 3 3 2 2 1 1 3 3 2 2 0 0 1 1 1 0 0 0 0 0 0 0 0 0 0 0 0 0 0 0 0 0 0 2 2 2 3 3 3 4 2 3 3 3 2 3 2 4 2 3 4 3 3 4 3 3 5 4 5 4 4 4 3 2 2 1 1 2 1 0 1 1 1 1 2 2 1 0 0 0 0 0 0 0 0 1 2 0 0 0 0 0 0 0 0 0 0 0 0 0 0 0 0 0 0 0 0 0 0 0 0 0 0 0 0 0 0 0 0 0 0 0 1 0 0 0 0 0 0 0 0 2 2 1 3 4 2 1 1 0 0 0 0 0 0 0 0 0 0 0 1 1 0 1 2 0 1 1 2 3 1 1 0 0 0 0 0 1 0 0 0 0 0 0 1 0 0 0 0 0 1 2 1 1 0 0 0 0 0 1 1 0 0 0 0 0 0 0 0 1 1 2 2 3 2 3 3 3 2 1 2 3 3 4 4 3 4 5 4 3 2 2 2 2 2 1 2 2 3 4 6 5 6 7 6 5 3 2 2 4 3 3 3 1 1 1 0 1 1 2 2 3 2 2 3 2 2 3 2 1 1 0 0 0 0 0 0 0 0 0 0 0 1 0 
1 1 1 1 0 1 3 3 4 4 4 2 0 0 1 0 1 2 3 3 0 1 2 2 0 1 1 1 2 3 3 1 1 0 1 0 0 0 0 0 0 0 0 0 0 0 0 0 0 0 0 0 0 0 0 0 0 0 0 0 0 0 0 0 0 0 0 0 0 0 0 0 0 0 0 0 0 0 0 1 0 2 1 1 0 0 0 0 0 0 0 0 0 0 0 0 0 0 0 0 0 0 1 0 2 2 4 3 5 4 5 5 4 3 2 1 0 1 0 0 0 1 2 3 1 2 4 4 4 3 4 3 5 3 3 5 2 1 1 2 0 0 0 0 0 1 1 1 0 2 0 0 2 1 1 1 0 0 0 0 0 0 0 0 0 0 0 1 1 3 3 2 3 5 5 5 4 4 4 3 4 5 4 4 4 5 5 6 5 4 6 5 6 5 5 3 3 3 3 3 3 2 2 2 2 4 3 3 3 2 0 0 0 0 0 0 0 0 0 0 0 0 0 0 0 0 0 0 0 0 0 0 0 0 0 0 0 0 0 0 0 0 0 0 0 0 0 0 0 1 0 1 1 1 2 2 1 0 0 0 0 0 0 0 0 0 0 0 0 0 0 0 0 0 0 1 0 0 0 0 0 0 1 0 0 0 0 0 0 0 0 0 0 0 0 0 0 0 0 0 0 0 0 0 0 0 0 0 0 0 0 0 0 0 1 1 2 1 1 1 0 0 0 0 1 2 2 0 0 0 1 1 1 0 0 1 2 2 4 2 2 1 2 0 0 1 2 2 4 5 6 6 5 6 5 5 3 5 3 1 3 2 3 2 3 4 3 3 2 2 1 3 2 2 1 1 3 2 3 2 1 1 1 2 0 0 1 0 0 0 0 0 0 0 0 0 0 0 0 2 1 2 2 3 3 2 3 3 2 3 2 3 2 3 1 2 3 2 2 3 3 4 5 3 5 4 5 3 2 2 0 1 1 1 2 1 2 1 1 2 2 1 0 0 0 0 0 0 0 1 0 1 0 0 0 0 0 0 0 0 0 0 0 0 0 0 0 0 0 0 0 0 0 0 0 1 0 0 0 0 0 0 0 0 0 0 0 0 0 0 0 0 0 0 0 0 0 2 2 2 2 2 1 0 0 0 0 0 0 0 0 0 0 0 0 1 0 1 0 1 3 2 2 2 2 1 1 1 0 0 0 1 2 1 0 1 0 0 0 0 0 0 0 0 0 1 1 1 1 1 0 0 0 0 0 0 0 0 1 1 0 0 0 0 0 1 3 1 3 2 1 1 1 0 2 2 2 3 3 4 3 3 4 3 2 3 2 1 1 2 2 2 2 2 3 5 4 5 4 5 7 5 4 4 3 2 2 2 2 2 0 0 0 1 2 3 2 3 3 2 3 4 2 1 1 0 0 0 0 0 0 0 0 0 0 0 0 0 0 0 
0 0 0 0 0 3 1 2 3 2 2 2 1 1 3 1 1 2 2 1 2 2 3 1 1 0 1 1 1 2 2 2 3 1 0 0 0 0 0 0 0 0 0 0 0 0 0 0 0 0 0 0 0 0 0 0 0 0 0 0 0 0 0 0 0 0 0 0 0 0 0 0 0 0 0 0 0 0 0 1 2 1 1 1 0 0 0 0 0 0 0 0 0 0 0 0 0 0 1 1 1 3 1 2 2 3 4 5 5 4 4 5 3 3 2 0 1 1 0 0 0 1 0 1 5 3 3 3 4 3 3 3 3 3 2 2 2 0 0 0 0 1 0 1 0 0 1 0 0 1 1 1 1 1 0 1 0 1 0 0 0 0 0 0 0 0 0 1 1 1 2 1 3 4 4 4 4 3 2 5 4 4 4 6 5 5 5 5 3 5 5 4 5 6 5 3 4 3 4 4 2 3 4 3 2 4 4 3 3 2 0 0 0 0 0 0 0 0 0 0 0 0 0 0 0 0 0 0 0 0 0 0 1 1 0 0 0 1 0 0 0 0 0 0 0 0 0 0 0 1 0 0 0 0 2 1 0 1 0 0 0 0 0 0 0 0 0 0 0 0 0 0 0 0 0 0 0 0 0 0 0 0 0 0 0 0 0 0 0 0 0 0 0 0 0 0 0 0 0 0 0 0 0 0 0 0 0 0 0 0 0 0 0 0 1 1 0 0 1 1 0 0 0 0 0 1 1 1 1 1 1 1 0 0 0 0 1 1 1 0 2 1 2 2 1 2 2 2 3 3 4 4 7 5 5 4 4 3 4 4 4 2 3 1 2 0 3 2 4 3 2 3 0 2 3 3 3 1 1 1 0 0 0 0 0 0 0 0 0 0 0 0 0 0 0 0 0 0 2 1 2 1 2 1 0 2 3 3 1 2 2 2 2 4 3 3 2 2 3 4 4 4 4 4 5 5 4 4 3 2 1 3 1 1 0 1 2 0 0 2 2 2 2 1 0 0 0 1 0 0 0 0 0 0 0 0 0 0 0 0 0 0 0 0 0 0 0 0 0 0 0 0 0 0 0 0 0 0 0 0 0 0 0 0 0 0 0 0 0 0 0 0 0 0 0 0 0 1 2 2 2 2 0 0 0 0 0 0 0 0 0 0 0 0 1 1 1 1 1 1 2 2 2 3 2 1 1 1 0 0 0 0 1 1 1 0 0 1 1 1 0 0 0 0 0 2 2 1 1 2 0 0 0 0 0 0 0 0 1 2 1 0 0 0 0 1 2 0 2 2 0 1 2 2 2 0 3 4 3 3 3 4 4 3 3 3 2 1 2 3 4 3 3 3 4 4 5 6 5 7 7 5 4 4 3 3 3 2 1 1 3 1 0 1 1 2 1 2 3 3 2 2 0 1 1 0 0 0 0 0 0 0 0 0 0 0 0 0 0 0 
0 1 0 0 1 2 2 1 2 3 1 3 2 0 2 0 0 0 0 0 2 2 2 0 1 2 3 2 1 1 2 1 2 1 1 0 0 0 0 0 0 0 0 0 0 0 0 0 0 0 0 0 0 0 0 0 0 0 0 0 0 0 0 0 0 0 0 0 0 0 0 0 0 0 0 0 0 0 0 2 3 1 0 0 0 0 0 0 0 0 0 0 0 0 0 0 0 0 0 0 0 3 2 2 1 3 2 3 3 3 4 4 4 4 1 0 0 0 1 2 2 1 1 3 4 4 4 4 6 4 4 4 4 3 3 3 2 1 0 0 0 0 1 1 0 0 0 1 1 1 1 1 0 0 0 0 0 1 0 0 0 0 0 0 0 0 0 0 0 1 2 2 2 5 6 4 3 3 2 2 4 5 5 6 5 3 4 5 4 3 3 5 5 6 5 4 4 4 4 3 2 3 2 4 3 4 4 2 2 0 0 0 0 0 0 0 0 0 1 0 0 0 0 0 0 0 0 0 0 0 0 0 1 0 0 0 0 0 0 0 0 0 0 0 0 0 0 0 0 0 0 0 0 0 1 0 1 0 0 0 0 0 0 0 0 0 0 0 1 0 0 0 0 0 0 0 1 0 0 0 0 0 0 0 0 0 0 0 0 0 0 0 0 0 0 0 0 1 0 1 1 1 0 0 0 0 1 0 0 0 0 0 0 0 0 0 1 0 1 1 0 0 0 0 1 0 0 0 0 0 1 1 1 1 0 1 1 2 1 1 0 1 2 2 2 2 4 3 3 2 3 4 5 6 6 6 6 5 5 5 4 4 0 1 3 1 2 2 2 2 1 2 0 0 3 2 2 1 1 1 1 0 0 0 0 0 0 0 0 0 0 0 0 0 1 0 1 1 2 2 1 1 1 1 0 1 1 1 1 0 1 1 2 1 2 2 2 2 4 4 5 5 5 7 6 5 4 4 4 3 4 3 1 0 0 1 1 2 0 3 1 1 0 1 0 1 1 0 0 0 1 0 0 0 0 0 0 0 0 0 0 0 0 0 0 0 0 0 0 0 0 0 0 0 0 0 0 0 0 0 0 0 0 0 0 0 0 0 0 0 0 0 0 0 0 0 0 0 2 1 1 0 0 0 0 0 0 0 0 0 0 0 0 1 2 2 0 1 2 3 2 2 3 2 3 1 1 2 0 0 1 2 1 1 1 2 0 1 0 1 0 0 1 1 1 1 0 1 2 1 1 0 0 0 0 0 0 0 0 1 0 0 0 0 0 0 0 0 0 0 2 2 2 1 1 2 1 2 2 4 4 4 4 3 3 2 1 2 1 2 3 5 4 5 6 7 6 6 7 8 5 4 6 3 2 3 3 2 3 2 2 1 2 0 1 1 0 1 2 1 2 0 0 0 0 0 0 0 1 1 0 0 0 0 0 0 0 0 0 0 
1 1 1 1 0 0 1 1 2 1 2 3 2 2 0 0 0 0 1 1 1 2 1 1 2 1 2 3 3 2 3 1 1 1 1 0 0 0 0 0 0 0 0 0 0 0 0 0 0 0 0 0 0 0 0 0 0 0 0 0 0 0 0 0 0 0 0 0 0 0 0 0 0 0 0 0 0 0 0 0 1 0 0 0 0 0 0 0 0 0 0 0 0 1 0 0 0 0 0 0 1 2 2 3 3 1 1 2 3 3 4 2 3 2 0 0 1 1 2 3 3 3 5 4 5 5 7 6 5 4 3 3 3 2 3 3 3 1 0 0 0 0 0 0 0 0 0 1 1 2 1 1 1 1 1 0 0 0 0 0 0 0 0 0 0 0 0 0 1 2 2 2 3 2 3 2 2 2 2 2 4 5 5 5 5 4 4 5 3 4 4 3 5 3 5 4 2 2 3 2 2 3 3 4 3 3 2 2 0 1 1 0 0 0 0 0 0 0 0 0 0 0 0 0 0 0 0 0 0 0 0 0 0 0 0 0 0 0 0 0 0 0 0 0 0 0 0 0 0 0 0 0 0 0 2 0 0 0 0 0 0 0 0 0 0 0 0 0 0 0 0 0 0 0 0 0 0 0 0 0 0 0 0 0 0 0 0 0 0 0 0 0 0 0 0 1 0 0 0 2 2 0 0 0 0 0 0 0 0 0 0 0 0 0 0 0 0 0 1 0 0 0 0 0 0 0 0 0 0 0 0 1 0 1 0 0 0 0 2 1 1 0 1 1 2 3 4 1 3 3 3 5 5 7 8 7 6 7 5 7 4 4 2 2 1 1 2 2 2 0 0 2 2 2 1 1 3 1 1 1 1 0 0 0 0 0 0 0 0 0 0 0 0 0 0 0 0 2 2 1 2 1 1 1 2 3 0 0 0 1 0 0 3 2 3 2 1 4 3 4 4 6 6 5 6 5 6 5 4 2 1 1 2 0 1 0 0 2 1 3 1 0 0 1 0 0 0 0 0 0 0 0 0 0 0 0 0 0 0 0 0 0 0 0 0 0 0 0 0 0 0 0 0 0 0 0 0 0 0 0 0 0 0 0 0 0 0 0 0 0 0 0 0 0 0 0 0 0 0 1 0 1 0 0 0 0 0 0 0 0 0 0 0 1 1 2 0 2 2 3 3 2 3 2 4 2 1 0 0 0 2 0 1 1 1 0 0 0 0 0 0 0 0 0 1 0 0 1 3 1 1 2 0 0 0 0 0 0 0 0 0 0 0 0 0 0 1 0 1 0 2 1 1 0 0 0 1 1 2 3 2 3 3 2 3 2 3 3 3 3 3 6 5 6 4 6 6 6 7 6 5 4 3 3 3 3 3 2 2 2 0 0 1 0 0 0 0 1 1 0 1 2 0 0 0 0 0 0 2 1 0 1 0 0 0 0 0 0 0 0 
1 0 1 1 1 1 1 1 1 1 2 2 4 2 1 0 0 0 0 1 0 0 0 0 0 1 1 0 3 2 3 2 1 0 1 0 0 0 0 0 0 0 0 0 0 0 0 0 0 0 0 0 0 0 0 0 0 0 0 0 0 0 0 0 0 0 0 0 0 0 0 0 0 0 0 0 0 0 0 0 0 0 0 0 0 0 0 0 0 0 0 0 0 0 0 0 0 0 0 0 0 1 1 1 2 2 3 3 4 3 3 4 3 1 0 1 2 3 2 4 3 4 5 5 6 7 7 5 5 3 3 3 4 1 2 2 2 2 0 1 0 0 0 0 0 1 0 0 0 0 0 0 0 1 1 0 0 0 0 0 0 0 0 0 0 0 0 1 1 0 2 2 2 1 3 2 2 2 3 2 5 5 5 5 4 5 5 4 4 3 4 3 2 3 4 4 3 3 2 2 1 2 2 3 3 2 3 4 3 3 0 0 0 0 0 0 0 0 0 0 0 0 0 0 0 0 0 0 0 0 0 0 1 0 0 0 0 0 0 0 0 0 0 0 0 0 0 0 0 0 0 0 0 2 2 2 1 0 0 0 0 0 0 0 0 0 0 0 0 0 0 0 0 0 0 0 0 0 0 0 0 0 0 0 0 0 0 0 0 0 0 0 1 0 0 1 1 1 1 0 1 1 1 2 2 0 0 0 0 0 0 0 0 0 0 0 0 0 0 0 0 0 0 0 0 0 0 0 0 0 0 0 1 2 2 3 2 1 1 2 2 2 1 2 2 2 2 3 3 3 4 4 5 6 7 6 7 7 5 3 4 3 2 2 1 1 0 1 1 2 4 2 3 2 4 2 3 3 2 2 1 0 0 0 0 0 0 1 0 0 0 0 0 0 0 0 1 2 3 2 0 0 0 1 3 2 1 0 1 1 0 1 1 1 2 2 3 3 4 6 5 5 6 7 9 7 6 4 5 2 2 1 3 3 1 1 0 0 1 1 1 0 0 0 0 0 0 0 0 0 0 0 0 0 0 0 0 0 0 0 0 0 0 0 0 0 0 0 0 0 0 0 0 0 0 0 0 0 0 0 0 0 0 0 0 0 0 0 0 0 0 0 0 0 0 0 0 1 1 2 1 0 0 0 0 0 0 0 0 0 0 0 0 0 0 2 1 2 2 3 3 4 4 4 2 0 0 1 1 1 1 2 1 0 0 0 0 0 0 0 0 0 0 1 1 1 1 2 1 3 3 1 1 1 1 0 0 0 0 0 0 1 0 0 0 0 1 2 2 0 0 0 0 0 0 0 2 2 4 4 2 2 2 4 4 3 2 3 4 3 4 5 5 4 6 5 6 5 4 5 4 5 4 3 3 4 2 3 1 0 0 0 0 0 0 0 0 1 1 2 1 1 0 0 0 0 0 0 0 1 1 1 0 0 0 0 0 0 0 0 
0 1 1 1 0 0 0 0 0 0 1 0 3 1 0 0 0 0 0 0 0 0 0 0 1 1 1 4 3 1 1 2 1 0 0 0 0 0 0 0 0 0 0 0 0 0 0 0 0 0 0 0 0 1 0 0 0 0 0 0 0 0 0 0 0 0 0 0 0 0 0 0 0 0 0 0 0 0 0 0 0 2 0 0 0 0 0 0 1 0 0 0 0 0 0 0 0 0 0 0 0 1 2 1 1 3 3 4 2 3 3 2 2 3 2 1 2 3 4 4 3 3 7 5 6 6 5 5 7 3 3 3 4 2 2 3 2 1 1 0 1 0 0 0 0 0 0 0 0 0 0 0 2 1 0 0 0 0 0 0 0 0 0 0 0 0 0 2 3 2 2 1 2 2 2 3 3 1 2 3 5 5 4 4 6 4 5 4 4 3 4 3 4 3 3 3 3 2 2 1 2 1 2 4 3 3 3 3 3 3 1 0 0 0 0 0 0 0 0 0 0 0 0 0 0 0 0 0 0 1 0 0 0 0 0 0 0 0 0 0 0 0 0 0 0 0 0 0 0 0 0 0 0 0 0 1 1 0 0 0 0 0 0 0 0 0 0 0 0 0 0 0 0 0 0 0 1 0 0 0 0 0 0 0 0 0 0 0 0 0 0 1 0 0 0 0 0 2 1 1 0 0 0 0 0 0 0 0 0 0 0 0 0 0 0 0 0 0 0 0 0 0 0 0 0 0 0 0 0 0 0 1 2 2 2 2 3 3 4 2 2 3 4 2 3 4 5 5 4 4 5 5 4 6 5 5 5 7 5 4 4 3 3 3 1 2 1 1 2 3 2 3 4 3 2 3 4 3 2 4 0 0 0 0 0 0 1 0 0 0 0 0 0 0 0 0 0 2 3 2 2 2 2 2 1 0 1 1 0 0 1 1 1 1 1 0 3 3 4 4 5 3 3 7 6 4 6 4 4 4 3 3 1 1 0 1 2 0 1 0 0 0 0 0 0 0 1 1 1 2 2 0 0 0 0 0 0 0 0 0 0 0 0 0 0 0 0 0 0 0 0 0 0 0 0 0 0 0 0 0 0 0 0 0 0 0 0 0 0 0 0 0 0 0 0 0 0 0 1 1 0 1 0 0 0 0 0 0 0 0 0 0 0 0 1 0 0 1 2 3 2 2 3 3 3 1 2 2 2 1 2 2 1 1 0 0 0 0 0 0 0 1 2 4 2 2 2 2 2 3 2 4 2 0 0 0 0 0 0 0 0 0 0 1 0 0 1 0 1 0 0 0 1 0 0 1 3 3 4 4 4 3 3 3 3 2 3 3 5 4 5 6 6 4 5 6 5 4 4 5 4 5 4 3 4 3 1 2 0 1 0 0 0 0 0 1 1 0 3 1 2 2 1 0 0 0 0 0 0 1 1 0 0 0 0 0 0 0 0 0 
1 0 1 0 0 0 0 0 0 0 1 1 1 0 0 0 0 0 0 0 0 0 0 1 2 1 1 1 1 2 2 2 0 0 0 0 0 0 0 0 0 0 0 0 0 0 0 0 0 0 0 0 0 0 0 0 0 0 0 0 0 0 0 0 0 0 0 0 0 0 0 0 0 0 0 0 0 0 0 0 0 0 0 0 0 0 0 0 0 0 0 0 0 0 0 0 0 0 0 0 0 2 3 3 2 3 3 3 2 3 2 4 3 2 1 3 2 4 4 5 3 4 4 5 6 6 5 4 5 5 6 4 4 3 2 3 2 0 1 1 2 0 0 0 0 0 0 0 0 0 0 0 1 2 1 2 1 0 0 0 0 0 0 0 0 1 1 4 3 2 2 2 1 1 1 2 2 1 2 4 3 3 3 4 4 4 6 4 3 3 3 3 3 3 2 2 3 2 2 1 1 3 3 5 4 2 2 0 1 0 0 0 0 0 0 0 0 0 1 1 1 0 0 0 0 0 0 0 0 0 0 0 0 1 0 0 0 0 0 0 0 0 0 0 0 0 0 0 0 0 0 0 0 0 0 0 0 0 0 0 0 0 0 0 0 0 0 0 0 0 0 0 0 0 0 0 1 2 3 0 0 0 0 0 0 0 0 1 0 0 0 1 2 0 0 0 1 1 0 0 0 0 0 0 1 1 0 0 0 0 0 0 0 0 0 0 0 0 0 0 0 0 0 0 0 0 0 0 1 0 0 1 2 2 3 2 4 5 5 3 3 3 3 3 4 6 4 5 6 6 5 6 5 5 4 4 5 5 5 3 3 3 1 2 3 1 1 2 1 2 2 2 3 3 2 2 3 2 2 2 2 0 0 0 0 0 1 0 0 0 0 0 0 0 0 0 0 2 2 2 3 4 2 3 0 0 0 0 0 1 1 1 1 1 1 2 2 3 3 3 4 3 3 3 2 2 2 2 3 2 1 2 2 1 0 1 0 1 0 0 0 0 0 0 0 0 0 1 1 3 2 2 1 0 0 0 0 0 0 0 0 0 0 0 0 0 0 0 0 0 0 0 0 0 0 0 0 0 0 0 0 0 0 0 0 0 0 0 0 0 0 0 0 0 0 0 0 0 0 0 0 0 1 0 0 0 0 1 0 1 0 0 0 1 0 0 1 1 2 4 3 3 3 3 2 2 3 2 2 3 3 2 0 0 0 0 0 0 0 0 0 0 3 3 3 2 3 3 3 1 3 1 2 0 0 0 0 0 0 0 0 0 0 0 0 1 1 1 0 0 0 2 1 1 1 2 2 4 5 4 3 4 5 3 2 2 2 3 5 4 5 5 5 6 6 5 3 4 4 4 4 5 5 3 4 3 2 2 0 1 0 0 1 2 2 1 2 2 2 1 2 1 1 1 0 1 1 1 0 1 0 0 0 0 0 0 0 0 0 0 
0 1 1 2 1 1 2 0 0 0 2 0 1 0 0 0 0 0 0 0 0 0 0 0 0 1 1 2 0 1 1 0 0 0 0 0 0 0 0 0 0 0 0 0 0 0 0 0 0 0 0 0 0 0 0 0 0 0 0 0 0 0 0 0 0 0 0 0 0 0 0 0 0 0 0 0 0 0 0 0 0 0 0 0 0 0 0 0 0 0 0 0 0 0 0 0 0 0 0 0 0 2 3 4 3 3 4 3 3 3 3 4 3 2 1 1 3 2 4 4 5 4 5 5 5 5 5 4 5 5 5 4 4 4 4 3 3 3 3 2 2 0 0 0 0 0 0 0 0 0 0 0 1 1 1 1 2 0 0 0 0 0 0 0 0 0 1 0 0 3 2 2 1 1 2 2 1 2 4 2 2 3 3 3 3 4 5 4 4 3 4 2 4 2 1 2 2 1 2 2 1 1 2 4 2 1 1 2 2 1 1 0 0 0 0 0 0 1 2 0 0 0 0 0 0 0 1 0 0 2 0 0 1 0 0 0 0 0 0 0 0 0 0 0 0 0 0 0 0 0 0 0 0 0 0 0 0 0 0 0 0 0 0 0 0 0 0 0 0 0 0 0 0 0 0 2 2 2 1 0 0 0 0 0 0 0 0 1 1 1 1 0 1 0 0 1 1 2 0 0 0 0 0 0 0 0 0 0 0 0 0 0 0 0 0 0 0 0 0 0 0 0 0 0 0 0 0 1 0 0 0 2 1 2 4 3 3 4 4 3 3 2 2 2 4 4 6 5 6 7 6 5 6 5 5 5 3 4 4 4 4 3 2 3 2 3 3 3 3 3 3 3 3 3 3 2 3 3 2 1 1 1 0 0 0 0 0 0 0 0 0 0 0 0 1 2 1 3 3 1 2 3 2 2 0 0 0 0 0 1 2 1 0 1 2 2 1 1 1 3 1 0 0 1 2 0 1 0 0 1 0 0 0 1 0 1 2 1 0 0 0 0 0 0 0 0 0 2 3 3 3 2 1 1 0 0 0 0 0 0 0 0 0 0 0 0 0 0 0 0 0 0 0 0 0 0 0 0 0 0 0 0 0 0 0 0 0 0 0 0 0 0 0 0 0 0 0 0 0 0 0 0 0 1 0 0 0 1 0 0 0 0 0 0 0 0 2 0 2 4 3 3 5 4 4 3 3 3 3 4 3 2 1 1 1 1 0 0 0 1 1 2 3 4 5 2 2 3 3 3 2 0 0 0 0 0 0 0 0 0 0 0 0 0 0 2 0 0 1 1 2 2 2 3 2 2 3 4 4 4 4 4 3 3 1 1 2 2 4 3 5 3 4 3 5 3 3 4 5 4 4 5 4 3 4 3 3 1 0 0 1 0 0 1 1 2 2 2 1 2 2 2 1 2 1 2 1 0 1 1 0 0 0 0 0 0 0 0 0 0 
0 1 2 2 2 4 2 2 0 0 0 1 0 0 0 0 0 0 0 0 0 0 0 0 0 0 0 1 0 1 0 0 0 0 0 0 0 0 0 0 0 0 0 0 0 0 0 0 0 0 2 3 1 0 1 1 1 1 0 0 0 0 0 0 0 0 0 0 0 0 0 0 0 0 0 0 0 0 0 0 0 0 0 0 0 0 0 0 0 0 0 0 0 0 0 0 0 0 0 0 0 3 4 6 5 6 5 5 5 4 5 4 3 4 3 1 1 3 4 4 6 5 6 5 6 6 5 6 4 5 5 4 5 5 6 4 4 3 2 0 0 0 0 0 1 0 0 0 0 0 0 1 1 2 2 1 2 2 1 1 0 0 0 0 0 0 0 0 1 2 2 3 1 2 3 2 3 2 3 3 3 3 3 5 4 4 3 4 2 2 2 2 3 1 1 0 0 0 2 2 1 2 4 2 1 1 1 1 2 2 1 0 0 0 0 0 0 0 0 0 0 0 0 0 0 0 0 0 0 1 1 2 3 0 0 0 0 0 0 0 0 0 0 0 0 0 0 0 0 0 0 0 0 0 0 0 0 0 0 0 0 0 0 0 0 0 0 0 0 0 0 0 0 0 0 2 2 3 3 2 2 0 0 0 0 1 0 0 0 0 0 0 0 0 1 1 3 1 1 1 0 0 1 1 0 0 0 1 0 0 0 0 0 0 0 0 0 0 0 0 0 0 0 1 1 1 2 0 1 3 1 0 3 3 3 2 2 4 4 3 4 3 2 3 3 4 5 7 7 8 7 6 4 6 6 4 3 5 3 4 5 3 1 2 3 3 2 4 4 4 4 5 4 4 4 2 3 4 2 1 1 1 0 1 2 1 1 1 0 0 0 0 0 0 1 1 1 2 0 0 0 1 3 1 2 1 0 0 0 0 1 1 0 0 0 1 0 0 0 0 0 0 1 0 0 0 0 1 0 1 0 0 0 0 1 2 2 0 0 0 1 2 1 0 1 1 0 1 2 2 2 3 0 0 0 0 0 0 0 0 0 0 0 0 0 0 0 0 0 0 0 0 0 0 0 0 0 0 0 0 0 0 0 0 0 0 0 0 0 0 0 0 0 0 0 0 0 0 0 0 0 0 0 1 1 0 0 0 0 0 0 0 0 0 0 0 1 3 4 4 5 4 5 4 3 3 2 2 3 3 3 3 3 1 1 3 2 2 1 2 2 2 2 2 2 0 2 1 3 3 1 1 0 0 1 0 0 0 0 0 0 0 0 0 0 0 1 2 2 2 2 3 3 4 4 2 5 3 3 4 4 4 2 1 0 1 2 2 2 2 3 3 3 5 4 5 5 3 2 2 3 6 5 3 4 4 3 2 1 0 0 0 0 2 2 2 1 2 3 3 1 0 1 2 1 0 0 0 1 0 0 0 0 0 0 0 0 0 0 0 
1 1 0 2 3 3 2 1 1 1 2 1 0 0 0 0 0 0 0 0 0 0 0 1 0 0 0 0 1 0 0 0 0 0 0 0 0 0 0 0 0 0 0 0 0 0 0 0 0 1 2 4 2 1 2 2 0 0 0 0 0 0 0 0 0 0 0 0 0 0 0 0 0 0 0 0 0 0 0 0 0 0 0 0 0 0 0 0 0 0 0 0 0 0 0 0 0 0 0 0 1 3 3 4 4 5 5 4 4 4 4 5 4 3 3 2 3 3 4 3 3 6 6 5 5 5 6 4 4 5 4 5 5 5 5 4 2 4 2 0 0 1 1 1 1 0 0 0 0 0 1 1 1 0 1 2 2 0 0 0 0 0 0 0 0 0 0 0 0 1 1 3 2 3 2 4 3 1 3 3 3 2 3 2 3 1 3 1 2 1 1 3 2 0 1 0 0 0 2 0 1 1 2 3 0 1 1 1 1 1 1 0 0 0 0 0 0 0 0 1 0 0 0 0 0 0 1 1 0 2 2 3 2 1 0 0 0 0 0 0 0 0 0 0 0 0 0 0 0 0 0 0 0 0 0 0 0 0 0 0 0 0 0 0 0 0 0 0 0 0 0 0 0 0 0 1 3 4 4 2 1 0 0 0 0 1 1 0 1 0 0 2 1 2 0 0 2 3 0 1 1 1 0 0 1 0 0 0 0 1 0 0 0 0 0 0 0 0 0 0 0 0 0 0 1 3 2 2 1 3 2 3 2 0 2 3 3 4 4 1 1 3 3 3 3 4 6 6 7 8 6 7 6 7 7 5 5 4 4 4 3 2 2 2 3 3 3 4 4 4 4 4 3 3 1 3 3 2 1 0 1 2 2 1 2 0 0 0 1 0 0 0 0 0 0 1 1 0 0 3 2 3 3 1 1 0 0 0 0 0 0 0 0 0 0 0 0 1 0 0 0 0 0 0 0 0 0 0 0 0 0 0 0 0 1 2 1 0 0 0 0 0 1 1 1 0 0 0 2 2 2 2 1 0 0 0 0 0 0 0 0 0 0 0 0 0 0 0 0 0 0 0 0 0 0 0 0 0 0 0 0 0 0 0 0 0 0 0 0 0 0 0 0 0 0 0 0 0 0 1 0 0 0 0 0 0 0 0 0 0 0 0 0 0 0 0 2 2 3 5 5 4 3 5 4 2 3 2 4 3 4 4 3 2 2 2 3 3 2 3 1 2 2 2 2 1 3 2 1 1 1 2 2 1 0 0 0 0 0 0 0 0 0 0 0 0 0 3 1 1 1 4 4 3 3 4 4 5 3 4 4 3 1 2 3 2 2 2 2 3 3 2 4 6 5 5 4 3 2 3 5 5 5 3 3 5 3 1 1 0 0 0 1 2 2 1 2 3 3 2 2 2 0 1 1 0 0 0 1 0 0 0 0 0 0 0 0 0 0 0 
1 0 0 0 0 1 0 1 0 2 1 1 1 0 0 0 0 0 0 0 0 0 0 0 0 0 0 0 0 0 0 0 0 0 0 0 0 0 0 0 0 0 0 0 0 0 0 0 0 1 1 1 1 0 0 1 0 0 0 0 0 0 0 0 0 0 0 0 0 0 0 0 0 0 0 0 0 0 0 0 0 0 0 0 0 0 0 0 0 0 0 0 0 0 0 0 0 0 0 0 2 3 4 4 5 4 4 5 4 5 6 6 4 2 4 3 4 4 2 3 4 5 6 5 6 6 6 4 5 6 6 6 5 5 4 4 3 3 2 1 0 0 1 0 2 0 0 0 0 1 3 1 2 1 2 2 0 1 1 0 0 0 0 0 0 0 0 0 0 2 2 2 1 2 2 2 2 2 3 4 2 2 1 2 2 1 1 0 0 1 0 1 1 0 0 1 2 2 0 0 0 1 1 0 1 3 2 0 1 1 2 0 0 0 0 0 0 0 0 1 0 0 0 0 1 0 0 1 0 0 1 1 1 0 0 0 0 0 0 0 0 0 0 0 0 0 0 0 0 0 0 0 0 0 0 0 0 0 0 0 0 0 0 0 0 0 0 0 0 0 0 0 0 0 1 3 3 4 3 3 1 0 0 0 0 1 0 1 2 1 1 0 1 1 2 2 1 1 0 2 2 3 1 0 0 0 0 0 0 0 1 0 0 0 0 0 0 0 1 0 0 0 0 0 1 2 3 3 3 3 4 2 3 2 1 2 2 2 2 1 0 1 2 2 2 5 6 6 6 8 7 6 5 6 5 4 4 5 5 6 5 4 4 3 2 3 4 5 5 3 3 3 3 3 3 3 2 1 1 2 1 0 1 0 1 1 0 1 1 0 0 0 0 0 0 0 2 1 3 3 2 1 1 1 0 0 0 0 0 0 0 0 0 0 0 0 0 0 0 0 0 0 0 0 0 0 0 0 0 0 0 0 0 0 0 1 2 0 0 0 0 0 0 1 2 1 1 1 1 2 1 2 0 0 0 0 0 0 0 0 0 0 0 0 0 0 0 0 0 0 0 0 0 0 0 0 0 0 0 0 0 0 0 0 0 0 0 0 0 0 0 0 0 0 0 0 0 0 0 0 1 0 0 0 0 0 0 0 0 0 0 0 1 0 0 1 1 2 4 5 5 4 3 5 4 5 4 2 2 4 3 2 3 3 1 2 2 2 2 3 2 3 4 3 4 1 2 0 0 0 1 1 2 2 2 0 0 0 0 0 0 0 0 1 1 2 2 1 1 2 2 4 3 3 2 4 4 4 2 2 3 2 1 1 2 3 4 2 2 3 3 3 3 6 5 4 3 3 3 5 5 5 5 4 4 3 2 0 2 1 1 0 1 3 0 2 2 3 3 2 1 1 0 0 0 0 0 0 0 0 0 0 0 0 0 0 0 0 0 0 
0 0 0 0 0 0 0 0 0 1 0 0 0 0 0 0 0 0 0 0 0 0 0 0 0 0 0 0 0 0 0 0 0 0 0 0 0 0 0 0 0 0 0 0 0 0 0 1 0 0 1 1 1 2 2 2 2 1 0 0 0 1 0 0 0 0 0 0 0 0 0 0 0 0 0 0 0 0 0 0 0 0 0 0 0 0 0 0 0 0 0 0 0 0 0 0 0 0 0 0 1 4 4 5 4 4 4 4 4 6 5 6 5 5 4 4 4 3 3 4 5 6 6 7 6 5 4 5 6 6 7 5 3 3 3 2 2 3 2 2 1 1 2 0 1 0 0 0 3 2 3 2 3 2 2 2 2 1 0 0 0 0 0 0 1 0 1 0 0 0 0 1 0 3 2 1 2 2 1 3 3 2 0 1 0 0 0 0 0 0 0 0 0 0 0 0 1 1 1 0 0 0 2 1 1 2 1 3 0 0 0 0 0 0 0 0 0 0 0 0 0 0 0 0 2 2 2 1 0 0 0 1 0 0 0 0 0 0 0 0 0 0 0 0 0 0 0 0 0 0 0 0 0 0 0 0 0 0 0 0 0 0 0 0 0 0 0 0 0 0 0 0 0 0 1 3 2 3 3 2 3 2 1 1 2 1 0 1 1 2 0 1 1 1 1 2 1 2 3 4 4 3 1 0 0 0 0 0 0 0 0 0 0 0 0 0 0 1 1 1 1 1 0 0 1 1 2 4 3 4 3 4 4 2 3 3 4 3 1 0 0 0 1 2 3 3 5 7 7 6 6 5 4 5 4 5 4 6 6 7 7 3 4 4 1 3 3 4 4 4 4 4 2 3 2 4 2 1 1 2 2 1 0 2 0 2 1 0 0 0 0 0 0 0 1 0 0 3 3 2 2 0 2 0 0 0 0 0 0 0 0 0 0 0 0 0 0 1 0 0 0 0 0 0 0 0 0 0 0 0 0 0 0 1 0 0 0 0 0 0 0 0 0 1 1 2 1 1 1 2 1 1 1 0 0 0 0 0 0 0 0 0 0 0 0 0 0 0 0 0 0 0 0 0 0 0 0 0 0 0 0 0 0 0 0 0 0 0 0 0 0 0 0 0 0 0 0 0 0 0 0 0 0 0 0 0 0 0 0 1 1 0 1 1 0 1 2 3 4 5 5 3 5 5 4 3 3 5 4 2 2 1 4 2 3 3 2 2 1 2 4 3 3 5 4 3 1 2 1 2 1 2 3 2 3 2 0 0 0 0 1 1 0 1 2 2 3 2 2 2 3 3 3 4 2 3 4 4 3 3 3 2 1 0 2 3 3 1 1 4 4 5 5 5 4 4 3 2 2 4 5 5 5 3 3 1 0 0 2 1 1 0 1 2 1 1 1 2 2 1 1 1 0 0 2 0 0 1 0 0 0 0 0 0 0 0 0 0 0 0 
0 0 0 0 0 0 0 0 0 0 0 0 0 0 0 0 0 0 0 0 0 0 0 0 0 0 0 0 0 0 0 0 0 0 0 0 0 0 0 0 0 0 0 0 0 0 1 0 0 0 1 2 1 3 2 3 2 2 0 0 0 0 0 0 0 0 0 0 0 0 0 0 0 0 0 0 0 0 0 0 0 0 0 0 0 0 1 0 0 0 0 0 0 0 0 0 0 0 0 0 2 5 3 4 5 4 4 4 4 5 3 4 5 6 5 5 3 5 4 4 6 4 7 6 5 6 5 6 7 5 7 6 4 2 2 3 2 2 1 2 0 2 1 1 1 2 2 2 3 2 4 2 4 4 3 3 2 0 0 0 1 1 0 0 0 0 1 0 1 1 0 1 1 2 0 3 1 3 2 2 2 1 0 1 0 0 0 0 0 0 0 0 0 0 0 0 0 0 1 2 0 1 1 0 0 0 1 0 0 0 0 1 0 0 1 1 1 0 0 0 1 0 0 1 1 0 1 2 1 0 0 0 0 0 0 0 0 0 0 0 0 0 0 0 0 0 0 0 0 0 0 0 0 0 0 0 0 0 0 0 0 0 0 0 0 0 0 0 0 0 0 0 0 0 2 3 3 3 3 3 2 1 1 3 1 2 2 2 2 1 0 0 0 2 2 4 3 3 3 5 3 2 2 1 0 0 0 0 0 0 0 0 0 0 0 1 1 1 0 2 3 2 1 0 0 0 2 3 3 2 3 4 4 4 4 4 2 2 1 0 0 1 2 3 4 2 3 5 6 5 7 7 5 5 3 5 4 4 6 5 5 2 2 2 2 2 2 3 4 4 3 2 3 3 3 3 1 1 2 2 2 3 2 2 1 2 2 0 0 0 0 0 0 0 1 0 1 1 2 1 1 0 1 0 0 0 0 0 0 0 0 0 0 0 0 0 0 0 0 0 0 0 0 0 0 0 0 0 0 1 0 0 1 0 0 0 0 0 0 0 0 0 0 1 2 1 1 3 1 2 2 2 1 1 0 0 0 0 0 0 0 0 0 0 0 0 0 0 0 0 0 0 0 0 0 0 0 0 0 0 0 0 0 0 0 0 0 0 0 0 0 0 0 0 0 0 0 0 0 1 1 0 0 0 0 0 0 0 0 0 2 2 1 1 2 2 3 3 5 4 5 3 6 5 5 4 4 4 2 3 2 3 2 3 2 2 2 2 0 2 4 4 5 4 4 4 3 4 2 2 2 3 4 3 3 2 1 0 1 0 1 1 1 2 1 2 2 3 1 2 3 4 5 5 5 3 2 4 3 2 3 2 1 1 3 2 1 0 2 4 3 3 5 5 5 5 3 3 2 2 4 3 3 2 2 0 0 1 0 0 1 0 1 1 1 2 3 1 1 0 0 0 0 1 1 1 2 2 1 1 0 0 0 0 0 0 0 0 0 0 
0 0 0 1 0 0 0 0 0 0 0 0 0 0 0 0 0 0 0 0 0 0 0 0 0 0 0 0 0 0 0 0 0 0 0 0 2 0 0 0 0 0 0 1 0 0 0 0 0 0 0 1 1 3 2 4 3 2 0 0 0 0 0 0 0 0 0 0 0 0 0 0 0 0 0 0 0 0 0 0 0 0 0 0 0 0 1 1 0 0 0 0 0 0 0 0 0 0 0 1 2 4 4 6 6 5 5 5 4 4 4 5 3 4 5 3 4 5 4 6 5 6 6 6 6 6 6 6 5 6 6 5 3 2 3 2 2 1 0 2 0 1 1 0 1 2 1 2 2 3 4 4 6 6 5 5 2 2 2 1 0 0 0 0 0 0 0 0 0 0 0 0 1 0 2 0 0 0 1 0 0 1 0 0 0 0 0 0 0 0 0 0 0 0 0 0 0 0 0 0 1 1 2 1 0 1 0 0 1 0 2 1 0 0 2 1 2 2 1 2 1 0 0 0 0 1 0 2 1 1 0 0 0 0 0 0 0 0 0 0 0 0 0 0 0 0 0 0 0 0 0 0 0 0 0 0 0 0 0 0 0 0 0 0 0 0 0 0 0 1 0 0 0 0 1 2 3 3 4 3 2 2 1 0 1 2 2 2 2 2 0 0 1 1 1 3 2 4 3 2 2 2 1 0 0 0 1 0 0 1 1 0 0 0 0 0 1 2 2 2 1 4 2 2 1 0 2 2 0 1 3 2 2 3 4 3 4 4 2 2 1 2 3 3 4 3 4 4 4 6 6 7 6 3 3 5 6 5 3 4 3 3 2 1 1 0 1 4 2 2 3 2 2 2 1 3 3 3 3 3 2 3 1 2 1 2 2 1 0 0 0 0 0 0 0 0 0 1 1 1 1 0 0 0 0 0 0 0 0 0 0 0 0 0 0 0 0 0 0 0 0 0 0 0 0 0 0 0 0 0 0 0 0 0 0 0 0 0 0 0 0 0 0 0 2 0 0 1 1 2 1 0 1 1 1 1 0 0 0 1 1 2 0 0 0 0 0 0 0 0 0 0 0 0 0 0 0 0 0 0 0 0 0 0 0 0 0 0 0 0 0 0 0 0 0 0 0 0 0 0 0 2 0 0 0 0 0 0 0 0 1 1 2 3 2 2 3 4 4 4 5 6 6 4 4 4 4 4 4 1 2 3 3 4 4 3 3 3 2 3 4 4 5 6 6 4 6 5 2 2 3 4 3 2 2 2 2 0 1 2 2 3 2 2 3 3 1 2 2 2 3 2 3 4 3 4 3 4 4 3 2 3 2 2 1 2 2 2 4 4 3 2 4 6 4 4 3 3 2 1 2 2 1 1 0 0 0 0 1 0 1 0 0 1 0 2 2 0 1 0 0 1 0 0 0 1 2 2 1 0 0 0 1 0 0 0 0 0 0 0 
0 0 0 0 0 0 0 0 0 0 0 0 0 0 0 0 0 0 0 0 0 0 0 0 0 0 0 0 0 0 0 0 0 0 0 0 1 1 1 0 0 0 0 0 0 1 2 0 0 1 0 1 3 3 2 3 1 1 1 0 0 0 0 0 0 0 0 0 0 0 0 0 0 0 0 0 0 0 0 0 0 0 0 0 0 0 0 0 0 0 0 0 0 0 0 0 0 0 0 1 3 4 4 4 5 4 4 3 3 3 4 4 3 4 5 4 3 4 4 5 5 6 6 6 7 6 5 5 3 4 5 5 4 2 2 2 2 2 1 0 1 0 2 3 3 3 3 2 2 2 3 3 4 5 5 5 3 3 3 3 1 0 0 0 0 0 0 0 1 2 0 0 1 0 1 1 1 0 0 0 0 0 0 0 0 0 0 0 0 0 0 0 0 0 0 0 0 0 0 0 0 1 1 1 0 0 1 0 1 1 2 1 3 1 2 1 3 3 2 2 1 0 0 0 1 1 2 2 2 1 0 0 0 0 0 0 0 0 0 0 0 0 0 0 0 0 0 0 0 0 0 0 0 0 0 0 0 0 0 0 0 0 0 0 0 0 0 0 0 1 1 1 1 2 1 2 4 3 3 3 3 3 1 2 2 2 2 3 3 2 0 0 1 3 1 3 2 3 4 3 2 2 1 0 2 0 1 0 0 0 0 0 0 0 0 0 0 2 3 3 1 1 2 2 1 0 1 0 0 1 3 3 2 3 4 3 5 5 4 2 2 1 0 2 4 3 4 4 5 4 3 3 5 3 4 5 5 3 2 1 2 2 0 0 0 1 1 2 4 3 3 3 3 3 5 4 4 3 2 3 2 3 2 1 3 4 2 2 0 0 0 0 0 0 0 0 1 1 0 0 0 0 0 0 0 0 0 0 0 0 0 0 0 0 0 0 0 0 0 0 0 0 0 0 0 0 0 0 0 0 0 0 0 0 0 0 0 0 0 0 0 0 0 1 1 0 1 1 1 0 1 1 1 2 2 0 0 1 0 1 1 1 0 0 0 0 0 1 0 0 0 0 0 0 0 0 0 0 0 0 0 0 0 0 0 0 0 0 0 0 0 0 0 0 0 0 0 0 1 0 0 0 0 0 0 0 0 0 0 0 2 3 1 3 3 3 3 3 3 4 5 6 6 5 5 5 5 5 4 3 3 3 4 3 4 3 3 3 3 3 4 3 4 6 4 5 6 6 4 4 3 4 3 3 2 0 2 0 0 2 2 2 4 4 3 4 2 2 2 2 2 2 3 3 4 3 3 3 2 3 3 0 1 2 2 4 2 2 2 3 2 4 3 4 3 3 3 2 2 2 2 2 1 1 0 0 0 0 0 0 0 0 0 1 2 2 1 1 1 0 0 1 0 0 1 0 2 0 0 0 0 1 0 0 0 0 0 0 0 0 
0 0 0 0 0 0 0 0 0 0 0 0 0 0 0 0 0 0 0 0 0 0 0 0 0 0 0 0 0 0 0 0 0 0 0 0 0 1 1 0 1 0 0 1 2 1 1 1 0 1 1 2 2 1 2 2 3 2 1 1 3 1 1 1 1 0 0 0 0 0 0 0 0 0 0 0 0 0 0 0 0 0 0 0 0 0 0 0 0 0 0 0 0 0 0 0 0 0 1 3 4 5 6 4 5 4 4 4 3 3 3 3 6 5 2 3 2 2 2 4 4 6 5 4 5 4 6 5 5 5 6 5 5 3 4 4 4 3 2 2 0 0 2 2 3 3 4 3 3 4 3 2 3 3 3 3 3 1 1 2 1 0 0 0 0 0 0 0 1 2 1 0 0 0 0 1 0 0 0 0 0 0 0 0 0 0 0 0 0 0 0 0 0 0 0 0 0 0 0 0 0 0 0 0 0 0 0 0 2 2 1 0 3 1 2 3 2 0 2 2 0 0 0 0 0 0 1 1 2 1 1 0 0 0 0 0 0 0 0 0 0 0 0 0 0 0 0 0 0 0 0 0 0 0 0 0 0 0 0 0 0 0 0 0 0 0 0 0 1 2 2 1 0 0 1 3 3 2 2 4 2 1 1 2 1 2 3 2 2 1 2 1 2 1 1 3 3 4 4 3 2 1 1 1 2 1 1 0 0 0 0 0 0 0 0 0 1 2 2 2 3 2 1 0 0 0 1 2 1 2 2 1 2 1 2 3 4 3 3 2 2 1 1 2 2 3 3 4 2 3 3 3 4 6 5 3 3 3 3 3 2 0 2 0 0 1 1 2 4 2 2 3 3 3 4 4 2 2 2 2 3 2 2 2 3 2 3 2 0 0 0 1 0 0 0 0 1 1 0 0 0 0 0 0 0 0 0 0 0 0 0 0 0 0 0 0 0 0 0 0 0 0 0 0 0 0 0 0 0 0 0 0 0 0 0 0 0 0 0 0 0 0 0 3 3 4 1 0 0 0 1 0 1 1 0 0 0 0 0 1 1 0 0 0 2 0 0 0 0 0 0 0 0 0 0 0 0 0 0 0 0 0 0 0 0 0 0 0 0 0 0 0 0 0 0 0 0 1 1 1 0 0 0 0 1 0 0 0 0 0 2 4 3 2 3 1 1 1 3 4 5 5 5 5 6 5 5 5 4 3 2 3 3 4 3 2 3 4 3 3 4 4 4 4 6 5 5 4 4 2 5 5 4 4 4 2 2 0 1 2 3 3 3 3 3 4 2 2 2 3 2 2 1 2 2 3 3 3 3 3 2 2 2 0 2 1 0 0 1 0 1 3 3 2 2 1 1 2 1 2 2 1 0 0 0 1 0 0 0 0 0 0 0 1 2 1 1 0 1 0 0 1 1 0 1 0 1 0 0 0 0 0 0 0 0 0 0 0 0 0 
0 0 0 0 0 0 0 0 0 0 0 0 0 0 0 0 0 0 0 0 0 0 0 0 0 0 0 0 0 0 0 0 0 0 0 0 0 0 0 0 0 0 0 1 1 1 3 0 0 1 2 2 2 2 3 3 3 2 3 1 1 2 3 1 0 0 0 0 1 0 0 0 0 0 0 0 0 0 0 0 0 1 0 0 0 0 0 0 0 0 0 0 0 0 0 0 0 0 3 4 5 5 3 5 5 5 4 3 3 3 3 4 4 3 3 2 2 4 4 4 2 5 4 5 5 3 5 4 6 5 6 5 4 4 4 3 3 3 2 2 2 2 3 2 4 3 3 4 4 4 4 3 3 3 3 1 2 1 0 2 2 2 1 1 0 0 0 1 0 0 1 0 0 0 0 0 0 0 0 0 0 0 0 0 0 0 0 0 0 0 0 0 0 0 0 0 0 0 0 0 1 0 0 1 1 0 0 1 1 0 1 0 1 2 1 1 1 2 3 1 2 0 0 0 0 0 1 1 1 2 1 1 1 0 0 0 0 0 0 0 0 0 0 0 0 0 0 0 0 0 0 0 0 0 0 0 0 0 0 0 0 0 0 0 0 0 0 0 0 2 2 2 1 3 1 2 1 1 2 2 3 3 2 1 0 1 1 1 1 2 2 2 3 2 2 2 3 3 3 3 3 1 1 1 3 2 0 2 1 1 1 0 0 1 0 0 0 1 1 2 3 3 1 1 0 0 1 0 1 2 4 3 4 3 2 2 4 4 3 2 1 2 0 1 3 5 5 3 3 3 5 3 3 4 4 4 3 3 2 2 3 0 1 1 2 1 3 4 4 3 2 2 3 3 4 3 4 3 2 3 2 2 3 2 2 1 0 1 0 0 0 0 0 0 0 0 0 1 0 0 0 0 0 0 0 0 0 0 0 0 0 0 0 0 0 0 0 0 0 0 0 0 0 0 0 0 0 0 0 0 0 0 0 0 0 0 0 0 0 0 0 0 1 1 2 2 1 0 0 0 0 1 0 0 2 0 0 0 1 0 2 1 0 0 0 0 0 0 0 0 0 0 0 0 0 0 0 0 0 0 0 0 0 0 0 0 0 0 0 0 0 0 0 0 0 0 0 0 0 1 0 1 0 0 0 1 0 1 0 0 2 2 1 1 3 1 1 1 2 4 6 4 5 5 3 5 6 6 5 4 3 3 4 3 3 3 2 3 2 2 3 4 6 7 5 4 3 3 4 4 3 4 4 4 3 2 3 2 2 3 3 2 2 3 4 5 4 4 3 3 2 1 1 3 3 3 2 2 2 1 0 0 1 1 1 0 0 0 0 0 2 1 2 2 1 2 2 2 0 1 1 0 0 1 0 0 0 0 0 0 0 1 1 1 0 2 2 1 1 0 0 0 1 0 1 0 1 2 0 0 0 0 0 0 0 0 0 0 0 0 
0 0 0 0 0 0 0 0 0 0 0 0 0 0 0 0 0 0 0 0 0 0 0 0 0 0 0 0 0 0 0 0 0 0 0 0 1 1 0 0 0 0 1 0 0 1 1 2 2 2 3 1 3 2 3 3 4 2 1 1 1 2 1 0 0 0 1 0 1 1 0 0 0 0 0 0 0 0 0 0 0 1 0 0 0 0 0 0 0 0 0 0 0 0 1 1 1 1 1 4 4 4 4 4 4 5 3 3 2 2 3 3 3 2 1 2 2 2 2 2 4 3 4 5 5 6 6 4 6 7 6 6 5 5 5 4 4 4 4 3 3 2 1 3 3 3 3 4 5 4 4 4 2 2 1 1 1 0 1 0 3 1 1 1 0 0 0 1 0 0 0 0 0 1 0 0 0 0 0 0 0 0 0 0 0 0 0 0 0 0 0 0 0 0 0 0 0 0 1 0 1 2 2 2 0 0 0 0 0 0 1 0 0 0 0 0 2 2 2 1 1 1 0 0 0 0 0 0 2 1 2 2 0 0 0 0 0 0 0 0 0 0 0 0 0 0 0 0 0 0 0 0 0 0 0 0 0 0 0 0 0 0 0 0 0 0 0 0 1 3 3 1 2 2 2 2 1 1 1 2 2 1 2 2 2 2 2 1 1 0 1 0 1 2 3 3 2 4 4 4 2 1 2 1 0 0 0 1 2 1 1 1 1 0 1 0 0 2 3 3 3 1 3 3 1 3 3 2 2 3 2 4 4 3 3 3 2 3 3 1 2 2 1 3 3 4 4 2 3 4 4 3 3 2 2 2 3 2 1 1 1 1 1 1 1 2 4 3 3 2 2 2 3 1 2 2 4 4 2 3 2 2 4 3 0 1 0 0 0 0 0 1 0 0 0 1 0 0 0 0 0 1 0 0 0 0 0 0 0 0 0 0 0 0 0 0 0 0 0 0 0 0 0 0 0 0 0 0 0 0 0 0 0 0 0 0 0 0 0 0 0 2 2 2 2 1 3 2 1 1 0 1 0 1 0 0 0 0 0 3 1 1 1 1 1 0 0 0 0 0 0 0 0 0 0 0 0 0 0 0 0 0 0 0 0 0 0 0 0 0 0 0 0 0 0 0 0 2 0 0 0 2 1 1 1 0 0 0 0 0 0 1 2 1 2 2 2 2 3 2 3 6 5 4 5 4 5 5 4 5 4 4 4 3 4 4 4 4 2 2 3 4 6 5 5 4 3 4 4 4 3 3 2 2 2 3 2 0 1 2 2 2 1 3 3 4 5 4 4 3 2 2 2 1 2 2 0 1 1 0 1 0 2 1 2 0 0 0 0 0 0 0 1 0 1 2 2 2 0 2 1 0 1 0 0 0 0 0 0 0 0 1 1 1 1 3 2 2 1 1 0 1 0 0 0 0 0 0 0 0 0 0 0 0 0 0 0 0 0 0 
0 0 0 0 0 0 0 0 0 0 0 0 0 0 0 0 0 0 0 0 0 0 0 0 0 0 0 1 0 0 0 0 0 1 0 1 2 1 0 0 0 0 0 0 0 0 2 2 3 2 3 3 2 2 3 4 5 4 1 0 0 1 2 0 0 0 0 0 1 0 2 0 0 0 1 0 0 0 0 0 1 2 0 0 0 0 0 0 0 1 0 1 0 0 1 1 2 2 3 4 3 4 3 5 4 3 3 3 4 4 2 2 2 2 2 1 2 1 2 2 3 4 2 5 6 5 5 5 6 6 5 5 3 4 5 5 4 5 4 5 5 5 4 3 4 4 4 5 3 5 5 3 2 2 1 2 3 2 1 2 1 1 2 0 0 0 0 2 0 0 0 0 0 0 0 0 0 0 0 0 0 0 0 0 0 0 0 0 0 0 0 0 0 0 0 0 0 0 1 0 0 2 1 1 0 0 0 0 0 1 0 1 0 0 0 0 2 0 0 0 0 0 0 0 0 0 0 1 2 1 2 3 1 0 0 0 0 0 0 0 0 0 0 0 0 0 0 0 0 0 0 0 0 0 1 0 0 0 0 0 0 0 0 0 0 0 1 1 4 3 1 0 1 1 1 2 2 2 2 3 2 3 1 0 1 0 2 1 2 2 0 1 1 1 2 3 2 2 4 4 2 1 3 2 2 3 3 3 2 3 4 3 2 1 2 2 2 4 4 2 2 3 3 2 2 3 4 3 2 3 3 3 3 2 1 0 0 2 1 1 1 2 1 3 4 2 2 1 3 2 3 3 2 2 1 2 3 3 1 1 1 2 1 2 1 1 3 2 3 3 3 4 2 1 1 2 3 4 3 4 3 2 2 2 0 0 0 0 0 0 0 2 1 0 2 1 0 0 0 0 0 0 0 0 0 0 0 0 0 0 0 0 0 0 0 0 0 0 0 0 0 0 0 0 0 0 0 0 0 0 0 0 0 0 0 0 0 0 0 0 0 1 1 2 2 3 3 1 1 0 2 1 0 0 1 1 0 0 2 1 1 1 0 2 2 0 0 0 0 0 1 0 0 0 0 0 0 0 0 0 0 0 0 0 1 1 0 0 0 0 0 0 0 0 1 1 1 2 2 2 2 2 1 2 0 1 0 0 0 0 0 0 2 4 3 3 2 2 3 2 2 5 4 4 5 4 5 5 4 5 4 4 5 5 5 4 4 4 2 2 3 5 5 6 5 5 4 4 4 2 4 4 3 2 2 2 1 2 1 2 2 3 3 3 3 2 3 2 4 5 3 3 1 0 2 1 0 1 0 0 0 0 0 0 0 1 0 0 0 0 0 0 0 0 0 2 2 1 1 0 0 0 0 0 0 0 0 0 0 1 1 0 1 2 0 1 1 1 0 0 1 1 0 0 0 0 0 1 0 0 0 0 0 0 0 0 0 0 0 0 
0 0 0 0 0 0 0 0 0 0 0 0 0 0 0 0 0 0 0 0 0 0 0 0 0 0 0 0 0 0 0 0 0 0 0 0 0 0 0 1 0 0 0 1 0 0 1 2 3 5 5 2 4 3 4 3 5 2 2 0 0 0 2 1 1 0 0 0 0 0 0 0 0 1 1 1 0 0 0 0 1 1 1 0 0 0 0 1 0 0 1 1 1 0 1 1 2 1 4 2 3 4 4 5 4 2 3 1 3 3 3 2 1 0 3 1 0 1 1 2 2 1 2 4 5 6 5 5 4 3 3 5 6 3 5 4 4 5 5 4 5 4 5 4 5 3 5 5 6 5 5 4 4 4 3 2 5 4 3 2 1 2 3 0 0 0 0 0 0 0 0 0 0 0 0 0 0 0 0 0 0 0 0 0 0 0 0 0 0 0 0 0 0 0 0 0 0 0 0 0 0 0 1 2 1 0 0 0 0 1 0 0 0 0 0 0 0 0 0 2 0 0 0 0 0 0 0 2 3 2 2 2 0 0 0 0 0 0 0 0 0 0 0 0 0 0 0 0 0 0 0 0 0 0 0 0 1 0 0 0 0 0 0 0 0 0 1 2 2 2 2 1 1 0 1 1 3 2 4 4 4 5 1 1 0 0 0 0 0 0 1 2 1 1 1 1 1 2 5 1 2 2 2 4 4 3 3 5 2 3 4 3 3 3 2 1 3 5 5 3 4 3 3 3 2 1 4 3 3 2 2 3 2 1 1 0 1 1 3 1 1 2 1 1 0 1 0 0 1 3 2 3 2 1 2 3 2 1 0 0 0 1 1 2 4 3 2 2 2 3 2 4 3 2 2 2 3 4 5 5 5 3 2 1 0 0 0 0 0 0 0 0 1 1 1 0 0 0 0 0 0 0 0 0 0 0 0 0 0 0 0 0 0 0 0 0 0 0 0 0 0 0 0 0 0 0 0 0 0 0 0 0 0 0 0 0 0 0 0 1 0 1 2 2 1 3 3 3 1 2 1 0 0 2 0 1 1 0 2 1 0 1 1 0 0 0 0 0 0 0 0 0 1 1 0 0 1 0 1 0 0 0 0 1 1 1 0 0 0 0 0 0 0 0 1 1 1 1 1 2 1 1 0 2 0 0 0 0 0 1 1 0 1 3 3 1 0 1 2 2 3 4 4 3 4 3 4 5 5 5 3 5 5 5 4 4 3 2 2 2 4 5 4 4 6 6 5 5 5 3 4 4 4 3 3 3 2 1 1 2 3 2 5 4 2 2 3 4 3 3 2 4 2 1 2 1 1 0 0 0 0 0 0 0 0 0 0 0 0 0 0 0 0 0 0 2 2 1 0 0 0 0 0 0 0 0 0 1 2 0 1 1 1 0 1 1 0 0 0 0 0 1 0 1 0 0 1 0 1 0 0 0 0 0 0 0 0 0 0 0 
0 0 0 0 0 0 0 0 0 0 0 0 0 0 0 0 0 0 0 0 0 0 0 0 0 0 0 0 0 0 0 0 0 1 0 0 0 0 0 0 0 0 0 0 1 1 1 2 3 4 4 5 4 3 3 4 3 2 2 0 0 0 1 0 0 0 0 0 1 1 1 1 2 3 2 1 0 0 2 2 2 1 1 2 1 1 0 0 1 1 1 1 1 0 0 3 2 2 4 3 3 3 3 2 3 3 3 1 2 1 2 2 1 1 1 2 1 1 2 4 3 3 3 4 5 5 4 4 2 3 3 4 2 4 4 4 5 5 4 3 3 4 2 4 5 2 5 4 5 5 5 5 5 3 3 2 3 4 2 2 1 0 0 0 0 0 0 0 0 0 0 0 0 0 0 0 0 0 0 0 0 0 0 0 0 0 0 0 0 0 0 0 0 0 0 0 0 0 0 0 0 1 2 1 3 1 2 3 1 1 0 0 0 0 0 0 0 0 0 1 2 1 1 0 0 0 0 1 2 2 1 0 0 0 0 0 0 0 0 0 0 0 0 0 0 0 0 0 0 0 0 0 0 0 0 1 0 0 0 0 0 0 0 0 0 0 0 1 2 2 3 2 1 1 1 1 3 3 4 3 3 2 1 1 0 0 0 0 0 0 1 1 1 2 1 2 1 1 2 3 3 3 4 3 4 2 3 2 1 3 3 3 4 3 2 3 3 3 2 2 3 3 3 4 4 5 6 3 4 3 2 2 1 0 2 0 1 2 2 1 0 0 2 1 0 0 0 1 2 2 2 2 1 1 2 3 1 1 1 0 0 0 0 0 1 2 1 2 2 3 4 4 2 2 2 3 3 3 5 5 5 3 2 1 1 0 0 0 0 0 0 0 2 2 2 0 1 1 0 0 0 0 0 0 0 0 0 0 0 0 0 0 0 0 0 0 0 0 0 0 0 0 0 0 0 0 0 0 0 0 0 0 0 0 0 0 0 0 0 1 1 1 2 0 2 2 2 3 2 2 2 0 0 0 1 0 0 1 1 0 0 1 2 0 0 0 0 0 0 0 0 0 1 0 1 1 0 1 1 2 2 2 0 0 1 1 0 0 0 0 0 0 0 0 1 2 2 2 0 1 1 0 0 1 1 0 0 0 0 1 1 0 1 0 3 1 1 2 4 3 4 5 4 5 5 4 3 3 3 4 4 3 4 3 3 3 2 2 3 3 3 6 5 4 5 7 6 7 4 4 5 4 4 6 3 4 3 2 2 3 2 2 4 4 4 3 4 3 3 3 2 2 3 3 2 1 1 0 0 0 0 0 0 0 0 0 0 0 0 0 0 0 0 0 0 2 2 0 0 0 0 0 0 0 0 0 0 0 0 0 0 0 1 0 3 1 0 0 0 0 0 0 2 1 1 0 1 1 0 0 0 0 0 0 0 0 0 0 0 0 
0 0 0 0 0 0 0 0 0 0 0 0 0 0 0 0 0 0 0 0 0 0 0 0 0 0 0 0 0 0 0 0 1 1 0 1 0 0 2 0 0 1 0 1 1 2 3 2 4 5 5 4 3 4 2 4 4 2 1 0 1 2 1 1 1 0 1 3 2 1 1 1 2 3 2 2 1 0 2 3 3 1 1 3 4 3 1 2 1 1 1 2 0 0 0 3 2 3 3 3 4 3 3 3 2 2 2 2 2 2 2 2 2 1 2 2 2 3 2 3 4 3 3 3 5 4 1 4 3 1 3 2 3 4 3 2 4 4 4 4 4 3 3 3 3 3 3 5 7 5 5 5 7 5 5 4 3 3 1 0 0 0 0 0 0 0 0 0 0 0 0 0 0 0 0 0 0 0 0 0 0 0 0 0 0 0 0 0 0 0 0 0 0 0 0 0 0 0 0 0 0 0 1 2 1 1 1 0 0 1 0 0 0 0 0 0 0 0 3 1 1 0 0 0 0 0 0 0 1 0 1 0 0 0 0 0 0 0 0 0 0 0 0 0 0 0 0 0 0 0 0 0 0 0 0 0 1 0 0 0 0 0 0 0 0 0 1 1 2 3 3 1 0 2 2 1 3 2 4 4 2 2 1 0 0 1 0 2 2 2 2 1 1 3 3 1 2 2 3 3 3 4 4 3 3 2 2 1 3 4 1 3 2 3 2 4 4 2 2 2 2 3 3 3 5 5 4 5 3 4 5 5 2 2 1 0 0 0 0 0 0 0 1 1 1 2 0 1 2 0 1 2 4 3 2 2 2 2 1 0 0 0 1 0 1 2 2 2 2 3 2 3 3 2 4 3 2 5 4 5 4 4 3 0 0 1 0 0 0 0 0 0 1 3 2 1 1 0 0 0 0 0 0 0 0 0 0 0 0 0 0 0 0 0 0 0 0 0 0 0 0 0 0 0 0 0 0 0 0 0 0 0 0 0 0 0 0 0 0 1 0 0 0 0 0 1 2 3 3 2 0 0 0 1 1 0 1 1 0 0 2 2 1 0 0 0 0 0 0 0 0 0 2 2 2 1 1 1 2 2 2 1 1 0 2 0 0 0 0 0 0 0 0 0 1 2 2 1 1 0 0 0 1 1 1 0 1 1 1 1 1 0 1 2 2 2 1 3 4 2 3 6 5 4 3 2 2 2 2 3 2 3 2 2 2 2 1 1 3 2 3 4 5 6 6 6 5 4 4 5 5 5 5 5 4 4 2 3 2 2 1 2 3 2 2 2 3 3 1 2 1 1 1 2 1 0 0 0 0 0 0 0 0 0 0 0 0 0 0 0 0 0 0 0 0 0 0 0 0 0 1 0 0 0 0 0 0 0 1 0 0 0 0 1 3 0 0 0 0 1 1 0 1 0 1 0 1 1 0 0 0 0 0 0 0 0 0 0 0 0 
0 0 0 0 0 0 0 0 0 0 0 0 0 0 0 0 0 0 0 0 0 0 0 0 0 0 0 0 0 0 0 2 3 2 0 1 0 0 3 1 0 1 0 0 0 2 2 1 3 4 3 3 3 3 2 2 2 1 1 0 0 2 1 0 0 1 2 2 3 2 2 2 4 4 2 3 3 2 2 4 4 3 3 4 4 4 2 2 1 1 1 1 2 1 0 1 3 4 3 3 2 2 2 1 2 1 3 3 2 2 3 1 1 1 3 1 1 1 4 4 4 4 4 4 4 1 1 3 2 3 4 4 5 4 4 3 4 4 5 3 4 3 3 3 3 2 3 6 6 6 5 5 5 5 4 3 3 2 0 0 0 0 0 0 0 0 0 0 0 0 0 0 0 0 0 0 0 0 0 0 0 0 0 0 0 0 0 0 0 0 0 0 0 0 0 0 0 0 0 0 1 0 0 0 1 0 0 0 0 0 0 0 0 0 0 0 0 0 1 1 1 0 0 0 0 0 0 0 0 0 0 0 0 0 0 0 0 0 0 0 0 0 0 0 0 0 0 0 0 0 0 1 0 0 0 1 2 0 0 0 0 0 0 0 0 0 1 1 2 2 1 1 2 4 2 3 1 4 3 3 2 1 1 0 1 0 1 3 2 2 2 2 3 3 2 2 2 4 3 2 3 4 4 3 4 2 2 2 2 2 4 2 4 3 3 4 3 2 1 1 1 3 3 4 4 5 5 3 4 3 3 3 2 2 2 1 0 0 0 0 0 0 0 0 0 1 0 0 1 2 2 2 1 1 2 0 1 0 0 0 0 0 0 1 0 1 1 2 1 3 1 2 3 3 4 3 3 3 3 6 4 4 2 1 1 2 0 0 0 0 0 0 0 0 0 0 0 0 0 0 0 0 0 0 0 0 0 0 0 0 0 0 0 0 0 0 0 0 0 0 0 0 0 0 0 0 0 0 0 0 0 0 0 0 0 0 0 0 0 0 0 0 0 0 1 0 1 1 2 1 2 2 1 2 1 2 2 0 0 0 1 2 2 1 2 2 0 1 0 0 1 1 2 3 4 2 2 2 3 3 2 1 0 0 1 1 0 0 0 0 0 0 0 1 0 1 2 3 0 2 2 2 2 2 0 0 0 0 1 1 0 0 0 1 1 1 2 3 3 3 5 4 4 3 3 3 3 1 1 1 3 2 3 3 2 0 1 3 2 2 2 4 6 6 7 7 6 7 5 5 6 5 6 6 4 4 3 2 2 2 1 2 1 1 3 1 2 2 2 1 0 0 1 2 1 0 0 0 0 0 0 0 0 0 0 0 0 1 1 0 0 0 0 0 0 0 0 0 0 0 0 0 0 0 0 0 0 0 0 0 0 0 0 1 0 1 0 0 0 0 0 0 2 1 0 2 2 1 0 0 0 0 0 0 0 0 0 0 0 0 
0 0 0 0 0 0 0 0 0 0 0 0 0 0 0 0 0 0 0 0 0 0 0 0 0 0 0 0 0 0 1 1 2 1 0 1 1 1 2 3 1 1 0 0 0 0 2 2 2 4 5 2 3 3 2 3 3 2 1 1 1 0 0 1 2 1 2 2 2 2 2 2 3 3 4 4 3 3 3 4 5 6 4 5 3 4 3 2 2 2 2 2 1 0 0 1 2 3 4 1 2 1 1 0 0 1 1 2 2 1 1 1 1 3 2 0 1 1 2 3 2 4 3 3 3 2 2 3 3 4 4 4 5 3 4 5 5 5 4 3 1 1 1 2 2 2 4 4 4 6 5 6 7 6 4 5 5 3 1 1 0 0 0 0 0 0 0 0 0 0 0 0 0 0 0 0 0 0 0 0 0 0 0 0 0 0 0 0 0 0 0 0 0 0 0 0 0 0 0 0 0 0 0 0 0 0 0 0 0 0 0 0 0 0 0 0 0 0 0 0 0 0 1 0 0 0 0 0 0 0 0 0 0 0 0 0 0 0 0 0 0 0 0 0 0 0 0 0 0 1 2 2 1 0 1 0 0 1 0 0 0 0 0 0 0 1 0 0 0 1 1 1 1 2 2 2 3 3 4 3 3 2 1 0 1 1 1 2 3 1 1 4 4 3 2 2 2 3 4 4 6 5 6 5 6 6 3 3 2 2 4 3 5 4 4 5 4 2 2 2 2 2 2 4 3 4 5 2 3 3 2 3 2 3 2 1 0 0 0 0 0 0 0 0 0 0 1 0 1 1 2 2 1 0 0 1 0 0 0 0 0 0 0 0 1 1 2 2 2 2 2 2 4 2 2 2 3 3 4 4 3 3 1 2 1 0 0 0 0 0 0 0 0 0 0 0 1 1 0 0 0 0 0 0 0 0 0 0 0 0 0 0 0 0 0 0 0 0 0 0 0 0 0 0 0 0 0 0 0 0 0 0 0 0 0 0 0 0 0 0 0 0 0 0 0 0 2 2 2 0 0 2 2 1 1 2 1 0 0 0 1 3 1 3 4 2 2 2 1 1 2 2 2 3 3 3 2 2 3 2 2 2 0 1 0 0 0 0 0 1 0 0 0 0 2 3 3 4 3 1 3 2 3 2 1 0 0 0 0 1 1 0 0 1 1 2 2 4 3 3 3 4 2 1 1 2 1 0 0 2 1 2 1 1 2 2 1 3 2 2 3 4 6 6 7 9 8 7 6 6 4 5 5 4 3 3 3 3 3 1 1 1 0 0 2 2 2 0 0 0 0 1 0 0 0 0 0 0 0 0 0 0 0 0 0 0 0 0 0 0 0 0 0 0 0 0 0 0 0 0 0 0 0 0 0 0 0 0 0 0 0 0 0 0 0 0 0 1 0 0 0 0 0 1 2 2 1 2 0 0 0 0 0 0 0 0 0 0 0 0 
0 0 0 0 0 0 0 0 0 0 0 0 0 0 0 0 0 0 0 0 0 0 0 0 0 0 0 0 1 0 2 3 2 2 0 0 1 1 1 2 0 0 0 0 1 1 3 2 4 3 4 2 2 4 4 3 3 4 2 3 2 2 2 2 2 2 2 4 4 3 4 4 4 4 4 3 5 6 5 4 5 6 4 3 3 4 4 3 2 2 1 0 0 0 0 2 3 3 5 3 2 1 0 0 1 0 0 0 1 1 1 2 0 0 1 0 0 0 0 0 2 2 2 2 3 1 1 2 2 4 2 4 4 4 4 5 6 4 3 3 0 0 2 1 1 2 3 4 4 5 4 5 4 4 5 4 3 2 1 1 0 0 0 0 0 0 0 0 0 0 0 0 0 0 0 0 0 0 0 0 0 0 0 0 0 0 0 0 0 0 0 0 0 0 0 0 0 0 0 1 0 0 1 0 0 0 0 0 0 0 0 0 0 0 0 0 0 0 0 0 1 1 0 1 0 0 0 0 0 0 0 0 0 0 0 0 0 0 0 0 0 0 0 0 0 0 1 1 2 2 3 3 2 2 1 0 0 0 0 0 0 0 0 1 1 0 0 1 0 1 2 3 2 2 0 2 2 2 1 2 4 2 1 1 0 0 1 1 3 1 2 4 4 2 2 3 4 4 5 5 5 5 6 7 4 6 3 2 1 2 4 3 5 4 6 6 5 4 1 2 4 3 3 4 4 4 4 2 2 3 2 1 3 1 1 0 0 0 0 0 0 0 0 0 0 1 2 0 2 3 1 0 1 1 1 0 0 0 0 0 0 1 0 2 2 3 2 2 3 2 2 3 4 3 3 3 1 3 3 3 3 2 1 1 1 1 1 0 0 0 0 0 0 0 0 1 1 2 1 0 0 0 0 0 0 0 0 0 0 0 0 0 0 0 0 0 0 0 0 0 0 0 0 0 0 0 0 0 0 0 0 0 0 0 0 0 0 0 0 0 0 0 0 0 0 0 1 1 1 1 1 2 1 1 2 0 0 0 0 1 0 1 3 3 4 3 2 3 3 2 2 1 3 3 3 4 4 4 3 4 3 0 1 2 0 0 0 2 0 2 1 0 1 2 4 5 4 3 4 3 4 4 1 1 1 0 0 0 0 0 0 0 0 0 1 0 1 2 2 3 3 4 4 2 1 1 0 0 1 0 2 1 2 2 3 2 2 4 2 3 3 5 5 7 6 7 7 7 6 6 4 3 4 3 3 2 2 2 1 2 0 1 1 0 1 2 2 1 1 1 1 1 0 0 0 0 0 0 0 0 0 0 0 0 0 0 0 0 0 0 0 0 0 0 0 0 0 0 0 0 0 0 0 0 0 0 0 0 0 0 0 0 0 0 1 0 0 0 0 0 0 0 0 0 1 0 1 1 1 0 0 0 0 0 0 0 0 0 0 0 
0 0 0 0 0 0 0 0 0 0 0 0 0 0 0 0 0 0 0 0 0 0 0 0 0 0 0 0 0 2 2 1 2 1 2 0 0 0 0 0 0 0 0 0 0 3 3 2 2 1 1 2 1 2 5 4 5 3 2 2 2 3 3 2 0 2 3 4 4 5 5 6 5 5 4 4 4 5 5 5 5 4 3 5 3 3 5 4 3 3 1 2 2 3 3 3 2 3 3 4 2 1 1 0 2 0 0 0 0 0 0 0 0 2 0 0 0 0 0 0 1 2 2 2 2 2 1 3 2 1 2 2 3 3 5 5 5 5 3 2 1 0 0 0 2 1 2 5 3 4 4 5 3 3 4 5 3 3 1 0 0 0 0 0 0 0 0 0 0 0 0 0 0 0 0 0 0 0 0 0 0 0 0 0 0 0 0 0 0 0 0 0 0 0 0 0 0 0 0 0 0 0 0 0 0 0 0 0 0 0 0 0 0 0 0 0 0 0 0 0 0 0 0 0 2 1 2 0 0 0 0 2 0 0 0 0 0 0 0 0 0 0 0 0 1 2 1 1 2 3 3 4 4 1 2 0 0 1 2 1 1 0 1 3 2 1 0 0 1 0 0 1 2 2 2 3 2 1 2 3 4 2 0 0 0 0 0 1 2 1 3 4 5 2 3 4 5 5 6 5 4 3 6 7 5 4 3 3 1 3 4 5 4 4 6 5 4 2 3 3 4 5 5 5 4 4 5 4 3 3 2 0 1 0 0 0 0 0 0 0 0 1 0 0 0 0 0 0 0 0 0 0 0 0 0 0 0 0 0 0 0 1 2 2 2 2 1 1 1 1 1 2 3 3 3 3 1 2 3 3 1 1 0 0 1 1 0 0 0 1 0 0 0 0 0 1 2 2 2 1 1 0 0 0 0 0 0 0 0 0 0 0 0 0 0 0 0 0 0 0 0 0 0 0 0 0 0 0 0 0 0 0 0 0 0 0 0 0 0 0 0 0 0 0 0 0 1 1 0 0 0 2 0 0 1 1 0 0 0 0 0 0 2 2 4 4 2 2 3 4 3 3 3 3 3 3 3 2 5 3 2 2 1 2 0 0 0 1 2 2 4 2 3 3 5 4 4 3 3 3 3 2 2 1 1 0 0 0 0 0 0 0 0 0 0 1 0 1 1 3 3 4 3 3 0 1 2 1 2 1 3 1 3 4 3 2 3 4 3 4 3 4 5 7 7 7 7 6 4 3 2 2 3 3 3 2 3 3 2 1 2 3 2 3 2 2 2 0 2 1 1 1 0 0 0 0 0 0 0 0 0 0 0 0 0 0 0 0 0 0 0 0 0 0 0 0 0 0 0 0 0 0 0 0 0 0 0 0 0 0 0 0 0 0 0 0 0 0 0 0 0 0 0 1 0 0 0 0 0 0 0 0 0 0 0 0 0 0 0 0 
0 0 0 0 0 0 1 0 0 0 0 0 0 0 0 0 0 0 0 0 0 0 0 2 2 0 0 0 0 0 0 1 2 2 1 0 0 0 0 1 0 0 0 0 0 2 3 3 2 1 2 1 2 4 4 5 6 4 4 3 2 3 4 2 1 1 3 5 6 7 5 6 4 4 4 3 3 4 6 4 4 5 4 5 5 3 4 3 4 4 2 1 3 3 2 2 2 2 2 3 2 1 2 0 0 1 0 0 0 0 0 0 0 0 0 0 0 0 0 0 0 0 0 2 1 1 1 1 2 2 3 2 3 3 2 4 3 4 3 1 1 1 0 1 2 3 3 4 3 4 2 4 3 3 2 4 1 2 0 0 0 0 0 0 0 0 0 0 0 0 0 0 0 0 0 0 0 0 0 0 0 0 0 0 0 0 0 0 0 0 0 0 0 0 0 0 0 0 0 0 0 0 0 0 0 0 0 0 0 0 0 0 0 0 0 0 0 0 0 1 0 1 0 1 1 0 0 1 0 1 3 2 0 0 0 0 0 0 0 0 0 0 1 0 1 0 1 1 1 3 4 5 3 1 1 1 0 2 2 2 1 2 2 4 3 3 2 1 1 0 0 1 2 3 3 3 1 1 1 1 2 0 0 0 0 0 0 2 1 2 2 2 4 1 2 3 3 3 4 4 6 5 5 7 5 5 5 5 2 3 2 3 4 5 5 4 2 4 3 3 4 5 4 4 3 5 5 5 3 2 0 0 0 0 0 0 0 0 0 0 0 0 0 0 0 0 1 0 0 0 0 0 0 0 0 0 0 0 0 0 1 1 2 1 1 1 1 1 0 0 1 2 1 2 3 2 2 1 2 2 2 1 0 0 0 0 0 0 0 0 0 0 0 0 0 1 1 1 2 1 1 0 0 0 0 0 0 0 0 0 0 0 0 0 0 0 0 0 0 0 0 0 0 0 0 0 0 0 0 0 0 0 0 0 0 0 0 0 0 0 0 0 0 0 0 1 1 1 1 0 0 0 0 0 1 2 1 0 1 1 0 0 1 1 2 3 3 2 4 2 3 4 4 3 4 3 4 4 4 4 4 4 1 3 1 1 1 1 2 3 3 3 3 4 5 6 5 3 3 4 2 2 1 1 0 0 0 0 0 0 0 0 0 0 0 0 0 0 1 1 4 2 1 2 2 0 2 2 2 2 2 1 3 2 3 2 3 3 3 4 5 4 4 5 5 7 6 5 5 4 1 1 2 3 2 2 3 3 4 3 2 3 2 3 2 3 3 2 1 0 0 0 0 0 0 0 0 0 0 0 0 0 0 0 0 0 0 0 0 0 0 0 0 0 0 0 0 0 0 0 0 0 0 0 0 0 0 0 0 0 0 0 0 0 0 0 0 0 0 0 0 0 0 0 0 0 0 0 0 0 0 0 0 0 0 0 0 0 0 0 
0 0 0 0 0 0 2 1 0 0 0 0 0 0 0 0 0 0 0 0 0 2 1 2 0 0 0 0 0 0 0 1 1 1 1 0 0 0 0 0 1 0 0 1 2 2 2 3 3 3 3 3 2 4 4 6 6 6 4 4 2 3 3 4 1 1 4 5 5 7 6 4 5 4 5 5 4 3 3 4 5 5 5 4 4 3 2 2 4 4 3 2 3 2 2 2 2 2 3 1 2 3 1 0 0 1 1 0 0 0 0 0 0 0 0 0 0 0 0 0 0 0 2 2 1 0 1 1 4 4 4 2 2 4 3 3 4 3 3 4 3 3 0 2 3 3 3 4 5 2 4 5 3 3 4 3 1 0 0 0 0 0 0 0 0 0 0 0 0 0 0 0 0 0 0 0 0 0 0 0 0 0 0 0 0 0 0 0 0 0 0 0 0 0 0 0 0 0 0 0 0 0 0 0 0 0 0 0 0 0 0 0 0 0 0 0 0 0 0 0 0 0 1 0 1 0 1 0 1 1 1 0 0 0 0 0 0 1 0 0 0 0 1 0 1 0 0 3 1 2 4 4 3 3 2 0 0 0 0 1 1 2 2 5 4 3 3 1 0 0 0 0 2 1 1 2 2 2 2 2 1 0 0 0 0 1 1 3 1 2 1 1 1 3 1 2 3 3 4 5 5 5 7 6 4 4 4 6 5 3 4 2 3 5 4 4 5 3 4 4 3 5 3 4 3 3 3 3 1 1 0 0 0 0 0 0 0 0 0 0 0 0 0 0 1 0 1 0 0 0 0 1 0 0 0 0 0 0 0 0 1 0 1 0 0 0 0 1 0 0 0 1 2 2 0 1 2 1 2 2 1 0 0 0 0 0 0 0 0 0 0 0 0 0 1 1 1 3 0 0 0 0 0 0 0 0 0 0 0 0 0 0 0 0 0 0 0 0 0 0 0 0 0 0 0 0 0 0 0 0 0 0 0 0 0 0 0 0 0 0 0 0 0 0 0 0 2 1 0 0 0 0 0 0 1 2 1 2 2 0 1 1 0 0 2 3 4 4 5 5 4 5 4 4 4 4 6 6 5 4 4 4 3 1 3 2 2 3 3 2 4 5 4 4 5 5 4 4 5 1 0 0 0 0 0 0 0 0 0 0 0 0 0 0 0 0 0 0 0 1 4 3 2 2 2 2 2 2 1 2 1 2 3 2 2 2 3 2 3 4 3 3 5 5 5 4 6 4 4 3 1 1 2 2 2 1 1 2 2 3 3 3 2 3 2 2 2 2 2 0 0 0 0 0 0 0 0 0 0 0 0 0 0 0 0 0 0 0 0 0 0 0 0 0 0 0 0 0 0 0 0 0 0 0 0 0 0 0 0 0 0 0 1 0 0 1 0 0 0 0 0 0 0 0 0 1 0 1 1 0 0 0 0 0 0 0 0 0 0 0 
1 0 0 0 0 2 1 2 0 1 1 0 0 0 0 0 0 0 1 0 1 1 0 2 0 0 0 0 0 0 0 0 1 1 0 0 0 0 0 0 0 0 0 0 1 2 1 3 3 4 4 2 3 3 4 5 5 5 4 2 3 2 3 2 1 3 6 4 5 6 8 7 6 5 5 5 4 4 4 4 6 6 6 4 4 2 3 2 3 4 3 1 1 0 2 1 2 3 3 3 1 1 2 1 0 0 0 0 0 0 0 0 0 0 0 0 0 0 0 0 0 0 0 1 1 0 0 1 3 2 3 3 2 2 2 3 2 3 4 4 3 2 1 2 4 3 3 4 4 3 3 2 3 2 2 2 0 0 0 0 0 0 0 0 0 0 0 0 0 0 0 0 0 0 0 0 0 0 0 0 0 0 0 0 0 0 0 0 0 0 0 0 0 0 0 0 0 0 0 0 0 0 0 0 0 0 0 0 0 0 0 0 0 0 0 0 0 0 0 0 0 2 1 0 0 0 0 0 1 0 1 1 0 1 0 0 0 1 0 0 1 1 0 1 0 2 2 2 3 3 4 4 4 4 2 2 0 0 0 0 1 2 1 4 3 3 3 0 0 0 0 1 1 1 1 3 3 1 1 1 3 2 1 2 1 0 1 0 0 3 1 1 2 2 2 1 4 5 6 4 5 5 6 5 4 3 4 3 2 3 2 2 3 3 5 4 6 5 4 5 4 4 5 5 4 3 2 1 0 0 1 1 1 0 0 0 0 0 0 0 0 0 0 0 0 0 1 1 0 0 0 0 0 0 0 0 0 0 0 0 0 0 0 0 0 0 2 1 2 2 1 2 2 2 0 1 2 1 1 1 0 0 1 1 0 0 0 0 0 0 0 0 0 0 0 0 0 0 0 0 0 0 0 0 0 0 0 0 0 0 0 0 0 0 0 0 0 0 0 0 0 0 0 0 0 0 0 0 0 0 0 0 0 0 0 0 0 0 0 0 0 0 0 0 0 1 1 0 0 0 0 0 0 0 0 1 0 1 1 1 1 0 0 1 2 3 3 4 3 5 4 5 4 4 4 4 5 6 5 5 5 4 3 4 3 2 4 4 4 3 6 5 4 4 3 4 3 3 3 2 0 0 0 0 1 2 0 0 1 0 0 1 0 0 1 0 0 0 0 0 2 2 3 3 0 0 2 2 2 1 1 2 3 2 3 2 3 1 3 3 3 2 2 5 4 5 4 4 4 3 3 1 1 1 1 1 1 2 2 3 2 0 1 2 3 1 2 1 1 0 0 0 0 0 0 0 0 0 0 0 0 0 0 0 0 0 0 0 0 0 0 0 0 0 0 0 0 0 0 0 0 0 0 0 0 0 0 0 0 0 1 0 1 0 0 0 0 0 0 0 0 0 0 0 0 0 0 0 0 0 0 0 0 0 0 0 0 0 0 0 
0 1 1 0 1 1 2 1 0 2 2 0 0 0 0 0 0 0 0 1 1 1 1 2 2 0 0 0 0 0 1 1 0 1 0 1 0 0 0 0 0 0 0 0 2 2 2 3 4 2 3 3 3 1 2 3 3 4 4 4 2 3 4 4 3 4 3 3 5 5 6 7 7 6 6 5 5 4 6 5 6 5 6 4 5 3 3 2 3 3 2 0 0 1 1 2 1 1 2 0 1 0 0 0 0 0 0 0 0 0 0 0 0 0 0 0 0 0 0 0 1 0 0 0 0 1 0 0 2 3 2 3 1 1 1 2 1 1 4 2 4 5 2 1 3 3 3 3 3 3 3 3 1 0 0 0 0 0 0 0 0 0 0 0 0 0 0 0 0 0 0 0 0 0 0 0 0 0 0 0 0 0 0 0 0 0 0 0 0 0 0 0 0 0 0 0 0 0 0 0 0 0 0 0 0 0 0 0 0 0 0 0 0 0 0 0 0 0 0 0 1 0 0 0 0 0 0 0 0 0 1 2 1 2 1 1 1 2 1 1 2 1 1 0 2 1 2 1 2 4 3 4 4 4 3 2 1 0 0 0 0 1 1 1 1 2 1 1 1 0 0 0 0 0 3 2 3 1 0 2 1 1 1 2 1 1 1 0 2 1 1 1 2 2 2 2 2 4 5 5 7 6 6 7 7 5 3 3 2 2 2 3 5 5 5 5 4 4 5 4 4 4 4 4 3 2 1 0 0 1 2 2 1 0 0 0 0 0 0 0 0 0 0 0 0 0 1 0 0 0 0 0 0 0 0 0 0 0 0 0 0 0 0 0 0 1 3 0 0 0 0 1 0 0 0 1 0 0 1 1 1 1 2 0 0 0 0 0 1 0 0 0 0 0 0 0 1 1 0 0 0 0 0 0 0 0 0 0 0 0 0 0 0 0 0 0 0 0 0 0 0 0 0 0 0 0 0 0 0 0 0 0 0 0 0 0 0 0 0 0 0 0 0 0 0 0 0 1 0 0 0 0 0 0 0 0 1 1 0 0 0 1 0 1 2 3 3 5 3 5 5 6 7 5 4 6 5 5 5 5 6 3 5 4 4 4 4 5 4 4 4 5 4 3 2 4 3 1 2 1 0 0 1 0 1 1 1 1 1 1 0 0 0 0 0 1 0 0 0 0 1 1 1 1 1 2 3 1 1 2 1 2 4 3 2 1 1 2 3 2 2 2 3 2 4 6 4 5 4 3 2 2 1 3 2 1 0 2 0 0 0 0 1 1 2 0 0 0 0 1 0 0 0 0 0 0 0 0 0 0 0 0 0 0 0 0 0 0 0 0 0 0 0 0 0 0 0 0 0 0 0 0 0 0 0 0 0 0 0 0 0 0 0 0 0 0 0 0 0 0 0 0 0 0 0 0 0 0 0 0 0 0 0 0 0 0 0 0 0 0 
0 1 1 1 1 2 2 1 1 1 0 0 0 0 0 0 0 0 1 1 1 2 1 1 1 0 1 0 0 0 1 0 1 1 2 0 1 0 0 0 0 0 0 1 2 3 2 3 2 2 3 3 2 4 2 1 4 4 3 3 2 3 4 4 2 4 5 5 5 6 6 5 6 5 7 6 5 6 5 5 5 5 6 4 3 3 3 2 4 1 1 2 0 0 2 0 1 0 0 0 0 0 1 1 0 0 0 0 0 0 0 0 0 0 0 0 0 0 1 0 0 0 0 0 0 0 0 0 2 3 2 2 2 0 0 0 0 0 2 1 1 1 2 0 3 2 3 3 2 3 1 1 1 0 0 0 0 0 0 0 0 0 1 0 0 0 0 0 0 0 1 0 0 0 0 0 0 0 0 0 0 0 0 0 0 0 0 0 0 0 0 0 0 0 0 0 0 0 0 1 0 0 0 0 0 0 0 0 0 0 0 0 0 0 0 0 0 0 0 0 1 0 0 0 0 0 0 0 0 1 1 2 2 3 3 2 1 4 2 3 4 4 3 2 2 3 3 3 4 4 4 4 4 4 4 2 1 0 0 0 1 0 0 1 1 1 1 2 0 0 0 0 1 2 1 3 1 2 2 1 1 2 2 1 1 0 0 1 2 0 0 1 3 3 3 2 3 5 6 7 6 5 8 7 6 4 3 3 0 1 5 6 6 6 4 4 4 4 4 5 4 4 4 5 4 2 0 0 1 1 0 0 1 0 0 0 0 0 0 0 0 0 0 0 0 2 0 0 0 0 0 0 0 0 0 0 0 0 0 0 0 0 0 0 0 0 1 1 0 0 1 0 0 0 0 0 0 0 0 0 1 0 0 0 0 0 0 0 0 0 0 0 0 0 0 0 1 0 0 0 0 0 0 0 0 0 0 0 0 0 0 0 0 0 0 1 0 0 0 0 0 0 0 0 0 0 0 0 0 0 0 0 0 0 0 0 0 0 0 0 0 0 0 0 0 0 0 1 0 0 0 0 0 3 2 1 1 0 0 1 0 0 0 1 3 3 3 4 4 3 6 6 5 3 5 4 4 4 3 3 5 6 5 5 5 5 4 5 5 5 4 5 5 2 4 3 3 3 2 1 0 0 0 0 1 0 1 1 0 0 1 0 1 0 0 0 0 1 0 0 2 0 0 0 1 2 1 2 2 2 1 2 2 0 1 1 2 3 2 2 2 2 3 4 4 4 4 5 3 2 4 2 1 1 2 1 1 1 0 0 0 0 0 0 1 0 0 0 0 0 0 0 0 0 1 1 1 0 0 0 0 0 0 0 0 0 0 0 0 0 0 0 0 0 0 0 0 0 0 0 0 0 0 0 0 0 0 0 0 0 0 0 0 0 0 0 0 0 0 0 0 0 0 0 0 0 0 0 0 0 0 0 0 0 0 0 0 0 1 0 
1 3 2 2 2 2 2 2 1 1 0 0 0 0 0 0 0 0 1 1 0 0 0 0 0 0 1 0 0 0 1 2 2 1 0 0 0 0 1 0 0 0 0 0 0 0 1 1 0 2 2 2 1 2 1 1 2 4 3 4 3 2 3 4 5 4 5 6 6 6 6 6 6 6 8 7 5 5 5 7 6 5 6 4 2 4 2 2 2 3 2 1 1 1 2 3 2 0 0 0 0 2 0 1 0 0 0 0 0 0 0 0 0 0 0 0 0 2 1 0 0 0 0 0 0 0 0 0 1 2 2 2 0 0 0 0 0 0 0 0 0 0 2 0 0 1 1 2 3 2 2 2 2 0 0 0 0 0 0 0 0 0 0 0 0 0 0 0 0 0 0 0 0 0 0 0 0 0 0 0 0 0 0 0 0 0 0 0 0 0 0 0 0 0 0 0 0 0 0 0 0 0 0 0 0 0 0 0 0 0 0 0 0 0 0 0 0 0 0 0 0 0 0 0 0 0 0 0 0 2 2 3 2 2 3 3 2 3 2 2 2 3 4 4 4 5 6 6 5 4 4 5 6 2 3 2 0 1 0 0 1 2 1 2 2 2 1 2 1 0 0 0 2 2 2 2 2 3 3 2 2 1 0 0 1 1 1 1 0 0 1 1 1 3 5 4 4 5 7 7 6 6 6 7 4 3 4 1 2 3 2 5 6 3 4 3 3 4 3 3 4 4 3 2 3 3 2 1 0 0 0 0 1 0 0 0 0 0 0 0 0 0 0 0 1 1 1 0 1 0 0 0 0 0 0 0 0 0 0 0 0 0 0 0 0 0 0 0 0 0 0 0 0 0 0 0 0 0 1 0 0 0 0 0 0 0 0 0 0 0 0 0 0 0 0 0 1 1 0 0 0 0 0 0 0 0 0 0 0 0 0 0 0 0 0 0 0 0 0 0 0 0 0 0 0 0 0 0 0 0 0 0 0 0 0 0 0 0 0 0 0 0 0 0 0 0 0 0 0 0 0 1 0 0 1 2 2 1 1 0 0 0 0 2 2 2 4 4 4 5 5 6 5 4 4 3 4 4 4 5 6 5 5 5 5 6 5 5 5 4 4 3 3 2 3 2 2 1 2 0 1 0 0 0 0 0 2 1 0 0 1 0 0 0 0 0 0 1 0 1 0 0 0 0 0 0 2 2 1 1 1 0 1 0 1 1 1 1 1 2 2 2 2 4 4 5 4 1 3 4 3 1 2 1 2 1 3 1 0 0 0 0 0 0 1 0 1 2 1 1 0 0 0 0 1 1 0 0 0 0 0 0 0 0 0 0 0 0 0 0 0 0 0 0 0 0 1 0 0 0 0 0 0 0 0 0 0 0 0 0 0 0 0 0 0 0 0 0 0 0 0 0 0 0 0 0 0 0 0 0 0 0 0 0 0 0 0 0 0 0 
2 1 2 3 3 2 2 1 2 0 0 0 0 0 0 0 0 2 1 0 0 0 0 0 1 0 0 0 0 0 0 1 1 0 0 0 0 0 0 0 0 0 0 0 0 0 1 1 0 0 0 1 0 1 3 3 5 5 4 3 2 2 3 4 4 5 6 6 6 7 6 6 6 7 7 7 5 6 6 6 6 7 7 5 3 2 4 3 3 2 3 3 2 2 3 4 2 0 0 0 0 0 0 0 0 1 0 0 0 0 0 0 0 0 0 0 0 0 0 0 0 0 0 0 0 0 0 0 0 1 0 2 1 1 0 0 0 0 0 0 0 0 0 0 0 0 0 1 0 1 2 3 0 0 0 0 0 0 0 0 0 0 0 0 0 0 0 0 0 0 0 0 0 0 0 0 0 0 0 0 0 0 0 0 0 0 0 0 0 0 0 0 0 0 0 0 0 0 0 0 0 0 0 0 0 0 0 0 0 0 0 0 0 0 0 0 0 0 0 0 0 0 0 1 0 0 0 0 0 0 0 1 1 2 3 4 3 2 2 2 3 2 2 5 5 5 5 5 5 6 5 6 6 3 3 2 2 2 1 2 2 2 1 1 1 1 2 1 1 0 1 1 2 1 1 2 1 2 2 2 2 2 2 1 1 2 2 3 0 2 2 3 1 1 4 3 3 5 7 5 5 7 6 6 5 3 1 4 5 5 4 4 5 3 4 4 2 2 1 2 4 2 3 3 4 2 1 1 1 0 0 0 0 0 0 0 1 0 0 0 0 0 0 0 0 1 2 0 0 0 0 0 0 0 0 0 0 0 0 0 0 0 0 1 0 0 0 0 0 0 0 0 0 0 0 1 1 0 1 1 0 0 0 0 0 0 0 0 0 0 0 0 0 0 0 0 1 0 0 1 0 0 0 0 0 0 0 0 0 0 0 0 0 0 0 0 1 0 1 0 0 0 0 0 0 0 1 1 0 0 0 0 0 0 0 0 0 0 0 0 0 0 1 0 0 0 0 0 0 0 0 1 0 0 0 0 2 0 1 1 1 3 2 1 2 4 3 3 4 5 5 4 6 5 5 6 6 7 3 5 5 4 5 5 6 4 3 3 3 2 3 4 2 4 3 2 2 2 2 1 2 2 0 0 0 0 1 2 2 2 0 0 0 0 0 0 1 0 0 0 0 0 0 0 0 1 2 1 3 2 1 0 1 0 0 0 0 0 1 0 1 2 3 4 5 4 3 3 3 3 2 1 2 0 0 1 1 2 0 0 0 0 0 0 0 0 0 0 0 0 0 0 0 0 0 0 0 0 0 1 0 0 0 0 0 0 0 0 0 0 0 0 0 0 0 0 0 0 0 0 0 0 0 0 0 0 0 0 0 0 0 0 0 0 0 0 0 0 0 0 0 0 0 1 0 0 0 0 0 0 1 0 0 0 0 1 2 0 1 1 
1 0 1 3 2 3 2 1 1 0 0 0 0 0 0 0 2 2 1 1 0 0 1 0 0 0 0 0 0 0 1 2 1 1 0 0 0 0 0 0 0 0 1 1 0 0 0 0 0 1 1 1 2 1 3 4 4 3 5 4 3 3 5 4 5 6 6 4 5 5 5 5 6 6 6 5 6 7 6 5 5 6 5 6 3 3 2 3 3 3 3 4 4 2 2 3 2 1 0 0 0 0 0 0 2 0 0 0 0 0 0 0 0 0 0 0 0 0 0 0 0 0 0 0 0 0 0 0 0 0 1 0 0 1 0 0 0 0 0 0 0 0 0 0 0 0 0 0 0 2 1 0 0 1 0 0 0 0 0 0 0 0 0 0 0 0 0 0 0 0 0 0 0 1 0 0 0 0 0 0 0 0 0 0 0 0 0 0 0 0 0 0 0 0 0 0 0 0 0 0 0 0 0 0 0 0 0 0 0 0 0 0 0 0 0 0 0 0 0 0 0 0 0 1 0 0 0 0 0 1 1 2 2 3 3 2 2 2 2 2 1 2 2 4 4 4 5 5 6 5 5 5 6 4 3 4 4 2 3 3 1 2 1 1 2 1 1 1 1 1 0 1 0 2 2 2 1 1 1 0 0 0 0 1 1 1 2 2 1 2 2 3 3 2 5 5 4 6 4 7 6 7 7 5 2 4 2 3 4 5 5 4 2 3 4 5 2 4 2 2 2 2 4 3 2 1 2 2 1 0 0 0 0 1 0 0 0 0 0 0 0 0 0 0 0 0 1 0 1 0 0 0 0 0 0 0 0 0 0 0 0 0 0 0 0 0 0 0 0 0 0 0 0 0 0 0 0 0 0 0 0 0 0 0 0 0 0 0 0 0 0 0 0 0 0 0 0 0 0 1 0 0 0 0 0 0 1 0 0 0 0 0 0 0 1 1 1 0 0 0 0 0 0 0 0 0 0 0 0 1 0 0 0 0 0 0 0 0 0 0 0 0 0 0 0 0 0 0 0 0 0 0 0 0 0 0 2 3 1 2 3 2 3 3 3 3 5 3 4 4 4 5 4 4 5 7 6 5 5 7 3 5 5 3 5 4 4 3 3 5 5 4 4 4 5 4 4 3 3 4 2 2 1 0 0 0 0 2 2 1 0 0 0 0 1 0 0 0 0 1 1 1 1 0 0 2 1 2 2 2 2 1 0 1 1 0 0 0 1 0 0 2 2 3 4 3 2 4 4 2 1 1 1 1 2 0 0 1 1 0 0 1 0 0 0 1 1 1 0 0 0 0 0 0 0 0 0 0 0 0 0 0 0 0 0 0 0 0 0 0 0 0 0 0 0 1 0 0 0 0 0 0 0 0 0 0 0 0 0 0 0 0 0 0 0 0 0 0 0 0 0 0 2 0 0 0 0 0 1 1 1 1 0 0 0 0 0 1 1 1 
1 1 1 1 2 3 2 3 1 0 0 1 0 0 0 1 1 1 1 0 0 2 1 0 0 0 0 1 2 2 3 2 2 2 1 0 0 0 0 0 0 1 1 1 0 0 0 0 1 0 1 3 3 4 5 4 4 4 3 2 4 3 4 4 5 5 6 5 5 5 7 6 5 4 4 5 6 5 6 5 5 5 6 6 5 4 3 3 4 3 3 4 4 1 2 1 0 1 0 1 0 0 0 0 0 0 0 0 0 0 0 1 0 0 0 0 0 0 0 0 0 0 0 0 0 0 0 0 0 0 0 0 1 0 0 0 0 0 0 0 0 0 0 0 0 0 0 0 0 2 2 2 2 2 2 1 1 1 0 0 0 0 0 0 0 0 0 0 0 0 0 0 1 0 0 0 0 0 0 0 0 0 0 0 0 0 0 0 0 0 0 0 0 0 0 0 0 0 0 0 0 0 0 0 0 0 0 0 0 0 0 0 0 0 0 0 0 0 0 0 0 0 0 1 0 1 1 0 0 0 1 1 3 3 2 2 2 0 3 2 2 2 4 4 5 4 5 4 4 5 5 6 6 5 4 5 5 3 4 3 2 2 2 2 3 3 1 1 2 1 0 0 1 1 2 0 0 1 0 2 2 1 2 2 0 1 4 3 2 0 2 2 3 4 5 5 3 4 3 5 6 6 6 5 3 4 4 1 3 4 4 2 2 3 4 3 2 3 3 2 2 3 4 3 4 3 1 0 0 0 0 0 0 0 0 0 0 0 0 0 0 0 0 0 0 0 0 0 0 0 0 0 0 0 0 0 0 0 0 0 0 0 0 0 0 0 0 0 0 0 0 0 0 0 0 0 0 0 0 0 0 0 0 0 0 0 0 0 0 0 0 0 0 0 0 0 0 0 0 0 1 1 0 0 0 0 0 1 0 0 0 0 0 0 0 0 2 0 1 0 0 0 0 0 0 1 0 0 0 0 0 0 0 0 0 0 0 0 0 0 0 0 0 0 0 0 0 0 0 0 0 0 0 0 1 1 2 2 2 2 3 4 3 3 4 5 5 4 4 3 3 5 4 5 6 6 8 7 7 6 4 5 4 3 4 5 3 4 6 6 5 4 4 4 4 5 4 4 5 4 3 3 3 1 0 0 0 2 1 0 0 0 0 1 1 2 2 0 1 2 2 1 2 0 1 0 3 1 1 2 1 1 0 1 2 0 0 0 0 1 1 1 3 3 3 3 4 4 3 2 1 1 0 1 1 1 0 1 1 0 1 0 0 0 1 2 1 1 0 0 0 0 0 0 0 0 0 0 0 1 0 0 0 0 0 0 0 0 0 0 0 0 0 0 0 0 0 0 0 0 0 0 0 0 0 0 0 0 0 0 0 0 0 0 0 0 0 0 0 0 0 2 0 0 0 0 0 0 0 2 1 0 0 0 0 0 1 0 0 0 
0 0 1 2 1 2 2 1 2 2 1 2 2 3 3 3 2 2 0 0 0 0 0 1 0 0 1 1 0 1 1 2 1 3 1 0 0 0 0 0 0 0 0 0 0 1 2 1 2 3 3 3 4 3 5 5 3 4 5 5 3 5 5 3 3 4 4 6 5 5 6 7 3 4 6 5 6 6 5 4 6 7 5 6 5 4 3 3 3 4 3 2 3 3 4 1 0 1 0 3 2 0 0 0 0 0 0 0 0 0 0 0 0 0 0 0 0 0 0 0 0 0 0 0 0 0 0 0 0 0 0 1 1 1 1 0 0 0 0 0 0 0 0 0 0 0 0 0 0 1 1 2 0 0 0 0 0 0 0 0 0 0 0 0 0 0 0 0 0 0 0 1 0 0 0 0 0 0 0 0 0 0 0 0 0 1 1 0 0 0 0 0 0 0 0 0 0 0 0 0 0 0 0 0 0 0 0 0 0 0 0 0 0 0 0 0 0 0 0 0 0 0 1 1 1 3 2 1 0 0 1 1 3 4 2 3 2 1 3 4 3 4 4 4 4 5 4 3 4 3 5 5 4 5 4 4 3 4 3 3 2 2 2 1 2 1 0 1 0 0 0 1 1 1 2 1 0 1 0 1 1 2 2 2 1 2 3 2 2 1 3 4 3 4 4 4 4 5 4 5 4 4 5 5 4 3 3 3 4 4 4 2 3 4 4 3 4 3 3 3 1 2 2 4 3 2 2 2 1 0 0 0 0 0 0 0 0 0 1 3 0 0 0 0 0 0 0 0 0 0 0 0 0 0 0 0 0 0 0 0 0 0 0 0 0 0 0 0 0 0 0 0 0 0 0 0 0 0 0 0 0 0 0 0 0 0 0 0 0 0 0 0 0 1 1 1 0 0 0 0 0 1 0 1 0 0 0 1 0 0 0 0 0 0 1 1 1 1 2 0 0 0 0 0 0 0 0 0 0 0 0 0 0 0 0 0 0 0 0 0 0 0 0 0 0 0 0 0 0 0 0 0 1 0 1 1 1 2 1 2 2 2 2 3 5 4 4 5 6 5 4 5 4 5 5 5 5 6 7 6 6 6 5 4 5 4 5 7 6 5 3 3 3 4 3 3 5 4 4 3 3 3 2 2 0 0 1 1 1 0 0 0 0 0 1 2 2 0 1 3 3 4 2 3 1 1 2 2 2 1 1 1 1 1 0 0 0 0 1 2 2 1 1 1 1 3 3 2 2 1 0 0 0 0 0 0 1 1 0 1 1 0 0 0 1 3 2 1 0 1 2 0 1 0 0 0 0 0 0 0 0 0 0 0 0 0 0 0 0 0 0 0 0 0 0 0 0 0 0 0 0 0 0 0 0 0 0 0 0 0 0 0 0 0 0 0 0 0 0 0 1 0 0 0 0 0 0 0 0 0 0 0 0 0 2 1 0 0 0 1 
1 2 1 2 1 1 2 2 3 3 4 3 3 3 3 3 3 2 2 0 1 1 0 0 0 0 0 0 2 1 2 2 1 1 1 0 0 0 0 0 0 0 0 0 2 3 2 2 3 4 4 5 5 5 3 3 3 4 5 4 5 4 5 5 4 3 5 5 3 4 5 5 4 4 6 5 5 4 4 5 5 4 3 5 5 4 3 3 2 3 2 3 2 3 1 1 0 2 4 2 2 0 2 1 0 0 0 0 0 0 0 0 0 0 0 0 0 0 0 0 0 0 0 0 0 0 0 0 0 0 0 0 0 1 0 0 0 0 0 0 0 0 0 0 0 0 0 0 0 0 0 0 0 0 0 0 0 0 0 0 0 0 0 0 0 0 0 0 0 0 1 1 1 1 2 1 0 0 0 0 1 1 1 0 0 0 0 0 0 0 0 0 0 0 0 0 0 0 0 0 0 0 0 0 0 0 0 0 0 0 0 0 0 0 0 0 0 0 0 1 0 1 1 2 2 3 1 2 1 3 2 2 5 5 3 4 1 1 3 4 5 5 5 5 5 6 4 5 6 4 3 4 3 6 4 3 2 2 3 2 2 2 4 3 4 3 3 2 1 1 0 1 1 0 1 1 2 2 1 2 3 4 2 2 2 3 5 3 1 0 2 4 3 2 2 3 4 4 5 2 4 4 3 3 3 1 3 3 3 3 3 2 2 3 4 3 2 2 2 1 0 1 1 2 3 3 2 2 1 0 0 0 0 0 0 0 0 0 0 0 1 0 0 0 0 0 0 0 0 0 0 0 0 0 0 0 0 0 0 0 0 0 0 0 0 0 0 0 0 0 0 0 0 0 0 0 0 0 0 0 0 0 0 0 0 0 0 0 0 0 0 0 0 0 0 1 0 0 2 1 1 2 1 2 0 0 0 0 2 1 1 0 0 0 2 2 1 1 0 0 0 0 0 0 0 0 0 0 0 0 0 0 0 0 0 0 0 0 0 0 0 0 0 0 0 0 0 0 0 0 0 0 0 0 0 1 1 3 2 2 2 2 1 3 3 4 6 6 6 4 5 4 4 6 6 5 5 5 7 6 7 6 4 4 4 3 4 5 4 3 3 4 2 4 4 3 4 5 4 3 2 1 3 2 1 0 0 0 1 0 0 0 0 0 2 4 2 2 2 2 3 3 3 1 1 1 2 3 3 2 0 0 0 0 0 0 0 0 1 1 1 1 1 0 1 1 2 1 0 0 0 0 0 0 0 0 0 0 0 0 0 0 0 0 1 2 1 1 1 2 2 2 0 0 0 0 0 0 0 0 0 0 0 0 0 0 0 0 1 0 1 0 0 0 0 0 0 0 0 0 0 0 0 0 0 0 0 0 0 0 0 0 0 0 0 0 0 0 0 0 0 0 0 0 0 0 0 0 0 0 0 0 0 0 0 0 0 1 1 1 
4 3 2 1 2 2 2 2 2 3 5 3 2 3 4 4 4 3 2 1 0 0 1 0 1 1 0 1 0 1 0 2 2 2 0 1 0 0 0 0 0 0 0 0 2 3 2 2 2 4 3 6 7 4 2 4 3 3 4 4 4 3 2 5 4 3 6 5 5 3 4 4 4 4 6 5 4 5 4 4 3 5 3 3 4 5 4 1 2 3 3 2 2 2 1 2 0 2 2 4 3 2 1 1 0 0 0 0 0 0 0 1 0 0 0 0 0 0 0 0 0 0 0 0 0 0 0 0 0 0 0 0 0 0 0 0 0 0 0 0 0 0 0 0 0 0 0 0 0 0 0 0 0 0 0 0 0 0 0 0 0 0 0 0 0 0 0 0 0 0 2 0 0 1 3 2 0 0 0 2 1 2 1 1 1 1 0 0 0 0 0 0 0 0 0 0 0 0 0 0 0 0 0 0 0 0 0 0 0 0 0 0 0 0 0 0 0 0 0 0 1 0 2 2 2 2 1 1 2 1 3 3 5 4 4 4 4 3 3 4 4 7 6 6 5 4 4 6 5 5 4 4 4 4 5 4 4 5 5 2 3 3 3 2 4 2 2 3 2 2 3 2 2 1 3 3 1 1 3 1 1 1 3 1 3 2 2 2 0 2 3 3 3 2 3 4 4 4 5 5 4 3 1 1 0 0 1 0 1 0 0 0 0 2 0 0 2 2 3 1 0 0 0 1 1 0 0 0 0 0 0 0 0 0 0 0 0 0 0 1 0 0 0 0 0 0 0 0 0 0 0 0 0 0 0 0 0 0 0 0 0 0 0 0 0 0 0 0 0 0 0 0 0 0 0 0 0 0 0 0 0 0 0 0 0 0 0 0 0 0 0 0 0 0 1 4 1 0 1 1 3 3 1 1 0 0 2 0 2 1 2 3 0 0 1 2 1 3 0 0 0 0 0 0 0 0 0 0 0 0 0 0 0 0 0 0 0 0 0 0 0 0 0 0 0 0 0 0 1 1 0 0 0 0 0 2 1 1 2 0 0 1 1 2 3 6 6 6 6 4 5 5 2 3 6 5 7 6 6 7 6 6 5 4 4 4 4 4 5 4 5 4 4 5 5 4 4 4 4 4 3 2 3 2 1 0 3 2 3 1 2 0 0 0 1 1 1 2 1 3 1 3 2 2 2 1 3 1 1 0 1 1 0 0 0 0 0 0 0 1 0 1 0 0 0 1 1 0 0 0 0 0 0 0 0 0 0 0 0 0 0 0 1 1 1 2 1 2 2 1 1 1 0 0 0 0 0 0 0 0 0 0 0 0 0 0 0 0 0 0 1 0 0 0 0 0 0 0 0 0 0 0 0 0 0 0 0 0 0 0 0 0 0 0 0 0 0 0 0 0 0 0 0 0 0 0 0 0 0 0 0 0 0 0 0 0 0 1 2 2 
2 4 3 2 3 1 2 2 3 3 4 5 4 2 3 3 2 1 1 1 0 0 1 2 1 2 1 1 1 1 1 2 2 3 1 1 1 0 0 0 0 0 0 1 1 1 2 3 0 3 4 4 5 4 4 2 3 4 3 2 3 2 2 4 5 5 5 4 4 3 3 3 4 5 4 6 5 5 6 5 5 4 5 4 2 2 2 3 3 4 2 2 3 4 2 0 0 1 2 3 3 2 3 0 1 0 1 0 0 0 0 0 0 0 0 0 0 0 0 0 0 0 0 0 0 0 0 0 0 0 0 0 0 0 0 0 0 0 0 0 0 0 0 0 0 0 0 0 0 0 0 0 0 0 0 0 0 0 0 0 0 0 0 0 0 0 0 0 1 2 2 2 2 3 4 4 1 1 0 1 0 0 2 0 1 0 0 0 0 0 0 0 0 0 0 0 0 0 0 0 0 0 0 0 0 0 0 0 0 0 0 0 0 0 0 0 0 0 0 0 0 2 2 4 2 2 3 4 2 1 2 3 4 3 4 3 5 5 4 4 5 5 4 6 6 4 4 5 5 6 6 5 4 3 3 3 3 4 5 5 5 6 4 3 3 2 3 3 2 1 0 2 3 2 3 2 2 3 2 2 3 5 3 2 2 1 0 0 2 1 1 1 3 4 4 2 2 5 7 8 9 9 10 11 12 14 15 17 15 16 14 11 10 7 7 4 2 2 0 0 0 0 0 1 1 1 0 1 0 0 0 0 0 0 0 0 0 0 0 0 0 0 0 0 0 0 0 0 0 0 0 0 0 0 0 0 0 0 0 0 0 0 0 0 0 0 0 0 0 0 0 0 0 0 0 0 0 0 0 0 0 0 0 0 0 0 0 0 0 0 0 0 1 0 2 2 1 1 1 2 3 2 2 1 0 0 1 1 1 2 1 1 0 0 1 2 1 2 0 0 0 0 0 0 0 0 0 0 1 0 0 0 0 0 0 0 0 0 0 0 1 0 0 0 0 0 0 1 0 1 0 0 0 0 0 0 2 2 0 0 0 0 1 2 4 5 6 6 6 4 4 5 3 4 4 6 5 6 6 6 5 4 4 5 5 5 4 6 4 4 4 5 3 5 5 4 4 5 5 4 4 3 2 2 1 2 1 2 2 4 3 3 2 2 3 1 1 1 0 1 1 0 1 3 1 0 1 2 1 1 1 0 0 0 0 0 0 0 0 0 1 0 1 0 0 1 0 0 0 0 0 0 0 0 0 0 0 0 0 0 0 0 0 1 1 1 3 1 4 2 2 0 0 0 0 0 0 0 1 0 0 0 0 0 0 0 0 0 0 0 0 0 0 0 0 0 0 0 0 0 0 0 0 0 0 0 0 0 0 0 0 0 0 0 0 0 0 0 0 0 0 0 0 1 0 0 0 0 0 0 0 1 0 1 0 0 1 2 3 3 
6 5 4 4 4 4 2 2 1 3 4 3 4 3 3 3 1 0 1 2 2 0 2 3 3 4 2 1 1 3 2 1 2 2 2 0 1 0 1 0 0 0 2 1 1 1 0 1 0 2 3 4 5 4 3 5 5 4 2 3 3 2 2 3 3 5 3 3 3 3 2 3 4 3 3 4 4 4 3 3 5 3 4 4 2 4 3 4 3 3 2 3 3 3 2 1 0 2 3 3 3 1 1 0 1 0 0 0 0 0 0 0 0 0 0 0 0 0 0 0 0 0 0 0 0 0 0 0 0 0 0 0 0 0 0 0 0 0 0 0 0 0 0 0 0 0 0 0 0 0 0 0 0 0 0 0 0 0 0 0 0 0 0 0 0 1 0 0 1 2 1 2 2 4 3 4 2 2 1 0 0 1 1 0 0 0 0 0 0 0 0 0 0 0 0 0 0 0 0 0 0 0 0 0 0 0 0 0 0 0 0 0 0 0 0 1 0 0 0 0 0 1 2 0 3 1 1 3 2 3 4 5 4 5 4 5 5 4 5 4 5 4 4 6 6 4 5 5 5 4 6 3 3 3 2 3 3 5 5 5 5 4 3 2 2 2 2 5 1 2 1 2 2 3 3 3 5 3 3 3 6 3 2 3 1 0 0 0 1 1 2 4 3 4 4 8 12 20 32 47 63 77 85 94 100 106 107 109 108 105 101 96 90 81 70 58 45 31 16 7 5 2 0 1 1 4 3 2 0 0 0 0 1 2 0 0 0 0 0 0 0 0 0 0 0 0 0 0 0 0 0 0 0 0 0 0 0 0 0 0 0 0 0 0 0 0 0 0 0 0 0 0 0 0 0 0 0 0 0 0 0 0 0 0 0 0 0 0 0 0 0 0 0 0 0 1 1 2 1 2 3 2 2 0 1 1 3 2 3 3 0 0 1 1 2 3 0 0 2 0 0 0 0 0 0 0 0 1 0 0 0 0 0 0 0 0 0 0 0 0 1 1 1 0 2 0 3 2 1 3 0 0 1 0 0 0 1 0 1 1 1 2 3 5 5 5 6 6 6 4 4 5 5 4 5 5 5 5 5 5 5 4 3 4 4 5 5 6 5 5 4 3 3 3 4 4 5 6 5 6 4 4 3 3 4 2 2 3 5 4 3 4 3 3 3 3 2 1 0 0 0 0 1 0 1 0 0 2 0 0 0 0 0 0 0 0 0 0 0 0 0 0 1 0 0 0 0 0 0 0 0 0 0 0 0 0 0 0 0 0 0 0 0 0 1 1 2 1 2 2 0 0 0 0 0 0 0 0 0 0 0 0 0 0 0 0 0 0 0 0 0 0 0 0 0 0 0 0 0 0 0 0 0 0 0 0 0 0 0 0 0 0 0 0 0 0 0 0 0 0 0 0 0 1 1 0 0 0 0 0 0 1 2 0 2 1 2 3 3 5 
4 4 5 4 4 3 4 1 3 2 3 2 3 3 2 3 1 2 1 2 0 2 3 2 4 5 3 2 0 2 3 2 2 2 1 1 1 0 2 1 1 0 2 3 3 1 1 0 0 1 2 3 3 3 2 5 4 2 3 2 2 1 1 2 2 2 5 4 3 2 3 5 3 4 5 4 3 4 3 4 4 4 4 4 4 3 3 2 3 2 2 2 3 2 2 2 1 0 2 0 0 0 1 0 0 0 0 1 0 0 0 0 0 0 0 0 0 0 0 0 0 0 0 0 0 0 0 0 0 0 0 0 0 0 0 0 0 0 0 0 0 0 0 0 0 0 0 0 0 0 0 0 0 0 0 0 0 0 0 0 0 0 0 0 0 0 0 4 3 3 2 3 2 4 3 1 0 0 0 0 0 0 1 0 0 0 0 0 0 0 0 1 0 0 0 1 0 1 0 0 0 0 0 0 0 0 0 0 0 0 0 0 0 0 1 1 0 0 0 0 0 1 0 2 0 3 2 3 2 4 3 4 3 3 4 5 6 4 5 6 5 5 7 6 6 5 6 4 4 5 5 4 5 3 4 4 3 4 4 4 5 3 0 2 2 2 3 2 2 1 1 0 2 1 4 5 4 3 5 4 3 4 2 2 0 0 2 1 2 3 1 2 7 17 39 66 96 119 134 143 149 152 152 154 155 155 154 154 153 150 149 147 145 140 135 129 122 111 96 80 62 43 23 10 4 0 1 1 2 1 0 0 0 1 0 0 0 0 0 0 0 0 0 0 0 0 0 0 0 0 0 0 0 0 0 0 0 0 0 0 0 0 0 0 0 0 0 0 0 0 0 0 0 0 0 0 0 0 0 0 0 0 0 0 0 0 0 0 0 0 0 0 1 1 0 0 0 1 1 2 4 4 3 3 1 2 1 3 3 3 2 0 1 0 2 2 1 1 1 2 1 3 2 2 0 0 0 1 0 0 0 0 0 0 0 0 0 0 0 0 1 0 0 0 2 2 3 1 1 1 2 2 0 1 2 2 0 2 1 2 3 3 4 4 5 5 6 7 7 6 5 5 4 5 6 6 6 5 5 5 3 3 4 4 4 5 5 5 6 5 7 4 4 4 4 2 6 4 4 5 5 4 3 5 5 3 3 3 5 5 5 3 3 3 4 3 1 0 0 1 0 1 1 0 0 0 0 0 0 0 0 0 0 0 0 0 0 0 0 0 0 0 0 0 0 0 0 0 0 0 0 0 0 0 0 0 0 0 0 0 0 0 0 0 0 0 0 0 0 0 0 0 0 0 0 0 0 0 0 0 0 0 0 0 0 0 0 0 0 0 0 0 0 0 0 0 0 0 0 0 0 0 0 0 0 0 0 0 0 0 0 0 0 0 0 0 0 0 0 0 0 0 0 0 0 0 0 0 0 1 0 0 1 1 1 2 2 3 4 5 
5 5 6 4 4 4 3 1 2 2 4 4 4 2 2 4 2 3 3 2 2 2 3 4 4 3 3 1 2 3 3 2 3 3 3 3 4 3 1 0 1 1 1 3 2 3 1 0 1 1 2 1 3 2 2 3 4 2 3 2 1 1 2 1 3 3 4 5 6 3 5 5 5 5 4 3 3 3 3 3 4 3 3 4 3 3 1 2 1 3 1 1 3 2 2 1 0 0 0 0 0 1 0 0 0 0 0 0 0 0 0 0 0 0 0 0 0 0 0 0 0 0 0 0 0 0 0 0 0 0 0 0 0 0 0 0 0 0 0 0 0 0 0 0 0 0 0 0 0 0 0 0 0 0 0 0 0 0 0 0 0 0 1 0 1 1 0 1 2 2 1 0 1 3 3 2 0 1 1 0 1 0 0 1 2 1 0 0 0 0 0 1 2 1 0 0 0 0 1 0 0 0 0 0 0 0 0 0 0 0 1 2 0 0 0 1 1 2 0 1 0 0 0 0 2 1 2 3 2 3 3 4 4 3 4 5 5 6 6 6 7 5 6 6 5 4 4 5 3 3 4 3 5 4 4 4 4 2 3 4 2 1 1 3 2 2 3 0 1 0 1 1 3 2 4 4 3 4 4 3 5 3 2 2 2 3 1 1 0 0 8 32 72 115 142 157 164 167 168 168 167 165 164 162 161 159 157 157 159 157 157 155 156 154 152 150 147 144 139 131 123 112 94 72 46 20 5 0 0 0 0 0 0 0 0 0 0 0 0 0 0 1 0 0 0 0 0 0 0 0 0 0 0 0 0 0 0 0 0 0 0 0 0 0 0 0 0 0 0 0 0 0 0 0 0 0 0 0 0 0 0 0 0 0 0 0 0 0 0 0 1 1 0 0 0 1 3 1 2 2 4 4 2 2 3 1 2 2 3 3 2 2 2 2 1 3 3 2 2 2 3 3 3 2 2 2 1 1 0 0 0 0 0 0 0 2 0 0 0 0 1 0 0 1 1 1 2 3 1 3 2 2 2 2 3 1 2 4 5 3 4 4 5 5 6 6 7 6 5 3 4 4 3 3 4 3 4 5 5 3 3 3 3 4 4 4 6 5 7 8 7 6 5 3 3 3 3 3 4 4 4 4 4 5 3 5 4 3 6 4 3 3 1 2 1 2 1 1 0 1 0 0 0 0 0 1 0 0 0 0 0 0 0 0 0 0 0 0 0 0 0 0 0 0 0 0 0 0 0 0 0 0 0 0 0 0 0 0 0 0 0 0 0 0 0 0 0 0 0 0 0 0 0 1 0 0 0 0 0 0 1 0 0 0 0 0 0 0 0 0 1 0 0 0 0 0 0 0 0 0 0 0 0 0 0 0 0 0 0 0 0 0 0 0 0 0 0 0 0 0 0 1 1 0 1 1 1 0 1 3 2 2 1 1 2 3 3 3 5 5 
5 6 4 3 2 3 3 2 2 4 4 4 3 3 2 1 1 3 4 3 3 2 3 2 3 4 3 1 2 3 3 4 4 3 4 4 3 2 1 0 0 0 0 1 3 3 1 2 3 2 2 1 3 4 3 2 3 2 1 1 2 2 1 0 0 2 3 5 4 6 6 5 5 4 4 3 2 2 2 2 3 4 4 3 2 2 2 2 2 1 2 3 3 2 3 1 0 0 0 0 0 0 0 0 1 1 2 0 0 2 0 0 0 0 0 0 0 1 0 0 0 0 0 0 0 0 0 0 0 0 0 0 0 0 0 0 0 0 0 0 0 0 0 0 0 0 0 0 0 0 0 0 0 0 0 0 0 1 0 0 0 0 0 0 1 1 2 4 3 1 1 1 2 2 3 2 2 1 1 1 2 2 1 1 1 0 1 0 0 0 0 1 1 2 2 2 1 0 0 0 0 0 0 0 0 0 0 0 0 0 0 0 0 0 1 2 2 0 1 1 1 1 1 0 1 1 1 2 2 2 4 3 4 4 5 2 5 4 4 4 4 5 5 4 3 5 5 3 3 1 3 3 4 6 4 2 3 4 3 5 3 2 2 1 1 1 1 0 1 0 0 0 2 2 2 3 4 4 4 4 3 4 5 3 3 1 0 0 5 28 82 134 159 169 173 172 170 170 169 170 168 165 163 162 161 159 160 161 162 160 158 157 158 156 155 153 152 151 149 146 146 142 135 122 108 87 57 23 3 0 0 0 0 0 1 0 1 1 0 0 0 0 0 0 0 0 0 0 0 0 0 0 0 0 0 0 0 0 0 0 0 0 0 0 0 0 0 0 0 0 0 0 0 0 0 0 0 0 0 0 0 0 0 0 0 0 0 0 0 0 0 0 0 0 0 2 3 2 2 2 2 3 3 3 2 3 3 3 4 4 1 2 3 1 2 2 2 3 3 4 3 3 4 3 2 2 2 2 2 2 0 0 0 1 0 1 0 1 0 0 1 0 1 3 2 2 3 3 2 2 3 2 2 2 3 2 3 4 3 2 2 2 2 4 4 5 4 4 4 3 3 3 3 3 4 4 3 2 3 4 3 4 3 2 3 4 3 6 6 6 7 5 4 3 4 4 3 4 3 3 3 4 4 3 4 5 5 5 4 4 1 1 0 2 2 1 1 1 0 0 2 0 0 0 0 0 0 0 0 0 0 0 0 0 0 0 0 0 0 0 0 0 0 0 0 0 0 0 0 0 0 0 0 0 0 0 0 0 0 0 0 0 0 0 0 0 0 0 0 0 0 0 0 0 0 1 0 1 1 0 0 0 0 0 0 0 0 0 1 1 1 0 0 0 0 0 0 0 0 0 0 0 0 0 0 0 0 0 0 0 0 0 0 0 0 0 0 0 0 0 0 1 2 1 2 2 3 2 0 0 1 1 1 1 3 3 3 2 3 4 
5 4 3 3 4 4 2 3 2 5 5 5 6 5 4 2 3 3 3 3 4 3 3 4 4 3 3 2 1 2 2 1 3 3 5 3 3 2 2 2 1 2 0 2 2 2 3 3 2 3 2 3 2 2 4 1 3 2 1 1 1 0 0 0 1 2 3 4 5 5 5 2 3 4 3 2 2 2 1 2 1 2 4 3 1 3 2 2 2 1 2 3 3 3 4 2 1 1 0 1 0 0 1 3 4 2 2 1 2 3 1 1 0 0 0 0 0 0 0 0 0 0 0 0 0 0 0 0 0 0 0 0 0 0 0 0 0 0 0 0 0 0 0 0 0 0 0 0 0 0 0 0 0 0 0 0 0 0 0 0 0 0 0 0 2 1 1 3 2 2 1 0 1 1 2 3 2 1 1 1 1 2 1 2 3 1 1 1 2 0 0 0 1 2 1 1 0 0 0 0 0 0 0 0 0 0 0 0 0 1 1 1 3 2 2 2 3 2 1 0 1 2 2 1 2 2 3 3 2 3 5 5 5 4 2 1 3 3 3 3 3 3 4 4 3 3 5 3 3 2 2 3 3 4 3 3 4 4 4 5 4 2 3 3 3 1 1 1 2 3 1 1 3 3 5 5 3 3 4 4 4 4 3 2 3 0 1 19 68 124 162 174 174 174 172 171 171 170 171 169 168 167 166 163 161 161 161 161 162 161 160 159 158 159 157 155 154 153 154 153 153 151 148 143 136 127 115 89 49 11 0 0 0 2 1 2 0 0 0 0 0 0 0 0 0 0 0 0 0 0 0 0 0 0 0 0 0 0 0 0 0 0 0 0 0 0 0 0 0 0 0 0 0 0 0 0 0 0 0 0 0 0 0 0 0 0 0 0 0 0 0 0 1 0 0 1 2 2 3 2 3 3 3 3 3 4 3 3 3 2 2 1 3 4 3 3 3 2 1 3 4 4 3 2 3 3 2 1 3 2 1 1 0 0 1 1 0 1 1 2 2 1 2 2 3 3 3 3 3 2 2 3 2 0 1 3 3 3 4 1 1 1 2 2 2 3 4 4 3 2 2 2 2 2 1 3 2 3 2 2 3 4 3 4 2 3 4 5 4 6 6 6 5 5 4 3 2 2 1 1 2 4 3 4 4 4 4 2 2 3 2 1 0 0 0 0 0 0 0 0 0 0 0 0 0 0 0 0 0 0 0 0 0 0 0 0 0 0 0 0 0 0 0 0 0 0 0 0 0 0 0 0 0 0 0 0 0 0 0 0 0 0 0 0 0 0 0 0 0 0 0 0 0 0 0 1 0 0 0 0 0 0 0 0 0 0 0 0 0 0 1 0 0 0 0 0 0 0 0 0 0 0 0 0 0 0 0 0 0 0 0 0 0 0 0 0 0 0 0 0 1 1 2 2 2 2 1 0 0 0 0 0 1 1 3 3 3 2 3 3 
4 4 3 4 4 4 3 4 4 4 4 6 6 6 3 4 3 3 3 4 3 2 5 5 3 4 3 4 2 2 2 2 2 3 4 4 4 3 1 1 2 3 2 2 1 1 2 2 3 2 2 3 3 3 3 2 3 1 0 3 1 0 0 1 0 2 2 3 4 3 2 1 2 1 1 1 1 1 1 1 0 2 2 3 1 3 2 2 1 1 2 2 3 5 4 2 1 2 2 1 0 0 1 2 2 4 3 2 4 0 0 1 0 0 0 0 0 0 0 0 0 0 0 0 0 0 0 0 0 0 0 0 0 0 0 0 0 0 6 17 35 46 53 59 62 57 48 41 34 23 12 9 5 2 0 0 0 0 0 0 0 0 0 0 1 1 2 2 3 3 1 1 2 3 4 3 2 3 1 3 2 2 2 2 2 3 2 1 1 0 0 0 1 1 0 0 0 0 0 0 0 0 0 0 0 0 0 0 0 2 2 2 3 2 2 3 3 2 2 2 3 0 2 1 0 4 2 3 2 1 4 5 3 3 2 2 2 2 2 2 3 4 3 3 4 4 5 5 2 2 3 3 1 3 3 5 4 5 4 4 6 5 5 3 2 2 2 1 2 2 1 2 3 5 4 3 4 3 5 5 2 0 2 3 0 7 46 107 157 176 177 176 175 175 173 172 172 172 171 171 169 168 166 165 163 162 162 161 163 162 161 162 162 160 159 158 157 156 158 156 157 155 153 151 146 141 134 128 109 69 29 5 0 1 0 0 2 1 0 0 0 1 1 0 0 0 0 0 0 0 0 0 0 0 0 0 0 0 0 0 0 0 0 0 0 0 0 0 0 0 0 0 0 0 0 0 0 0 0 0 0 0 0 0 0 0 0 0 0 0 0 0 1 1 0 2 1 3 3 3 4 1 3 4 5 3 2 2 2 2 2 1 3 3 3 3 2 1 1 3 2 2 3 3 3 1 2 2 3 1 2 2 0 0 2 1 1 2 2 2 2 3 3 2 2 3 2 1 2 2 2 2 2 0 0 0 2 2 2 3 1 2 2 2 3 3 2 2 1 0 0 0 0 0 0 2 3 1 1 0 1 2 1 3 3 2 2 3 3 6 6 6 4 3 2 2 3 2 4 4 3 3 4 4 4 3 3 4 5 2 1 1 0 0 0 0 0 0 0 0 0 0 0 0 0 0 0 0 0 0 0 0 0 0 0 0 0 0 0 0 0 0 0 0 0 0 0 0 0 0 0 0 0 0 0 0 0 0 0 0 0 0 0 0 0 0 0 0 0 0 0 0 0 0 0 0 0 0 0 0 0 0 0 0 0 0 0 0 1 0 0 0 0 0 0 0 0 0 0 0 0 0 0 0 0 0 0 0 0 0 0 0 0 0 1 1 0 0 0 0 1 2 2 1 0 1 0 0 1 1 1 1 2 2 2 2 2 1 1 2 
4 5 4 4 3 4 3 4 4 4 4 5 5 7 4 5 4 4 2 2 3 3 5 5 4 5 4 3 3 2 2 3 3 2 4 3 3 2 2 2 3 3 3 1 2 2 2 3 3 1 2 1 2 2 3 2 1 2 2 1 1 0 0 0 0 1 2 2 2 2 2 1 0 0 1 0 2 1 0 1 1 2 2 2 1 2 2 0 0 1 0 3 3 5 4 3 2 1 1 0 0 1 1 0 0 3 3 1 3 0 0 0 0 0 0 0 0 0 0 0 0 0 0 0 0 0 0 0 0 0 0 0 0 0 0 0 7 50 97 125 142 151 154 158 158 158 157 154 149 140 124 105 83 57 34 15 5 3 0 0 0 1 0 1 3 2 2 2 2 2 0 0 0 2 3 2 3 3 3 3 3 3 2 1 2 2 1 1 0 0 0 0 0 1 1 1 0 0 0 0 0 1 0 0 0 0 1 1 1 1 1 1 2 2 2 2 3 3 3 2 2 1 2 1 1 3 3 4 2 2 3 3 4 4 3 3 1 2 3 3 2 4 3 2 4 4 3 1 2 1 3 3 4 3 4 5 4 6 5 4 6 5 4 3 3 4 2 2 3 2 4 2 3 3 3 4 5 6 5 2 2 1 1 1 9 68 136 174 183 181 179 178 176 176 174 175 173 173 173 173 170 169 169 167 166 164 166 164 165 165 164 164 162 163 163 161 160 161 161 161 159 158 157 155 152 147 145 140 136 122 93 53 12 0 1 0 2 1 1 0 1 1 0 0 0 0 0 0 0 0 0 0 0 0 0 0 0 0 0 0 0 0 0 0 0 0 0 0 0 0 0 0 0 0 0 0 0 0 0 0 0 0 0 0 0 0 0 0 0 0 0 1 1 1 1 2 2 3 2 3 3 3 2 4 5 4 3 3 4 3 5 3 1 3 4 4 3 2 3 4 4 3 4 5 4 3 3 5 4 4 2 1 2 1 2 3 3 3 2 2 4 3 1 2 3 2 2 4 4 3 2 3 2 1 1 1 2 3 3 4 2 1 2 0 0 1 2 3 3 2 3 2 2 1 2 3 3 4 3 3 3 2 3 0 1 1 3 4 4 5 4 5 3 3 2 4 3 3 3 2 3 5 4 3 3 3 3 3 3 3 3 1 1 2 2 2 1 1 2 2 2 1 1 1 0 0 0 0 0 0 0 0 0 0 0 0 0 0 0 0 0 0 0 0 0 0 0 0 0 0 0 0 0 0 0 0 0 0 0 0 0 0 0 0 0 0 0 0 0 0 0 0 0 1 0 0 0 0 0 0 0 0 0 0 0 0 0 0 0 0 1 0 0 0 0 0 0 0 0 0 0 0 0 0 0 0 0 0 1 0 0 0 1 0 0 1 1 0 0 0 1 1 0 1 1 0 1 2 1 2 2 1 2 3 4 4 3 2 3 2 
3 4 3 3 2 3 3 2 2 3 5 4 5 5 3 3 5 5 2 2 3 2 2 2 4 5 4 3 4 3 5 4 3 3 5 3 2 2 2 2 2 2 3 2 2 4 1 1 2 2 1 0 2 4 2 2 1 2 2 0 0 1 0 0 0 0 1 0 0 0 0 0 0 0 0 0 0 0 0 1 2 1 3 2 1 2 0 0 1 1 1 3 4 4 4 2 2 1 0 0 0 3 0 0 0 2 2 1 0 0 0 0 0 0 0 0 0 0 0 0 0 0 0 0 0 0 0 0 0 0 0 0 0 0 0 8 82 138 161 169 172 175 177 179 180 182 183 183 183 183 180 176 173 164 151 129 102 69 38 13 3 0 0 1 1 2 1 2 2 1 0 1 1 2 3 4 4 2 4 3 3 2 2 1 1 1 1 0 0 0 0 2 1 1 2 1 1 0 2 1 1 1 1 0 1 0 1 3 3 4 2 1 1 1 2 2 2 3 3 2 2 0 2 2 3 4 4 5 3 3 4 5 5 4 4 3 4 2 1 0 1 3 3 2 3 3 1 3 2 2 3 1 3 3 4 4 3 2 5 5 5 3 3 2 3 3 3 3 3 4 3 3 3 3 3 4 4 4 4 3 2 1 0 6 68 148 181 183 183 182 181 179 179 177 175 175 174 172 172 170 169 170 170 167 167 167 166 165 164 165 165 165 165 164 163 163 162 161 161 162 162 161 161 160 157 154 152 149 144 138 126 108 61 9 0 3 3 2 0 1 1 2 0 0 0 0 0 0 0 0 0 0 0 0 0 0 0 0 0 0 0 0 0 0 0 0 0 0 0 0 0 0 0 0 0 0 0 0 0 0 0 0 0 0 0 0 0 0 0 1 0 0 1 3 3 3 3 3 3 3 4 2 2 5 4 2 4 5 4 5 4 3 2 1 3 3 2 3 2 3 3 3 3 4 5 4 4 5 4 5 3 2 2 3 3 3 3 3 1 3 3 3 4 3 4 4 4 3 4 4 2 2 0 0 0 0 1 1 1 1 3 2 4 4 3 2 1 0 1 0 0 2 2 0 0 2 0 3 2 3 3 3 1 0 1 0 3 3 4 4 3 5 4 2 3 3 3 3 3 3 3 4 2 4 5 3 5 5 4 3 3 1 0 0 1 0 0 0 0 0 0 1 1 0 0 0 0 0 0 0 0 0 0 0 0 0 0 0 0 0 0 0 0 0 0 0 0 0 0 0 0 0 0 0 0 0 0 0 0 0 0 0 0 0 1 0 1 0 0 1 0 1 1 1 2 0 0 0 0 0 0 0 0 0 0 0 0 0 1 1 1 0 0 0 0 0 0 0 0 0 0 0 0 0 0 0 0 0 0 1 0 0 1 1 1 1 1 0 0 0 0 1 1 1 2 2 1 2 2 2 2 3 2 3 3 4 3 2 3 2 
2 2 2 3 3 2 3 3 2 3 5 5 5 5 4 5 5 6 4 3 3 2 5 3 3 4 4 3 4 4 5 5 6 5 3 3 2 3 2 2 3 2 2 1 1 3 2 1 1 1 1 2 1 2 2 2 2 1 1 0 0 0 0 0 0 1 0 0 0 0 0 0 0 0 0 0 0 0 0 0 1 1 1 1 0 2 0 0 2 1 1 1 2 3 2 2 1 1 1 1 2 1 0 0 2 3 2 1 0 0 0 0 0 0 0 0 0 0 0 0 0 0 0 0 0 0 0 0 0 0 0 0 0 0 0 34 138 166 164 167 170 172 174 177 179 181 181 181 183 185 186 187 189 191 187 184 179 169 153 123 84 44 17 7 1 1 2 2 0 0 2 1 0 1 4 3 4 2 4 4 3 3 2 2 2 1 1 1 0 0 0 1 1 1 1 2 2 3 3 1 3 3 2 2 3 0 1 2 2 3 2 1 1 1 2 2 3 2 4 3 1 2 3 2 3 3 3 2 3 3 3 3 4 4 5 3 4 3 1 0 0 1 2 1 2 3 2 2 4 2 1 1 3 4 3 3 4 4 5 4 4 3 2 2 4 3 2 2 4 2 4 3 4 4 4 4 4 4 5 2 1 2 0 31 135 186 184 183 184 182 181 182 181 179 178 176 175 172 173 172 174 172 169 168 169 167 167 166 165 166 168 166 166 167 165 167 167 165 165 163 163 164 163 162 160 158 155 155 151 147 135 135 113 39 3 2 3 0 0 1 1 1 1 0 0 0 0 0 0 0 0 0 0 0 0 0 0 0 0 0 0 0 0 0 0 0 0 0 0 0 0 0 0 0 0 0 0 0 0 0 0 0 0 0 0 0 0 0 0 0 0 1 2 3 3 3 3 3 4 4 4 3 2 3 3 3 4 3 5 4 3 2 3 3 2 2 4 4 1 3 2 3 3 6 5 5 3 4 5 4 4 3 2 3 2 3 2 3 3 3 4 3 4 5 5 4 5 4 3 2 2 2 0 0 0 0 0 3 3 3 4 2 1 3 2 0 0 0 0 0 0 0 0 0 0 1 3 2 1 2 2 0 0 1 0 1 1 3 4 3 2 4 3 2 2 1 1 2 1 4 4 4 4 6 4 3 2 3 2 2 2 0 1 1 0 0 0 0 0 0 0 1 0 0 0 0 0 0 0 0 0 0 0 0 0 0 0 0 0 0 0 0 0 0 0 0 0 0 0 0 0 0 0 0 0 0 0 0 0 0 0 0 1 0 2 1 1 1 1 0 0 0 0 0 1 1 1 0 0 0 0 0 0 0 0 0 0 0 0 0 0 1 0 0 0 0 0 0 0 0 0 2 1 0 0 0 0 0 0 0 1 1 0 1 3 1 0 0 1 0 0 1 1 2 0 1 1 2 1 2 3 3 4 4 4 4 3 3 4 3 
3 3 3 2 2 3 5 3 3 4 6 4 5 5 4 6 5 5 6 4 5 4 3 3 2 4 2 4 5 5 8 7 5 4 4 4 2 1 1 2 2 2 3 1 2 3 1 1 2 2 1 1 0 2 2 2 3 1 0 0 0 0 0 0 0 0 0 0 0 0 0 0 0 0 0 0 0 2 1 0 0 1 0 1 0 0 0 0 2 2 1 0 1 2 1 1 2 2 2 1 1 2 1 1 1 2 0 0 0 0 0 0 0 0 0 0 0 0 0 0 0 0 0 0 0 0 0 0 0 0 0 0 0 0 0 28 137 168 161 159 161 166 173 176 177 179 180 183 183 183 187 189 190 190 189 188 191 190 188 182 175 156 122 75 32 9 1 1 1 1 0 0 0 0 0 3 4 3 6 4 3 2 2 2 2 1 1 0 0 1 2 3 3 2 2 2 3 2 3 2 4 2 4 4 2 1 0 0 2 2 3 4 1 2 1 1 2 1 3 2 2 0 1 1 3 2 2 3 4 4 2 2 3 3 3 4 4 3 1 0 1 1 0 0 2 2 1 4 3 1 1 2 1 3 3 2 5 3 4 2 3 2 3 2 3 3 3 2 3 2 3 5 4 5 4 4 4 3 3 2 3 0 4 62 169 190 186 185 184 181 183 184 183 181 181 178 176 176 176 176 173 173 172 171 170 168 168 170 171 169 168 168 168 167 167 167 169 166 167 166 166 167 167 165 164 162 161 159 156 151 141 143 135 64 6 1 2 1 1 0 1 0 0 0 0 0 0 0 0 0 0 0 0 0 0 0 0 0 0 0 0 0 0 0 0 0 0 0 0 0 0 0 0 0 0 0 0 0 0 0 0 0 0 0 0 0 0 0 1 1 0 1 1 1 3 2 4 3 2 5 4 3 3 4 3 3 4 4 4 5 3 2 1 3 0 2 2 3 3 4 3 3 5 6 5 4 5 5 5 5 5 4 2 2 1 3 3 3 5 4 4 5 5 5 6 5 3 2 2 3 3 4 4 2 1 1 1 1 1 1 1 0 2 3 2 0 0 0 0 0 0 0 0 0 0 0 2 2 2 1 2 0 0 0 2 2 2 2 4 4 3 3 2 1 1 0 0 2 3 4 5 4 4 4 3 2 2 3 3 2 2 2 0 0 0 0 0 0 0 0 0 0 0 0 0 0 0 0 0 0 0 0 0 0 0 0 0 0 0 0 0 0 0 0 0 0 0 0 0 0 0 0 0 0 0 0 0 0 0 0 0 0 0 0 0 0 3 0 0 0 0 0 0 0 0 1 0 0 0 0 0 0 0 0 0 0 0 0 1 0 0 0 0 0 0 0 0 0 0 1 1 2 0 1 0 0 0 0 0 0 1 1 2 2 2 2 1 1 1 0 0 0 0 0 2 2 3 2 2 4 3 2 4 6 4 4 3 2 2 2 
3 2 1 2 3 5 6 4 4 4 5 4 4 4 4 5 6 6 4 5 3 3 4 3 3 4 5 3 5 7 8 7 5 6 6 4 3 3 2 1 1 1 2 1 1 0 1 2 1 1 1 1 1 2 1 1 2 1 0 0 0 0 0 0 0 0 0 0 0 0 0 0 0 0 0 0 0 2 0 0 1 0 0 0 0 0 0 0 2 0 1 0 1 1 2 1 1 2 1 1 0 2 1 2 2 0 0 0 0 0 0 0 0 0 0 0 0 0 0 0 0 0 0 0 0 0 0 0 0 0 0 0 0 0 0 8 95 163 169 159 153 156 163 171 174 177 179 180 182 182 186 188 188 191 189 189 191 188 188 187 189 189 183 168 136 86 35 7 0 0 0 1 0 1 0 2 3 4 3 3 2 0 0 1 1 2 2 1 0 2 2 3 4 4 2 3 2 4 1 1 1 3 4 4 5 3 3 2 4 3 3 3 1 2 2 3 4 2 2 3 1 2 1 1 1 0 3 2 2 3 2 2 4 3 4 3 4 2 2 2 2 0 0 0 0 2 2 4 4 2 3 2 2 3 2 3 3 2 4 4 3 2 2 2 1 2 3 1 2 3 5 5 5 4 4 3 3 1 1 2 3 1 5 82 176 190 190 188 187 186 185 183 183 183 181 179 177 177 176 176 176 175 176 174 172 171 173 173 172 170 171 171 171 169 169 169 169 170 169 169 169 168 169 168 167 165 165 164 162 155 149 151 144 72 6 0 0 0 0 1 0 1 0 1 0 0 0 0 0 0 0 0 0 0 0 0 0 1 0 0 0 0 0 0 0 0 0 0 0 0 0 0 0 0 0 0 0 0 0 0 0 0 0 0 0 0 0 0 0 0 0 1 0 0 2 1 1 1 1 2 3 3 3 4 4 3 2 1 3 4 3 2 2 2 2 3 2 4 3 4 4 6 6 6 7 4 5 5 7 5 5 3 3 1 1 2 3 5 5 4 6 6 5 7 6 4 3 3 3 4 3 3 4 3 3 2 1 0 1 0 2 2 0 1 2 1 0 0 0 0 0 0 0 0 0 2 2 1 1 1 1 1 0 1 2 2 3 3 3 3 2 3 1 1 0 1 3 3 3 6 5 5 3 4 3 1 2 1 2 2 3 2 0 0 0 0 0 0 0 0 0 0 0 0 0 0 0 0 0 0 0 0 0 0 0 0 0 0 0 0 0 0 0 0 0 0 0 0 0 0 0 0 0 0 0 0 0 0 0 0 0 0 0 0 0 1 0 0 0 0 0 0 0 0 0 0 0 0 0 0 0 0 0 0 1 1 0 0 0 0 1 1 0 1 1 1 1 0 0 2 2 3 2 1 1 1 1 0 0 1 2 2 2 2 3 2 2 2 0 0 0 1 1 2 1 2 3 3 3 3 2 3 3 4 4 3 2 2 4 3 
4 3 2 3 4 5 6 4 6 5 4 5 5 3 5 4 5 5 4 5 4 3 2 2 2 5 4 4 6 6 6 5 6 6 4 4 4 3 2 2 1 2 1 0 0 1 1 1 1 1 1 1 0 0 0 0 0 0 0 0 0 0 0 0 0 0 0 0 0 0 0 0 0 0 0 0 2 1 0 0 0 0 0 0 0 0 0 1 0 1 2 0 0 0 0 0 0 0 0 0 0 1 0 0 0 0 0 0 0 0 1 0 0 1 1 0 0 0 0 0 0 0 0 0 0 0 0 0 0 0 0 0 0 0 0 0 31 113 167 175 166 158 156 160 164 169 174 176 179 181 186 189 191 191 192 192 191 191 189 188 187 185 186 185 180 164 127 70 19 1 1 2 1 1 0 3 3 3 6 4 2 1 1 1 1 1 2 2 0 2 1 4 4 3 3 4 4 4 4 5 5 4 5 6 6 4 3 5 5 5 3 3 3 3 2 4 2 3 4 2 3 3 1 0 1 3 2 2 1 0 0 1 0 3 3 3 3 2 2 2 0 0 0 0 1 0 1 4 2 1 1 1 1 3 3 2 2 3 4 4 2 1 0 1 0 2 4 2 3 3 3 4 4 3 3 3 2 2 2 1 2 3 8 84 177 191 190 190 189 186 186 185 184 183 180 179 180 179 180 179 179 178 178 177 175 174 176 176 175 174 174 172 172 172 173 172 171 173 173 176 174 174 171 170 169 166 165 164 162 158 154 158 149 75 4 0 1 0 0 0 0 0 0 0 0 0 0 0 0 0 0 0 0 0 0 0 0 0 0 0 0 0 0 0 0 0 0 0 0 0 0 0 0 0 0 0 1 1 0 1 0 1 0 0 0 0 0 0 0 0 0 1 0 3 3 1 1 1 1 2 1 2 3 3 4 2 2 2 2 3 4 4 2 1 3 2 3 2 3 4 4 6 6 5 5 6 6 7 7 5 3 4 3 2 2 3 5 5 4 6 7 7 8 7 6 4 3 2 4 2 1 2 3 2 2 2 1 0 0 0 0 0 0 0 1 1 0 0 0 0 0 0 0 0 0 0 0 1 2 2 2 0 1 1 1 2 3 3 2 1 2 3 3 1 0 0 2 1 1 5 5 6 5 5 2 0 1 3 2 1 2 1 1 0 0 0 0 0 0 0 0 0 0 0 1 0 0 0 0 0 0 0 0 0 0 0 0 0 0 0 0 0 0 0 0 0 0 0 0 0 0 0 0 0 0 0 0 0 0 0 0 0 0 0 0 0 0 0 0 0 0 0 0 0 0 0 0 0 0 0 0 0 1 0 0 2 1 0 1 1 2 3 1 1 3 0 0 0 0 2 1 0 3 2 2 3 1 1 0 3 1 1 0 2 3 3 3 2 2 3 2 2 2 2 1 1 2 1 3 4 4 2 2 3 2 3 3 1 3 3 
4 2 2 3 5 5 5 4 3 4 3 5 5 4 4 5 4 5 5 3 3 3 2 2 4 4 5 5 7 7 6 7 5 5 4 4 3 4 3 1 0 0 0 0 0 1 2 2 1 0 2 1 0 0 0 0 0 0 0 0 0 0 0 0 0 0 0 0 0 0 0 0 0 0 0 0 1 1 0 0 0 0 0 0 0 0 0 0 0 0 0 0 0 0 0 0 0 0 0 1 1 0 2 1 2 1 0 0 0 0 0 0 0 1 0 1 0 0 0 0 0 0 0 0 0 0 0 0 0 0 0 0 0 0 0 0 0 37 113 166 180 179 174 168 165 164 168 171 174 174 173 172 173 172 173 175 176 181 181 182 184 184 182 181 179 180 172 147 94 39 7 0 0 0 0 1 3 4 4 3 2 2 3 1 1 2 2 2 1 2 1 2 4 4 5 5 5 3 5 5 3 4 5 5 5 6 5 5 6 5 5 6 4 5 3 3 3 4 3 2 2 1 2 1 0 1 0 0 0 0 0 0 0 1 1 3 3 2 1 1 2 0 1 1 0 0 1 1 0 0 2 2 2 3 1 2 2 4 6 4 4 2 1 2 1 3 2 2 2 2 4 3 4 3 3 3 3 2 1 2 3 3 7 76 173 191 190 188 188 188 187 185 184 183 182 182 181 180 181 180 180 181 181 180 180 178 178 178 179 178 176 177 175 176 176 174 175 176 175 176 175 174 173 173 171 169 168 166 162 161 158 161 151 75 4 0 0 0 1 0 0 0 1 0 0 0 0 0 0 0 0 0 0 0 0 0 0 0 0 0 0 0 0 0 0 0 0 0 0 0 0 0 0 0 0 2 3 2 0 0 0 0 0 0 0 0 0 0 0 0 0 0 1 1 2 1 0 0 0 2 3 2 4 2 3 1 1 0 3 4 4 5 4 4 4 4 3 3 3 5 6 6 9 7 7 6 6 6 6 6 4 5 4 3 4 5 4 4 6 6 8 7 7 6 7 4 3 3 1 3 3 2 3 2 2 0 0 0 0 2 1 1 2 1 0 0 0 0 0 0 0 0 0 0 0 0 0 0 0 1 0 0 0 0 0 3 3 3 3 0 2 1 1 1 0 0 1 2 0 2 4 5 4 4 3 2 3 4 3 2 4 2 0 0 0 0 0 0 0 0 0 0 0 1 0 0 0 0 0 0 0 0 0 0 0 0 0 0 0 0 0 0 0 0 0 0 0 0 0 0 0 0 0 0 0 0 0 0 0 0 0 0 0 0 0 0 0 0 0 0 0 0 0 0 0 0 1 1 0 0 0 1 2 1 1 2 2 1 2 2 2 2 1 1 3 0 0 0 0 1 2 4 3 3 2 1 2 2 2 2 1 2 1 2 2 1 3 4 3 3 2 2 2 2 3 3 3 3 4 2 2 2 1 2 1 1 3 2 1 3 
2 0 3 3 5 3 4 5 5 4 5 5 6 3 3 3 4 4 4 4 3 4 2 4 4 5 5 6 7 8 6 8 5 4 7 5 4 3 2 1 1 0 0 2 1 1 1 2 0 0 1 0 0 0 0 0 0 0 0 0 0 0 0 0 0 0 0 0 0 0 0 0 0 0 0 0 1 0 0 0 0 0 0 0 0 0 0 0 0 0 0 0 0 1 1 0 0 0 0 0 2 2 3 0 0 0 0 0 0 0 0 1 2 3 2 0 0 0 0 0 0 0 0 0 0 0 0 0 0 0 0 0 0 0 0 0 0 0 35 105 162 182 183 186 184 179 176 173 170 154 133 116 112 105 110 124 127 142 155 159 168 172 171 173 170 173 172 167 150 110 53 11 0 1 1 1 4 3 4 3 3 3 3 3 3 4 2 2 2 4 2 4 5 4 6 5 5 5 6 6 4 4 5 5 3 5 4 4 4 5 5 4 6 5 3 4 3 3 2 2 2 4 4 1 2 1 2 1 1 1 2 1 0 0 0 3 3 2 1 2 0 0 0 1 1 0 1 3 2 2 2 2 3 4 3 3 3 4 6 4 4 4 4 3 3 2 2 2 1 1 2 2 3 3 4 4 3 3 2 2 3 1 2 58 164 189 188 185 186 186 188 187 186 187 184 184 184 182 184 183 183 182 183 182 181 181 179 181 181 182 180 181 179 179 177 178 177 178 178 177 177 177 175 174 172 170 170 166 163 162 163 165 148 60 2 0 0 0 0 0 0 0 0 1 0 0 1 0 0 0 0 0 0 0 0 0 0 0 1 0 0 1 0 0 0 0 0 0 0 0 0 1 0 0 1 1 2 2 2 0 0 1 2 0 1 0 0 0 0 0 0 0 1 0 1 0 0 0 0 1 1 2 2 2 2 2 0 1 2 3 4 4 4 3 3 4 4 2 5 4 6 8 7 8 5 7 6 5 5 4 5 4 4 4 5 5 5 5 4 6 8 6 6 5 5 3 2 2 2 1 2 1 1 0 0 0 2 2 0 0 0 0 0 0 0 0 0 0 0 0 0 0 0 0 0 0 0 0 0 0 0 0 0 0 1 2 1 1 1 0 0 1 0 0 0 1 1 0 1 2 2 3 2 2 0 0 0 0 0 0 0 0 0 0 0 0 0 0 0 0 0 0 0 0 0 0 0 0 0 0 0 0 0 0 0 0 0 0 0 0 0 0 0 0 0 0 0 0 0 0 0 0 0 0 0 0 0 0 0 0 0 0 0 0 0 0 0 0 0 0 0 0 0 0 0 0 0 0 0 0 0 1 2 2 0 2 2 2 2 0 2 3 1 1 0 0 0 0 0 2 2 3 4 4 3 2 3 2 3 2 2 3 2 2 3 0 2 3 3 3 2 3 2 3 3 4 4 2 3 1 3 1 1 2 2 1 3 2 1 2 
2 1 2 2 4 3 3 4 4 5 5 5 4 3 3 4 4 2 2 2 4 2 3 4 4 5 4 6 6 6 6 7 6 5 6 4 3 3 2 1 0 0 0 2 2 1 2 0 0 1 0 1 0 0 0 0 0 0 0 0 0 0 0 0 0 0 0 0 0 0 0 0 0 0 0 0 0 0 0 0 0 0 0 0 0 0 0 0 0 0 0 0 0 1 0 1 0 0 0 0 0 0 0 2 1 1 0 0 0 0 0 0 2 1 0 0 0 0 0 0 0 0 0 0 0 0 0 0 0 0 0 0 0 0 0 0 0 0 0 30 96 156 179 185 189 190 190 186 180 173 159 150 153 151 156 166 164 167 168 162 160 149 137 150 167 172 174 171 164 152 117 59 11 0 3 2 2 3 2 2 3 2 3 2 3 3 3 3 3 3 2 4 3 4 6 6 5 5 6 6 5 4 6 5 5 4 5 4 5 3 5 5 4 3 4 5 4 2 3 3 2 1 2 2 1 1 1 2 1 1 1 0 0 0 0 1 1 2 1 1 2 2 0 0 0 0 2 1 0 1 0 1 3 3 3 4 3 4 3 5 4 5 3 2 3 3 3 3 2 2 2 2 2 3 4 2 1 2 1 1 2 3 2 36 137 184 188 188 189 187 187 188 188 190 189 188 187 186 187 185 186 185 186 185 184 183 183 183 184 185 185 184 183 182 181 180 181 181 180 181 180 180 178 176 174 170 169 166 165 168 166 165 128 43 5 4 1 0 0 0 0 0 0 0 0 0 0 0 0 0 0 0 0 0 0 0 0 0 0 0 0 0 0 0 0 0 0 0 0 0 0 0 0 0 1 1 0 3 2 2 1 1 1 1 0 0 0 0 0 0 0 2 0 1 1 0 1 0 1 2 2 4 2 2 1 2 1 1 1 2 3 4 5 2 3 4 5 3 4 5 4 6 7 8 6 7 6 6 6 7 6 5 8 8 7 8 7 6 5 6 6 6 6 5 5 3 2 3 1 2 1 0 0 0 0 0 0 0 0 1 0 0 0 0 0 0 0 0 0 0 0 0 0 0 0 0 0 0 0 0 0 0 1 0 1 0 0 0 0 0 0 0 0 0 0 1 1 1 1 0 1 2 3 2 2 1 1 0 1 0 0 1 0 0 0 0 0 0 0 0 0 0 0 0 0 0 0 0 0 0 0 0 0 0 0 0 0 0 0 0 0 0 0 0 0 0 0 0 0 0 0 0 0 0 0 0 0 0 0 0 0 0 0 0 0 0 0 0 0 0 0 0 0 0 0 0 0 0 0 0 0 0 2 2 2 2 3 3 3 1 2 1 2 0 2 0 0 1 0 3 3 4 4 4 3 3 4 3 3 3 3 3 2 1 1 1 3 3 2 4 5 4 4 4 3 3 5 3 4 4 3 1 0 1 0 0 2 2 1 1 
3 2 3 2 3 2 3 3 5 4 5 4 3 4 3 3 4 1 1 3 4 2 3 2 4 4 4 6 6 7 6 5 4 2 2 3 2 3 2 0 0 0 0 1 1 2 2 0 1 1 0 0 1 0 0 0 0 0 0 0 0 0 0 0 0 0 0 0 0 0 0 0 0 0 0 0 0 0 0 0 0 0 0 0 0 0 0 0 0 0 0 1 1 1 0 0 0 0 0 0 0 0 1 1 2 0 1 0 0 0 0 0 0 0 0 0 0 0 0 0 0 0 0 0 0 0 0 2 1 0 0 0 0 0 0 0 0 0 0 0 20 79 142 172 181 189 191 191 190 190 189 187 187 186 184 184 182 184 181 180 178 174 168 170 176 177 174 172 167 162 149 115 57 11 1 4 2 2 3 3 3 3 4 3 3 4 5 4 4 5 3 3 3 4 5 6 6 7 5 5 6 4 3 5 4 4 5 3 3 4 4 3 3 3 4 5 4 3 2 3 4 2 3 2 0 1 0 1 1 2 0 0 0 0 0 0 1 0 0 0 1 0 0 0 0 0 0 0 0 0 1 1 3 2 2 5 5 4 5 4 5 5 3 3 3 4 3 2 0 0 0 0 0 2 4 5 10 18 24 33 41 53 63 77 124 168 182 186 189 188 189 189 191 191 190 192 191 190 190 190 189 189 189 190 189 188 187 186 188 188 188 187 186 186 185 184 183 182 180 182 180 179 177 176 174 170 169 169 168 170 169 166 145 110 91 76 58 45 32 21 13 9 7 6 4 1 1 0 0 0 0 1 0 0 0 0 0 0 1 1 1 2 0 0 0 0 1 0 0 0 0 0 0 0 1 1 0 1 0 2 2 1 2 1 1 0 0 0 1 0 1 2 0 0 0 2 2 0 1 3 2 2 3 2 1 0 0 0 1 2 3 2 5 4 5 5 4 3 4 5 4 7 6 7 5 5 6 7 6 7 6 7 7 8 5 7 6 5 4 5 5 4 5 5 4 3 1 2 3 1 3 1 2 1 0 0 0 0 0 0 1 0 0 0 0 0 0 0 0 0 0 0 0 0 0 0 0 0 0 0 0 0 1 2 0 0 0 0 0 0 0 0 0 0 0 0 1 1 3 2 2 4 2 1 0 0 0 0 0 0 0 0 0 0 0 0 0 0 0 0 0 0 0 1 0 0 0 0 0 0 0 0 0 0 0 0 0 0 0 0 0 0 0 0 0 0 0 0 0 0 0 0 0 0 0 0 0 0 0 0 0 0 0 0 0 0 0 0 0 0 2 0 0 0 0 0 0 1 0 0 0 0 1 2 2 3 2 2 2 2 1 2 2 3 3 3 4 3 3 3 3 2 2 3 3 5 6 4 5 5 4 3 2 2 1 1 3 3 3 2 3 5 3 3 2 2 5 4 4 3 3 1 2 0 0 1 1 0 0 2 
3 2 2 2 3 3 4 3 4 6 4 5 5 5 4 3 4 3 2 2 2 3 4 4 4 5 5 5 5 4 4 4 3 4 2 1 2 2 2 1 0 0 0 1 2 2 1 2 3 2 1 2 0 0 0 0 0 0 0 0 0 0 0 0 0 0 0 0 0 0 0 0 0 0 0 0 0 0 0 0 0 0 0 0 0 0 0 0 0 0 0 1 1 2 0 1 0 0 0 0 0 0 0 2 2 0 1 0 0 0 0 0 0 0 0 0 0 0 0 0 0 0 0 0 0 0 0 1 1 0 0 0 0 0 0 0 0 0 0 0 0 12 63 128 167 180 186 187 190 192 192 193 194 192 191 191 190 191 189 189 187 188 186 183 181 179 177 174 173 166 159 148 109 48 7 3 2 3 4 3 4 3 3 4 4 5 4 4 5 4 4 4 5 4 4 7 5 6 5 3 3 3 3 4 4 4 4 4 5 4 5 3 3 4 4 4 3 4 3 3 3 3 3 2 0 1 2 3 2 2 1 0 0 0 0 0 0 0 0 0 0 0 0 0 0 0 0 0 0 0 0 1 2 2 3 5 6 4 5 5 6 4 1 1 0 0 1 2 3 6 9 15 26 41 61 81 103 117 130 135 140 146 149 151 152 164 169 178 185 186 188 190 192 192 192 192 193 193 193 193 193 191 191 190 191 191 186 188 189 190 189 189 189 187 185 183 184 183 184 184 182 181 179 176 172 170 171 171 171 170 170 177 179 179 174 168 163 155 148 137 127 114 100 83 61 42 26 13 8 3 2 1 0 0 0 0 1 3 3 4 3 2 2 1 0 1 0 0 2 2 2 0 0 0 2 1 1 1 0 3 1 4 3 3 2 2 0 0 0 0 0 0 1 1 2 2 1 1 0 1 1 1 2 3 2 2 1 1 1 0 1 3 5 5 4 5 4 1 1 2 4 7 6 7 6 4 7 6 6 6 7 6 7 7 5 6 5 5 5 5 3 2 4 3 3 3 2 1 1 4 2 3 1 0 0 0 0 0 1 0 0 0 0 0 0 0 0 0 0 0 0 1 0 0 0 0 0 0 0 0 0 0 2 1 0 0 0 0 0 0 0 0 0 0 0 0 0 0 2 1 0 3 1 1 1 0 0 0 0 0 0 0 0 0 0 0 0 0 0 0 0 0 0 0 1 0 1 0 0 0 0 0 0 0 0 0 0 0 0 0 0 0 0 0 0 0 0 0 0 0 0 0 0 0 0 0 0 0 0 0 0 0 0 0 0 0 0 0 0 0 0 0 0 0 1 1 0 0 0 0 0 0 1 1 3 1 3 3 4 2 3 3 3 3 3 2 3 4 4 3 4 3 3 4 4 5 5 5 4 4 5 3 1 0 0 1 2 3 2 2 4 3 4 1 2 2 3 4 4 3 3 2 2 1 0 1 1 1 3 4 
3 2 2 1 2 3 2 2 3 4 4 5 5 5 4 5 5 5 4 4 3 3 6 4 3 4 4 5 3 3 4 2 2 3 2 3 3 3 3 3 1 0 0 0 0 1 1 1 1 1 0 1 0 0 0 0 0 0 0 0 0 0 0 0 0 0 0 0 0 0 0 0 0 0 0 0 0 0 0 0 0 0 0 0 0 0 0 0 1 0 0 0 0 0 0 0 0 0 0 0 0 0 0 0 0 0 0 0 0 0 0 0 0 0 0 0 0 0 0 0 0 0 0 0 0 0 1 1 1 0 0 0 0 0 1 1 1 0 0 0 2 0 8 53 120 163 174 180 186 189 190 193 193 194 194 195 193 193 192 192 191 188 186 183 183 179 178 178 175 172 165 157 141 96 33 4 3 3 3 3 2 3 2 3 4 4 6 6 6 3 2 5 4 5 6 5 6 6 5 4 3 4 5 5 5 4 6 4 8 6 4 3 4 4 3 2 3 2 4 3 3 3 1 1 0 2 2 2 1 2 1 0 0 0 0 0 0 0 0 0 0 1 2 0 0 0 0 0 0 0 1 3 3 3 4 5 5 3 4 3 2 0 1 5 8 17 27 45 65 86 102 117 130 140 146 152 158 158 160 159 159 157 154 152 151 151 156 168 175 180 184 187 189 190 192 193 192 192 192 192 194 192 192 192 192 190 189 189 190 189 189 189 189 189 187 186 184 184 183 181 182 177 175 173 172 172 170 171 170 166 167 176 180 183 185 184 186 184 183 183 180 179 175 172 164 153 140 122 99 74 52 34 21 12 6 5 2 1 0 3 4 3 3 0 0 1 0 1 1 2 1 1 1 0 2 2 1 1 0 0 1 3 4 2 3 2 2 1 0 2 2 1 0 0 0 0 0 0 0 0 2 2 2 1 1 1 2 2 1 2 3 2 3 3 5 4 1 1 2 3 5 6 7 8 8 7 8 7 6 6 6 5 7 7 6 5 5 5 4 2 3 3 4 3 5 3 2 1 1 0 0 2 1 1 0 0 0 0 1 1 1 0 0 0 0 0 0 0 0 0 0 0 0 0 0 0 0 0 0 0 0 1 0 1 0 1 0 0 0 0 0 0 0 0 0 0 0 0 0 0 0 0 1 0 1 0 0 0 0 0 0 0 0 0 0 0 0 0 0 0 0 0 0 0 0 0 0 0 0 0 0 0 0 0 0 0 0 0 0 0 0 0 0 0 0 0 0 0 0 0 0 0 0 0 0 0 0 0 0 0 0 0 0 0 0 0 0 0 0 0 0 0 0 0 1 1 0 0 0 0 0 0 0 0 1 1 3 3 3 4 3 5 2 2 3 2 3 5 4 5 5 3 5 5 5 6 6 6 5 4 5 5 1 2 1 0 1 3 3 2 1 1 0 2 2 3 3 4 3 3 2 2 0 0 1 1 1 0 3 2 
1 1 1 2 3 3 2 2 2 2 2 4 5 4 4 2 3 4 3 4 3 4 4 2 2 4 4 5 4 4 4 2 4 4 3 3 2 1 1 2 1 0 0 0 0 1 1 0 0 0 0 0 0 0 0 0 0 0 0 0 0 0 0 0 0 0 0 0 0 0 0 0 0 0 0 0 0 0 0 0 0 0 0 0 0 0 0 0 0 0 0 0 0 0 0 0 0 0 0 0 0 0 0 0 0 0 0 0 0 0 0 0 0 3 1 0 0 0 0 0 0 0 0 0 0 0 1 2 0 0 2 1 1 1 2 1 2 1 0 1 1 0 0 6 53 121 161 172 179 185 188 189 191 191 194 194 193 192 194 192 192 191 187 185 185 182 181 179 178 174 168 160 151 131 75 22 3 4 2 3 1 2 3 4 4 5 5 5 5 5 5 6 4 6 6 5 7 7 5 5 5 5 7 5 5 5 5 7 7 6 6 4 4 5 5 3 1 2 1 2 0 2 0 0 0 1 0 3 1 2 1 0 0 0 0 0 0 0 0 0 1 1 2 0 0 0 1 0 0 0 2 3 3 2 2 2 1 2 5 7 12 24 42 68 95 117 133 141 148 152 155 157 157 154 152 152 149 148 144 141 140 138 137 136 133 133 137 148 164 171 176 180 183 186 187 189 190 189 191 190 191 192 190 191 191 190 189 190 191 190 190 190 189 187 187 183 183 181 179 177 176 173 173 172 172 171 169 168 165 160 159 163 165 167 170 173 175 178 179 181 181 184 184 185 186 186 183 178 173 167 158 145 131 113 88 64 43 24 11 7 3 1 2 1 1 1 1 0 2 4 3 3 4 1 2 1 1 2 2 2 2 3 2 2 2 2 3 0 0 1 1 0 0 0 1 1 0 0 0 0 0 0 1 2 1 3 2 1 3 2 1 2 2 3 2 2 1 2 4 5 5 7 6 7 7 5 7 8 7 5 7 4 5 6 6 7 6 4 4 2 2 4 3 3 3 2 2 1 2 1 1 2 2 1 0 0 0 1 1 0 0 0 0 0 0 0 0 0 0 0 0 0 0 0 0 0 0 0 0 0 0 0 0 0 0 0 0 0 0 0 0 0 0 0 0 0 0 0 0 0 1 1 0 1 2 1 0 0 0 0 0 0 0 0 0 0 0 0 0 0 0 1 2 1 1 0 0 2 1 0 0 0 0 0 0 0 0 0 0 0 0 0 0 0 0 0 0 0 0 0 0 0 0 0 0 0 0 0 0 0 0 0 0 0 0 0 0 0 0 0 1 0 0 2 2 1 0 2 0 0 0 0 1 1 1 2 2 4 4 5 5 4 2 3 3 4 4 4 5 4 5 5 5 4 6 6 6 5 5 5 6 4 4 3 0 1 1 3 2 2 2 2 1 1 3 3 5 5 2 1 1 0 0 0 1 1 2 1 0 0 
1 0 1 0 1 0 0 1 1 3 3 4 4 2 1 3 2 4 2 3 4 4 2 3 4 4 5 5 4 4 4 4 4 4 4 2 2 1 0 1 1 2 0 0 0 1 0 0 0 0 0 0 0 0 0 0 0 0 0 0 0 0 0 0 0 0 0 0 0 0 0 0 0 0 0 0 0 0 0 0 0 0 0 0 0 0 0 0 0 0 0 0 0 0 0 0 0 0 0 0 0 0 0 0 0 0 0 0 0 0 2 2 1 2 2 2 1 1 0 0 0 0 0 0 0 0 0 2 2 1 0 2 1 2 3 1 0 0 0 0 0 0 0 0 7 56 124 162 172 180 183 186 189 191 191 193 193 193 193 192 192 190 189 187 186 185 181 179 178 175 172 167 160 146 118 60 14 2 3 3 2 2 2 3 3 5 3 4 6 5 5 5 5 5 6 7 6 6 6 7 7 7 7 6 4 6 5 6 6 6 4 5 4 5 3 2 1 1 2 0 1 0 0 0 0 1 0 0 0 0 1 0 0 0 1 1 1 1 0 0 1 0 0 0 0 0 1 1 0 0 1 1 1 2 5 7 14 28 53 80 105 126 138 147 153 155 152 151 149 148 145 140 137 132 130 128 127 125 123 122 122 121 119 117 116 116 116 121 140 158 163 168 174 178 179 184 184 184 186 187 186 187 188 188 189 189 187 188 188 188 187 187 185 184 182 180 178 176 174 173 170 170 171 170 170 168 167 163 157 152 149 151 153 155 158 160 161 161 166 167 171 174 175 177 182 183 185 185 184 184 186 183 183 177 172 165 155 135 107 76 46 24 12 6 3 1 1 3 4 3 3 4 3 4 2 1 1 2 2 1 2 3 3 3 2 0 0 0 0 0 0 0 0 0 0 0 0 0 1 0 2 2 2 3 1 2 1 0 2 2 1 0 0 2 1 2 1 4 5 6 5 7 7 6 6 4 5 6 6 5 6 4 4 7 5 5 6 5 3 1 3 4 2 4 3 2 1 0 1 1 1 3 3 1 1 2 0 0 0 0 0 0 0 0 0 0 0 0 0 0 0 0 0 0 0 0 0 0 0 0 0 0 0 0 0 0 0 0 0 0 0 0 0 0 0 0 0 0 0 0 0 2 0 0 0 0 0 1 0 0 0 0 0 0 0 0 0 0 0 0 0 0 2 1 1 0 1 0 0 0 0 0 0 0 0 0 0 0 0 0 0 0 0 1 0 0 0 0 0 0 0 0 0 0 0 0 0 0 0 0 0 0 0 0 0 0 0 0 0 0 0 1 0 0 1 2 1 2 3 1 1 2 1 3 1 2 2 2 3 4 4 5 4 4 4 3 2 5 5 6 4 5 6 4 5 4 5 4 5 4 5 4 4 3 3 1 2 2 2 3 1 2 1 1 3 2 4 3 2 0 0 0 1 0 2 1 3 1 1 1 
1 1 1 0 0 0 2 4 3 3 3 4 4 3 2 1 1 3 3 4 2 1 2 2 3 5 5 4 4 5 5 3 3 2 3 2 2 2 1 1 1 1 0 0 0 0 0 0 0 0 0 0 0 0 0 0 0 0 0 0 0 0 0 0 0 0 0 0 0 0 0 0 0 0 0 0 0 0 0 0 0 0 0 0 0 0 0 0 0 0 0 0 0 0 0 0 0 0 0 0 0 0 0 0 0 0 0 2 0 1 1 1 3 1 1 0 0 0 0 0 0 0 0 0 0 2 1 2 2 1 2 2 1 3 3 1 1 1 1 2 2 0 0 2 0 9 61 129 167 175 180 185 186 188 189 191 191 193 193 191 190 191 190 188 187 186 183 181 180 175 173 168 162 154 139 103 44 6 3 3 3 3 2 3 3 4 5 5 5 5 4 4 4 6 7 5 7 7 7 8 8 6 6 7 6 7 5 7 7 3 4 4 4 4 3 2 2 0 1 0 0 0 0 0 0 0 0 0 1 2 0 0 1 0 3 1 2 2 0 0 0 0 0 0 0 0 0 0 0 0 2 5 13 35 61 88 111 131 144 150 153 154 150 145 139 134 128 124 121 119 118 115 111 110 108 105 104 102 101 102 102 102 103 104 105 107 108 108 118 137 149 156 163 169 173 175 177 178 180 183 183 184 185 184 184 184 182 182 183 182 182 182 181 178 176 173 170 168 169 168 168 168 167 169 166 165 162 153 143 140 140 142 143 144 147 149 150 150 152 154 157 160 161 165 170 171 175 178 180 180 183 184 185 187 188 188 188 184 178 168 154 133 105 72 43 22 11 7 3 2 3 3 3 2 0 1 1 2 3 3 2 3 3 3 2 0 0 0 0 0 0 0 0 0 0 0 0 0 1 0 0 2 3 4 3 3 2 0 2 2 0 1 1 0 2 1 2 2 2 5 6 6 7 6 6 4 4 5 3 4 4 4 2 5 4 5 5 5 2 2 4 4 4 4 3 4 1 0 1 2 2 3 4 3 1 3 0 0 0 0 0 0 0 0 0 0 0 0 0 0 0 0 0 0 0 0 0 0 0 0 0 0 0 0 0 0 0 0 0 0 0 0 0 0 0 0 0 0 0 0 0 1 0 0 0 0 0 0 0 0 0 0 0 0 0 0 0 0 0 0 0 0 1 0 1 1 1 1 0 0 0 0 0 0 1 1 0 0 1 0 0 0 0 0 0 0 0 0 0 0 0 0 0 0 0 0 0 0 0 0 0 0 0 0 0 0 0 1 0 0 0 0 0 0 1 0 1 2 2 2 3 1 2 2 1 1 2 3 4 4 5 5 4 4 3 3 4 4 4 4 6 6 5 4 4 5 6 5 6 5 4 4 4 3 2 1 2 2 3 3 4 3 1 2 2 2 2 2 1 1 2 0 1 0 1 2 0 1 3 0 
0 0 0 0 0 1 4 3 5 4 4 4 3 2 0 0 1 2 0 0 1 1 1 2 1 2 2 3 4 5 5 4 4 4 2 2 3 2 2 3 0 0 0 0 0 0 0 0 0 0 0 0 0 0 0 0 0 0 0 0 0 0 0 0 0 0 0 0 0 0 0 0 0 0 0 0 0 0 0 0 0 0 0 0 0 0 0 0 0 0 0 0 0 0 0 0 0 0 0 0 0 0 0 0 0 0 0 0 1 2 2 2 1 1 0 0 0 0 0 0 0 0 1 0 1 2 2 2 3 2 3 1 0 2 3 3 2 1 0 0 0 0 0 0 1 0 9 64 132 166 175 180 186 186 188 188 190 192 192 193 191 191 190 188 186 186 184 181 179 178 173 169 166 158 147 129 86 32 5 3 4 3 2 3 3 4 4 5 4 3 4 5 7 6 8 6 6 7 6 6 6 6 6 6 6 6 5 6 4 4 3 4 4 4 4 3 2 1 0 0 0 0 0 0 0 0 2 1 1 1 0 0 1 1 2 2 1 1 0 0 0 1 0 0 0 0 0 0 5 17 42 74 108 135 146 152 153 151 146 140 133 127 119 111 105 99 96 93 92 90 89 85 84 83 84 86 86 90 93 95 98 104 110 116 119 124 126 131 133 137 141 142 147 155 162 165 169 170 172 173 175 178 179 179 178 177 176 174 176 174 175 174 170 169 168 165 165 166 166 165 167 165 166 164 163 159 150 136 128 127 126 127 129 132 134 136 137 140 142 143 144 148 149 154 155 158 161 164 168 171 176 178 180 182 181 184 186 187 187 188 187 183 177 166 152 130 101 68 39 18 8 4 2 2 2 1 1 3 3 3 2 3 2 3 1 2 0 0 0 0 0 0 0 0 0 0 0 0 2 2 0 1 1 3 4 3 2 2 0 1 0 2 0 0 1 1 2 2 2 5 5 5 5 6 6 3 5 5 4 2 4 4 4 2 3 3 2 1 2 3 4 5 4 6 5 2 1 0 1 0 1 2 2 3 4 1 0 0 0 0 0 0 0 0 0 0 0 0 0 0 0 0 0 0 0 0 0 0 0 0 0 0 0 0 0 0 0 0 0 0 0 0 0 0 0 0 0 0 0 0 0 0 0 1 0 0 0 0 0 0 0 0 0 0 0 0 0 0 0 1 0 0 1 1 2 1 1 0 0 0 0 2 0 0 0 2 0 0 0 0 0 0 0 1 1 2 1 0 1 0 0 0 0 0 0 0 0 0 0 0 0 0 0 0 0 0 0 0 0 0 1 2 0 0 0 0 1 1 3 2 1 2 1 2 2 2 2 3 4 3 5 3 2 4 4 4 4 4 4 4 5 5 3 4 4 5 5 4 4 3 4 2 3 3 2 2 1 2 2 2 2 2 3 3 3 1 2 2 1 2 1 2 1 2 1 2 2 0 1 0 
0 0 0 0 0 1 5 3 4 5 5 5 2 1 0 0 0 0 0 0 0 0 1 1 0 2 1 3 5 5 4 3 2 2 2 1 2 2 2 1 1 0 0 0 0 0 0 0 0 0 0 0 0 0 0 0 0 0 0 0 0 0 0 0 0 0 0 0 0 0 0 0 0 0 0 0 0 0 0 0 0 0 0 0 0 0 0 0 0 0 0 0 0 0 0 0 0 0 0 0 0 0 0 0 0 0 0 1 2 0 2 2 1 0 1 0 0 0 0 0 0 0 1 3 2 1 4 2 3 3 2 1 2 1 1 2 2 2 2 0 0 0 0 1 1 1 0 11 68 135 166 177 182 183 187 188 190 190 190 191 189 190 190 188 187 186 184 181 179 179 176 171 168 163 154 142 120 72 22 5 4 5 4 3 2 1 1 1 3 4 6 6 6 6 5 6 5 6 4 4 4 6 5 5 6 4 4 4 4 4 6 6 5 3 4 2 2 2 2 0 0 0 0 1 1 2 1 1 1 1 2 1 2 2 1 0 0 0 1 0 1 0 0 0 2 6 17 41 76 111 137 150 155 151 144 135 126 116 108 100 94 87 80 75 70 65 61 60 60 62 65 69 74 77 82 90 95 106 118 127 136 142 144 146 146 147 148 146 146 148 146 141 137 141 148 152 157 160 161 165 167 171 171 171 170 170 169 168 168 166 166 164 161 160 162 162 162 162 161 161 161 161 161 160 156 150 139 133 133 131 130 129 130 128 128 125 125 125 125 125 123 124 128 131 137 143 147 151 153 158 162 168 174 176 178 180 180 181 182 183 185 185 185 185 184 181 173 163 148 118 80 43 16 6 2 2 4 4 4 3 4 1 0 1 1 0 0 0 0 0 0 0 0 0 0 0 0 0 0 0 1 2 2 3 3 2 2 2 2 2 0 0 0 0 0 0 0 2 2 4 4 7 6 5 8 5 3 4 3 4 4 4 3 3 5 5 3 2 2 5 5 4 5 4 3 4 3 1 2 0 2 0 1 2 3 3 1 1 0 0 0 0 0 0 0 0 0 0 0 0 0 0 0 0 0 0 0 0 0 0 0 0 0 0 0 0 0 0 0 0 0 0 0 0 0 0 0 0 0 0 0 0 0 0 0 0 0 0 0 0 0 0 0 0 0 0 0 0 0 0 0 1 2 0 2 1 2 1 0 0 0 2 0 0 1 1 0 0 0 0 1 0 1 1 2 2 2 1 1 0 0 1 0 0 0 0 0 0 0 0 0 0 0 0 0 0 0 0 0 1 0 0 0 0 0 0 0 1 3 2 2 1 2 1 2 3 4 4 5 3 4 3 3 5 4 4 4 6 5 5 6 5 4 5 4 4 4 5 4 6 5 5 3 3 2 2 0 0 1 2 2 3 3 2 2 2 3 2 1 2 2 1 1 1 1 1 2 1 2 0 
0 0 0 0 2 3 4 5 5 5 5 3 2 2 0 0 0 0 0 0 0 0 1 1 0 1 2 2 3 3 3 2 2 2 0 1 1 0 1 0 0 0 0 1 0 0 0 0 0 0 0 0 0 0 0 0 0 0 0 0 0 0 0 0 0 0 0 0 0 0 0 0 0 0 0 0 0 0 0 0 0 0 0 0 0 0 0 0 0 0 0 0 0 0 0 0 0 0 0 0 0 0 0 0 0 0 0 1 0 2 2 1 2 1 0 0 0 0 0 0 1 1 1 2 2 4 4 4 5 4 4 3 1 2 2 2 2 2 2 2 1 1 1 1 0 0 1 0 14 70 139 170 179 182 185 187 189 189 190 191 191 189 189 188 188 188 185 183 180 179 178 174 169 165 158 149 136 109 57 13 2 5 3 3 3 3 4 2 3 4 5 5 5 4 6 6 5 5 5 4 6 6 5 5 4 4 3 4 3 4 5 5 5 4 5 2 2 1 2 2 0 1 1 3 2 1 2 1 2 2 2 2 0 0 0 0 1 1 0 0 0 0 6 20 51 88 119 137 146 148 144 137 127 112 99 87 78 69 61 54 48 44 38 35 34 37 39 45 53 63 79 97 114 125 135 141 145 149 153 155 155 154 154 154 152 152 153 152 153 151 151 146 140 136 137 142 144 148 150 154 157 159 159 160 159 160 160 159 158 157 155 154 155 156 156 158 157 157 157 158 158 159 158 157 150 143 136 136 136 135 135 134 133 132 132 130 130 130 129 126 125 123 120 114 110 111 118 124 132 139 145 152 158 164 168 171 174 175 176 178 178 180 180 181 183 183 183 184 183 179 166 148 117 75 39 18 8 2 1 2 4 2 2 0 1 0 0 0 0 0 0 0 0 0 2 1 0 0 0 0 0 2 2 2 1 0 2 3 3 1 1 2 0 0 0 2 1 2 5 2 4 4 6 6 8 5 4 6 5 4 5 4 3 3 4 5 2 2 3 6 5 3 3 4 4 4 2 0 0 0 0 0 0 1 1 2 3 2 1 1 0 0 0 0 0 0 0 0 0 0 0 0 0 0 0 0 0 0 0 0 0 0 0 0 0 0 0 0 0 0 0 0 0 0 0 0 0 0 0 0 0 0 0 0 0 0 0 0 0 0 0 0 0 0 0 0 0 0 0 0 1 2 3 4 3 3 2 2 1 0 2 1 0 0 0 0 0 0 0 0 0 0 0 0 2 1 2 1 0 0 0 0 0 0 0 0 0 0 0 0 0 0 0 0 0 0 0 0 0 0 1 0 0 0 0 0 0 0 2 3 2 3 2 2 4 4 3 5 4 3 3 3 4 4 3 4 4 5 6 6 6 5 5 5 3 5 3 3 3 4 4 3 3 4 2 1 2 0 0 0 2 2 1 3 3 3 2 3 2 2 1 0 0 0 0 2 1 1 1 0 
0 0 0 1 1 2 4 2 4 4 2 2 3 2 0 0 0 0 0 2 0 0 1 0 0 0 1 1 0 1 1 2 1 1 0 0 1 1 0 0 0 0 0 0 0 0 0 0 0 0 0 1 0 0 2 0 0 0 0 0 0 0 0 0 0 0 0 0 0 0 0 0 0 0 0 0 0 0 0 0 0 0 0 0 0 0 0 0 0 0 0 0 0 0 0 0 0 0 0 0 0 0 0 0 0 0 0 2 0 0 1 1 1 2 2 1 2 2 1 2 1 2 3 3 2 4 5 4 4 6 4 3 2 3 3 3 5 4 3 3 2 1 1 0 0 0 0 2 0 15 77 144 173 177 182 185 187 188 189 189 190 189 189 187 187 187 185 184 183 180 178 177 173 169 163 156 146 129 93 39 4 3 4 4 3 3 4 4 4 3 5 5 3 4 5 6 6 7 4 4 4 5 6 4 3 3 4 3 4 3 3 4 4 4 2 3 1 3 3 2 3 2 1 3 2 1 1 2 0 1 1 1 0 0 0 1 1 0 0 3 15 46 86 121 140 148 148 140 128 114 99 84 70 54 44 34 27 21 16 10 9 11 14 22 31 48 72 98 118 135 144 151 153 156 158 159 160 159 160 158 157 155 155 156 156 155 155 155 155 154 154 153 151 142 134 134 137 141 143 144 148 150 151 152 153 153 153 151 150 149 149 149 151 153 154 156 156 156 157 158 158 157 155 150 142 139 139 138 138 137 136 136 134 136 136 134 133 131 129 128 123 122 120 120 116 115 111 110 107 102 103 110 118 131 142 147 154 160 164 166 169 170 173 174 176 178 180 180 182 183 184 182 178 164 142 110 72 36 13 5 1 2 4 2 1 0 0 0 0 0 2 1 2 2 1 1 0 0 0 0 1 2 3 1 2 2 2 4 2 0 0 1 1 0 1 3 4 4 4 4 5 5 5 5 6 5 5 6 6 6 4 3 2 1 2 3 2 2 3 5 5 3 5 4 3 2 2 1 0 0 0 0 1 2 1 2 3 2 2 0 1 0 0 0 1 2 0 0 0 0 0 0 0 0 0 0 0 0 0 0 0 0 0 0 0 0 0 0 0 0 0 0 0 0 0 0 0 0 0 0 0 0 0 0 0 0 0 0 0 0 0 0 1 0 0 0 0 0 0 0 1 1 4 3 3 4 3 1 2 1 1 1 0 0 0 0 1 0 0 0 0 0 0 1 2 1 1 2 1 0 0 0 0 0 0 0 0 0 0 0 0 0 0 0 0 0 0 1 0 0 0 0 0 0 0 0 1 2 3 2 2 1 1 3 3 4 4 5 6 4 5 6 3 5 3 4 4 5 5 5 5 5 4 4 3 3 3 3 3 3 3 3 2 2 2 1 1 2 1 0 1 2 2 4 4 4 4 4 2 1 1 2 0 0 0 0 1 1 2 0 
0 0 0 1 1 2 3 5 4 3 2 3 2 0 3 0 0 0 0 1 0 1 1 1 0 0 1 1 0 2 1 1 1 0 0 0 0 0 0 0 0 0 0 0 0 0 0 0 1 0 1 0 1 1 1 0 0 0 1 1 0 0 0 0 0 0 0 0 0 0 0 0 0 0 0 0 0 0 0 0 0 0 0 0 0 0 0 0 0 0 0 0 0 0 0 0 0 0 0 0 0 0 0 0 0 0 1 0 0 0 1 3 1 3 1 2 3 1 1 0 2 1 4 2 4 4 5 3 5 6 5 5 3 3 5 6 4 4 4 4 3 0 1 0 0 0 0 1 2 0 20 82 147 174 179 184 184 187 188 189 189 189 190 188 188 187 184 183 182 182 179 178 175 172 166 158 150 140 116 68 15 4 5 4 4 3 3 4 3 4 4 4 4 4 4 3 4 5 3 5 5 5 5 3 2 2 3 2 1 3 3 3 3 2 3 3 3 3 2 2 3 3 2 2 3 1 2 2 1 3 1 1 1 0 0 0 0 6 23 60 106 136 149 146 135 122 104 85 68 53 35 25 17 8 6 3 0 0 2 7 20 45 72 98 122 137 146 152 155 159 160 159 158 158 158 157 157 158 159 159 158 159 159 160 160 159 158 157 156 155 155 155 156 154 145 136 133 137 139 142 144 145 147 148 147 147 147 145 144 146 146 149 150 152 153 153 154 153 155 156 157 157 152 145 142 141 141 139 137 137 134 132 131 124 119 114 109 99 93 88 83 76 71 70 69 68 64 65 67 65 71 75 76 76 76 73 88 111 129 143 153 157 159 163 165 167 169 172 173 177 177 178 178 179 177 170 159 137 104 62 26 8 2 1 1 0 0 0 0 0 0 0 1 0 2 2 1 0 0 0 0 2 2 1 3 1 1 2 0 2 0 0 1 1 1 2 3 4 4 5 7 7 6 7 7 4 3 3 2 4 2 2 1 0 1 3 3 2 2 2 1 3 5 2 2 3 1 0 2 1 0 0 1 1 3 1 3 2 1 1 1 0 1 0 1 0 0 0 0 0 0 0 0 0 0 0 0 0 0 0 0 0 0 0 0 0 0 0 0 0 0 0 0 0 0 0 0 0 0 0 0 0 0 0 0 0 0 0 0 0 0 0 0 0 0 0 0 0 1 1 2 2 3 5 3 2 1 2 2 2 2 0 0 1 1 0 1 0 2 1 0 0 0 0 0 1 1 2 2 1 0 0 0 0 0 0 0 0 0 0 0 0 0 0 0 0 1 0 0 0 0 1 0 0 0 0 0 0 2 2 0 1 2 1 3 5 6 5 4 4 4 4 3 4 4 5 5 6 4 4 6 6 5 5 4 5 4 4 4 3 3 2 1 1 1 2 1 2 2 0 3 3 3 3 3 3 5 4 3 1 3 1 0 0 0 0 0 0 1 0 
0 0 1 0 2 2 4 3 2 2 4 2 2 2 1 0 0 0 0 0 0 0 0 0 1 0 1 1 0 0 0 1 0 1 0 0 0 0 0 0 0 0 0 0 0 0 0 0 2 2 1 1 1 0 1 0 0 0 0 0 0 0 0 0 0 0 0 0 0 0 0 0 0 0 0 0 0 0 0 0 0 0 0 0 0 0 0 0 0 0 0 0 0 0 0 0 0 0 0 0 0 0 0 0 0 0 1 0 0 0 2 1 2 3 4 2 2 1 0 1 1 4 4 4 4 2 5 5 5 4 6 4 4 5 5 6 5 5 5 5 3 2 1 0 0 1 1 2 3 4 1 22 91 158 175 179 182 187 188 188 188 189 188 188 188 187 186 184 182 183 182 179 179 175 169 163 155 145 129 93 39 7 4 4 5 2 5 5 2 3 4 5 4 4 5 4 5 5 4 4 4 3 4 2 1 3 3 3 2 1 2 2 2 4 2 2 1 1 1 1 4 3 2 1 2 0 1 1 0 2 2 0 0 0 1 11 35 77 118 143 151 141 123 99 73 53 36 20 9 3 1 2 2 0 0 1 8 26 54 88 117 137 148 154 158 160 159 158 157 157 157 158 158 158 159 158 157 158 158 157 159 158 157 159 158 159 159 158 159 158 157 156 157 156 155 145 137 139 140 142 143 144 143 144 144 144 142 143 143 145 146 146 147 149 152 153 153 154 154 156 157 154 146 142 140 136 134 126 117 110 100 86 77 63 50 44 39 28 21 18 20 16 14 13 14 17 16 17 18 16 19 24 24 27 31 31 33 38 49 69 95 122 135 145 152 156 154 151 150 150 150 150 155 158 163 165 169 169 168 151 117 71 30 6 0 0 0 2 1 1 2 0 2 2 1 0 2 0 0 1 1 3 3 1 2 1 3 1 0 0 0 0 1 0 2 3 2 4 3 4 4 5 4 6 6 4 4 4 2 2 3 1 0 1 0 2 3 1 1 3 2 3 3 2 2 2 3 1 0 0 0 3 2 2 3 2 1 0 0 1 1 0 0 0 1 0 0 0 0 0 0 0 0 0 0 1 0 0 0 0 0 0 0 0 0 0 0 0 0 0 0 0 0 0 0 0 0 0 0 0 0 0 0 0 0 0 0 0 0 0 0 0 0 0 0 0 0 0 0 2 1 3 2 3 2 3 2 2 2 1 0 1 1 2 2 2 2 1 0 1 0 0 0 0 0 2 2 2 2 0 0 1 0 0 0 0 0 0 0 0 0 0 0 0 0 0 1 0 2 2 2 2 0 0 0 0 0 1 1 2 1 1 3 3 3 4 4 4 6 3 4 4 3 4 4 3 4 5 5 6 5 6 5 5 5 7 5 4 5 4 3 2 2 2 2 2 2 1 3 2 4 4 5 4 4 3 4 3 1 1 2 0 1 0 0 0 0 0 1 0 
0 0 0 1 0 1 2 3 1 2 2 3 1 1 1 1 0 0 0 0 0 0 0 0 0 1 1 0 0 1 0 1 0 0 0 0 0 0 0 0 0 0 0 0 0 0 0 1 1 2 1 2 2 1 0 0 0 0 0 0 0 0 0 0 0 0 0 0 0 0 0 0 0 0 0 0 0 0 0 0 0 0 0 0 0 0 0 0 0 0 0 0 0 0 0 0 0 0 0 0 0 0 0 0 0 0 0 0 0 0 3 1 3 5 3 2 3 2 1 3 2 3 4 4 5 5 4 4 5 4 6 5 6 5 5 6 6 4 5 4 3 1 2 0 0 1 2 2 2 2 3 3 41 125 169 177 180 186 188 190 189 189 189 190 187 186 185 185 181 183 182 180 179 176 172 166 158 148 135 111 67 17 5 5 2 3 2 4 5 3 4 2 4 6 6 4 4 3 4 3 3 3 3 3 4 4 3 4 2 2 1 3 2 4 3 2 2 3 0 2 2 2 1 1 0 0 2 1 0 3 1 0 4 18 52 98 133 147 146 134 111 82 53 30 10 3 0 0 0 0 0 0 2 9 29 62 100 127 145 157 158 160 160 160 161 161 161 159 158 158 159 159 159 161 162 160 160 159 161 161 160 159 160 159 157 158 159 159 157 158 159 158 158 158 159 156 148 145 143 143 145 146 147 146 145 145 143 142 141 143 145 148 150 151 154 154 154 155 155 158 155 144 133 126 116 97 82 67 51 39 26 17 8 5 3 3 4 5 6 6 7 8 9 8 9 13 12 12 12 12 12 15 14 15 17 17 16 15 16 20 35 64 79 95 115 128 127 121 117 108 104 102 107 114 125 133 139 151 161 165 162 150 121 76 32 8 1 0 2 2 2 2 1 0 1 3 2 2 1 1 2 3 4 4 5 4 2 1 0 1 0 0 0 1 1 1 1 2 2 2 3 4 3 4 4 3 3 2 1 2 2 0 0 0 0 1 3 2 1 2 1 1 2 0 1 2 4 1 0 1 2 2 3 2 4 1 0 0 1 0 0 0 1 0 0 0 0 0 0 0 0 0 1 0 0 0 0 0 0 0 0 0 0 0 0 0 0 0 0 0 0 0 0 0 0 0 0 0 0 0 0 0 0 0 0 0 0 0 0 0 0 0 0 0 0 0 0 0 1 2 2 2 2 2 2 2 1 1 2 0 1 2 1 2 2 3 2 2 1 2 0 0 0 0 0 0 1 0 2 2 2 1 1 0 0 0 0 0 0 0 0 0 0 0 0 0 1 1 1 1 3 3 0 0 0 0 0 2 1 3 2 2 4 3 4 2 3 3 4 3 4 5 4 3 3 3 4 4 4 5 5 5 5 5 4 5 4 5 4 3 3 3 2 1 1 1 2 1 2 5 5 3 2 3 3 2 2 2 1 1 1 2 1 1 1 0 0 0 0 0 
0 1 0 0 1 0 0 2 2 2 4 3 2 2 0 0 0 0 0 0 0 0 0 0 0 0 0 1 2 2 0 0 0 0 0 0 0 0 0 0 0 0 0 0 0 1 1 1 3 0 0 1 2 0 0 0 0 0 0 0 0 0 0 0 0 0 0 0 0 0 0 0 0 0 0 0 0 0 0 0 0 0 0 0 0 0 0 0 0 0 0 0 0 0 0 0 0 0 0 0 0 0 0 0 0 0 0 1 1 2 3 3 3 4 2 3 3 2 1 2 2 3 5 4 5 3 4 5 5 4 4 4 4 4 5 5 5 5 5 2 3 1 0 0 0 0 0 2 2 3 4 2 13 74 150 172 177 184 188 190 190 189 190 190 188 186 186 185 185 184 184 181 181 176 173 166 159 151 139 120 92 41 7 4 3 3 3 3 3 3 3 2 2 3 4 2 3 3 2 1 3 4 3 4 4 3 4 4 3 1 3 2 2 2 3 2 1 1 1 2 2 1 0 2 0 0 2 1 1 0 2 21 64 115 144 153 146 123 93 64 37 14 3 0 0 0 0 0 0 0 9 32 64 101 130 149 157 161 163 164 161 160 160 162 162 162 162 160 160 159 162 161 162 164 165 163 163 163 161 161 163 163 161 159 158 159 160 160 160 160 159 157 157 157 159 158 157 155 153 151 151 150 151 151 152 149 148 144 143 145 146 149 150 154 156 157 157 160 159 159 144 104 75 60 46 29 20 14 6 2 0 0 0 1 4 3 4 7 8 9 11 13 13 14 15 16 17 17 18 20 20 20 20 22 22 23 23 24 22 21 21 24 27 47 74 92 103 102 96 82 76 71 65 69 79 82 90 106 122 132 146 156 161 153 125 82 38 12 2 0 3 2 1 1 1 1 2 3 1 2 3 3 4 3 4 4 3 1 1 2 0 0 3 2 1 0 2 3 0 0 1 3 1 2 2 2 1 3 3 0 2 2 0 1 0 0 3 3 1 1 2 0 0 1 1 1 2 2 2 3 3 4 4 2 3 0 1 2 1 0 0 1 0 0 0 0 0 0 0 0 0 0 0 0 0 0 0 0 0 0 0 0 0 0 0 0 0 0 0 0 0 0 0 0 0 0 0 0 0 0 0 0 0 0 0 0 0 0 0 0 0 0 0 0 0 0 0 0 0 2 3 2 1 1 2 1 1 1 1 1 1 1 2 0 1 3 2 3 3 2 0 0 0 0 1 1 2 3 2 2 1 1 0 0 1 0 0 0 0 0 0 0 0 0 1 0 1 1 2 2 3 3 3 2 1 1 0 1 2 2 2 4 3 3 3 3 4 3 3 3 2 2 3 2 2 3 3 4 4 5 4 3 2 4 4 4 3 5 4 1 1 1 2 2 1 1 1 0 4 4 3 3 3 4 2 1 1 2 3 1 1 2 1 2 1 1 0 2 0 0 
2 0 0 1 0 1 1 1 0 0 0 1 0 0 0 0 0 0 0 0 0 0 0 0 0 0 0 0 2 2 2 1 0 0 0 0 0 0 0 0 0 0 0 0 0 1 2 1 0 1 0 0 0 0 0 1 0 1 1 2 1 0 0 0 0 0 0 0 0 0 0 0 0 0 0 0 0 0 0 0 0 0 0 0 0 0 0 0 0 0 0 0 0 0 0 0 0 0 0 0 0 0 0 0 0 0 1 1 3 2 3 4 3 4 4 2 3 2 1 1 2 3 3 2 4 5 4 3 3 4 5 5 6 5 4 7 6 4 4 4 3 2 0 1 0 1 1 2 3 3 4 5 3 32 114 168 177 185 187 189 190 190 190 190 189 189 187 185 184 185 185 183 182 176 174 168 163 154 143 126 106 68 16 1 1 1 2 0 2 3 2 0 3 3 3 2 4 1 1 0 2 3 3 3 4 2 5 5 4 3 3 3 1 1 2 0 2 1 2 1 1 1 1 2 3 2 2 0 3 16 59 113 149 155 140 112 79 47 21 6 1 0 0 0 0 0 0 7 27 63 104 133 149 159 165 167 164 163 165 163 162 162 162 163 164 162 162 162 160 162 162 161 163 165 166 164 165 166 164 164 164 163 162 161 162 161 161 161 162 161 161 161 161 161 159 159 161 165 162 159 158 160 160 159 158 155 153 151 149 148 150 151 154 156 158 159 161 162 162 158 118 39 15 7 4 2 0 1 1 2 1 4 5 7 7 8 9 10 12 12 16 18 19 20 21 23 24 25 25 25 26 25 27 28 29 30 31 31 31 30 31 29 29 29 34 40 62 85 101 109 112 98 73 54 45 48 58 69 73 85 101 119 136 154 156 149 129 88 40 10 1 1 2 2 2 2 2 2 2 2 3 5 4 3 3 4 3 2 2 2 2 1 0 0 1 1 1 2 1 0 0 0 1 1 2 0 0 0 0 1 1 0 0 1 0 0 2 0 0 0 1 0 0 1 0 1 2 1 0 1 1 2 2 2 0 1 2 1 1 0 0 0 1 1 0 0 0 0 0 0 0 0 0 0 0 0 0 0 0 0 0 0 0 0 0 0 0 0 0 0 0 0 0 0 0 0 0 0 0 0 0 0 0 0 0 0 0 0 0 0 0 0 0 0 0 0 0 0 0 0 2 3 3 2 1 0 1 2 3 2 2 2 1 0 0 2 2 2 2 1 2 1 0 1 2 2 3 3 2 2 2 0 0 0 0 1 0 0 1 0 0 0 0 0 0 0 0 1 2 2 2 5 4 3 2 4 2 2 2 5 2 2 3 2 3 3 2 3 4 2 1 2 3 3 3 3 2 3 5 4 3 4 3 2 4 3 4 5 5 3 2 3 2 1 0 1 1 2 3 2 2 4 3 4 4 2 2 3 2 1 2 1 0 1 1 1 1 0 0 1 
3 0 2 0 0 0 0 1 0 0 0 0 0 0 0 0 0 0 0 0 0 0 0 0 0 0 0 1 1 1 1 0 0 0 0 0 0 0 0 0 0 0 0 0 0 0 1 0 1 0 0 0 0 0 0 0 1 1 1 0 1 0 0 0 0 0 0 0 0 0 0 0 0 0 0 0 0 0 0 0 0 0 0 0 0 0 0 0 0 0 0 0 0 0 0 0 0 0 0 0 0 0 0 0 0 0 2 2 2 3 2 4 4 4 4 3 3 2 3 3 1 2 5 5 4 4 4 4 5 4 6 6 5 4 5 5 3 4 5 5 3 2 1 1 0 0 1 3 3 4 5 5 5 9 63 147 176 182 186 188 190 190 189 188 187 187 187 185 185 185 183 183 181 177 172 168 162 157 146 131 116 90 42 7 0 0 1 1 1 3 2 1 2 1 1 2 1 2 1 1 1 3 0 2 4 4 2 3 4 3 2 0 0 0 0 0 1 0 0 0 2 2 3 3 2 0 0 12 45 101 143 156 144 111 66 32 12 1 0 0 0 0 0 0 0 11 42 87 126 149 159 164 166 167 167 166 165 165 165 163 164 164 163 163 163 163 163 162 161 161 162 164 165 167 166 167 167 168 165 165 165 165 162 163 163 163 163 164 164 164 164 162 162 162 162 161 165 173 171 168 166 166 167 169 169 165 163 160 159 157 156 156 157 160 162 164 164 164 165 158 103 15 0 0 0 0 0 1 3 3 5 8 8 8 10 12 15 17 20 20 22 25 26 27 27 28 29 29 30 31 31 33 33 36 36 35 36 38 37 37 38 38 38 37 37 37 36 41 52 75 102 115 109 82 40 32 36 38 43 54 62 74 89 115 136 151 163 155 125 74 29 6 2 2 1 2 1 2 3 3 3 4 5 3 4 3 3 2 1 0 1 0 0 0 1 0 0 0 0 0 0 0 0 1 0 1 0 1 1 0 0 0 0 0 0 0 3 2 0 0 0 0 0 0 0 0 2 1 0 2 1 3 2 4 3 2 2 1 0 0 0 1 2 1 0 0 0 0 0 0 0 0 0 0 0 0 0 0 0 0 0 0 0 0 0 0 0 0 0 0 0 0 0 0 0 0 0 0 0 0 0 0 0 0 0 0 0 0 0 0 0 0 0 0 0 0 0 0 1 2 2 2 3 3 2 3 2 2 4 3 1 3 2 2 1 2 2 2 1 1 0 0 1 2 1 2 4 4 4 3 1 1 0 0 0 0 0 1 0 0 0 0 1 1 0 0 0 1 2 3 2 6 5 5 4 4 3 3 2 2 3 3 2 3 3 3 4 4 4 2 2 2 3 3 2 3 4 3 4 4 4 3 3 3 3 3 3 4 2 3 2 2 2 3 1 2 2 3 2 1 4 3 5 3 4 4 2 4 4 2 4 2 1 1 1 0 1 0 0 1 
2 1 2 0 1 1 1 0 0 0 0 0 0 0 0 0 0 0 0 0 0 0 0 0 0 0 0 0 0 0 1 0 0 0 0 0 0 0 0 1 0 0 0 0 0 0 0 0 1 0 0 0 0 0 0 0 0 0 1 1 2 1 0 0 0 0 0 0 0 0 0 0 0 0 0 0 0 0 0 0 0 0 0 0 0 0 0 0 0 0 0 0 0 0 0 0 0 0 0 0 0 0 0 0 0 2 2 2 3 2 2 5 4 3 3 3 2 2 1 2 3 3 5 5 4 3 4 4 4 5 7 4 4 5 6 6 4 5 3 5 3 3 1 1 0 2 3 5 4 3 3 5 6 5 26 113 168 179 185 187 190 189 189 188 186 186 185 185 185 184 182 184 181 178 174 170 162 155 148 135 122 103 68 21 2 3 2 1 1 2 2 1 0 2 2 1 0 1 1 0 0 1 0 2 2 2 0 1 3 2 1 0 2 1 1 1 0 0 0 0 2 2 3 1 0 5 30 83 135 157 147 115 72 33 8 0 0 0 0 0 0 0 0 18 54 102 139 158 163 165 166 165 166 165 168 167 167 167 166 164 163 164 163 162 163 162 164 161 162 162 163 165 166 168 166 168 169 169 167 166 166 166 166 165 165 164 165 166 166 167 165 164 165 163 163 164 172 183 179 176 176 175 175 177 177 174 172 169 166 164 163 162 163 163 166 167 168 168 167 163 128 52 14 6 6 4 6 6 8 10 11 13 15 16 17 20 21 24 26 28 28 30 32 34 34 35 34 35 35 36 36 37 38 40 42 42 43 43 44 42 43 41 42 43 45 44 43 41 40 43 48 57 72 75 51 44 42 42 35 28 30 46 60 78 99 124 148 162 167 149 107 53 15 1 2 2 2 2 2 3 4 4 5 4 4 2 0 0 0 0 0 0 0 0 1 0 0 0 0 0 0 0 0 0 2 0 0 0 0 0 0 0 0 0 0 1 0 1 0 0 0 0 0 0 0 0 0 1 3 3 3 3 3 4 2 3 0 0 0 0 0 1 1 0 1 0 0 0 0 0 0 0 0 0 0 0 0 0 0 0 0 0 0 0 0 0 0 0 0 0 0 0 0 0 0 0 0 0 0 0 0 0 0 0 0 0 0 0 0 0 0 0 0 0 0 0 0 0 1 3 1 2 1 1 0 2 3 2 2 2 4 4 3 2 3 2 3 0 0 1 0 1 1 1 2 5 5 4 5 3 2 2 0 0 0 1 0 2 1 0 0 0 1 1 0 1 0 0 4 5 4 5 5 6 3 3 3 3 4 4 2 4 3 3 4 3 4 3 4 3 1 2 2 2 3 2 2 3 4 3 4 4 3 4 3 4 3 4 2 2 1 2 2 2 1 1 1 3 3 3 4 4 6 4 2 3 5 5 3 2 3 2 0 1 2 0 0 0 0 0 
0 1 2 1 1 1 1 1 0 0 0 0 0 0 0 0 0 0 0 0 0 0 0 0 0 0 0 0 0 0 0 0 0 0 0 0 0 0 0 1 1 0 0 0 0 0 0 1 0 0 0 0 0 0 0 0 0 0 1 2 2 1 0 0 0 0 0 0 0 0 0 0 0 0 0 0 0 0 0 0 0 0 0 0 0 0 0 0 0 0 0 0 0 0 0 0 0 0 0 0 0 0 0 0 0 1 2 3 3 2 3 3 3 2 2 2 1 1 2 1 2 2 4 3 3 4 3 4 4 4 5 4 6 6 6 7 4 4 4 4 4 4 2 2 2 2 3 4 6 3 4 5 6 6 9 59 144 176 184 186 188 188 188 189 187 187 185 186 185 185 183 183 181 177 175 169 164 159 151 140 128 112 85 41 5 1 0 0 1 0 1 1 1 1 0 1 1 0 0 1 0 0 0 0 0 0 0 2 0 1 1 2 1 1 2 0 0 2 0 0 1 3 0 2 22 69 124 153 152 123 78 35 9 3 0 0 2 0 0 0 4 27 69 115 146 164 168 168 167 166 166 167 169 170 170 169 169 168 166 165 165 164 163 164 166 165 165 165 163 165 166 166 165 167 168 170 171 169 170 168 168 168 166 167 167 166 166 168 167 169 167 168 169 169 172 173 181 186 184 183 184 184 184 184 182 182 180 178 178 173 171 170 168 168 170 170 169 170 167 164 151 114 71 47 34 29 25 26 26 26 25 26 26 28 30 31 33 34 36 35 35 36 39 38 38 40 41 40 41 43 44 44 43 45 47 47 47 47 48 48 47 47 46 47 48 48 47 47 49 49 47 46 48 51 48 48 43 41 41 28 21 27 30 42 60 83 113 145 168 173 164 134 80 30 6 2 4 4 3 2 3 2 4 3 4 4 1 0 0 0 0 0 0 0 1 0 0 0 0 0 0 0 0 0 2 0 0 0 0 1 0 0 0 0 0 0 0 0 0 0 0 0 0 0 0 0 0 2 2 3 4 2 3 3 3 3 0 0 0 0 0 0 0 1 0 0 0 0 0 0 0 2 1 1 0 0 0 0 0 0 0 0 0 0 0 0 0 0 0 0 0 0 0 0 0 0 0 0 0 0 0 0 0 0 0 0 0 0 0 0 0 0 0 0 0 0 0 0 1 2 3 4 4 2 1 1 1 1 1 1 2 2 3 3 3 3 4 0 0 0 0 0 0 2 4 4 5 4 4 4 3 2 1 1 1 2 4 3 1 1 0 0 1 1 2 2 1 2 2 4 5 4 5 4 3 3 2 2 3 3 3 3 3 4 3 3 2 2 3 4 4 3 4 2 2 1 2 4 3 3 3 4 3 3 3 4 3 2 0 1 1 1 0 2 2 2 2 3 5 3 4 5 4 3 4 3 3 3 3 3 2 2 1 1 1 1 0 0 0 0 
0 0 0 0 0 1 0 0 0 0 0 0 0 0 0 0 0 0 0 0 0 0 0 0 0 0 0 0 0 0 0 0 0 0 0 0 0 0 0 0 1 1 0 0 0 0 2 2 1 1 1 2 0 0 1 1 0 0 2 3 2 0 1 1 1 0 0 0 0 0 0 0 0 0 0 0 0 0 0 0 0 0 0 0 0 0 0 0 0 0 0 0 0 0 0 0 0 0 0 0 0 2 1 1 1 2 3 2 3 3 2 2 2 2 2 2 1 0 1 2 2 3 3 5 3 3 3 4 5 5 4 6 7 8 9 7 4 5 4 3 4 4 2 3 4 4 4 6 6 4 4 5 6 5 3 19 102 165 180 185 187 187 188 189 187 186 186 185 186 185 184 182 181 179 175 170 166 159 152 144 134 118 95 60 15 0 0 0 0 0 1 0 0 0 0 1 0 0 0 0 0 0 0 0 0 0 2 0 2 2 1 0 0 0 1 1 1 3 1 0 2 0 9 57 116 152 157 131 87 42 11 1 0 0 1 0 0 0 1 28 81 127 154 168 170 169 170 169 169 168 169 167 169 172 171 170 171 168 167 167 165 167 166 166 165 165 165 166 167 167 166 167 167 169 169 170 169 171 170 170 171 170 169 169 169 167 168 169 171 171 171 172 174 177 180 183 188 189 187 188 189 189 190 189 189 188 187 185 183 182 178 177 177 174 172 170 169 168 168 163 159 142 117 96 79 64 56 53 48 45 43 41 41 40 42 42 43 45 45 45 44 45 44 44 46 46 48 48 47 49 49 50 47 49 50 51 51 52 52 51 50 51 50 49 49 51 50 49 51 53 53 54 55 53 52 53 51 44 39 30 22 18 13 18 33 49 78 116 148 166 174 170 150 112 59 15 3 3 3 4 4 3 5 3 2 2 0 0 0 0 0 0 0 0 0 0 0 0 0 0 0 1 1 0 0 0 0 0 0 0 0 0 0 0 0 0 0 0 0 0 0 0 0 0 0 0 0 0 1 1 2 2 2 3 2 2 0 1 0 0 0 1 0 0 0 0 0 0 1 1 2 2 2 1 0 0 0 0 0 0 0 0 0 0 0 0 0 0 0 0 0 0 0 0 0 0 0 0 0 0 0 0 0 0 0 0 0 0 0 0 0 0 0 0 0 0 0 1 1 1 5 4 6 4 2 2 1 2 1 1 1 2 1 1 2 2 2 0 1 2 1 1 2 2 4 5 4 4 3 4 4 2 2 3 4 4 5 3 2 2 1 2 2 1 2 2 2 3 2 5 5 4 4 3 4 3 1 2 4 3 3 4 2 1 2 1 2 1 3 3 3 4 2 3 2 2 3 3 4 1 4 4 3 4 4 3 1 2 1 1 2 0 2 1 1 1 3 3 4 5 5 5 4 4 2 3 2 2 3 2 1 0 2 1 0 1 0 0 1 0 
0 0 0 0 0 1 0 0 0 0 0 0 0 0 0 0 0 0 0 0 0 0 0 0 0 0 0 0 0 0 0 1 0 0 0 0 0 0 0 0 2 1 0 1 0 0 1 0 0 2 0 0 0 1 2 3 2 3 2 2 1 0 0 0 0 0 0 0 0 0 0 0 0 0 0 0 0 0 0 0 0 0 0 0 0 0 0 0 0 0 0 0 0 0 0 0 0 0 0 0 1 1 2 1 1 2 3 2 3 3 1 3 1 1 2 1 1 0 1 2 1 3 5 4 3 5 5 5 5 5 7 6 9 6 6 4 4 4 3 3 4 5 3 4 4 3 5 4 6 6 5 5 6 5 7 9 52 138 174 181 184 187 187 187 188 187 186 185 186 185 184 185 181 179 175 171 166 161 155 146 137 122 103 74 34 2 0 0 0 0 0 0 0 0 0 0 0 0 0 0 0 0 0 0 0 0 0 0 1 2 1 0 2 2 4 3 1 2 3 2 0 16 76 142 167 151 106 55 17 2 0 0 0 1 1 0 3 20 67 123 155 167 171 171 169 170 172 172 171 170 170 169 170 171 174 171 171 169 168 169 168 169 168 168 166 168 168 168 167 169 169 170 169 171 171 171 171 172 172 173 172 171 172 170 171 171 171 172 174 176 175 177 179 183 184 187 188 190 189 189 192 193 192 194 194 192 191 189 188 187 183 184 181 180 176 173 172 168 167 164 157 148 134 124 113 99 86 75 69 64 60 58 55 53 51 52 53 52 54 53 52 51 50 51 51 51 52 54 54 55 55 53 52 53 55 53 54 54 54 53 53 53 53 54 52 52 52 52 54 55 56 57 58 57 58 59 60 59 55 41 24 17 16 14 16 20 45 78 109 144 168 172 170 162 135 81 32 6 2 4 4 4 4 4 1 2 0 0 0 0 0 0 0 0 0 0 0 0 0 0 0 0 1 0 0 0 0 0 0 0 0 0 0 0 0 0 0 0 0 0 0 0 0 0 0 0 0 1 1 2 2 1 3 1 0 0 0 0 0 0 0 0 0 0 0 0 0 1 0 2 2 1 0 0 0 0 0 0 0 0 0 0 0 0 0 0 0 0 0 0 0 0 0 0 0 0 0 0 0 0 0 0 0 0 0 0 0 0 0 0 0 0 0 0 0 0 0 0 1 2 3 4 4 4 1 1 2 1 2 2 1 3 0 1 1 2 0 0 1 2 1 1 1 2 5 4 3 4 3 5 4 3 4 3 6 4 6 4 3 3 2 2 3 2 3 3 4 5 4 4 4 4 2 3 4 2 3 4 2 3 5 2 2 2 3 1 1 1 2 1 2 2 2 3 1 1 3 2 2 3 4 4 4 4 3 2 1 0 0 1 0 1 1 2 2 2 2 2 4 5 6 4 3 3 4 3 2 1 1 1 1 0 0 0 0 0 0 0 0 0 
0 0 0 0 0 1 0 0 0 0 0 0 0 0 0 0 0 0 0 0 0 0 0 0 0 0 0 0 0 0 0 1 0 0 0 0 0 0 0 0 0 0 1 1 0 0 0 0 0 0 0 0 0 2 3 3 3 2 1 2 0 0 0 0 0 0 0 0 0 0 0 0 0 1 0 0 0 0 1 0 0 0 0 0 0 0 0 0 0 0 0 0 0 0 0 0 0 0 0 0 1 2 1 0 1 1 1 4 3 2 2 2 2 0 0 1 1 0 1 0 1 3 3 3 5 5 5 4 4 7 7 5 6 6 5 4 2 3 3 5 5 5 5 4 5 5 5 4 4 5 5 6 5 4 6 6 17 92 161 180 184 185 186 189 188 188 188 186 186 185 186 184 182 178 175 170 166 160 157 145 138 126 106 85 53 9 0 0 0 0 0 0 0 0 0 0 0 0 0 0 0 0 0 0 1 0 1 2 2 2 2 2 4 3 2 1 2 0 0 0 29 94 153 168 143 92 36 7 0 1 1 0 1 0 0 14 57 113 152 168 171 170 171 173 170 171 174 174 174 172 172 170 171 172 173 173 174 172 172 169 170 169 169 169 169 168 169 169 169 170 169 169 170 172 173 174 174 174 174 175 174 174 173 172 173 174 175 177 177 179 180 182 184 186 187 189 190 192 192 191 193 193 195 194 194 193 194 192 192 190 186 187 183 182 183 180 177 173 168 164 158 150 141 135 126 116 103 94 87 81 76 71 69 66 64 62 62 61 61 60 59 58 57 56 56 57 56 58 59 60 59 59 57 57 57 55 57 58 57 57 56 56 57 57 56 56 56 56 56 57 59 60 62 63 60 63 66 66 66 64 50 27 12 7 10 6 15 35 66 107 143 164 170 172 165 144 95 40 8 4 4 4 4 3 3 0 1 0 0 0 0 0 0 0 0 0 0 0 0 0 0 0 0 0 0 0 0 0 0 0 0 0 0 0 0 0 0 0 0 0 0 0 0 0 1 1 0 0 0 0 1 1 1 2 2 2 0 0 0 0 0 0 0 0 1 0 0 1 0 1 2 0 0 1 0 0 0 0 0 0 0 0 0 0 0 0 0 0 0 0 0 0 0 0 0 0 0 0 0 0 0 0 0 0 0 0 0 0 0 0 0 0 0 0 0 1 0 0 0 1 3 5 5 4 3 2 4 2 2 2 3 2 1 2 2 0 0 0 1 3 1 2 3 4 4 5 4 5 3 3 4 4 5 4 4 6 5 5 4 4 1 2 2 1 4 4 5 5 5 5 5 5 4 3 3 2 2 4 3 4 3 2 1 1 1 2 2 0 1 0 2 2 2 2 1 0 1 1 1 3 3 2 3 2 3 2 1 0 0 1 1 2 2 4 3 1 3 4 4 4 5 4 2 3 3 3 2 1 1 2 2 1 1 1 0 0 0 0 0 0 
0 0 0 0 0 0 0 0 0 0 0 0 0 0 0 0 0 0 0 0 0 0 0 0 0 0 0 0 0 0 0 0 0 0 0 0 0 0 1 0 1 0 0 0 0 0 0 0 0 1 0 0 1 2 2 4 2 2 2 0 1 0 0 0 0 0 0 0 0 0 0 0 0 0 0 0 0 0 0 0 0 0 0 1 0 0 0 0 0 1 0 0 0 0 0 0 0 0 0 0 0 1 2 2 1 1 2 3 4 2 1 2 0 0 1 0 0 0 1 0 1 3 4 4 3 4 4 5 5 6 6 6 5 4 5 5 3 3 2 4 5 6 5 4 5 5 5 5 4 3 5 7 4 4 5 6 6 46 132 175 182 183 184 185 188 189 188 187 187 188 187 184 183 180 174 172 166 159 154 146 138 128 110 93 68 25 0 0 0 0 0 0 0 0 0 0 0 0 0 0 0 0 0 1 0 0 2 1 0 2 2 0 2 2 1 1 2 0 0 36 108 161 165 132 78 28 4 0 3 2 0 1 0 9 41 97 147 171 175 172 172 173 174 172 172 171 173 174 173 173 173 172 173 173 172 173 174 175 173 170 171 170 170 170 171 171 169 169 171 170 172 171 172 174 174 177 175 174 175 176 178 177 176 175 176 176 177 178 180 181 181 184 186 187 188 190 191 192 194 194 195 196 196 196 196 195 193 192 193 191 189 188 186 185 184 183 181 178 173 171 166 158 150 144 137 127 117 107 100 96 89 86 81 78 73 73 73 71 70 67 67 63 63 62 62 62 62 62 62 61 60 61 61 61 60 62 59 61 61 61 60 59 59 60 59 60 61 61 60 61 62 64 64 66 65 66 68 69 70 69 69 60 39 16 7 6 6 17 41 72 104 144 166 172 173 166 147 104 47 11 3 4 4 3 4 1 0 0 0 0 0 0 0 0 0 0 0 0 0 0 0 0 0 0 0 0 0 0 0 0 0 0 0 0 0 0 0 0 0 0 0 0 0 1 1 0 1 0 0 1 2 1 0 1 1 0 1 0 1 0 0 0 0 0 1 1 1 1 0 1 2 0 1 0 0 0 0 0 0 0 0 0 0 0 0 0 0 0 0 0 0 0 0 0 0 0 0 0 0 0 0 0 0 0 0 0 0 0 0 0 0 0 0 0 0 0 0 0 0 1 2 2 3 4 2 4 2 2 2 2 3 1 3 2 2 2 1 0 0 2 0 1 2 5 6 5 5 4 5 5 3 4 5 4 5 4 5 5 4 2 3 3 2 2 3 6 5 5 6 5 6 5 5 5 3 1 3 4 4 4 4 2 0 1 1 1 0 0 0 1 0 2 2 2 2 1 1 0 2 2 2 3 1 2 3 1 0 0 0 0 0 2 2 3 1 1 2 3 5 3 6 5 3 3 2 2 1 2 3 3 2 2 2 0 0 0 0 0 0 0 
0 0 0 0 0 0 0 0 0 0 0 0 0 0 0 0 0 0 0 0 0 0 0 0 0 0 0 0 0 0 0 0 0 0 0 0 0 0 0 0 0 0 0 0 0 0 0 0 0 0 0 0 0 2 2 3 3 4 3 0 0 1 0 0 0 0 0 0 0 0 0 0 1 0 0 0 0 1 1 0 0 0 0 1 0 0 0 0 0 0 1 0 0 0 0 0 0 0 0 0 0 0 1 1 2 2 3 3 3 2 1 2 0 1 0 0 0 0 0 1 2 3 4 3 3 4 4 4 4 5 6 6 3 4 3 5 3 3 4 4 3 5 6 6 4 5 6 5 5 6 5 6 5 5 5 6 6 15 89 162 181 183 184 185 186 188 188 189 187 187 187 185 181 178 175 172 166 159 154 146 139 129 116 97 79 42 5 0 0 0 0 0 0 0 0 0 0 0 0 0 0 0 0 0 0 0 1 1 1 0 0 0 1 0 1 0 0 6 54 120 164 160 120 63 22 3 2 0 2 2 0 0 24 81 136 168 178 175 175 175 174 176 176 173 172 172 173 173 173 173 172 173 173 174 173 175 174 175 173 171 171 170 173 171 171 171 170 171 172 172 174 173 174 175 175 176 176 177 177 177 177 177 177 178 179 179 180 180 181 182 184 185 186 187 189 190 191 191 193 193 196 196 196 196 195 194 195 193 193 193 190 188 187 186 187 185 183 179 178 176 174 170 167 160 155 144 131 121 114 109 104 98 93 88 83 82 80 80 78 75 71 69 69 68 67 66 68 67 67 67 66 64 65 65 65 65 65 65 65 64 63 62 62 64 64 63 64 64 65 65 66 68 70 70 69 70 71 73 75 75 76 77 73 54 26 8 4 4 12 33 63 112 151 167 171 174 169 152 109 52 12 2 5 2 2 0 0 0 0 0 0 0 0 0 0 0 0 0 0 0 0 0 0 0 0 0 0 0 0 0 0 0 0 0 0 0 0 0 0 0 0 0 0 0 1 0 1 1 2 0 1 2 2 1 0 0 2 1 2 1 0 0 0 0 0 0 0 0 0 1 0 0 0 0 0 0 0 0 0 0 0 0 0 0 0 0 0 0 0 0 0 0 0 0 0 0 0 0 0 0 0 0 0 0 0 0 0 0 0 0 1 0 0 0 0 0 0 0 0 1 1 2 2 4 4 2 3 1 1 4 2 2 2 1 2 2 0 1 2 2 3 2 4 5 5 6 4 6 4 3 3 4 6 5 5 4 3 3 3 2 3 3 4 6 5 5 6 7 5 7 7 7 5 5 4 3 1 2 3 2 1 2 0 0 0 0 0 0 0 0 0 1 2 2 3 1 0 1 0 1 1 2 3 3 1 1 1 1 0 0 0 1 1 2 2 1 2 3 4 4 4 3 3 3 4 2 1 1 2 4 2 2 0 0 0 0 0 0 0 0 
0 0 0 0 0 0 0 0 0 0 0 0 0 0 0 0 0 0 0 0 0 0 0 0 0 0 0 0 0 0 0 0 0 0 0 0 0 0 0 0 0 0 0 0 0 0 0 0 0 0 0 0 0 1 1 2 3 2 3 1 2 1 1 0 0 0 0 0 0 0 0 0 1 0 1 0 0 1 0 0 0 1 0 1 1 0 0 0 0 0 1 1 0 0 0 0 0 0 0 0 0 0 2 0 3 1 1 1 2 2 0 2 0 1 1 0 0 1 0 0 2 2 4 3 3 4 5 4 5 5 5 4 3 2 4 4 4 2 2 2 2 3 4 5 5 5 5 6 5 6 7 5 7 6 5 7 7 8 48 146 178 180 185 185 185 186 187 187 187 186 184 183 180 176 175 170 165 160 153 145 140 131 120 104 86 59 18 0 0 0 0 0 0 0 0 0 0 0 0 0 0 0 0 0 0 0 0 0 1 0 0 0 0 0 0 0 14 71 137 170 154 110 54 19 7 1 3 2 1 1 1 36 105 160 178 178 177 177 177 177 176 177 175 174 173 173 174 174 174 175 175 174 174 175 174 173 173 173 172 172 171 171 171 171 174 172 172 173 175 173 174 175 175 175 177 177 179 177 178 178 179 177 177 178 179 179 179 181 182 183 186 186 185 186 187 188 191 192 194 193 195 196 196 196 196 195 194 193 193 192 190 189 188 186 187 185 184 182 179 179 177 176 172 170 169 163 156 149 142 134 128 119 110 104 98 93 92 88 85 81 79 77 74 72 72 71 71 70 70 71 70 69 70 68 67 67 68 68 65 67 68 66 65 67 68 68 68 68 67 67 69 70 71 72 73 75 78 80 83 85 85 88 92 88 69 34 8 4 4 10 29 71 121 155 168 174 177 171 154 116 58 14 2 3 1 0 0 0 0 0 0 0 0 0 0 0 0 0 0 0 0 0 0 0 0 0 0 0 0 0 0 0 0 0 0 0 0 0 0 0 0 0 0 0 0 1 0 0 1 2 2 0 2 2 1 2 1 1 3 1 0 0 0 0 0 1 0 0 0 0 1 0 0 0 0 0 0 0 0 0 0 0 0 0 0 0 0 0 0 0 0 0 1 0 0 0 0 0 0 0 0 0 2 0 0 0 0 0 0 0 0 0 0 0 0 0 0 0 0 0 1 2 4 4 6 3 3 2 2 2 3 2 2 1 1 1 0 2 1 3 3 3 6 6 4 4 3 4 5 5 3 5 4 5 7 4 3 2 2 2 2 3 4 3 4 5 5 7 7 8 7 6 4 3 3 3 0 2 1 1 1 1 3 1 1 0 0 0 0 0 1 2 1 2 2 2 0 0 0 0 2 2 2 1 2 2 1 1 0 0 0 0 1 1 1 2 3 2 3 3 2 3 4 4 2 2 2 2 2 3 2 1 0 0 0 0 1 0 0 0 
0 0 0 0 0 0 0 0 0 0 0 0 0 0 0 0 0 0 0 0 0 0 0 0 0 0 0 0 0 0 0 0 0 0 0 0 0 0 0 0 0 0 0 0 0 0 0 0 0 0 1 0 0 1 2 2 3 2 3 2 1 2 1 0 0 0 0 2 1 0 0 1 0 0 1 0 0 0 2 1 1 1 0 2 0 0 0 0 0 1 0 1 2 0 0 1 0 0 0 0 0 1 0 0 1 1 0 1 1 1 1 1 0 0 1 0 2 3 0 1 1 3 1 1 2 3 5 4 6 6 4 3 2 3 4 4 4 3 2 3 3 3 4 4 3 3 5 5 5 7 8 5 6 5 4 6 7 6 25 120 174 180 182 187 185 185 188 186 185 185 183 181 178 176 175 171 164 161 154 146 141 134 125 110 93 72 39 4 0 0 0 0 0 0 0 0 0 0 0 0 0 0 0 0 0 0 1 0 0 0 0 0 0 0 0 17 86 151 175 159 111 54 11 3 1 3 2 1 1 4 48 118 168 178 178 177 178 178 176 177 178 177 176 175 172 174 174 176 176 175 176 176 175 175 174 174 174 173 172 172 171 171 171 173 175 173 173 175 176 175 175 176 177 177 178 178 179 180 180 181 178 178 179 180 181 182 181 183 184 184 182 184 184 184 186 190 191 192 193 193 193 194 194 193 194 193 193 192 192 191 189 189 187 186 186 185 184 181 181 180 180 177 176 174 174 171 168 166 162 160 158 153 145 138 130 121 119 110 99 96 93 90 87 83 79 77 76 77 75 75 72 71 72 72 72 72 72 71 70 70 69 68 68 69 70 71 73 73 71 72 75 76 79 84 87 92 95 101 104 106 109 112 113 113 108 77 34 7 4 5 6 22 65 125 160 169 173 177 171 153 116 58 14 1 1 0 0 0 0 0 0 0 0 0 0 0 0 0 0 0 0 0 0 0 0 0 0 0 0 0 0 0 0 0 0 0 0 0 0 0 0 0 0 0 2 2 0 2 0 1 0 0 0 0 2 0 0 1 3 1 0 0 0 0 0 0 0 0 1 1 1 0 0 0 0 0 0 0 0 0 0 0 0 0 0 0 0 0 0 0 0 0 0 0 0 0 0 0 0 1 1 1 2 0 0 0 0 0 0 0 0 0 0 0 0 0 0 0 0 1 0 2 3 3 4 3 2 0 2 2 3 3 3 2 0 0 0 1 3 2 4 4 6 7 3 4 6 6 6 6 5 4 7 6 6 5 4 2 1 2 4 3 5 4 5 4 5 6 7 7 7 5 6 6 2 1 0 0 0 1 1 2 2 0 0 0 0 0 0 0 1 2 3 1 0 1 0 0 0 0 1 0 1 2 1 1 3 2 0 1 0 0 0 3 1 3 3 3 4 2 3 3 3 3 3 2 2 3 1 0 1 1 0 0 0 0 0 0 0 0 
0 0 0 0 0 0 0 0 0 0 0 0 0 0 0 0 0 0 0 0 0 0 0 0 0 0 0 0 0 0 0 0 0 0 0 0 0 0 0 0 0 0 0 0 0 0 0 0 0 1 0 1 0 2 0 1 1 2 3 3 3 0 0 0 0 0 1 2 1 1 0 1 2 1 2 1 0 0 4 1 3 4 4 0 1 0 0 0 0 1 0 0 1 1 1 0 0 0 0 1 1 1 2 1 1 1 1 0 0 0 0 0 1 2 2 2 2 2 0 0 1 1 1 1 0 2 4 3 6 5 5 3 3 4 4 4 3 4 3 3 3 3 3 2 2 3 4 6 5 8 5 6 7 6 4 5 6 5 13 87 164 181 183 186 186 187 187 185 186 184 182 180 180 177 176 172 167 162 155 148 143 136 127 114 98 78 52 14 0 0 0 0 0 0 0 0 0 0 0 0 0 0 0 0 0 0 0 0 0 0 0 0 0 0 10 76 154 176 165 126 59 18 1 0 2 1 1 0 10 60 131 174 180 178 177 179 181 179 179 178 178 178 177 176 174 175 176 176 175 176 175 176 177 177 175 176 176 175 174 174 172 171 171 174 174 176 175 175 175 176 177 177 178 178 178 178 179 180 180 180 180 178 182 183 181 182 183 183 183 184 182 183 182 183 185 188 191 192 191 193 193 192 193 192 192 192 192 190 190 190 189 189 188 188 186 185 185 184 183 184 181 181 179 177 175 175 172 170 168 166 166 164 164 162 159 156 155 148 140 133 128 124 119 114 108 102 97 95 91 89 88 85 84 82 84 83 84 84 81 78 79 80 82 83 84 88 89 91 92 98 104 108 111 116 121 124 126 130 132 135 136 135 133 133 130 117 82 34 7 3 4 3 16 68 133 161 168 173 174 165 144 109 58 14 0 0 0 0 0 0 0 0 0 0 0 0 0 0 0 0 0 0 0 0 0 0 0 0 0 0 0 0 0 0 0 0 0 0 0 0 0 0 0 0 1 2 1 0 2 0 0 0 0 0 0 0 2 1 2 0 0 0 0 0 1 1 0 0 0 0 0 0 0 0 0 0 0 1 0 0 0 0 0 0 0 0 0 0 0 0 0 0 0 0 1 0 0 0 1 2 1 2 1 0 0 1 0 0 0 0 0 0 0 0 0 0 1 0 1 0 0 0 3 3 3 2 1 1 3 3 2 1 1 2 0 0 0 0 2 3 4 3 4 5 5 4 5 6 6 7 6 7 7 7 7 4 4 3 3 3 4 4 4 4 5 5 5 6 6 6 5 5 4 3 2 2 0 1 1 1 1 1 3 2 0 0 0 0 0 0 0 1 1 1 0 0 2 1 1 1 1 0 0 0 0 2 1 0 1 2 2 1 0 1 2 2 3 3 3 1 2 2 2 1 1 1 1 0 0 0 0 0 0 0 0 0 0 0 0 0 
0 0 0 0 0 0 0 0 0 0 0 0 0 0 0 0 0 0 0 0 0 0 0 0 0 0 0 0 0 0 0 0 0 0 0 0 0 0 0 0 0 0 0 0 0 0 0 0 0 0 0 1 1 2 2 1 1 2 2 2 2 1 1 0 0 1 2 2 2 1 2 2 3 3 3 2 1 1 3 2 3 4 2 2 2 1 0 0 0 1 0 2 2 0 1 0 1 0 0 2 1 1 1 3 1 2 2 0 1 0 1 0 1 2 2 1 0 2 1 1 0 0 0 2 1 2 3 4 3 4 4 4 3 5 3 5 5 5 4 5 3 4 4 3 4 5 4 4 5 5 6 7 6 7 5 4 7 7 8 50 147 179 182 185 185 187 186 187 186 184 183 183 180 178 177 171 168 161 156 148 143 136 128 117 101 84 64 29 0 0 0 0 0 0 0 0 0 0 0 0 0 0 0 1 0 0 1 0 0 0 0 0 0 3 55 143 181 173 140 83 30 6 0 0 0 0 0 15 73 143 178 182 180 180 178 180 180 179 179 179 179 179 178 179 176 178 176 177 176 177 177 180 178 178 178 177 178 176 178 175 174 173 173 174 175 177 177 178 177 178 179 179 180 180 181 181 182 181 181 180 180 180 182 181 181 181 182 184 183 184 185 183 183 183 186 188 189 189 190 191 191 190 191 192 193 192 190 191 192 191 189 189 190 188 187 186 186 185 183 182 183 181 180 177 177 175 173 172 169 170 167 168 168 167 166 165 165 164 161 158 154 155 155 151 150 144 140 139 137 132 131 127 122 120 121 121 118 118 116 114 115 119 121 122 123 129 130 133 137 136 141 142 143 147 149 148 148 149 146 147 148 146 143 141 137 135 122 84 36 6 3 2 1 14 71 134 160 166 171 170 158 136 104 54 8 0 0 0 0 0 0 0 0 0 0 0 0 0 0 0 0 0 0 0 0 0 0 0 0 0 0 0 0 0 0 0 0 0 0 0 0 0 0 0 0 0 0 1 1 0 0 1 0 0 0 0 1 1 0 0 0 0 0 0 0 0 0 0 1 2 1 0 0 0 0 0 0 0 0 0 0 1 1 1 0 1 0 0 0 0 0 0 0 0 0 1 1 1 1 3 2 3 1 0 0 1 0 0 0 0 0 0 0 0 0 1 0 0 0 1 0 2 2 1 3 2 1 1 1 1 0 0 1 1 0 0 0 0 0 2 4 4 5 5 5 5 7 7 7 9 7 8 7 7 6 3 3 3 3 4 4 4 3 5 5 5 5 6 6 5 3 2 3 2 3 1 0 0 0 0 0 1 1 1 0 0 0 0 0 0 1 0 0 0 0 0 0 2 0 1 2 2 0 0 0 0 0 0 0 0 0 1 1 2 1 2 2 4 2 2 2 1 3 1 2 1 0 0 0 1 1 0 0 0 0 0 0 0 0 0 
0 0 0 0 0 0 0 0 0 0 0 0 0 0 0 0 0 0 0 0 0 0 0 0 0 0 0 0 0 0 0 0 0 0 0 0 0 0 0 0 0 0 0 0 0 0 0 0 0 0 0 0 1 3 0 0 0 1 0 0 0 1 0 0 0 0 2 2 1 1 2 2 3 2 2 3 3 3 4 4 3 4 2 2 1 1 0 1 2 2 3 1 0 0 1 2 1 0 0 1 1 3 2 3 1 1 2 2 2 1 0 0 0 1 1 0 1 0 0 1 0 0 0 1 1 1 3 3 4 5 5 3 3 4 5 3 4 5 5 5 4 4 4 2 3 4 3 5 5 5 7 7 6 5 7 6 6 9 3 25 123 174 181 184 185 186 187 186 186 185 184 184 181 179 176 173 168 162 156 149 144 136 128 118 107 91 70 43 7 0 0 0 0 0 0 0 0 0 0 0 0 0 0 0 0 0 1 0 0 0 0 0 0 37 123 177 176 154 100 40 8 0 1 0 1 0 11 81 152 181 182 182 182 180 180 180 178 178 179 179 178 179 180 178 176 178 177 176 176 177 178 180 181 179 179 179 180 179 177 177 177 176 175 175 176 179 180 180 180 180 180 178 180 182 181 181 182 180 179 179 179 180 181 181 181 180 181 183 183 182 183 183 182 185 187 186 188 188 189 191 191 191 192 192 191 190 190 191 191 190 189 189 188 189 187 186 186 186 183 181 181 181 181 178 178 177 176 174 173 169 169 170 170 169 169 169 168 168 164 164 162 163 162 162 160 159 160 159 160 158 157 155 154 152 152 152 149 149 146 147 149 150 149 149 150 152 152 152 151 153 153 154 153 153 154 153 152 152 152 152 150 149 146 145 142 138 134 122 80 29 5 2 3 1 16 70 132 159 167 172 167 151 128 98 41 0 0 0 0 0 0 0 0 0 0 0 0 0 0 0 0 0 0 0 0 0 0 0 0 0 0 0 0 0 0 0 0 0 0 0 0 0 0 0 0 0 0 0 0 0 0 0 0 0 0 0 0 0 0 0 0 0 0 0 0 0 0 0 0 0 1 0 1 0 0 0 2 0 1 0 2 1 0 0 0 1 0 0 0 2 0 0 1 1 1 0 1 1 2 2 3 4 0 1 3 1 1 1 0 0 0 0 0 0 0 0 0 0 1 0 2 2 1 1 2 1 1 0 0 0 0 0 1 0 0 0 0 0 0 2 4 4 5 6 6 6 6 6 7 8 7 8 7 7 6 3 3 2 2 3 2 4 4 4 6 5 6 6 5 5 2 3 1 2 1 0 0 1 0 1 3 3 0 0 0 1 0 0 0 0 0 0 0 0 0 0 0 0 1 1 1 1 0 0 0 0 1 1 0 0 0 1 2 2 3 3 2 3 2 3 3 1 2 0 0 1 0 0 0 0 0 0 0 0 0 0 0 0 0 0 
0 0 0 0 0 0 0 0 0 0 0 0 0 0 0 0 0 0 0 0 0 0 0 0 0 0 0 0 0 0 0 0 0 0 0 0 0 0 0 0 0 0 0 0 0 0 0 0 0 0 1 0 2 1 0 0 1 0 1 0 1 0 0 0 0 1 1 2 2 1 3 2 3 2 2 3 3 5 6 5 5 5 4 2 3 3 1 1 0 2 1 1 0 1 2 2 2 1 2 1 1 2 1 1 1 1 1 2 3 2 0 0 0 0 1 0 0 0 0 0 0 0 0 0 1 3 2 3 4 5 5 3 4 6 5 5 4 5 4 3 5 3 3 3 3 4 6 5 4 5 6 7 5 5 4 5 5 6 4 12 91 166 180 180 184 186 186 187 185 185 185 185 182 179 177 172 167 162 157 152 146 139 130 122 111 96 75 55 20 0 0 0 0 0 0 0 0 0 0 0 0 0 0 0 0 0 0 0 0 0 0 0 20 105 171 180 165 119 58 17 1 0 0 0 2 3 60 147 181 181 183 184 183 181 181 182 179 180 180 180 180 180 180 180 177 177 177 178 180 178 180 180 181 180 180 181 180 180 181 179 178 177 177 177 177 178 180 179 179 180 180 180 180 182 179 180 181 179 179 181 180 181 180 180 182 182 181 182 183 183 184 184 184 185 187 187 188 188 188 190 190 190 191 190 189 190 190 190 189 189 189 189 189 187 186 185 185 183 183 182 183 182 182 180 178 178 177 175 172 171 171 170 169 170 170 170 170 167 166 167 166 163 163 164 160 160 162 161 162 160 162 160 159 158 158 157 157 157 156 157 156 156 155 154 155 153 154 154 154 153 154 155 154 153 155 155 154 153 153 153 152 150 149 149 145 143 138 135 113 59 15 2 3 2 3 15 69 131 160 169 171 160 142 122 81 20 0 0 0 0 0 0 0 0 0 0 0 0 0 0 0 0 0 0 0 0 0 0 0 0 0 0 0 0 0 0 0 0 0 0 0 0 0 0 0 0 0 0 0 0 0 0 0 0 0 0 0 0 0 0 0 0 0 1 0 0 0 0 0 0 3 1 2 2 2 2 1 3 3 2 2 1 2 2 2 2 3 1 1 1 0 0 0 0 1 0 3 2 4 4 5 3 1 1 2 2 1 1 0 0 0 0 1 0 0 0 0 0 1 1 1 2 0 1 3 0 3 0 0 0 0 0 2 0 0 0 0 1 1 2 4 5 6 8 6 5 6 6 7 7 8 7 8 7 6 3 5 4 1 2 1 2 4 3 7 6 6 5 4 3 4 3 1 2 2 0 0 0 1 0 1 2 1 0 0 1 0 0 0 0 0 0 0 0 0 0 0 0 0 1 0 0 0 0 0 0 0 0 0 0 0 0 2 2 1 2 2 3 1 3 2 1 0 0 0 0 0 0 0 0 0 0 0 0 0 0 0 0 0 0 
0 0 0 0 0 0 0 0 0 0 0 0 0 0 0 0 0 0 0 0 0 0 0 0 0 0 0 0 0 0 0 0 0 0 0 0 0 0 0 0 0 0 0 0 0 0 0 0 0 1 1 2 3 2 1 2 0 1 0 0 0 0 0 0 0 2 2 1 2 2 1 2 2 3 3 3 6 5 7 6 6 5 5 5 5 2 2 2 1 1 1 3 1 2 2 2 2 1 2 0 1 1 1 2 1 1 0 2 2 3 0 0 0 0 0 0 0 0 0 0 1 0 0 0 0 2 2 2 3 3 4 4 5 3 6 5 3 3 4 3 2 1 3 2 2 4 5 5 6 6 6 5 6 5 4 3 5 5 5 5 54 150 177 179 183 185 186 187 185 186 184 185 182 178 175 171 168 163 159 151 146 139 133 123 113 99 81 64 34 2 0 0 0 0 0 0 0 0 0 0 0 0 0 0 0 0 0 1 2 1 0 8 81 162 182 174 147 82 30 3 0 0 0 3 0 39 127 179 183 184 184 183 182 182 182 181 180 181 180 180 180 182 179 178 178 178 180 180 182 183 182 181 180 180 181 181 182 182 181 181 180 179 178 177 178 179 179 180 180 179 181 181 180 180 182 180 180 182 182 182 182 182 181 183 182 181 182 181 182 183 184 185 184 185 185 187 187 188 188 190 190 189 190 192 191 189 190 190 189 189 188 186 186 187 185 184 183 184 183 182 182 183 183 182 180 180 179 177 175 174 171 171 172 170 170 170 169 168 166 168 166 164 163 165 164 162 162 162 162 161 160 161 160 158 157 158 158 157 157 157 158 157 156 155 154 154 153 153 153 153 155 156 155 154 155 156 156 154 155 155 154 152 152 150 148 145 143 139 130 93 37 6 1 2 3 1 14 66 129 162 171 167 152 136 113 60 7 0 0 0 0 0 0 0 0 0 0 0 0 0 0 0 0 0 0 0 0 0 0 0 0 0 0 0 0 0 0 0 0 0 0 0 0 0 0 0 0 0 0 1 0 0 0 0 0 0 0 0 0 0 0 0 0 0 0 0 0 0 0 0 4 2 2 3 2 1 2 1 2 0 1 2 2 2 2 1 2 1 2 2 2 3 0 1 2 0 2 3 2 4 5 3 3 3 3 2 0 0 0 0 0 0 1 2 0 0 0 0 0 1 0 2 0 0 1 1 1 0 0 0 1 1 2 2 0 1 1 2 3 4 4 5 6 7 6 6 7 5 7 5 5 5 6 6 6 4 4 4 2 1 3 3 4 5 6 5 5 5 3 3 4 1 1 1 2 1 0 0 0 2 1 0 1 0 0 0 0 0 0 0 0 0 0 0 1 0 0 0 0 1 1 1 0 0 0 0 0 0 0 0 0 0 0 1 0 0 2 1 1 1 1 1 0 1 0 0 1 0 0 0 0 0 0 0 0 0 0 0 0 0 
0 0 0 0 0 0 0 0 0 0 0 0 0 0 0 0 0 0 0 0 0 0 0 0 0 0 0 0 0 0 0 0 0 0 0 0 0 0 0 0 0 0 0 0 0 0 0 0 0 0 2 1 2 1 2 3 2 0 1 0 0 0 1 1 1 3 2 1 2 2 2 2 3 3 3 4 4 6 5 5 5 4 4 5 5 4 3 3 3 1 2 2 1 1 2 1 1 1 2 0 1 3 2 2 1 2 2 2 1 2 0 0 0 0 0 0 0 0 0 0 0 0 0 0 3 2 3 2 1 2 3 4 3 4 4 5 3 3 2 2 4 2 2 3 3 3 3 5 5 5 6 7 7 6 5 4 5 4 4 1 27 127 174 177 184 184 185 186 185 184 184 183 182 179 175 171 168 163 159 152 146 140 134 126 116 103 88 72 48 13 0 0 0 0 0 0 0 0 0 0 0 0 0 0 0 0 1 0 0 2 2 63 148 184 178 169 127 54 13 2 0 0 0 0 21 106 173 184 183 185 184 184 183 182 184 182 183 182 182 182 181 179 180 180 179 182 182 182 183 182 182 181 181 182 181 183 184 184 182 183 181 181 178 178 178 181 180 182 181 182 181 181 181 179 179 180 182 181 181 181 181 182 183 184 181 181 181 182 182 182 183 183 184 184 185 186 187 187 188 188 189 189 189 189 190 190 190 187 187 187 185 186 186 185 184 185 184 184 184 183 184 182 182 183 181 181 179 178 177 175 174 172 173 170 170 171 170 169 168 169 166 164 164 163 163 163 162 163 162 161 160 161 160 160 158 158 157 160 159 158 157 157 156 156 156 156 155 154 155 155 156 156 156 155 155 155 156 157 156 156 154 154 153 151 149 147 144 143 139 120 68 18 3 1 0 2 2 13 69 141 170 169 159 141 129 100 35 0 0 0 0 0 0 0 0 0 0 0 0 0 0 0 0 0 0 0 0 0 0 0 0 0 0 0 0 0 0 0 0 0 0 0 0 0 0 0 0 0 0 1 1 0 0 0 0 0 0 0 0 0 0 0 2 1 2 1 0 0 1 0 2 1 1 3 5 2 2 1 1 1 2 2 1 1 2 1 3 3 3 3 3 3 4 4 3 2 2 5 4 4 5 3 3 3 3 1 0 0 0 0 0 0 1 1 0 0 1 0 0 0 0 1 0 1 3 1 0 0 0 0 1 1 3 2 2 1 2 3 3 2 3 5 6 9 7 5 5 6 5 7 7 6 6 6 6 5 4 4 2 4 2 3 4 5 5 6 5 4 3 3 2 3 1 2 0 0 0 0 1 2 0 0 0 0 0 0 0 0 0 1 0 0 0 0 1 1 1 1 0 0 1 1 1 1 0 0 0 0 0 0 0 0 0 0 1 0 1 0 0 0 0 0 1 1 1 0 0 0 0 0 0 0 0 0 0 0 0 0 0 0 
0 0 0 0 0 0 0 1 0 0 0 0 0 0 0 0 0 0 0 0 0 0 0 0 0 1 0 0 0 0 0 0 0 0 0 0 0 0 0 0 0 0 0 0 0 0 0 0 0 1 1 1 2 1 1 3 1 1 0 0 1 2 0 2 2 1 3 1 2 3 2 4 3 3 4 4 3 5 6 5 4 4 5 5 5 5 5 4 4 3 4 2 1 1 2 3 2 2 1 1 2 2 2 3 2 2 2 3 2 1 1 0 0 0 0 0 0 0 0 0 0 0 1 2 4 3 3 3 1 1 3 2 3 4 2 3 2 1 1 1 3 2 2 1 2 3 3 5 5 6 6 5 5 5 5 3 4 3 4 0 11 91 164 177 183 182 184 186 185 185 184 183 180 178 176 172 167 163 157 153 146 143 134 127 119 106 92 78 59 29 2 0 0 0 0 0 0 0 0 0 0 0 0 0 0 0 0 0 0 0 39 130 181 181 178 161 106 28 1 0 0 0 0 7 77 160 185 184 186 182 183 182 182 184 184 185 184 184 183 182 181 181 182 182 182 184 182 183 183 182 181 182 183 184 183 184 183 185 185 183 182 181 181 179 180 180 181 179 180 181 180 183 181 181 179 180 182 182 181 183 182 183 185 183 182 181 181 180 181 181 182 184 186 185 186 185 186 187 187 188 189 187 187 187 188 188 187 187 188 186 185 185 182 185 184 185 184 185 184 184 184 183 181 182 181 180 178 179 177 175 174 174 172 173 172 170 169 168 169 168 166 164 164 162 163 164 163 162 164 164 163 162 160 160 162 160 160 160 158 160 159 159 156 157 157 158 157 158 158 158 157 156 155 156 157 157 157 157 156 156 156 154 155 151 150 149 147 148 144 135 95 39 6 0 0 1 3 1 23 99 159 170 161 145 134 125 79 13 0 0 0 0 0 0 0 0 0 0 0 0 0 0 0 0 0 0 0 0 0 0 0 0 0 0 0 0 0 0 0 0 0 0 0 0 0 0 0 0 1 0 1 1 0 0 0 0 0 0 0 0 0 0 0 1 0 1 0 1 0 0 2 0 3 3 4 3 2 2 2 2 1 1 1 2 2 2 3 3 3 4 3 5 5 5 4 2 3 5 5 5 4 3 3 3 2 0 0 0 0 0 0 0 0 1 0 0 0 0 1 0 1 0 2 2 0 0 0 0 0 1 1 2 3 2 3 2 2 1 2 3 3 3 6 7 6 5 4 5 5 7 6 4 5 5 4 4 4 3 3 2 2 3 4 3 3 4 4 6 3 2 2 1 2 1 1 0 0 1 0 0 0 0 0 0 0 0 0 0 0 0 0 1 0 0 0 0 0 0 0 0 0 2 1 1 0 0 0 0 0 0 0 0 1 0 0 2 1 0 0 0 0 0 0 0 0 0 0 0 0 0 0 0 0 0 0 0 0 0 0 0 
0 0 0 0 0 0 0 0 0 0 0 0 0 0 0 0 0 0 0 0 0 0 0 0 0 0 0 1 0 0 0 0 0 0 0 0 0 0 0 0 0 0 0 0 0 0 0 0 0 1 0 0 1 1 2 2 2 1 1 2 2 2 3 1 1 2 2 1 2 3 2 3 4 4 5 5 5 4 6 5 4 5 6 6 5 5 5 5 4 5 3 3 3 2 2 1 2 3 2 2 2 4 2 1 1 0 1 4 4 2 1 0 0 0 0 0 0 0 0 0 0 1 0 3 2 3 4 1 1 1 2 1 2 3 2 1 1 0 1 0 2 1 3 1 2 3 4 5 5 4 4 5 4 4 6 4 4 4 4 2 3 57 150 176 178 180 184 186 184 185 186 184 182 179 176 171 168 164 159 153 147 143 135 129 121 110 97 82 68 46 16 1 0 0 0 0 0 0 0 0 0 0 0 0 0 0 0 0 0 14 104 174 183 180 175 151 82 12 0 0 0 0 1 52 144 183 186 186 184 183 184 184 183 185 184 184 183 183 183 183 183 182 183 181 182 183 183 182 183 183 183 183 184 182 183 183 184 185 183 182 183 182 181 179 180 179 180 179 181 183 182 181 181 182 181 181 183 182 182 182 184 183 184 184 183 181 181 181 181 181 181 182 183 184 186 186 186 186 187 188 186 187 187 187 185 186 185 185 184 184 185 184 184 185 185 184 185 183 183 183 183 182 182 183 183 180 180 179 179 176 175 173 173 173 172 171 170 169 168 167 167 164 164 165 163 162 163 165 164 164 164 164 163 160 162 162 161 161 160 160 159 158 159 158 158 158 157 158 159 159 159 157 156 158 157 156 156 158 156 155 156 157 154 154 152 150 150 147 145 138 113 62 13 1 1 1 2 3 4 48 131 169 164 149 137 136 119 54 2 0 0 0 0 0 0 0 0 0 0 0 0 0 0 0 0 0 0 0 0 0 0 0 0 0 0 0 0 0 0 0 0 0 0 0 0 0 0 0 2 0 2 1 0 0 0 0 0 0 0 0 0 0 0 0 0 0 1 0 1 0 1 0 4 4 4 1 1 3 2 2 2 3 2 3 4 6 4 4 4 3 3 5 6 5 5 2 1 4 5 5 5 3 3 2 1 2 0 1 0 0 0 0 0 0 0 0 0 0 1 1 3 3 3 2 1 1 2 0 0 0 1 2 3 2 2 3 3 2 1 1 3 4 6 5 5 5 6 6 7 5 5 5 5 4 3 3 3 3 2 1 2 2 2 3 5 5 4 3 3 3 2 1 2 3 3 2 0 0 1 1 0 0 0 0 0 0 0 0 0 0 0 1 0 1 1 1 0 0 0 0 1 0 0 0 0 0 0 0 0 0 0 0 0 0 1 1 0 0 0 0 0 0 0 0 0 0 0 0 0 0 0 0 0 0 0 0 0 0 0 0 
0 0 0 0 0 0 1 0 0 1 0 0 0 0 0 0 0 0 0 0 0 0 2 0 0 0 1 0 1 0 0 0 0 0 0 0 0 0 0 0 0 0 0 0 0 0 0 0 0 1 0 1 1 3 1 2 1 2 1 2 2 2 3 2 2 2 2 2 2 3 2 5 5 6 5 7 5 6 5 5 5 6 6 6 4 3 6 4 4 5 5 3 3 2 2 0 1 4 2 1 2 3 2 1 2 1 1 3 4 2 1 0 0 0 0 0 0 0 0 0 1 1 0 3 2 2 2 2 1 2 1 0 1 1 2 1 2 1 1 0 1 1 1 2 2 2 4 4 3 4 4 4 3 4 3 4 5 4 5 4 0 29 130 173 178 180 183 186 185 186 186 184 182 179 177 174 169 164 159 154 151 144 138 132 123 113 103 89 75 59 35 7 0 0 0 0 0 0 0 0 0 0 0 0 0 0 0 0 1 56 155 182 183 181 171 134 56 2 0 0 0 0 23 117 179 185 188 185 186 186 186 186 184 184 185 185 184 184 182 184 183 183 185 184 183 184 184 182 184 185 185 184 182 183 183 184 184 184 183 182 183 182 182 180 181 179 179 180 182 182 182 182 181 183 183 183 184 184 183 182 183 182 183 183 183 183 181 181 180 181 183 182 182 184 186 185 186 186 185 185 187 188 187 187 185 185 183 184 185 185 184 184 183 185 185 185 184 183 183 183 182 182 181 184 183 182 180 179 178 176 175 175 174 173 170 170 171 170 169 168 167 166 166 165 166 165 165 165 166 166 164 163 164 162 163 162 161 160 161 160 160 161 160 158 159 159 160 159 158 159 159 160 158 158 158 157 157 158 155 153 154 154 154 153 151 151 151 150 146 142 120 76 24 2 0 0 0 3 1 12 85 159 166 153 142 137 137 99 23 0 0 0 0 0 0 0 0 0 0 0 0 0 0 0 0 0 0 0 0 0 0 0 0 0 0 0 0 0 0 0 0 0 0 0 0 0 0 0 1 0 2 0 0 0 0 0 0 0 0 0 0 0 0 0 0 0 3 2 2 1 2 1 2 3 3 3 1 2 2 2 3 4 3 4 5 5 6 4 6 4 4 6 6 5 6 2 3 5 4 4 3 2 1 2 2 1 0 0 0 0 0 0 0 0 0 0 0 0 0 1 1 4 2 2 3 0 1 0 0 1 2 1 1 2 0 2 2 2 0 1 2 3 4 4 4 6 6 6 4 3 4 3 3 2 3 2 3 3 2 3 3 3 0 2 3 3 3 3 3 2 2 1 2 2 3 1 0 0 0 1 0 0 0 0 0 0 0 0 0 0 0 0 0 0 2 0 0 0 0 0 0 0 0 0 0 0 0 0 0 0 0 0 0 0 0 0 0 0 0 0 0 0 0 0 0 0 0 0 0 0 0 0 0 0 0 0 0 0 0 0 
1 0 1 1 0 0 2 1 1 0 0 0 0 0 0 0 0 0 0 0 0 0 0 0 0 1 1 0 0 0 0 0 0 0 0 0 0 0 0 0 0 0 0 0 0 0 0 0 0 0 1 2 1 1 1 2 2 2 2 3 2 1 2 0 1 3 1 3 3 5 5 5 5 6 6 7 6 8 6 6 5 6 5 5 5 5 4 2 3 3 3 4 3 4 4 3 1 2 2 1 3 1 3 1 4 2 2 1 3 2 1 0 0 0 0 0 0 0 0 0 0 1 0 2 0 1 2 2 2 1 1 0 2 1 3 1 2 0 0 1 2 0 1 2 2 3 2 4 3 4 4 3 3 3 3 2 4 6 3 3 0 13 102 166 177 181 183 186 185 184 185 184 182 179 176 173 169 164 160 155 151 147 140 131 124 116 106 94 83 70 52 21 0 0 0 0 0 0 0 0 0 0 0 0 0 0 0 0 15 111 178 184 182 180 167 119 32 0 0 0 0 4 72 165 184 184 186 187 187 188 186 187 187 185 186 185 186 185 184 185 186 185 187 187 184 183 184 185 185 187 186 184 183 184 185 184 183 184 183 182 183 182 180 181 181 179 180 180 181 182 182 182 182 182 182 183 184 185 183 182 183 182 181 182 183 182 182 180 181 181 181 182 183 184 184 185 185 185 186 186 184 187 188 187 185 183 182 185 183 184 184 183 183 183 186 186 185 185 183 183 181 181 181 182 182 180 179 178 178 177 176 176 174 172 172 173 171 171 169 169 169 168 168 168 168 167 166 166 168 168 166 165 165 164 163 162 163 161 161 162 162 162 162 159 160 161 160 160 162 160 160 161 160 160 159 159 159 157 158 156 155 154 156 154 153 153 151 150 148 143 124 81 34 4 1 1 1 2 3 2 43 140 167 154 146 140 143 129 67 5 0 0 0 0 0 0 0 0 0 0 0 0 0 0 0 0 0 0 0 0 0 0 0 0 0 0 0 0 0 0 0 0 0 0 0 0 0 0 0 0 0 0 0 0 0 0 0 0 0 0 0 0 0 0 0 0 2 3 1 1 2 4 2 2 3 3 2 4 3 2 3 3 4 6 7 6 5 6 5 5 4 5 5 5 6 4 2 5 4 6 4 3 2 1 1 1 1 0 0 0 0 0 0 0 0 0 0 0 0 2 0 3 2 3 2 0 2 1 0 0 2 1 0 0 2 2 1 0 0 1 3 4 4 4 4 4 6 4 4 5 4 3 4 2 2 2 1 0 0 1 1 1 1 2 3 4 3 3 4 2 1 1 1 1 1 0 0 1 0 0 0 0 0 0 0 0 0 0 0 0 0 0 0 0 1 0 0 0 0 0 0 0 0 0 0 0 0 0 0 0 0 0 0 0 0 0 0 0 0 0 0 0 0 0 0 0 0 0 0 0 0 0 0 0 0 0 0 0 0 0 
2 0 0 1 1 1 1 0 1 1 0 1 0 0 0 0 1 0 0 0 0 0 0 0 0 0 1 0 0 0 0 0 0 0 1 0 0 0 0 0 0 0 0 0 0 0 0 0 0 0 0 0 1 1 2 1 2 4 2 3 2 1 1 1 1 3 2 5 6 5 6 7 6 5 6 6 7 7 6 6 5 5 4 5 5 3 3 1 3 4 3 3 4 4 5 3 2 2 2 3 2 1 2 3 3 2 2 2 1 0 0 0 0 0 0 0 0 0 0 0 0 0 1 2 1 1 2 2 3 1 2 0 0 2 2 1 1 1 1 2 1 0 0 1 2 2 2 3 3 4 4 2 3 1 1 2 4 4 3 3 1 5 74 157 177 179 184 186 186 185 185 183 180 178 175 173 170 167 162 157 153 148 140 134 127 120 112 101 91 78 65 39 8 0 0 0 0 0 0 0 0 0 1 0 0 0 0 0 48 154 185 185 184 178 166 112 23 0 0 0 0 16 121 181 184 186 188 188 187 188 187 188 187 187 185 186 184 184 183 184 186 186 186 186 184 187 185 186 186 186 187 185 186 187 185 184 182 184 183 182 183 182 181 181 182 182 183 182 182 183 183 183 182 183 182 182 185 185 183 184 183 182 181 182 182 182 180 180 179 179 181 182 183 183 185 184 185 185 186 187 186 186 188 186 185 185 183 184 184 183 184 185 184 184 185 184 184 184 184 181 181 181 181 181 180 178 179 178 177 178 177 176 176 174 173 172 171 169 169 170 168 169 167 169 168 167 167 167 167 168 167 166 166 164 164 162 161 162 163 162 162 162 161 162 160 162 163 162 162 161 161 161 161 161 159 159 159 158 157 157 155 155 153 155 155 154 151 151 150 148 130 88 43 7 1 2 1 2 3 2 21 120 166 155 146 143 144 145 111 25 0 0 0 0 0 1 0 0 1 0 0 0 0 0 0 0 0 0 0 0 0 0 0 0 0 0 0 0 0 0 0 0 0 0 0 0 0 0 0 0 0 0 0 0 0 0 0 0 0 0 0 0 0 0 0 0 1 2 2 2 4 4 4 3 3 3 3 4 4 3 4 4 5 6 6 6 5 5 5 4 4 4 4 4 4 3 3 3 4 5 4 3 4 2 2 1 0 0 0 0 0 0 0 0 0 0 0 0 1 1 0 3 2 2 1 1 3 2 3 0 1 0 0 0 2 2 3 1 0 3 2 2 3 4 5 5 5 4 4 4 3 2 3 2 2 2 0 1 1 0 1 1 1 1 1 1 3 2 2 1 1 0 1 2 2 0 0 0 0 0 0 0 0 0 0 0 1 0 0 0 0 1 2 3 2 1 0 0 0 0 0 0 0 1 0 0 0 0 0 0 0 0 0 0 0 0 0 0 0 0 0 0 0 0 0 0 0 0 0 0 0 0 0 0 0 0 0 0 0 0 
2 1 1 2 0 1 1 1 0 1 0 1 0 0 0 0 0 0 0 0 0 0 0 0 0 0 0 0 0 1 0 0 0 0 0 0 0 0 0 0 0 0 0 0 0 0 0 0 0 0 0 1 0 2 1 0 2 2 3 2 1 0 1 0 1 2 3 3 5 7 6 5 5 6 7 6 6 6 6 5 5 5 4 4 4 3 4 2 3 2 3 3 3 3 3 3 3 3 2 3 3 2 3 3 1 2 0 2 1 0 0 0 0 0 0 0 0 0 0 0 1 0 1 1 1 0 1 3 3 2 1 0 0 1 1 1 1 2 0 2 1 1 1 1 1 1 1 0 0 1 2 2 2 2 3 2 4 3 2 3 1 2 53 149 175 179 183 186 188 187 186 184 181 179 177 173 170 166 164 158 154 149 143 136 131 125 117 107 98 87 75 55 24 3 0 0 0 0 0 0 0 0 0 0 0 1 0 10 104 178 186 186 185 179 168 112 18 0 0 0 0 38 152 187 186 189 189 189 189 188 188 188 187 187 186 184 184 184 184 184 185 185 184 186 185 186 186 188 188 186 186 186 186 186 186 185 183 184 184 184 182 180 181 182 183 183 184 183 182 184 184 183 183 183 184 183 182 184 184 183 184 182 182 180 182 183 180 180 180 180 182 182 182 183 184 185 185 185 185 187 187 187 187 186 186 185 185 185 183 184 184 183 182 183 184 184 184 184 183 183 182 182 180 180 179 178 178 176 175 176 178 177 176 174 172 173 172 170 171 170 169 169 169 169 169 168 168 169 169 169 168 166 164 163 164 164 164 164 162 162 162 161 160 162 161 162 164 162 163 162 162 162 160 161 161 161 159 160 159 157 157 157 156 155 155 155 154 154 152 146 130 95 51 11 2 1 0 1 3 0 10 106 162 155 148 145 146 148 137 67 2 0 0 0 0 0 0 0 1 0 0 0 0 1 1 0 0 0 0 0 0 0 0 0 0 0 0 0 0 0 0 0 0 0 0 0 0 0 0 0 0 0 0 0 0 0 0 0 0 0 0 0 1 0 0 1 1 1 2 3 4 3 4 3 4 4 2 5 5 4 3 4 5 6 5 6 5 5 5 5 3 4 3 4 4 2 3 3 4 4 6 4 6 3 2 0 1 0 0 0 0 0 0 0 0 0 0 0 0 1 1 1 0 1 2 1 2 1 1 0 0 0 0 1 0 0 1 1 1 2 2 3 3 5 5 6 5 5 4 3 3 2 1 2 1 2 1 2 0 1 1 2 0 2 2 2 2 4 1 0 0 1 1 2 1 1 0 0 0 0 0 0 0 0 0 0 0 1 1 0 0 2 3 2 1 1 0 0 0 0 0 0 0 0 0 0 0 0 0 0 0 0 0 0 0 0 0 0 0 0 0 0 0 0 0 0 0 0 0 0 0 0 0 0 0 0 0 0 0 1 
1 3 2 3 0 0 0 0 0 1 0 1 0 0 0 0 0 0 0 0 0 0 0 0 0 0 0 0 0 1 0 0 0 0 0 0 0 0 0 0 0 0 0 0 0 0 0 0 0 0 0 0 1 1 1 2 2 2 2 1 2 1 0 1 2 2 3 3 2 5 5 5 5 7 7 7 7 4 5 5 4 5 3 3 3 4 3 3 4 4 4 3 4 4 4 5 3 3 3 3 3 3 4 4 3 4 1 0 1 0 1 0 0 0 1 0 0 0 0 0 1 0 0 0 0 0 1 0 2 2 0 0 2 0 1 1 0 2 0 0 2 1 2 0 0 0 0 0 0 2 1 0 0 0 1 1 1 1 2 2 2 0 31 136 174 179 185 187 185 186 186 183 181 180 178 173 168 165 164 161 153 151 143 139 135 128 120 111 103 93 82 70 44 13 0 0 0 0 0 0 0 0 0 0 0 0 0 41 149 186 187 185 186 182 170 119 20 0 0 0 2 73 171 188 188 187 188 188 189 188 189 189 188 187 185 185 183 184 185 186 183 187 186 187 186 185 187 187 185 187 188 187 189 188 187 185 184 185 185 184 185 184 182 183 184 185 184 183 182 184 184 184 184 184 183 183 183 182 182 182 183 183 182 183 182 182 180 182 181 182 182 183 184 183 184 185 186 186 187 187 187 188 186 186 185 185 186 187 184 185 183 183 183 183 184 184 184 183 182 182 182 182 180 180 180 177 178 177 176 177 178 177 176 176 175 174 175 172 172 171 170 170 169 170 169 169 169 170 169 169 171 167 166 165 165 165 165 164 163 163 164 161 161 163 162 161 163 162 163 162 163 162 162 160 162 161 159 160 160 158 158 157 157 157 157 157 156 153 151 144 122 91 52 15 1 1 0 0 1 0 14 116 162 154 149 146 147 150 147 108 26 0 1 0 0 0 1 0 1 1 2 1 1 1 0 0 0 0 0 0 0 0 0 0 0 0 0 0 0 0 0 0 0 0 0 0 0 0 0 0 0 0 0 0 0 0 0 0 0 0 0 0 0 0 1 2 2 3 4 2 3 3 2 4 2 3 3 4 3 5 4 3 4 5 5 5 4 5 4 2 4 4 2 3 3 2 4 2 5 3 4 5 5 4 3 0 2 0 1 0 0 0 0 1 0 1 0 0 0 1 0 2 0 1 2 0 2 2 0 0 1 1 1 0 0 1 2 0 0 1 1 2 3 4 6 5 5 5 4 2 2 2 1 2 3 2 0 0 0 0 1 0 1 2 2 2 1 3 3 1 0 1 1 1 0 0 1 0 0 0 0 0 0 0 0 0 0 0 0 1 2 3 3 0 1 1 0 0 0 0 0 0 0 0 0 0 0 0 0 0 0 0 0 0 0 1 0 0 0 0 0 0 0 0 0 0 0 0 0 0 0 0 0 0 0 0 0 2 1 0 
3 2 2 2 1 1 0 3 1 1 2 1 0 1 1 0 0 0 0 0 1 0 0 1 0 0 0 0 0 0 0 0 0 1 1 0 0 0 0 0 0 0 0 0 0 0 0 0 2 2 2 2 2 1 1 2 3 3 3 1 0 0 1 0 1 1 1 2 2 5 3 4 6 5 6 5 6 5 4 6 4 3 3 4 3 3 4 2 2 3 4 5 3 3 3 4 3 3 1 3 2 4 4 4 3 2 1 0 1 0 0 0 0 0 2 1 0 0 0 0 2 1 0 0 0 0 1 2 3 2 0 0 0 0 0 0 0 1 0 0 1 0 0 0 1 0 0 0 0 1 0 1 1 0 1 1 1 1 1 2 3 0 17 118 171 178 183 185 186 186 185 182 180 178 177 174 170 168 166 161 155 150 146 141 136 131 124 117 108 99 88 78 59 31 4 0 0 0 0 0 0 0 0 0 0 0 7 92 172 186 185 187 185 182 173 125 29 0 0 0 10 116 183 189 188 189 189 189 189 188 189 188 187 184 184 185 184 186 186 185 186 187 188 189 188 187 186 186 186 187 186 188 189 188 187 186 185 187 186 186 186 185 184 184 186 184 185 183 184 186 185 184 184 185 185 183 183 182 183 182 182 182 182 182 182 182 182 181 182 183 184 184 184 184 184 185 185 186 186 186 185 185 186 186 186 185 186 185 183 184 183 183 182 182 182 183 184 182 183 183 183 182 182 181 180 180 178 177 177 177 179 176 176 176 176 174 174 174 173 172 171 170 171 172 171 170 171 170 170 171 171 169 167 167 167 167 167 164 164 162 164 162 161 162 163 163 163 161 161 163 164 163 164 163 162 160 161 159 160 160 159 158 157 158 158 157 156 156 151 141 114 82 48 13 0 0 0 0 2 0 31 135 161 154 150 147 149 151 152 136 63 5 0 0 0 0 0 0 1 1 3 2 2 1 1 2 0 0 0 0 0 0 0 0 0 0 0 0 0 0 0 0 0 0 0 0 0 0 0 0 0 0 0 0 0 0 0 0 0 0 0 0 1 0 1 1 1 2 2 4 2 2 3 3 3 3 3 5 3 5 5 6 4 4 5 4 3 3 3 2 4 4 3 4 3 3 3 4 3 3 2 4 5 4 3 1 1 2 1 0 0 0 0 0 1 0 1 2 0 1 0 1 3 3 2 1 2 2 0 0 2 0 0 0 1 0 1 1 0 0 0 2 1 4 4 4 3 3 2 3 2 1 1 0 2 1 1 1 0 0 1 1 1 2 2 1 1 3 3 1 1 1 2 1 2 1 0 0 1 0 0 0 0 0 1 0 0 1 1 2 2 5 2 2 2 1 0 0 0 0 0 0 0 0 0 0 0 0 0 0 0 0 0 0 0 0 0 0 0 0 0 0 0 0 0 0 0 0 0 1 0 0 0 0 0 0 1 0 0 1 
2 2 1 0 1 2 0 3 1 2 2 1 1 0 1 0 0 0 0 1 0 0 2 0 0 0 0 2 0 0 0 0 0 0 0 0 0 0 0 0 0 0 0 0 0 0 0 0 0 1 1 3 2 1 2 2 3 3 3 2 1 0 1 1 1 1 1 2 3 4 5 5 6 6 5 5 5 7 5 6 4 5 5 5 4 3 4 3 3 5 3 4 3 4 3 4 4 2 2 2 2 2 3 4 3 2 1 1 1 1 1 0 0 0 1 1 1 1 0 0 2 1 0 0 0 0 2 1 2 3 1 0 0 0 0 0 0 0 0 0 0 0 0 0 0 0 0 0 1 0 2 1 2 0 0 0 1 0 0 0 2 0 9 98 165 178 182 186 185 185 184 184 181 178 177 174 171 169 166 161 157 154 148 145 138 134 128 122 114 105 95 85 72 50 20 2 0 0 0 0 0 0 0 0 0 0 30 138 184 187 184 187 186 184 176 134 39 0 0 0 23 144 187 188 188 189 189 189 188 190 189 188 187 185 185 184 184 187 187 187 187 185 188 191 188 186 185 186 186 189 189 189 190 190 187 187 186 186 185 186 187 186 183 185 185 183 184 184 184 185 184 185 185 186 185 185 184 183 183 185 183 181 182 182 183 184 185 183 185 185 185 185 185 185 183 183 183 185 184 185 186 186 186 185 185 185 184 184 182 182 183 185 184 183 183 182 182 182 182 182 183 182 181 180 180 178 179 179 179 177 176 176 176 175 176 175 175 175 174 173 172 172 171 171 171 170 171 170 169 170 169 170 168 168 167 168 168 167 165 165 164 164 163 162 163 163 163 162 162 163 163 163 165 163 162 163 163 160 161 161 159 159 159 158 157 158 156 155 151 137 107 77 43 9 1 1 2 1 1 2 53 147 160 153 150 149 153 154 154 149 104 21 0 1 1 2 2 2 3 1 2 3 3 3 1 1 1 1 0 0 0 0 0 0 0 0 0 0 0 0 0 0 0 0 0 0 0 0 0 0 0 0 0 0 0 0 0 0 0 0 0 0 0 0 0 1 1 2 3 3 1 3 1 3 4 3 2 3 3 4 5 4 3 4 4 4 3 5 2 3 3 4 2 4 5 5 3 3 3 3 2 4 3 2 1 2 2 2 1 0 0 0 1 2 2 1 1 2 3 1 1 2 2 0 2 2 4 2 2 0 1 0 1 0 1 0 0 1 0 0 2 2 2 4 3 4 2 4 3 3 1 0 1 1 2 1 1 0 0 0 2 0 0 1 2 0 1 2 2 2 0 0 1 2 2 2 0 2 2 1 0 0 0 0 0 0 2 1 1 1 3 2 2 3 2 1 0 0 0 0 0 0 0 0 0 0 0 0 0 0 0 0 0 0 0 0 0 0 0 0 0 0 0 0 0 0 0 0 0 0 0 0 0 0 0 0 0 0 1 0 
0 0 0 1 1 1 1 3 3 2 1 1 1 3 2 2 1 1 2 1 0 1 1 0 0 0 0 2 0 0 0 0 0 0 0 0 0 0 0 0 0 0 0 0 0 1 0 0 1 2 2 2 2 3 3 3 4 2 4 1 0 2 2 0 2 1 2 2 3 5 3 4 6 5 6 5 6 5 6 5 4 4 6 4 6 4 5 4 5 3 3 4 3 4 4 3 2 2 2 2 3 4 4 5 3 5 3 3 2 2 0 0 0 1 3 1 1 2 3 1 2 1 0 0 0 0 0 0 0 1 0 0 0 0 0 0 0 0 0 0 0 0 0 0 0 0 0 0 0 0 2 1 2 1 0 0 0 0 0 0 1 0 3 74 158 178 182 184 184 186 184 183 181 178 175 174 171 170 168 162 159 155 151 147 143 138 131 127 118 111 101 92 83 66 42 17 0 0 0 0 0 0 0 0 0 2 78 166 185 186 187 189 190 188 181 152 63 2 0 0 31 155 189 188 188 189 189 189 190 190 188 188 188 187 186 187 187 187 188 187 189 189 190 189 190 186 186 187 187 189 190 191 189 188 188 187 186 185 184 186 187 185 186 186 186 184 184 183 184 183 185 184 185 184 185 185 184 183 184 183 184 183 183 182 183 182 184 185 185 185 184 186 184 184 183 184 185 186 186 187 187 187 187 186 185 183 182 182 183 182 183 183 183 183 182 181 182 182 182 183 182 180 181 182 180 181 180 179 179 177 177 176 176 176 175 174 175 175 173 172 171 170 172 172 172 171 170 169 170 171 171 169 169 169 168 169 169 169 166 166 165 166 164 163 163 163 163 163 163 163 165 165 161 161 162 162 162 161 161 159 158 159 159 158 158 157 156 154 149 128 99 71 40 7 0 1 1 2 0 7 82 155 160 154 153 152 154 156 156 156 136 61 4 1 2 2 2 1 1 2 1 2 1 1 1 1 0 1 0 0 0 0 0 0 0 0 0 0 0 0 0 0 0 0 0 0 0 0 0 0 0 0 0 0 1 0 0 0 0 0 0 0 0 0 0 0 0 1 1 0 1 3 2 3 4 3 3 3 5 5 5 2 4 5 4 5 4 4 3 3 4 5 6 5 5 3 5 5 4 1 2 2 2 1 2 2 2 1 2 1 0 1 1 2 2 2 2 2 3 1 2 2 1 1 3 4 3 5 3 1 2 2 2 1 0 0 0 1 0 0 1 2 1 3 3 3 3 3 3 4 1 0 0 0 0 1 0 0 0 0 0 1 0 1 1 1 2 2 1 1 0 1 0 0 3 2 2 1 2 2 2 1 1 1 0 1 1 1 1 0 2 0 0 0 0 0 0 0 0 0 0 0 0 0 0 0 0 0 0 0 0 0 0 0 0 0 0 0 0 0 0 0 0 0 0 0 0 0 0 0 0 0 0 0 0 0 1 0 1 0 
0 0 2 1 1 2 2 2 2 2 2 2 2 4 2 0 0 0 2 1 0 1 2 0 0 0 2 2 0 0 0 0 0 0 0 0 0 0 0 0 0 0 0 0 0 0 0 1 1 1 1 2 1 3 3 3 1 1 2 3 3 1 0 0 1 2 2 5 3 1 4 5 6 4 6 4 4 4 4 4 5 4 4 5 5 4 5 4 4 3 4 3 2 4 4 5 2 2 4 3 4 5 6 5 3 4 3 4 3 3 1 1 1 2 1 1 1 3 3 1 0 0 0 0 0 0 0 1 0 0 0 0 0 0 0 0 0 0 0 0 0 0 0 0 0 0 0 0 0 0 2 2 3 0 1 0 0 0 0 0 0 0 0 49 149 175 179 183 186 184 184 183 181 178 178 174 173 170 167 164 161 158 152 148 144 139 134 130 125 115 109 101 91 79 61 37 11 0 0 0 1 0 0 0 0 23 130 181 183 186 189 190 192 190 186 172 111 20 0 0 27 150 190 188 190 191 191 189 190 190 190 190 190 189 188 191 190 189 190 189 190 188 189 188 189 190 187 188 188 189 191 191 191 188 188 186 185 186 186 185 186 186 186 186 188 186 184 184 186 186 187 186 185 185 185 185 185 185 185 184 185 184 183 184 184 183 184 184 185 185 184 184 184 186 183 184 184 185 185 186 186 187 187 186 186 184 183 181 182 181 182 182 183 183 183 181 181 181 182 182 182 181 179 181 180 179 180 179 177 177 176 176 178 177 174 173 174 174 173 173 171 172 171 173 173 171 171 171 171 170 170 170 171 169 170 169 170 170 167 168 167 166 164 163 164 164 164 163 164 164 164 164 163 162 161 159 158 159 159 158 158 158 159 159 159 157 156 150 139 116 88 64 35 5 0 0 1 1 0 28 117 160 159 159 155 155 158 159 158 158 151 102 18 0 2 2 2 2 2 1 0 0 0 0 2 0 0 1 0 0 0 0 0 0 0 0 0 0 0 0 0 0 0 0 0 0 0 0 0 0 0 0 0 0 0 0 0 0 0 0 0 0 0 0 0 0 0 1 1 0 1 3 4 3 3 3 4 3 4 5 5 3 3 4 5 5 4 5 4 4 2 3 4 4 6 5 4 7 2 2 2 3 0 0 0 1 1 1 2 1 0 2 3 3 2 1 3 2 3 3 1 1 2 2 1 3 4 3 4 4 2 0 0 0 2 0 1 1 0 1 0 0 2 1 1 2 2 1 2 0 1 0 0 0 0 0 0 0 0 0 0 0 0 1 4 2 2 2 1 0 1 1 1 2 1 3 2 2 1 3 3 3 2 0 2 1 1 0 1 0 0 2 0 0 0 0 0 0 0 0 0 0 0 0 0 0 0 0 0 0 0 0 0 0 0 0 0 0 0 0 0 0 0 0 0 0 0 0 0 0 0 0 0 0 0 0 0 0 0 0 
0 0 0 1 2 2 3 3 4 4 2 1 1 1 2 0 0 0 0 1 0 0 0 0 0 0 0 2 1 0 0 0 0 0 0 0 0 0 0 0 0 0 0 0 0 0 0 0 0 0 0 0 1 3 1 2 1 2 2 4 3 1 1 2 1 2 3 3 2 2 2 4 6 5 4 3 4 4 4 5 5 5 5 6 6 5 4 4 4 4 4 2 3 3 4 5 5 3 4 3 3 5 4 3 3 2 2 3 2 2 1 0 1 3 2 2 2 1 1 0 2 1 0 0 0 0 0 2 1 1 0 0 0 0 0 0 0 0 0 0 0 0 0 0 0 0 0 0 0 0 1 2 1 0 1 0 0 0 0 0 0 0 0 31 137 172 180 183 183 183 185 183 181 179 178 175 173 170 170 166 161 158 154 151 145 143 138 133 129 123 117 109 101 90 79 59 30 6 0 0 1 1 0 0 0 65 162 183 184 187 189 191 190 191 188 183 151 63 5 0 18 141 189 190 191 192 192 191 190 190 190 190 190 190 192 191 191 192 191 190 190 191 191 191 189 189 189 188 188 190 190 190 191 189 188 187 188 187 186 186 186 187 187 186 187 186 185 187 185 186 186 186 186 185 185 185 185 186 186 187 187 185 185 184 185 184 184 184 185 184 186 185 184 185 182 183 183 183 184 185 186 187 187 186 184 183 183 184 182 182 181 183 182 182 182 182 181 181 181 181 179 179 180 181 179 180 180 179 177 177 177 178 177 175 175 176 175 175 174 173 173 172 172 173 172 173 173 171 171 172 171 171 170 168 169 168 169 169 169 167 167 165 166 165 164 165 165 164 165 164 163 163 164 163 162 160 159 159 158 158 159 160 158 157 159 156 156 144 125 102 80 57 29 1 0 1 1 0 13 86 150 162 163 159 158 159 162 161 160 158 156 134 53 4 2 2 1 2 1 3 1 1 1 0 0 1 1 0 0 0 0 0 0 0 0 0 0 0 0 0 0 0 0 0 0 0 0 0 0 0 0 0 0 0 0 0 0 0 0 0 0 0 0 0 0 0 0 0 2 1 2 2 3 3 4 3 4 3 4 5 3 3 4 5 5 5 3 4 3 3 2 3 3 4 6 5 5 6 5 4 4 3 0 2 0 2 0 2 4 1 1 2 3 3 3 1 4 3 4 5 2 2 2 3 3 5 4 4 3 1 0 0 1 0 1 1 0 1 0 0 1 0 2 1 1 1 1 0 2 0 1 0 0 0 0 0 0 0 0 0 0 0 0 2 2 3 0 1 1 1 0 2 2 2 0 2 1 2 0 3 2 1 2 2 3 3 1 1 1 0 0 0 0 0 0 0 0 0 0 0 0 0 0 0 0 0 0 0 0 0 0 0 0 0 0 0 0 0 0 0 0 0 0 0 0 0 0 0 0 0 0 0 0 0 0 0 0 0 0 0 
0 0 2 3 2 3 4 5 2 3 3 3 1 1 1 0 0 1 1 0 0 1 0 0 0 2 2 1 1 0 0 0 0 0 0 1 0 0 0 0 0 0 0 0 1 1 1 1 1 0 0 2 2 3 2 3 2 2 2 2 2 2 4 3 2 2 2 1 1 2 2 4 5 4 5 5 5 4 4 3 3 3 4 5 4 3 3 3 3 4 2 2 2 3 4 5 4 3 4 3 4 4 4 4 3 3 2 2 2 2 2 1 2 1 1 2 1 2 0 0 0 0 0 0 0 0 0 0 1 1 0 0 0 0 0 0 0 0 0 0 0 0 0 0 0 0 0 0 0 0 0 0 0 1 0 0 0 0 0 0 0 0 0 16 119 169 178 181 185 184 184 184 182 178 178 176 175 171 170 166 162 157 156 154 149 144 141 136 132 129 123 117 108 100 92 76 53 24 2 0 0 0 0 0 15 118 178 185 185 189 190 193 190 191 191 188 175 113 24 0 14 130 188 193 191 193 193 191 191 190 191 192 190 190 191 192 191 192 191 192 190 190 190 191 190 189 187 188 188 188 191 190 191 191 191 188 188 187 187 187 187 187 188 188 187 186 186 187 187 186 187 187 187 187 185 186 188 187 188 187 187 187 185 185 185 184 185 184 185 184 184 185 186 184 184 185 185 184 184 186 187 186 186 187 183 183 183 183 182 182 182 181 181 181 180 181 181 181 180 180 180 179 179 179 181 180 181 180 179 177 176 176 176 177 177 176 175 172 173 172 172 172 172 173 174 173 172 174 173 173 171 171 171 169 169 169 168 168 168 167 168 167 166 164 166 164 165 165 165 164 166 165 164 163 163 162 159 159 159 159 160 159 159 159 158 157 150 136 113 91 69 48 20 0 0 1 0 4 58 134 162 160 161 160 161 163 162 161 163 161 156 149 94 15 0 2 0 0 1 3 0 0 0 0 0 1 2 0 2 0 0 0 0 0 0 0 0 0 0 0 0 0 0 0 0 0 0 0 0 0 0 0 0 0 0 0 0 0 0 0 0 0 0 0 0 0 0 2 3 3 3 3 2 2 3 3 5 2 5 4 4 2 3 4 6 4 3 4 4 3 2 4 3 6 5 6 7 7 5 5 5 3 1 2 2 2 1 1 3 2 3 2 3 2 3 2 2 4 4 5 5 3 2 3 2 3 1 2 2 1 1 1 1 1 2 1 0 1 0 0 0 0 0 1 1 0 0 0 1 0 0 0 0 0 0 0 0 0 0 0 0 1 0 1 3 2 1 0 0 1 1 2 2 1 2 1 3 2 2 1 1 1 0 1 1 1 0 2 0 0 0 0 0 0 0 0 0 0 0 0 0 0 0 0 0 0 0 0 0 0 0 0 0 0 0 0 0 0 0 0 0 0 0 0 0 0 0 0 0 0 0 0 0 0 0 0 0 0 0 0 
0 1 1 2 2 3 2 3 2 3 2 2 0 0 0 0 0 0 0 0 1 1 1 0 0 2 4 2 1 1 1 1 0 2 1 1 0 0 0 0 0 0 0 0 0 0 1 1 0 0 2 1 2 4 2 2 0 2 1 2 2 1 3 3 2 2 2 2 2 3 3 4 5 6 4 3 5 4 3 3 1 3 3 4 4 4 4 3 3 2 4 4 3 5 2 3 3 4 3 4 4 3 4 3 3 2 1 2 1 2 2 1 1 1 0 2 1 2 0 0 1 0 0 0 1 0 0 0 1 0 0 0 0 0 0 0 0 0 0 0 0 0 0 0 0 0 0 0 0 0 0 0 0 0 0 0 0 0 0 0 0 0 0 7 99 165 178 181 183 184 185 185 182 178 177 178 175 171 169 165 163 159 156 153 152 147 144 140 137 131 127 122 115 108 99 89 73 45 15 1 1 0 0 1 56 156 184 185 188 190 191 192 192 192 191 190 187 153 67 4 9 110 185 193 192 195 195 194 192 191 193 192 191 190 191 191 191 192 191 192 191 190 190 190 190 189 190 188 188 191 189 189 191 191 191 188 189 187 188 189 187 189 188 188 187 187 188 188 188 187 188 188 187 185 185 185 188 188 188 189 187 186 186 187 186 186 186 184 184 184 184 185 185 186 183 185 185 185 185 185 185 185 185 186 185 183 182 182 182 182 182 181 180 181 180 179 179 179 181 180 179 178 178 179 180 181 180 180 180 179 177 176 176 175 175 177 175 173 174 174 173 174 175 174 176 175 175 173 175 174 172 171 170 169 169 169 169 167 167 166 169 169 167 165 166 165 165 165 166 164 165 166 165 164 162 162 161 161 159 160 159 160 159 158 160 155 141 117 98 80 61 34 7 0 0 2 0 32 113 157 160 162 161 161 163 164 164 165 164 162 158 154 128 44 2 0 1 1 1 0 2 1 0 0 0 2 2 1 2 1 1 0 0 0 0 0 0 0 0 0 0 0 0 0 0 0 0 0 0 0 0 0 0 0 0 0 0 0 0 0 0 0 0 0 0 2 3 2 3 4 2 4 2 3 3 3 3 4 4 3 2 4 2 3 5 5 3 3 5 2 3 3 3 6 5 6 7 9 6 5 6 4 4 3 4 4 2 2 3 3 4 5 4 3 3 3 3 5 4 6 5 4 3 3 3 4 3 3 2 1 1 0 0 0 2 1 2 1 2 0 0 0 1 1 0 1 1 0 1 0 0 0 0 0 0 0 0 0 1 0 0 1 0 1 2 1 0 0 0 0 2 1 0 0 2 1 1 2 3 1 0 0 0 0 0 0 1 1 0 0 0 0 0 0 0 0 0 0 0 0 0 0 0 0 0 0 0 0 0 0 0 0 0 0 0 0 0 0 0 0 0 0 0 0 0 0 0 0 0 0 0 0 0 0 0 1 0 0 0 0 
1 2 2 3 3 1 2 3 2 3 2 2 0 0 1 0 0 0 0 0 1 2 1 0 1 1 3 2 2 3 3 2 2 3 1 0 0 1 0 1 1 0 0 0 0 2 0 0 2 2 2 3 3 3 4 2 2 2 1 0 0 0 1 1 1 1 0 2 1 4 6 3 4 5 4 4 5 4 2 2 2 2 3 3 3 4 4 4 4 4 2 3 3 5 3 2 3 4 4 3 4 5 5 5 3 2 2 2 1 1 2 1 1 1 1 2 2 2 0 0 0 0 0 0 0 0 0 0 0 0 0 0 0 0 0 0 0 0 0 0 0 0 0 0 0 0 0 0 0 0 0 0 0 0 0 0 0 0 0 0 0 0 0 3 75 158 178 179 183 186 184 185 182 180 178 178 175 172 170 166 163 160 158 157 154 150 145 141 139 136 132 127 121 115 108 99 87 65 36 10 1 2 0 14 109 177 184 186 189 190 193 191 193 194 194 193 189 179 131 48 8 71 173 195 195 196 196 194 193 193 193 192 191 190 191 192 192 191 190 192 191 191 190 189 190 188 189 187 189 191 190 189 191 191 191 190 189 188 189 189 190 188 188 190 187 188 189 189 189 189 189 188 188 187 186 187 187 187 188 186 188 186 187 187 188 186 185 185 183 184 184 184 185 185 185 186 186 186 185 185 186 185 186 185 184 182 182 181 183 181 181 181 181 180 180 180 179 180 180 180 181 180 179 180 180 181 180 180 180 180 178 176 176 176 177 177 175 176 175 173 174 173 174 175 177 177 176 175 174 173 172 170 169 170 169 168 167 167 167 167 167 167 169 168 166 165 165 163 164 165 165 165 165 163 162 163 162 162 161 161 161 161 161 161 158 144 128 107 87 71 48 21 3 0 3 2 19 89 150 161 162 162 161 162 163 165 167 167 165 163 160 158 147 88 12 0 1 1 1 1 2 0 1 1 1 2 2 3 2 3 0 0 0 0 0 0 0 1 0 0 0 0 0 0 0 0 0 0 0 0 0 0 0 0 0 0 0 0 0 0 0 0 1 0 1 2 3 4 3 3 2 2 4 3 1 2 3 2 5 2 1 2 2 2 4 3 4 3 2 0 1 2 4 5 4 5 6 8 6 7 6 5 4 4 2 3 2 2 4 3 4 5 4 5 3 3 3 3 5 5 4 4 2 4 2 2 1 2 2 0 1 0 1 0 1 0 0 0 0 0 0 0 0 0 0 0 0 0 0 0 0 0 0 0 0 0 0 0 0 0 1 0 0 0 0 1 1 0 0 0 1 0 0 1 1 0 1 2 3 1 0 0 0 0 0 0 0 0 0 0 0 1 1 1 0 0 0 0 0 0 0 0 0 0 0 0 0 0 0 0 0 0 0 0 0 0 0 0 0 0 0 0 0 0 0 0 0 0 0 0 0 0 0 0 0 1 2 1 1 0 
1 3 4 3 2 2 1 2 3 3 3 2 1 0 0 1 0 0 0 0 1 2 1 1 2 1 0 1 3 4 4 3 3 2 3 2 1 2 1 1 0 0 1 0 2 2 1 2 2 2 3 3 5 4 4 3 1 1 0 0 0 0 0 2 1 1 2 2 2 3 5 4 1 3 4 3 3 3 2 2 3 2 0 1 2 3 2 2 4 5 4 5 2 4 2 1 2 4 6 5 5 6 6 5 5 3 1 3 1 2 2 0 1 1 0 1 1 0 1 1 1 0 0 0 0 0 0 0 0 0 0 0 0 0 0 0 0 0 0 0 0 0 0 0 0 0 0 0 0 0 0 0 0 0 0 0 0 0 0 0 0 1 1 0 52 150 176 178 182 185 184 185 184 181 179 176 175 173 169 166 163 160 159 159 155 151 147 144 143 140 135 132 127 120 113 108 97 81 58 29 10 1 1 45 152 185 185 187 191 191 191 191 194 196 195 193 193 190 179 124 46 31 135 192 195 194 194 196 195 194 193 192 191 192 191 192 192 192 192 192 192 191 191 190 189 189 189 188 191 191 191 191 191 191 191 190 190 189 187 189 190 189 190 189 188 187 188 187 187 187 188 189 189 188 189 188 189 188 188 187 188 187 188 188 187 187 186 184 184 184 184 185 185 186 186 185 185 185 184 183 184 184 184 183 183 181 181 181 180 180 180 179 178 179 179 179 178 179 180 180 179 178 179 180 179 180 180 180 180 180 178 177 177 178 177 176 175 175 175 174 175 175 174 176 176 177 177 176 175 173 173 173 171 170 170 168 168 167 167 167 167 168 168 167 167 166 165 166 166 165 166 164 162 163 163 162 163 162 162 162 161 160 161 158 148 129 114 95 79 61 35 8 0 0 0 20 73 141 162 164 163 162 163 164 165 167 168 167 165 163 162 158 154 125 41 2 1 2 0 2 2 2 2 1 1 3 2 2 2 2 1 1 0 0 0 0 0 0 0 0 0 0 0 0 0 1 1 0 0 0 0 0 0 0 0 0 0 0 0 0 0 2 1 0 2 2 3 3 2 3 2 3 1 3 1 1 2 3 3 2 1 1 0 4 3 4 3 4 2 0 0 2 5 4 4 4 5 5 6 7 6 5 5 4 4 5 2 5 5 5 6 5 4 4 4 5 4 4 4 3 4 3 3 4 3 1 2 2 0 0 0 0 0 0 1 0 0 0 0 0 0 0 0 0 0 0 0 0 0 0 0 0 0 0 0 0 0 0 0 0 0 0 0 0 0 0 0 2 2 1 1 1 1 1 0 1 0 1 1 1 2 0 0 0 0 0 0 0 0 0 2 3 2 0 0 0 0 0 0 0 0 0 0 0 0 0 0 0 0 0 0 0 0 0 0 0 0 0 0 0 0 0 0 0 0 0 0 0 0 0 0 0 0 1 0 1 2 3 2 1 
2 2 2 3 4 2 3 2 2 3 3 2 1 1 2 1 2 0 0 0 1 3 2 3 1 1 0 2 2 3 2 3 3 2 1 2 2 2 1 0 0 1 1 1 3 3 3 2 1 3 3 5 4 4 3 3 3 0 0 0 0 0 0 2 2 1 1 1 2 3 3 3 3 2 2 2 2 2 2 1 0 1 2 1 2 2 1 2 4 4 3 3 3 3 2 2 1 4 4 4 6 6 6 6 5 4 2 3 1 3 2 0 2 2 1 1 1 1 0 1 0 0 0 0 0 0 0 0 0 0 0 0 0 0 0 0 0 0 0 0 0 0 0 0 0 0 0 0 0 0 0 0 0 0 0 0 0 0 0 0 0 0 0 0 31 139 174 178 182 185 186 185 184 182 179 178 176 172 170 169 164 162 160 160 158 155 150 147 145 142 139 134 132 127 121 115 107 96 78 57 32 7 10 100 175 188 190 190 189 192 193 193 196 197 195 196 194 194 190 179 122 49 76 172 196 195 196 195 198 195 195 194 192 193 193 191 192 192 191 192 193 192 190 190 189 191 188 190 191 190 190 192 192 192 193 190 188 189 190 190 190 189 190 188 188 188 186 186 187 188 189 190 189 188 188 190 188 189 189 187 188 189 189 189 186 187 186 184 183 184 184 184 184 186 186 187 186 185 184 184 184 183 183 182 183 182 181 181 181 179 179 178 177 178 180 179 179 179 179 180 179 180 179 180 179 179 180 178 178 178 177 177 176 176 177 177 176 176 175 176 175 176 176 177 178 176 175 176 175 173 174 172 173 170 169 168 168 168 167 166 165 166 167 168 168 166 166 165 165 164 165 164 163 162 163 163 164 163 163 161 162 160 154 145 132 114 101 88 69 48 20 1 0 0 24 86 141 163 164 167 164 165 166 165 167 168 169 167 166 165 163 161 158 147 83 10 2 3 2 1 3 2 2 1 1 2 3 2 2 0 0 0 0 1 1 0 0 1 0 0 0 0 0 1 1 2 3 1 0 0 1 0 0 0 0 1 0 1 0 0 0 0 1 1 1 3 4 6 6 5 3 2 1 3 2 2 3 2 3 2 1 0 2 3 4 5 3 4 3 2 0 3 4 4 3 4 5 4 6 7 7 5 5 4 5 4 6 5 6 5 5 6 6 5 3 3 3 3 2 4 3 4 3 2 3 2 3 2 0 0 0 0 0 0 0 1 1 0 0 0 0 0 0 0 0 0 0 0 0 0 0 0 0 0 0 0 0 0 0 0 0 0 0 0 0 0 0 1 2 1 2 0 0 1 0 0 1 0 0 0 2 2 1 0 0 0 0 0 0 0 2 0 1 1 2 1 0 0 0 0 0 0 0 0 0 0 0 0 0 0 0 0 0 0 0 0 0 0 0 0 0 0 0 0 0 0 0 1 0 0 0 0 0 0 0 2 2 2 1 1 
2 3 2 2 3 3 2 2 1 3 2 1 3 2 2 1 1 0 1 2 2 3 3 3 1 1 0 3 2 3 2 2 2 2 1 3 3 3 0 0 1 3 2 2 4 2 4 4 3 3 3 4 4 3 4 3 2 0 0 0 1 1 1 1 2 0 1 1 2 4 2 1 3 1 2 2 3 3 2 3 2 1 2 2 1 2 1 4 3 4 2 3 2 2 1 3 2 3 3 4 5 5 6 6 5 5 4 5 4 2 2 2 2 2 3 2 2 2 1 1 2 2 1 0 0 0 0 0 0 0 0 0 0 0 0 0 0 0 0 0 0 0 0 0 0 0 0 0 0 0 0 0 0 0 0 0 0 0 0 0 0 0 0 0 16 124 171 178 180 185 188 186 185 183 181 180 177 174 170 168 167 166 163 162 159 157 151 148 146 144 141 140 136 131 126 123 116 110 98 84 63 32 40 145 185 188 189 192 191 191 195 195 196 197 197 198 195 197 194 192 180 119 67 127 190 194 196 198 197 196 196 194 193 194 194 191 191 193 194 193 193 192 191 191 191 190 189 192 191 191 192 193 194 194 192 190 190 189 190 188 188 189 191 190 189 188 188 188 187 189 189 189 189 188 189 189 189 190 189 189 188 188 187 186 186 187 185 186 185 183 184 183 184 186 186 185 185 187 185 184 184 182 182 182 181 180 181 179 179 179 178 180 178 179 178 181 180 179 177 179 180 181 180 180 180 180 177 179 177 177 176 175 177 176 176 176 176 177 178 176 176 177 177 177 177 175 176 176 175 175 175 172 173 172 171 170 169 167 167 166 167 166 167 168 168 168 165 166 166 165 164 163 163 164 164 165 163 164 165 163 161 154 141 126 113 101 89 75 56 33 6 0 0 28 94 147 164 165 166 167 165 166 167 168 168 169 169 168 167 167 166 163 159 156 120 35 5 4 4 3 2 2 2 2 0 1 1 3 4 1 1 0 0 1 0 0 0 0 0 0 0 0 0 1 2 2 2 2 2 2 2 3 0 0 0 0 0 1 1 0 2 0 0 0 0 2 5 5 5 4 2 4 2 2 2 2 2 1 2 1 1 0 2 3 3 5 3 4 2 1 3 2 2 3 4 3 5 3 5 5 4 5 5 4 5 5 4 3 4 5 3 5 4 5 6 4 3 2 3 3 4 2 1 3 3 1 2 1 0 1 1 0 0 0 1 1 0 0 0 0 0 0 0 0 0 0 0 0 0 0 0 0 0 0 0 0 0 0 0 0 0 0 0 0 0 0 0 2 2 3 2 1 3 1 0 0 1 0 0 0 1 1 1 0 0 0 0 0 0 1 0 1 1 0 2 2 0 0 0 0 0 0 0 0 0 0 0 0 0 0 0 0 0 0 0 0 0 0 0 0 0 0 0 0 0 0 0 0 0 1 0 0 0 0 1 3 3 2 2 1 
1 1 2 2 3 3 1 2 2 4 2 3 1 2 1 2 0 0 0 3 4 4 4 3 3 2 2 2 1 2 1 3 3 3 2 1 2 2 2 0 0 0 2 1 3 4 2 2 2 4 3 2 3 4 1 2 1 1 0 1 0 1 0 0 0 0 0 1 1 2 1 1 2 0 0 0 1 0 2 3 2 2 2 1 1 2 1 3 2 3 1 2 1 4 3 2 3 2 3 5 4 4 4 6 4 4 4 3 4 3 3 1 2 3 2 2 2 2 1 1 1 0 0 0 0 0 0 0 0 0 0 0 0 0 0 0 0 0 0 0 0 0 0 0 0 0 0 0 0 0 0 0 0 0 0 0 0 0 0 0 0 0 0 0 10 107 167 178 180 183 186 185 184 184 182 179 177 175 171 171 169 166 163 163 162 158 153 151 149 147 146 143 141 136 134 129 125 120 113 103 88 66 98 173 189 190 191 191 193 192 193 197 197 197 198 199 199 198 197 196 193 178 122 104 158 193 194 198 198 198 197 197 193 193 193 192 192 192 193 194 195 194 191 191 192 191 190 190 190 192 193 191 194 193 191 190 189 190 190 189 188 190 190 189 189 191 191 190 189 188 190 189 189 189 190 191 190 190 189 189 190 188 187 187 185 186 185 185 184 185 183 183 185 186 185 185 185 186 185 185 184 183 181 181 180 181 181 180 179 180 180 180 179 179 179 180 179 178 178 178 180 180 180 181 181 179 177 179 177 177 175 177 176 177 177 175 176 177 178 176 175 176 177 178 178 177 176 176 175 174 174 172 172 171 171 170 169 169 168 168 168 167 168 167 169 169 166 166 167 166 165 164 163 165 164 165 165 166 165 161 152 141 126 113 102 90 77 59 38 14 0 3 39 103 149 164 167 167 167 168 166 168 167 169 169 171 169 169 169 168 166 164 162 159 145 76 10 3 4 4 3 3 2 2 1 0 0 2 2 0 0 0 0 2 0 0 1 0 0 0 0 0 1 1 5 4 4 2 1 3 2 1 1 0 0 1 0 0 1 0 0 0 0 0 0 3 4 4 3 2 2 1 1 2 0 1 2 1 2 1 2 0 3 3 3 3 3 3 3 3 3 4 4 3 4 3 6 2 4 5 5 4 5 4 6 2 5 4 4 5 4 5 4 5 5 4 3 5 5 4 3 3 3 1 0 1 1 3 1 2 1 1 0 0 0 0 0 0 0 0 0 0 0 0 0 0 0 0 0 0 0 0 0 0 0 0 0 0 0 0 0 0 0 0 0 0 0 2 3 2 2 1 3 2 0 1 1 0 0 1 1 1 0 0 0 0 0 0 1 0 0 1 1 0 2 0 0 0 0 0 0 0 0 0 0 0 0 0 0 0 0 0 0 0 0 0 0 0 0 0 0 0 0 0 0 0 0 0 1 0 0 0 0 0 1 2 3 2 2 1 
1 1 0 0 1 2 1 1 1 2 2 2 3 2 1 1 0 1 2 3 4 5 3 5 3 4 2 2 2 1 2 1 3 2 3 3 2 2 3 3 2 2 3 2 2 2 3 2 2 2 3 2 4 2 0 0 2 2 2 2 0 0 0 0 0 0 1 1 1 1 0 0 0 0 0 0 0 0 0 1 0 1 3 3 2 3 3 2 2 2 2 2 1 3 5 4 2 2 4 4 5 4 4 5 4 3 3 3 3 1 1 2 1 2 1 2 0 1 1 1 1 2 1 0 0 0 0 0 0 0 0 0 0 0 0 0 0 0 0 0 0 0 0 0 0 0 0 0 0 0 0 0 0 0 0 0 0 0 0 0 0 0 0 0 6 86 161 175 178 183 186 186 185 186 181 177 177 174 171 170 168 166 163 163 162 158 156 154 151 149 148 148 144 143 139 136 133 128 125 118 103 98 149 186 189 191 192 190 193 194 194 195 198 197 199 200 199 199 198 198 199 192 178 138 131 168 193 196 198 198 198 197 197 196 193 192 195 193 193 194 193 192 193 192 192 192 193 191 191 192 193 193 193 192 191 191 191 190 191 190 190 190 190 190 190 190 192 190 191 190 191 189 189 192 192 192 191 190 190 190 190 188 188 186 186 185 186 186 184 184 184 185 185 186 184 186 185 185 185 184 183 182 180 182 181 181 180 180 179 179 181 181 180 181 180 180 180 179 179 180 181 179 180 179 180 179 178 179 179 177 177 177 177 177 177 176 176 176 176 175 177 177 177 177 177 176 176 174 175 175 173 173 173 172 171 170 170 171 169 168 169 168 169 168 169 170 169 170 168 169 168 166 167 166 165 163 162 162 158 152 135 122 112 103 92 79 63 42 16 0 4 50 116 156 165 166 168 169 168 168 167 169 170 171 172 172 172 172 170 169 167 164 164 160 154 114 29 3 4 2 4 2 2 2 1 1 3 3 1 1 0 2 1 0 1 0 2 1 0 0 0 0 1 3 5 5 4 4 2 2 3 2 1 0 0 1 0 1 0 0 0 0 1 0 0 3 3 2 1 1 3 2 0 2 1 1 0 0 1 2 2 3 3 3 2 2 2 2 2 3 2 3 3 4 4 4 4 3 3 3 3 1 3 4 2 3 4 4 6 4 5 4 5 4 3 4 4 3 4 4 2 2 2 2 1 2 1 2 2 2 0 0 1 0 0 0 0 0 0 0 0 0 0 0 0 0 0 0 0 0 0 0 0 0 0 0 0 0 0 0 0 0 0 0 0 0 0 0 2 3 1 2 3 1 0 2 2 0 0 1 0 0 0 0 0 0 0 0 0 0 0 0 0 0 0 0 0 0 0 0 0 0 0 0 0 0 0 0 0 0 0 0 0 0 0 0 0 0 0 0 0 1 0 0 0 0 0 0 0 0 0 0 0 0 1 1 3 1 1 0 
0 1 0 1 1 0 1 0 1 1 1 3 2 2 1 1 1 2 2 2 3 4 4 3 2 4 4 2 2 2 2 4 3 5 4 4 4 4 3 4 4 1 2 3 2 1 1 2 2 3 4 3 4 1 2 0 3 2 3 2 1 0 0 0 0 0 0 1 0 0 1 0 0 0 0 0 0 2 2 1 1 1 1 1 2 2 1 1 1 3 3 3 3 3 4 5 4 4 4 4 6 5 4 6 6 3 2 2 2 2 1 2 1 1 2 1 0 0 2 1 1 0 1 0 0 0 0 0 0 0 0 0 0 0 0 0 0 0 0 0 0 0 0 0 0 0 0 0 0 0 0 0 0 0 0 0 0 0 0 0 0 0 0 0 3 66 153 173 178 181 183 183 184 182 179 177 175 174 171 172 168 166 163 162 162 161 159 156 154 151 151 150 149 148 145 142 139 137 132 128 119 128 173 188 190 191 191 192 193 193 195 195 199 198 200 199 201 201 201 200 198 195 195 186 162 156 173 193 196 198 198 197 198 196 196 194 198 195 195 194 194 193 193 194 192 192 193 193 192 192 191 191 193 192 193 191 190 189 191 191 189 190 190 192 192 191 190 191 191 191 191 191 190 190 192 191 191 190 190 190 189 188 187 186 186 186 186 185 184 185 185 187 185 185 185 184 185 185 184 183 182 181 182 180 180 180 181 179 179 181 181 180 180 179 180 180 180 180 180 180 180 180 181 179 179 178 177 178 177 177 177 177 177 178 177 177 177 176 177 177 177 177 177 178 178 176 175 174 174 175 174 174 172 172 170 173 171 172 171 170 170 169 170 169 170 172 170 170 171 169 169 167 168 166 166 163 158 151 144 135 122 111 105 95 81 68 44 19 3 18 63 124 159 167 168 169 168 169 169 170 171 171 173 174 174 175 172 171 170 169 167 165 162 161 157 141 66 8 4 4 3 2 2 3 3 3 2 2 2 3 1 2 3 2 2 0 2 1 1 1 2 2 3 3 6 5 4 5 4 3 4 2 2 2 1 0 1 1 2 4 4 2 2 1 0 0 1 1 1 2 2 1 0 2 1 0 0 0 1 1 1 2 2 0 2 0 1 2 2 3 3 3 5 5 5 5 3 2 3 3 3 2 3 3 3 4 4 4 6 3 5 4 3 2 4 4 4 4 5 4 3 3 2 3 1 1 2 1 2 3 2 0 0 0 0 0 0 0 0 0 0 0 0 0 0 0 0 0 0 0 0 0 0 0 0 0 0 0 0 0 0 0 0 0 0 0 0 1 2 2 1 2 1 1 1 1 0 0 0 0 0 0 0 0 0 0 0 0 0 0 0 0 0 0 0 0 0 0 0 0 0 0 0 0 0 0 0 0 0 0 0 1 0 1 0 0 0 0 0 0 0 0 0 0 0 0 2 0 1 1 0 0 0 0 0 2 3 3 1 1 
0 0 0 0 1 0 0 0 2 2 2 1 1 1 2 1 1 0 1 1 3 5 5 4 2 2 3 3 3 3 2 2 3 4 3 5 5 4 5 3 4 3 3 2 1 1 1 2 2 2 3 3 5 3 2 2 2 1 2 1 0 0 0 0 0 0 0 0 0 0 1 0 0 0 0 0 0 0 0 0 0 0 2 1 2 2 2 1 2 2 4 4 4 3 4 5 4 4 3 3 4 3 4 3 5 3 3 2 2 2 2 2 2 2 1 0 0 0 1 1 0 0 0 0 0 0 0 0 0 0 0 0 0 0 0 0 0 0 0 0 0 0 0 0 0 0 0 0 0 0 0 0 0 0 0 0 0 0 0 0 0 0 0 0 0 44 145 175 177 180 182 182 183 181 178 175 176 175 174 172 171 168 166 164 163 162 161 158 157 157 155 154 152 152 148 146 145 143 139 135 131 156 183 191 190 193 192 194 193 194 196 196 197 199 198 200 200 202 200 201 199 201 197 197 192 178 171 183 194 198 196 196 196 197 198 197 199 197 195 193 193 192 192 194 192 193 193 192 192 192 192 193 193 194 192 191 190 191 190 189 189 188 190 192 193 192 191 192 192 191 191 190 191 191 191 191 190 189 190 190 191 189 188 187 186 187 187 187 187 185 186 186 183 184 184 183 184 184 184 183 182 181 181 180 180 181 181 179 178 181 181 180 180 179 179 179 180 179 179 180 180 179 181 179 179 179 179 179 178 179 178 177 178 176 176 176 177 178 177 178 177 177 177 175 177 176 175 176 175 176 176 174 175 173 173 173 174 172 171 171 171 171 172 171 172 172 172 170 171 170 170 168 168 165 163 156 146 139 126 119 111 103 95 86 70 47 24 16 49 104 144 163 169 170 171 171 170 170 171 172 172 173 173 175 176 175 173 171 168 168 166 163 163 160 158 152 107 25 4 5 2 2 3 2 1 3 3 3 2 3 2 0 3 3 2 1 3 2 0 1 3 1 3 5 5 5 4 4 5 4 3 2 1 2 1 1 1 3 2 1 2 1 3 1 2 1 0 0 1 0 1 0 0 0 0 0 1 1 0 0 0 0 1 0 1 1 1 2 3 1 2 2 5 4 5 5 4 3 4 4 3 2 2 2 2 4 6 6 6 5 4 5 4 3 4 3 5 3 5 5 5 3 3 4 3 2 1 2 2 2 0 1 0 0 0 0 0 0 0 0 0 0 0 0 0 0 0 0 0 0 0 0 0 0 0 0 0 0 0 0 0 1 0 0 0 0 0 0 1 2 1 1 0 1 1 1 1 0 0 0 0 1 0 0 0 0 0 0 0 0 1 0 0 0 0 0 0 0 0 0 0 0 0 0 0 0 0 0 0 1 0 0 0 0 1 2 0 0 0 0 0 0 0 0 0 0 1 1 2 0 0 0 0 0 0 0 1 0 0 0 
1 1 0 0 0 0 0 1 2 2 1 2 2 2 2 2 2 2 1 2 3 4 3 4 2 2 3 3 3 4 2 3 3 5 4 5 6 4 5 5 3 5 1 2 2 2 1 3 1 2 1 3 3 0 1 2 2 2 1 0 2 1 2 0 0 0 0 0 0 0 0 0 0 0 0 0 0 0 0 0 0 1 1 1 1 1 2 1 1 1 3 3 3 4 5 4 5 5 4 2 1 2 2 3 4 4 2 1 1 2 2 2 2 1 0 0 0 0 0 1 0 0 1 1 0 0 0 0 0 0 0 0 0 0 0 0 0 0 0 0 0 0 0 0 0 0 0 0 0 0 0 0 0 0 0 0 0 0 0 0 0 0 0 0 0 30 139 174 176 179 182 180 182 181 178 178 178 176 175 172 171 170 167 166 165 163 163 162 161 158 158 156 157 155 153 152 151 147 146 140 146 174 189 191 192 192 194 195 195 194 195 197 197 198 200 200 201 202 201 201 199 202 198 197 195 194 188 184 190 194 196 195 193 195 196 195 199 197 195 194 194 194 193 194 194 195 193 192 193 192 191 192 193 193 192 191 191 191 191 190 190 190 193 193 194 194 193 193 190 192 192 190 190 191 190 190 189 190 189 188 189 189 189 188 187 187 188 185 186 187 186 185 185 185 185 184 183 183 184 184 183 181 182 181 182 181 179 178 180 179 179 179 180 179 179 179 179 179 179 180 179 180 180 180 178 180 180 179 179 178 177 178 179 179 177 176 177 178 177 178 177 177 177 175 176 176 176 176 176 175 175 176 175 173 174 174 174 172 172 174 173 172 171 172 172 172 173 172 171 171 170 168 167 158 150 140 131 124 117 111 102 94 84 71 49 33 44 89 135 160 167 169 171 172 172 170 171 173 173 172 174 172 175 176 176 175 174 173 171 168 167 167 163 162 159 158 138 62 6 1 2 3 2 2 3 3 3 3 3 3 3 1 2 3 2 3 2 3 1 4 5 3 4 4 4 6 6 5 6 4 5 4 0 1 2 1 2 0 2 3 0 1 2 1 1 1 0 0 0 0 0 0 0 0 0 0 0 0 0 0 1 0 0 0 0 1 0 3 2 2 3 3 4 5 5 5 3 3 3 3 3 3 3 2 3 4 5 5 4 5 5 4 4 3 3 3 4 5 6 6 5 3 2 3 1 1 2 2 3 1 0 0 0 0 0 0 0 0 0 0 0 0 0 0 0 0 0 0 0 0 0 0 0 0 0 0 0 0 0 0 1 1 1 0 0 0 0 0 0 1 0 0 0 0 0 1 0 0 0 0 0 0 0 0 0 0 0 0 0 1 1 0 0 1 0 0 0 0 0 0 0 0 0 0 0 0 0 0 0 0 0 0 1 0 1 2 1 1 0 0 0 0 0 0 1 0 1 0 0 0 0 0 0 1 0 0 0 0 0 0 
0 0 0 0 0 1 0 2 2 3 2 2 3 3 3 2 3 2 2 3 2 4 5 5 3 3 3 5 5 5 3 4 5 5 5 4 5 5 5 5 3 3 2 4 3 3 3 2 2 1 2 4 3 2 1 1 2 1 0 2 0 0 0 0 0 0 0 0 0 0 0 0 0 0 0 0 0 0 0 0 1 2 1 2 1 2 0 0 1 0 1 1 2 4 4 4 4 5 4 3 1 1 2 2 4 2 1 0 1 1 1 2 1 1 0 1 0 0 0 0 0 1 0 0 0 0 0 0 0 0 0 0 0 0 0 0 0 0 0 0 0 0 0 0 0 0 0 0 0 0 0 0 0 0 0 0 0 0 0 0 0 0 0 0 0 18 124 170 174 177 182 180 182 181 181 178 177 176 175 174 173 171 169 166 169 166 163 162 164 161 161 158 159 158 157 156 155 151 149 147 160 184 192 192 193 192 193 193 194 195 197 197 199 196 200 201 203 201 199 201 200 202 198 198 199 197 197 191 189 190 193 196 193 192 195 196 195 195 196 194 194 193 193 193 194 194 193 194 193 193 192 193 192 192 192 192 192 192 193 191 191 192 192 193 194 193 195 192 193 192 190 192 192 190 190 189 189 189 189 191 190 188 189 189 187 188 188 189 187 187 186 186 183 184 184 183 182 183 184 184 183 184 183 181 182 179 178 177 179 180 179 179 179 179 178 179 179 180 180 179 179 180 179 179 180 180 179 180 179 177 177 178 178 178 178 177 178 177 179 180 178 177 177 176 176 176 177 178 177 177 176 175 174 175 174 174 173 172 172 174 173 174 174 173 171 171 171 171 170 171 167 162 158 147 135 127 121 117 110 102 93 82 69 52 50 79 126 156 167 170 170 171 172 173 173 172 172 172 174 174 175 174 176 175 176 176 175 172 170 169 167 166 165 161 160 158 151 102 18 2 2 2 2 3 2 4 2 4 2 3 2 2 3 3 2 3 4 5 3 4 5 5 4 5 5 5 3 4 4 4 5 3 1 2 1 3 1 0 1 2 2 1 2 1 1 0 0 1 1 0 0 0 0 0 0 0 0 0 0 0 0 0 0 0 0 0 0 0 2 1 2 3 5 3 4 5 5 4 3 3 2 3 2 4 4 5 5 7 6 5 4 4 2 3 4 4 5 5 5 5 4 4 3 1 0 1 1 1 2 1 0 0 0 0 0 0 0 0 0 0 0 0 0 0 0 0 0 0 0 0 0 0 0 0 0 0 0 0 0 0 0 0 0 0 0 0 0 0 0 0 0 0 0 0 0 0 0 0 0 0 0 0 0 0 0 0 0 0 1 1 1 1 0 0 0 0 0 0 0 0 0 0 0 0 0 0 0 0 0 0 0 0 0 0 0 1 0 1 0 0 0 0 0 1 0 0 0 1 1 0 1 0 0 2 0 1 1 0 0 0 
0 0 0 1 1 1 1 3 3 2 1 1 0 2 2 2 2 1 2 3 3 3 5 4 4 2 3 5 5 5 6 5 6 5 5 5 4 4 5 5 3 3 3 5 5 4 3 2 2 1 3 4 3 4 1 2 1 1 1 1 1 1 0 0 0 0 0 0 0 0 0 0 0 0 0 0 0 0 0 0 1 1 1 2 2 2 0 0 0 0 1 0 3 2 3 4 4 6 3 1 1 2 1 2 3 3 2 1 1 0 1 0 1 1 0 1 2 0 0 0 0 1 0 0 0 0 0 0 0 0 0 0 0 0 0 0 0 0 0 0 0 0 0 0 0 0 0 0 0 0 0 0 0 0 0 0 0 0 0 0 0 0 0 1 0 8 105 166 176 177 179 180 181 181 181 179 178 179 175 175 173 172 169 169 168 168 165 165 165 163 163 162 161 159 159 158 157 156 153 155 175 188 193 193 194 194 195 193 195 197 197 198 199 199 201 199 200 202 202 199 200 199 200 199 200 199 198 198 194 192 188 190 191 192 193 194 194 194 194 195 195 194 194 194 195 193 195 194 193 193 194 194 191 193 191 192 191 193 192 193 192 192 193 194 194 193 193 193 192 192 191 191 189 190 190 189 190 189 189 190 190 189 188 188 189 188 190 188 187 187 185 185 184 182 182 181 183 183 184 185 184 183 183 184 184 181 180 178 179 180 180 179 180 180 179 178 179 180 181 180 180 180 180 179 180 179 180 180 178 179 179 179 180 178 176 178 178 179 179 180 178 177 176 177 177 178 178 178 178 178 177 176 174 176 174 174 174 173 174 174 175 175 175 173 172 172 173 170 165 161 157 146 142 134 126 120 114 108 101 90 78 66 60 75 114 150 169 172 170 171 171 171 172 173 172 172 173 173 174 173 174 175 174 175 176 176 175 173 170 169 168 168 166 164 162 161 157 131 47 6 2 2 2 4 3 3 4 5 5 5 2 3 2 3 2 4 3 4 5 4 6 5 4 4 5 3 3 3 4 5 3 2 2 4 2 2 1 0 1 1 1 1 3 2 1 1 1 1 0 0 1 0 0 0 0 0 0 1 0 0 0 0 0 0 0 0 0 1 2 1 1 3 5 3 3 4 4 4 3 2 2 4 4 4 7 5 5 6 5 6 5 5 3 3 3 4 4 5 4 4 4 4 1 1 0 1 1 2 2 2 0 0 0 0 0 0 0 0 0 0 0 0 0 0 0 0 0 0 0 0 0 0 0 0 0 0 0 0 0 0 0 0 0 0 0 0 0 0 0 0 0 0 0 0 0 0 0 0 0 0 0 0 0 0 0 0 0 0 0 0 2 0 0 1 0 0 0 0 0 0 0 0 0 0 0 0 0 0 0 0 0 1 0 0 0 0 0 0 0 0 0 1 1 0 0 0 0 1 2 0 1 2 2 0 1 0 0 1 0 1 
0 0 0 0 0 0 2 2 2 2 2 1 0 2 1 2 1 1 2 3 4 3 4 4 3 5 4 3 4 5 8 6 7 6 6 5 6 4 4 4 5 5 4 3 5 4 4 3 3 3 2 2 2 1 1 2 0 2 2 0 0 0 0 0 0 0 0 0 0 0 0 0 1 0 1 0 1 0 2 0 1 1 1 1 1 2 1 0 0 0 0 0 2 1 2 2 3 3 2 1 0 1 2 1 2 2 1 2 1 1 0 0 1 1 1 2 1 0 1 1 2 2 0 0 0 0 0 0 0 0 0 0 0 0 0 0 0 0 0 0 0 0 0 0 0 0 0 0 0 0 0 0 0 0 0 0 0 0 0 0 0 0 0 0 0 5 87 161 175 175 177 181 180 181 181 180 179 179 175 175 174 171 172 170 170 170 168 166 166 164 166 164 161 161 161 161 159 159 157 165 185 192 192 194 196 195 194 196 196 198 196 198 198 199 200 200 200 201 200 200 200 199 199 198 201 199 198 199 196 195 194 190 189 190 192 193 195 195 194 196 195 195 194 194 196 195 195 195 195 195 194 193 194 193 192 193 194 193 194 193 194 194 193 193 193 193 193 191 192 191 190 190 191 190 192 191 193 190 190 191 189 187 187 187 187 188 188 188 186 186 185 185 184 184 182 184 183 183 185 185 186 184 185 184 183 183 180 179 179 179 179 179 180 181 179 179 180 180 180 180 180 180 179 178 179 178 179 180 180 180 180 180 180 178 178 178 179 179 179 178 178 177 179 177 178 178 180 180 178 178 177 177 175 176 175 175 175 174 173 175 175 175 175 176 174 172 166 163 156 146 140 136 131 127 119 113 107 97 86 79 73 81 113 146 165 172 174 174 173 173 172 172 172 175 173 173 173 174 175 174 176 176 174 175 174 175 175 172 170 170 168 166 167 166 165 163 158 148 90 14 1 2 2 4 4 4 4 7 5 5 5 3 4 3 2 2 3 4 4 5 6 7 7 3 5 4 4 4 4 5 4 1 1 4 4 3 2 1 1 1 1 2 3 3 2 1 2 2 0 1 0 1 0 1 0 0 0 2 2 1 0 0 0 0 0 0 0 0 0 0 1 3 3 2 3 3 3 3 3 4 2 3 3 4 5 4 3 5 5 4 5 4 4 3 3 1 3 3 3 1 2 2 1 0 0 1 1 0 2 1 0 0 0 0 0 0 0 0 0 0 0 0 0 0 0 0 0 0 0 0 0 0 0 0 0 0 0 0 0 0 0 0 0 0 0 0 0 0 0 0 0 0 0 0 0 0 0 0 0 0 0 0 0 0 0 0 0 0 0 1 1 1 0 0 0 0 0 0 0 0 0 0 0 0 0 0 0 0 0 1 2 2 0 1 0 1 0 0 0 0 0 2 1 0 1 1 1 2 2 0 2 3 0 1 0 0 0 0 0 0 
0 0 0 1 0 0 1 0 1 4 2 1 1 2 0 1 0 1 3 2 3 4 5 5 5 3 5 4 4 5 5 6 8 6 5 5 6 4 3 4 5 5 5 5 4 5 4 4 2 3 1 1 1 2 2 1 0 0 0 0 0 0 0 0 0 0 0 0 0 0 0 0 2 2 2 1 0 0 0 1 0 0 0 2 1 2 0 0 0 0 0 0 1 1 2 1 1 1 1 1 2 3 3 2 2 1 2 1 1 0 0 1 2 1 2 2 1 1 0 0 0 1 0 0 0 0 0 0 0 0 0 1 1 0 0 0 0 0 0 0 0 0 0 0 0 0 0 0 0 0 0 0 0 0 0 0 0 0 0 0 0 0 0 2 0 3 64 156 174 175 178 181 180 180 180 180 180 178 178 175 174 174 173 173 173 173 170 169 169 168 167 165 163 165 165 165 164 162 163 176 188 192 195 193 195 197 198 198 197 200 196 198 197 200 199 199 198 200 199 199 199 198 200 200 199 199 198 198 196 198 197 195 193 191 189 191 192 194 197 197 197 195 192 195 196 196 196 196 196 195 196 193 196 194 193 194 196 195 194 194 195 196 194 196 194 193 192 191 190 192 193 191 192 192 192 193 193 192 190 192 189 189 189 188 188 187 188 187 188 186 185 185 185 185 184 185 185 184 184 185 184 185 185 185 184 182 181 180 180 180 179 180 181 182 179 179 180 181 181 182 182 180 180 180 179 180 180 179 180 181 179 178 178 178 178 178 180 180 180 178 177 177 177 178 178 178 179 178 179 177 179 177 175 176 176 175 174 173 174 175 176 176 173 170 166 161 154 149 143 139 133 129 123 119 113 105 97 89 86 98 125 149 165 171 173 174 175 176 175 174 173 172 174 175 174 174 173 175 174 174 175 174 175 176 177 174 173 172 171 170 170 170 169 167 167 164 161 158 126 42 4 3 3 1 2 4 6 6 7 7 5 4 3 3 3 1 3 1 4 7 6 6 8 7 6 6 5 6 5 4 3 1 2 4 4 1 2 3 3 2 1 1 2 3 3 1 0 1 0 0 0 0 1 0 0 0 0 1 2 1 1 0 0 0 0 0 0 0 0 1 1 3 2 2 2 2 0 2 3 3 1 1 3 4 4 4 4 3 4 6 3 3 3 3 2 3 3 3 1 0 1 1 0 0 0 0 0 0 1 0 0 0 0 0 0 0 0 0 0 0 0 0 0 0 0 0 0 1 0 0 0 0 0 0 0 0 0 0 0 0 0 0 0 0 0 0 0 0 0 0 0 0 0 0 0 0 0 0 0 0 0 0 0 0 0 0 0 0 0 0 0 1 0 0 0 0 0 1 0 0 0 1 0 0 0 0 0 0 0 2 1 2 2 2 2 1 0 0 0 0 0 1 1 2 1 2 2 3 0 2 1 2 1 0 0 0 0 0 0 0 
0 0 1 1 0 1 1 2 1 2 3 0 0 0 1 2 2 1 5 3 3 6 5 4 4 4 3 3 5 4 5 6 8 5 7 5 5 4 4 4 4 4 4 4 4 4 3 3 3 0 0 0 0 0 2 2 1 1 1 0 0 0 0 0 0 0 0 0 0 0 0 1 2 1 0 0 0 0 0 0 0 0 0 1 0 2 0 0 0 0 0 0 0 1 1 1 1 2 3 2 1 1 2 1 1 1 1 1 0 1 2 0 0 1 2 2 1 0 0 0 1 0 0 0 0 0 0 0 0 0 0 0 1 0 2 1 0 0 0 0 0 0 0 0 0 0 0 0 1 0 0 0 0 0 0 0 0 0 0 0 0 0 0 0 0 0 45 147 173 175 176 179 180 181 181 182 180 179 177 175 174 175 175 175 174 174 173 171 170 169 168 166 166 168 168 168 167 164 169 184 190 191 195 194 195 198 198 197 198 199 198 198 198 198 198 199 200 197 200 199 199 199 198 199 199 200 199 197 198 198 198 197 198 195 194 195 191 191 194 196 197 195 194 196 195 196 196 196 196 195 197 196 196 194 194 193 195 194 195 193 194 196 195 195 193 193 192 191 191 193 194 194 193 193 192 192 192 192 192 190 189 189 187 188 188 189 188 188 187 186 187 186 186 186 185 183 185 185 185 187 184 185 185 185 184 184 183 183 181 182 180 180 180 180 180 180 180 180 181 181 182 184 181 182 180 180 181 181 181 179 178 179 179 178 177 178 178 178 178 178 178 177 178 180 179 178 180 180 180 180 178 177 177 176 177 176 176 175 174 172 173 173 167 158 151 146 142 140 135 133 128 123 116 109 103 98 101 118 141 159 171 175 175 173 174 177 176 176 175 174 173 174 175 175 176 176 177 176 175 175 174 175 175 177 174 176 174 173 170 172 171 170 172 170 167 165 163 159 146 81 11 2 3 2 3 4 7 6 6 7 7 5 4 4 2 2 4 4 2 7 7 7 8 9 8 6 6 6 6 5 4 2 4 5 4 3 1 2 0 0 1 1 2 2 2 1 1 1 1 0 0 0 1 0 0 0 1 0 0 2 1 0 0 0 0 0 0 0 1 1 2 2 0 0 3 1 1 2 1 2 2 2 2 5 2 3 4 4 4 3 1 2 1 2 2 0 2 2 2 0 0 0 0 0 0 0 0 0 1 0 1 0 0 0 0 0 0 0 0 0 0 0 0 0 0 0 0 0 0 0 0 0 0 0 0 0 0 0 0 0 0 0 0 0 0 0 0 0 0 0 1 0 0 0 0 0 0 0 0 0 0 0 0 0 0 0 0 0 0 0 0 0 0 0 0 0 0 0 0 0 0 1 1 2 0 0 1 1 0 1 2 2 4 2 2 2 0 1 2 1 0 1 1 1 1 2 2 1 0 1 0 0 0 0 0 0 0 0 0 0 
0 0 0 0 0 1 1 1 1 2 2 1 0 0 2 1 2 3 3 4 5 6 5 3 3 4 4 3 4 5 7 8 8 7 6 4 3 3 3 2 3 3 3 3 2 3 4 4 4 3 1 2 1 2 2 2 2 2 0 0 0 0 0 0 0 0 0 0 0 0 2 0 0 0 0 0 0 0 0 0 0 0 0 1 1 1 0 0 0 0 0 0 0 0 1 1 1 1 0 2 1 1 1 0 1 0 0 0 0 0 0 1 1 1 2 1 2 0 0 0 0 0 0 0 0 0 0 0 0 0 1 0 1 1 0 0 0 0 0 0 0 0 0 0 0 0 0 0 1 0 0 0 0 0 0 0 0 0 0 0 0 0 0 0 0 0 28 133 170 173 175 179 180 183 182 181 180 179 177 175 174 176 175 175 176 176 174 174 173 170 170 169 170 170 169 169 168 168 177 188 192 192 193 196 195 196 198 197 198 198 198 198 199 199 199 201 200 198 199 199 198 199 198 199 197 198 199 199 199 200 197 198 198 196 196 198 195 194 190 190 192 194 194 195 195 197 197 197 197 197 198 197 198 196 195 197 195 195 194 194 195 195 196 194 194 194 193 193 192 193 193 193 194 193 193 191 191 190 190 191 191 189 187 188 188 188 188 188 188 187 186 186 185 187 185 185 184 186 186 186 186 186 187 185 185 184 183 181 181 181 182 180 182 181 180 180 180 180 181 182 182 184 183 181 182 181 181 180 181 181 180 179 180 179 179 177 177 178 178 179 178 179 179 181 182 179 180 179 180 181 178 178 177 178 177 175 174 171 167 165 163 157 155 148 143 138 137 135 129 126 118 113 109 106 112 132 150 164 174 177 178 177 177 177 178 178 176 175 175 174 174 176 176 177 178 178 178 178 177 177 174 175 175 175 175 177 175 174 174 174 172 170 170 168 169 165 162 161 155 118 32 3 3 3 5 4 4 5 5 7 7 5 5 5 2 3 2 6 4 6 5 7 7 8 9 8 7 7 6 6 5 3 2 3 4 3 2 1 2 0 0 1 2 1 0 1 0 2 2 0 2 0 0 0 0 0 0 0 0 1 0 0 0 0 0 0 0 1 1 3 2 2 2 0 3 0 0 2 2 2 3 2 2 4 3 2 2 2 2 2 1 0 2 2 1 1 0 1 1 0 1 1 0 0 0 0 0 1 2 2 2 0 0 0 0 0 0 0 0 0 0 0 0 0 0 0 0 0 0 1 0 0 0 0 0 0 0 0 0 0 0 0 0 0 0 0 0 0 0 0 0 0 0 0 0 0 0 0 0 0 0 0 0 0 0 0 0 0 0 0 0 0 0 0 0 0 2 1 2 1 1 1 2 2 2 3 2 1 0 2 1 4 3 4 4 2 3 3 2 3 2 1 2 1 1 1 1 1 0 0 0 0 0 0 0 0 0 1 0 0 
0 0 0 0 0 1 2 3 3 2 2 1 1 1 2 2 4 4 4 6 7 5 3 3 2 4 4 4 4 6 6 7 8 7 6 4 4 1 4 2 2 3 3 1 2 4 3 4 5 3 3 1 1 1 2 3 1 1 0 0 0 0 0 0 0 0 0 0 0 0 0 0 0 0 0 0 0 0 0 0 0 1 1 1 0 0 0 0 0 0 0 0 0 0 0 3 1 1 1 2 2 2 0 1 0 0 0 0 0 0 0 0 0 1 2 3 1 0 0 0 0 0 0 0 0 0 0 0 0 0 2 1 0 0 0 0 0 0 0 0 0 0 0 0 0 0 0 0 1 0 0 0 0 0 0 0 0 0 0 0 0 0 0 0 0 0 13 117 167 172 175 178 180 182 182 181 179 177 179 177 176 178 176 176 176 176 176 176 172 172 172 172 172 170 171 171 169 171 184 190 192 192 193 193 196 196 198 198 198 198 199 199 199 200 202 201 200 199 200 197 198 197 198 199 198 198 200 199 199 200 198 199 198 197 197 197 198 198 195 195 191 189 191 191 193 196 196 197 199 198 198 197 197 196 196 196 196 195 196 197 197 197 196 196 193 194 192 194 194 193 193 193 194 192 194 192 191 191 191 191 191 190 189 189 188 188 189 189 187 186 186 187 187 187 187 184 185 187 188 188 188 186 186 185 183 185 184 183 182 183 183 182 180 182 183 181 181 181 181 182 184 183 182 182 180 181 181 181 181 181 181 181 179 178 177 178 179 179 180 180 179 181 181 181 181 180 180 181 181 180 179 177 175 176 171 167 163 160 157 155 151 149 147 144 140 135 131 125 123 118 114 116 128 145 158 169 177 179 178 179 180 178 181 180 178 179 178 177 175 175 176 178 178 179 180 179 178 179 177 177 177 175 175 176 174 175 174 173 173 173 171 169 168 169 167 166 165 161 159 141 68 7 2 4 4 4 3 3 5 5 7 6 5 5 4 3 3 4 4 6 4 8 7 7 7 7 6 5 6 7 4 3 5 4 4 4 2 0 0 0 1 1 3 1 0 2 2 2 0 0 0 0 0 0 0 0 0 0 0 0 0 0 0 0 0 0 0 0 2 3 1 3 3 0 2 0 0 0 1 0 2 2 2 2 1 1 2 2 2 1 3 1 0 1 1 0 1 1 0 2 1 1 0 0 2 0 0 1 2 2 1 0 0 0 0 0 0 0 0 0 0 0 0 0 0 0 0 0 0 0 0 0 0 0 0 0 0 0 0 0 0 0 0 0 0 0 0 0 0 0 0 0 0 0 0 0 0 0 0 0 0 0 0 0 0 0 0 0 0 0 0 0 0 0 0 0 0 1 1 2 1 1 2 4 3 2 2 2 2 3 3 2 4 5 3 1 3 3 1 2 2 2 1 2 0 0 0 0 0 0 0 0 0 0 0 0 1 0 1 0 
0 0 0 1 0 2 3 4 3 1 0 0 1 2 3 2 3 4 6 5 5 6 4 3 3 3 3 5 5 6 8 8 7 5 6 6 3 3 2 2 2 4 3 2 2 3 4 2 5 2 2 3 1 2 3 3 3 3 0 0 0 0 0 0 0 0 0 0 0 0 0 0 0 0 0 0 0 0 0 0 0 0 2 2 2 1 0 0 0 0 0 1 0 0 1 2 0 0 1 0 1 0 0 0 0 0 0 0 0 0 0 0 1 1 3 3 1 1 0 0 0 0 0 0 0 0 0 1 0 0 1 2 3 0 0 1 0 0 2 0 0 0 0 0 0 0 0 1 1 0 0 0 0 0 0 0 0 0 0 0 0 0 0 0 0 0 5 96 162 173 175 179 182 182 181 181 180 181 180 178 178 177 178 176 178 177 178 177 175 174 174 172 173 172 173 172 172 177 187 190 190 192 192 194 195 196 197 198 197 198 198 199 199 200 201 200 199 199 200 198 199 198 199 198 198 199 199 198 197 199 200 197 199 198 198 198 199 198 196 197 195 195 192 191 190 192 193 197 197 196 196 198 196 195 196 196 197 197 196 197 197 197 195 196 195 194 192 193 194 193 194 194 193 192 193 193 191 192 192 192 192 191 191 190 189 190 190 190 190 187 187 187 188 186 187 187 187 187 187 187 186 187 185 183 184 183 183 183 182 185 183 182 183 182 183 184 182 181 182 183 184 183 184 183 182 181 181 182 181 182 182 180 179 178 179 177 178 179 180 181 180 182 182 181 183 181 180 179 177 176 174 172 170 166 162 158 152 150 150 148 147 144 141 138 133 130 126 124 125 130 141 154 166 174 176 178 179 179 180 181 181 183 182 182 179 181 177 176 177 177 177 178 178 179 179 179 179 179 178 178 178 177 176 175 173 175 176 173 173 172 171 169 169 170 171 167 165 162 158 152 107 23 3 5 5 4 3 4 5 5 5 7 5 3 2 2 4 4 4 5 5 6 8 6 5 5 6 5 6 6 6 2 5 4 3 4 2 1 0 0 1 1 2 0 0 1 1 0 0 0 0 0 0 0 0 0 0 0 0 0 0 0 0 0 0 0 0 1 2 1 1 2 1 2 1 0 0 1 0 0 1 0 0 0 0 0 1 0 0 0 2 1 1 1 3 0 0 1 0 0 1 0 0 2 2 1 1 1 2 1 1 0 0 0 0 0 0 0 0 0 0 0 0 0 0 0 0 1 0 0 0 0 0 1 0 0 0 0 0 0 0 0 0 0 0 0 0 0 0 0 0 0 0 0 0 0 0 0 0 0 0 0 0 0 0 0 0 0 0 1 0 0 2 0 1 1 1 2 2 2 2 1 3 2 2 2 3 1 2 2 3 4 3 4 3 3 4 3 0 2 2 2 0 2 1 1 0 0 0 0 0 0 0 0 0 0 1 1 0 1 
0 0 0 1 2 1 3 4 3 1 0 0 3 4 1 3 5 4 6 5 5 5 5 4 3 3 3 5 5 4 5 6 6 5 6 6 4 3 3 3 3 3 4 4 4 5 4 3 1 2 1 1 2 2 2 3 4 2 1 0 0 0 0 0 0 0 0 0 0 0 0 0 0 0 0 0 0 0 0 0 0 2 1 1 0 0 0 0 0 0 0 0 0 0 0 0 0 0 0 0 0 0 0 0 0 0 0 0 0 0 0 0 1 2 2 1 1 0 0 0 0 0 0 0 0 0 1 1 1 1 2 1 2 1 0 1 2 0 0 0 0 0 0 0 0 0 0 0 0 0 0 0 0 0 0 0 0 0 0 0 0 0 0 0 0 0 0 66 152 172 175 178 179 181 180 180 180 181 181 178 179 178 179 177 179 180 179 179 177 177 175 174 176 175 175 173 174 183 189 192 192 193 192 194 195 197 198 198 197 197 198 197 198 200 200 201 200 200 202 198 199 197 198 199 197 200 198 198 198 196 199 197 198 198 198 199 197 197 197 196 197 199 197 198 196 194 193 192 192 194 195 195 195 196 196 196 196 197 197 197 196 198 196 195 194 192 191 193 194 195 195 193 192 192 193 192 193 191 191 192 193 193 189 190 190 191 192 191 190 189 188 188 190 188 188 188 188 188 188 188 188 187 185 183 182 184 185 184 184 185 184 184 185 184 185 185 184 183 184 185 185 183 182 182 183 181 181 182 183 181 182 182 181 179 179 177 178 179 181 182 182 181 181 179 178 176 174 173 168 167 162 160 157 155 152 151 149 147 146 145 144 138 136 132 131 134 139 151 162 169 173 177 180 182 180 181 182 183 183 182 182 184 182 180 179 177 177 178 178 179 179 178 178 179 179 179 179 179 179 179 178 178 178 175 175 175 174 174 173 173 172 172 174 172 169 169 165 164 162 157 138 60 8 4 4 4 5 5 6 6 4 4 5 3 3 4 4 4 5 6 6 6 6 4 4 4 3 6 5 5 4 4 4 4 2 3 0 2 1 0 1 1 1 2 1 2 1 0 1 2 1 0 0 0 0 0 0 0 0 0 0 0 0 0 0 0 0 1 2 1 1 1 0 2 0 0 1 1 1 0 0 0 0 0 0 0 0 0 0 0 1 2 1 0 0 1 0 1 0 0 0 0 0 0 2 1 1 1 1 1 0 0 0 0 0 0 0 0 0 0 0 0 0 0 0 0 1 0 0 0 0 1 0 0 0 0 0 0 0 0 0 0 0 0 0 0 0 0 0 0 0 0 0 0 0 0 0 0 0 0 0 0 0 0 0 0 0 0 0 0 0 2 2 3 1 2 3 2 2 2 2 2 1 2 3 3 2 2 3 3 3 4 4 4 5 4 4 1 2 2 2 2 2 3 1 0 1 0 0 0 0 1 0 0 0 0 0 1 1 0 
0 0 1 1 1 1 3 2 1 1 0 1 1 2 4 4 5 4 4 3 5 4 5 3 3 2 3 5 3 3 3 6 6 6 7 5 3 3 3 3 2 2 2 2 2 2 1 1 0 1 1 0 2 1 2 2 3 2 0 0 0 0 0 0 0 2 1 0 0 0 0 1 1 0 0 0 0 0 0 1 1 0 0 0 0 0 0 0 0 0 0 0 0 0 0 0 0 0 0 0 0 0 0 0 0 0 0 0 0 0 0 0 0 1 0 0 0 0 1 1 0 0 0 1 2 0 2 2 2 1 1 0 1 1 2 2 1 1 2 0 0 0 0 0 0 0 0 0 0 0 0 0 0 0 0 0 0 0 0 0 0 0 0 0 0 0 0 43 141 170 174 177 179 179 180 182 180 180 180 181 178 179 180 179 180 181 179 180 177 177 176 176 177 177 177 174 179 186 191 193 194 193 192 195 197 197 200 199 198 197 198 198 200 199 199 199 197 199 201 201 200 199 199 198 198 197 198 198 196 197 198 199 198 199 197 198 199 198 199 197 200 200 197 198 198 198 199 197 195 193 190 190 193 194 194 196 195 195 196 196 195 196 195 194 194 192 192 193 194 194 194 194 193 194 193 192 195 194 193 193 194 192 192 192 191 191 192 192 191 188 191 190 189 189 188 188 189 189 189 187 188 186 186 184 185 186 186 186 186 186 185 185 186 185 185 185 184 184 183 184 183 184 184 183 183 182 182 182 181 182 183 182 181 180 180 180 178 180 180 179 179 177 176 171 168 165 165 162 159 158 155 152 150 149 147 146 146 143 141 139 138 138 142 151 159 167 172 177 178 181 181 183 185 183 183 183 183 183 182 183 183 183 182 180 181 179 179 179 178 178 180 180 179 178 178 177 178 178 178 178 179 177 176 176 178 177 177 173 173 172 173 174 173 171 170 168 166 165 162 159 150 101 18 4 4 3 4 5 6 6 6 4 4 3 3 3 4 6 6 5 5 6 7 6 4 2 2 2 4 4 3 4 3 3 3 3 3 0 1 3 3 2 3 1 1 1 1 1 1 2 1 0 0 0 0 0 0 0 0 0 0 0 0 0 0 0 0 1 1 0 0 2 0 0 0 0 1 0 0 1 0 0 0 0 0 0 0 0 0 0 0 2 1 0 0 1 0 0 0 0 0 0 0 0 1 1 1 1 1 0 1 0 0 0 0 0 0 0 0 0 0 0 0 0 0 0 2 1 0 1 2 1 0 0 0 0 0 0 0 0 0 0 0 0 0 0 0 0 0 0 0 0 0 0 0 0 0 0 0 0 0 0 0 0 0 0 0 1 1 0 2 2 5 2 2 3 2 3 2 2 2 1 1 2 3 3 4 3 4 4 3 4 2 3 3 2 2 2 0 1 1 2 1 2 2 1 0 1 0 2 1 1 0 0 0 0 1 0 1 1 
0 1 1 1 1 0 1 1 0 1 2 2 3 5 3 4 5 4 4 3 4 5 2 3 1 1 2 4 5 5 6 6 5 5 5 5 5 4 3 4 3 3 2 2 2 2 0 0 0 1 0 0 1 2 2 2 1 2 0 0 0 0 0 0 0 0 2 1 0 1 1 0 0 0 0 0 0 0 1 1 0 1 0 0 0 0 0 0 0 0 0 0 0 0 0 0 0 0 0 0 0 0 0 0 0 0 0 0 0 0 0 0 0 0 1 0 1 0 1 0 0 0 1 2 0 0 3 3 3 3 2 1 1 1 2 0 1 0 1 2 0 0 1 0 0 0 0 0 0 0 0 0 0 0 0 0 0 0 0 0 0 0 0 0 0 0 0 25 127 167 172 176 178 180 180 182 181 181 181 179 179 181 182 181 179 181 181 181 177 176 177 178 179 179 179 180 185 189 192 192 193 193 195 196 198 199 199 199 198 198 198 199 199 198 199 198 197 200 200 199 200 198 199 199 199 198 199 198 197 197 198 200 198 200 198 198 199 199 199 198 199 199 199 199 200 199 198 197 197 197 197 194 194 192 189 191 192 192 193 192 195 193 194 195 193 192 193 192 193 192 192 193 193 193 192 194 193 193 193 193 194 194 192 192 193 192 192 192 191 190 191 189 189 189 188 190 190 190 190 190 189 187 187 187 187 187 187 186 186 186 187 187 187 186 186 187 186 185 185 184 183 184 183 182 183 181 181 180 181 182 181 180 180 178 177 175 176 174 173 171 170 168 166 165 161 159 159 157 154 153 150 148 147 145 145 144 141 142 143 149 158 166 173 176 181 182 183 182 183 183 184 185 186 186 185 185 184 184 184 184 184 183 182 182 181 180 180 179 180 179 180 179 179 179 177 177 177 176 178 179 178 177 177 176 178 176 175 173 172 174 173 173 171 170 170 170 168 166 163 161 157 130 45 6 3 3 4 6 6 6 4 4 3 2 2 3 3 5 5 5 7 5 5 5 4 2 4 3 4 3 4 6 3 4 3 2 2 2 2 2 4 2 2 1 2 1 1 1 2 1 1 0 0 0 0 0 0 0 0 0 0 0 0 0 0 0 0 1 1 1 1 1 0 1 0 0 0 0 0 0 0 0 0 0 0 0 0 0 0 0 0 1 1 1 1 0 0 0 0 0 0 0 0 1 0 1 1 3 2 2 0 0 0 1 0 0 0 1 0 0 0 1 1 1 0 0 1 1 1 0 0 1 0 0 0 0 0 0 0 0 0 0 0 0 0 0 0 0 0 0 0 0 0 0 0 0 0 0 0 0 0 0 0 0 0 0 0 1 2 1 2 3 4 2 4 3 3 3 4 2 2 1 0 1 2 4 4 3 6 6 3 2 2 1 1 1 2 3 1 1 2 2 1 1 1 0 0 1 2 2 0 0 0 0 0 0 0 1 1 2 
0 0 1 1 0 1 0 0 0 1 1 0 2 2 3 5 4 6 4 4 4 3 2 1 0 1 2 3 4 3 5 6 6 6 4 5 3 3 4 4 3 1 3 1 3 2 1 0 0 0 1 1 2 0 1 1 2 3 2 1 1 0 2 1 0 2 2 0 0 1 0 0 0 0 0 0 0 0 0 1 0 0 0 0 0 0 0 0 0 0 0 0 0 0 0 0 0 0 0 0 0 0 0 0 0 0 0 0 0 0 0 0 0 0 2 0 0 0 0 0 0 1 1 0 0 1 2 4 3 3 3 3 1 1 1 1 1 1 1 1 1 0 0 0 0 0 0 0 0 0 0 0 0 0 0 0 0 0 0 0 0 0 0 0 0 0 0 10 107 163 172 177 179 181 182 182 182 181 181 180 180 183 181 181 181 181 183 181 180 178 177 178 178 178 180 182 186 192 193 192 195 194 195 196 197 198 199 199 199 199 198 199 200 199 200 198 198 199 200 199 199 199 198 199 198 200 199 198 199 199 199 200 198 199 199 199 199 199 199 198 200 200 199 200 199 199 200 199 200 198 197 198 197 195 195 192 191 192 190 191 192 192 194 194 195 193 193 192 193 191 190 192 192 192 191 190 191 193 194 194 192 193 192 193 192 190 191 192 189 189 189 188 189 190 190 190 190 191 191 191 189 188 189 188 187 187 186 186 187 187 188 186 186 186 187 185 184 185 183 182 182 181 180 180 179 179 177 177 176 175 175 174 172 171 170 169 168 167 164 163 161 162 160 157 157 156 154 153 152 150 149 147 147 148 151 153 159 165 170 176 180 184 187 187 185 184 185 183 184 185 185 183 186 186 185 186 184 184 185 186 185 184 182 182 180 180 180 181 181 180 178 179 180 179 178 177 177 178 179 178 177 178 177 177 175 176 174 177 174 174 174 173 173 171 169 169 168 168 165 160 158 147 84 10 2 3 2 4 4 4 4 3 3 2 3 3 4 4 6 6 7 4 5 5 4 2 2 3 5 5 4 5 3 3 2 2 2 2 2 2 3 2 1 1 1 1 0 1 3 2 2 1 1 0 0 1 0 0 0 0 0 0 0 0 0 1 0 0 0 1 1 0 0 1 0 0 0 0 0 0 0 0 0 0 0 0 0 0 0 0 0 0 0 0 0 0 0 0 0 0 0 0 0 0 0 2 1 2 1 2 1 0 1 0 0 0 0 1 1 0 1 2 0 2 3 2 1 2 1 1 0 0 0 0 0 0 0 0 0 0 0 0 0 0 0 0 0 0 0 0 0 0 0 0 0 0 0 0 0 0 0 0 0 0 0 0 0 0 1 2 2 3 2 3 3 2 4 3 2 2 1 0 1 2 3 4 4 3 5 3 3 2 1 1 2 1 0 1 2 2 2 1 1 0 0 1 0 1 1 1 1 2 1 1 1 0 0 2 1 0 
1 0 0 2 1 1 0 0 3 1 1 1 2 2 3 3 5 5 4 4 3 3 2 1 1 2 2 3 5 4 5 4 4 3 2 4 3 2 2 1 1 2 3 2 2 2 1 0 0 0 0 3 1 2 2 3 3 4 3 3 2 1 2 0 1 2 1 0 0 0 0 1 0 0 0 1 0 0 0 1 0 0 0 0 0 0 0 0 0 0 0 0 0 0 0 0 0 0 0 0 0 0 0 0 0 0 0 0 0 0 0 0 0 1 0 0 0 1 0 0 0 0 0 0 0 0 1 2 3 3 3 4 1 0 3 2 1 3 3 1 0 2 0 0 0 0 0 0 0 0 0 0 0 0 0 0 0 0 0 0 0 0 0 0 0 0 0 3 81 156 173 177 180 181 181 183 181 181 181 182 183 182 181 182 182 183 184 183 180 179 179 180 178 180 180 183 189 193 194 195 194 195 196 195 199 196 198 198 199 199 199 200 199 199 199 199 199 199 200 200 199 200 198 199 199 199 199 201 200 201 199 199 199 199 200 199 200 199 197 200 200 198 199 199 199 200 199 200 199 199 197 198 197 197 198 196 196 196 195 194 194 193 192 191 192 191 191 192 191 191 191 190 189 190 189 189 190 192 192 192 193 191 191 190 189 190 189 189 188 188 186 187 187 189 189 189 189 191 192 190 189 189 187 187 187 187 185 185 184 185 185 185 185 182 182 182 181 180 179 178 177 175 176 174 173 172 170 171 168 168 169 169 167 165 164 164 162 160 159 158 158 158 157 155 154 152 151 151 152 154 156 160 165 169 173 178 179 182 185 186 187 188 189 188 187 186 185 186 186 184 185 185 185 185 185 184 185 184 185 186 185 185 183 181 181 181 179 179 179 180 180 179 180 178 176 177 177 176 178 178 178 178 177 176 177 176 176 176 176 176 174 173 172 167 167 168 167 167 165 162 160 157 119 32 3 4 5 3 3 4 3 4 3 2 3 4 6 3 5 5 6 4 4 4 4 3 2 2 3 3 5 5 3 3 4 3 4 2 0 1 4 1 3 1 3 1 2 3 3 2 2 2 1 1 1 1 1 0 0 0 0 1 1 1 0 1 0 0 0 1 0 1 0 0 0 0 0 0 0 0 0 0 0 0 2 1 1 0 0 0 0 0 0 0 0 0 0 0 0 0 0 0 0 0 0 1 1 2 2 3 2 1 1 1 0 0 1 1 1 0 0 1 4 1 3 3 1 2 3 1 0 1 0 0 0 0 0 0 0 0 0 0 0 0 0 0 0 0 0 0 0 0 0 0 0 0 0 0 0 0 0 0 0 0 0 0 0 2 1 1 3 3 2 2 4 4 4 4 1 0 2 1 1 2 3 5 4 4 4 4 4 3 1 1 1 1 1 1 1 1 0 1 0 2 1 0 0 2 1 1 1 2 1 1 0 0 1 1 1 0 
0 0 1 2 2 3 3 1 3 3 3 1 1 1 3 4 5 5 4 4 1 2 2 1 0 3 2 3 2 3 3 4 3 2 3 4 2 2 3 1 1 1 2 3 1 1 1 1 0 0 0 1 3 3 3 3 4 3 3 3 3 2 1 1 0 1 1 1 0 0 0 0 0 0 0 1 0 0 0 0 0 0 0 0 0 0 0 0 0 0 0 0 0 0 0 0 0 0 0 0 0 0 0 0 0 0 0 0 0 0 0 0 0 0 0 0 1 1 0 1 0 0 0 0 0 0 1 1 3 3 4 3 2 2 1 1 2 3 1 0 1 2 0 0 0 0 0 0 0 0 0 0 0 0 0 0 0 0 0 0 0 0 0 0 0 0 0 0 55 149 172 176 178 180 182 183 182 182 182 184 182 182 184 184 183 184 184 184 182 182 181 179 180 180 182 185 189 192 194 195 194 196 195 195 199 197 197 198 199 200 199 198 199 199 200 198 199 199 198 199 198 199 199 200 200 199 198 200 200 201 200 199 200 200 199 201 198 196 199 199 198 199 201 199 199 199 199 200 199 200 200 199 198 197 198 199 199 198 198 197 197 197 196 195 193 193 191 189 189 189 187 187 186 187 188 187 188 189 190 191 191 191 190 188 188 188 188 187 185 187 185 186 186 186 185 184 186 187 187 186 186 186 183 183 184 184 181 179 180 180 181 180 179 178 177 177 175 175 173 172 172 171 171 170 170 170 169 167 164 164 166 166 164 163 161 161 160 159 157 156 158 155 155 156 156 158 162 168 171 175 179 181 181 182 183 186 187 186 186 186 187 188 189 188 188 188 186 186 186 187 185 186 186 184 185 185 185 184 184 183 185 185 183 184 183 181 181 181 181 181 180 178 178 180 178 178 177 178 180 179 179 177 178 179 177 175 175 172 169 166 163 159 152 151 149 151 156 159 163 164 161 160 143 69 9 3 6 4 5 5 3 3 1 2 2 2 4 4 5 5 6 4 5 3 3 2 2 3 4 3 5 4 3 2 2 3 5 1 1 1 3 3 3 1 4 2 2 3 2 1 2 3 2 1 1 0 1 0 0 0 1 2 2 1 1 0 0 0 0 0 0 0 0 0 0 0 0 0 0 0 0 0 0 0 1 0 1 0 0 0 0 0 0 0 0 0 0 0 0 0 0 1 1 1 0 1 0 2 3 2 3 2 1 3 2 0 0 0 1 0 0 1 2 1 3 2 1 1 0 2 0 0 0 0 0 0 0 0 0 0 0 0 0 0 0 0 0 0 0 0 0 0 0 0 0 0 0 0 0 0 0 0 1 0 0 0 0 1 0 1 3 3 2 2 3 3 4 2 3 0 2 2 2 4 5 4 4 6 6 4 5 3 1 2 0 0 2 2 1 1 2 1 0 0 2 1 2 2 2 1 1 2 1 2 1 1 0 0 1 1 
1 0 2 2 1 2 2 3 4 4 4 3 3 3 3 4 5 5 3 3 3 2 1 3 2 2 2 3 3 3 3 3 2 1 2 2 2 3 1 2 3 2 1 0 0 0 0 0 1 2 2 3 4 3 4 3 3 3 2 1 1 2 3 2 0 0 0 0 0 0 0 0 0 0 2 0 0 1 1 0 0 0 0 0 0 0 0 0 0 0 0 0 0 0 0 0 0 0 0 0 0 0 0 0 0 0 0 0 0 0 0 0 0 0 0 1 1 1 2 0 0 0 0 0 1 0 0 2 3 4 2 1 1 2 1 2 3 2 1 2 1 1 0 1 0 0 0 0 0 0 0 0 0 0 0 0 1 0 0 0 0 0 0 0 0 0 0 0 34 137 170 174 177 179 183 182 183 184 183 184 184 184 183 184 184 185 183 181 182 182 181 181 180 180 183 186 190 191 193 194 194 194 195 195 197 197 197 198 199 199 200 198 200 199 199 197 198 198 198 200 198 200 199 199 199 200 199 199 200 200 198 200 200 199 199 200 198 196 198 200 199 199 200 199 198 199 198 200 198 198 197 197 198 199 199 199 199 198 198 198 198 198 198 197 197 197 195 194 194 193 191 188 188 186 187 186 187 187 188 189 189 188 189 186 185 187 187 186 185 187 184 184 185 185 183 184 183 183 184 184 183 183 182 181 182 182 180 179 178 177 177 176 176 174 174 174 175 172 169 169 170 170 168 168 168 167 167 166 163 163 164 164 162 162 161 161 161 161 161 163 166 169 171 172 174 175 180 182 183 185 187 185 186 186 185 187 188 186 187 186 188 189 189 189 188 186 187 186 187 186 186 187 186 186 186 186 183 183 184 184 186 184 184 184 182 180 180 181 181 181 178 181 181 178 180 179 179 177 180 178 178 177 177 167 151 140 137 133 128 127 124 118 109 110 112 116 125 135 147 159 162 161 156 106 21 3 5 4 5 5 3 5 2 2 1 2 4 4 3 5 6 5 5 4 2 3 3 4 4 3 4 3 3 3 4 2 5 4 3 2 2 4 4 4 3 3 1 1 2 1 1 2 2 3 3 2 1 0 0 0 2 2 2 2 3 1 1 0 0 0 0 0 0 0 0 0 0 0 0 0 0 0 0 0 0 0 0 0 0 0 0 0 0 0 0 0 0 0 0 0 0 0 1 2 1 0 1 1 1 1 1 3 3 3 1 1 0 0 0 1 1 1 1 0 1 1 1 2 2 0 0 0 0 0 0 0 0 0 0 0 0 0 0 0 0 0 0 0 0 0 0 0 0 0 0 0 0 0 0 0 0 0 0 0 0 0 0 0 1 0 1 2 2 3 2 2 1 1 2 0 2 2 2 3 3 4 5 6 5 4 3 3 0 0 1 1 3 3 1 2 2 1 2 3 3 4 3 3 3 1 2 1 2 2 1 1 0 0 0 1 
2 1 1 1 2 3 4 4 5 4 4 5 3 2 3 3 3 4 3 2 1 1 2 3 2 1 1 2 2 3 1 2 2 2 3 2 1 2 3 3 1 0 0 0 1 0 1 0 3 5 3 3 4 4 6 5 3 4 2 2 0 1 1 1 0 0 0 0 0 0 0 1 0 0 0 1 0 0 0 0 0 0 0 0 0 0 0 0 0 0 0 0 0 0 0 0 0 0 0 0 0 0 0 0 0 0 0 0 0 0 0 0 0 0 0 1 0 0 1 0 0 0 0 1 0 1 1 1 1 2 1 2 1 3 3 2 1 1 2 3 0 2 0 1 0 0 0 0 0 0 0 0 0 0 0 0 1 0 0 0 0 0 0 0 0 0 0 0 17 119 167 173 174 180 181 185 185 184 185 185 185 184 184 183 184 183 184 182 183 182 181 182 182 183 184 186 190 189 191 193 193 193 194 195 195 197 195 197 198 198 198 198 198 197 196 199 199 198 198 199 198 198 200 200 200 200 200 200 201 200 201 198 199 199 199 197 196 196 198 199 198 199 198 199 198 196 198 199 197 196 196 196 195 196 195 196 198 197 198 196 196 197 197 197 197 197 196 195 195 195 194 192 193 194 194 192 192 191 190 191 190 189 187 185 184 184 182 183 182 185 182 183 182 182 182 181 180 182 181 179 183 181 183 182 180 179 178 178 177 175 174 175 173 172 172 173 171 169 167 168 169 169 170 168 169 167 168 166 165 166 165 166 169 171 172 174 176 176 177 181 181 182 183 182 183 182 185 187 187 189 188 188 186 188 187 187 188 187 188 188 188 190 190 188 186 186 187 188 187 187 187 188 187 187 187 186 183 181 183 183 183 184 183 181 183 181 180 181 182 182 181 180 180 181 180 179 179 179 180 181 182 178 155 113 80 76 87 104 113 114 107 103 90 82 78 79 87 99 117 137 156 163 160 134 52 5 4 4 4 5 3 4 0 2 1 2 2 4 1 5 7 6 5 4 5 4 3 3 5 4 5 5 6 5 5 4 4 3 2 3 3 4 5 4 3 1 1 0 2 1 0 1 3 3 2 3 3 1 1 2 2 2 1 3 3 2 1 0 0 0 0 0 0 0 0 0 0 0 0 0 0 0 0 0 0 0 0 0 0 0 0 0 0 0 0 0 0 0 0 0 0 0 0 3 3 1 2 2 1 1 0 1 1 0 1 0 1 0 0 3 2 2 2 3 1 1 2 2 1 0 1 0 0 0 0 0 0 0 0 0 0 0 0 0 0 0 0 0 0 0 0 0 0 0 0 0 0 0 0 0 0 0 0 0 0 0 0 0 1 2 2 2 3 3 2 1 2 3 3 1 1 3 3 2 3 4 4 4 4 2 2 2 2 2 1 2 3 1 2 2 3 2 4 3 4 4 2 3 2 2 2 1 2 1 1 0 1 1 0 1 
2 2 1 1 1 3 5 4 5 4 4 3 2 2 3 2 3 4 1 2 1 0 0 1 0 0 0 1 1 3 3 2 3 2 1 0 1 1 1 2 1 0 0 0 0 0 0 1 3 4 4 4 7 5 5 4 4 2 2 3 1 1 0 1 2 1 1 0 0 0 0 0 0 0 0 0 0 0 0 0 0 0 0 0 0 0 0 0 0 0 0 0 0 0 0 0 0 0 0 0 0 0 0 0 0 0 0 0 0 0 0 0 0 0 0 0 1 0 0 0 0 0 0 1 0 1 0 0 0 1 3 2 3 1 2 3 1 1 3 1 1 2 1 0 1 0 0 0 0 0 0 0 1 0 0 2 1 2 0 0 0 0 0 0 0 0 0 0 9 99 161 171 174 178 180 183 184 184 185 184 186 184 186 186 185 186 184 183 182 182 181 183 183 185 184 185 190 192 192 193 192 193 195 195 195 196 198 199 198 198 199 199 200 200 199 199 200 199 198 201 200 199 199 200 201 201 200 199 202 202 200 200 200 198 199 198 196 197 197 199 198 199 199 197 197 197 198 198 197 197 197 197 198 197 197 196 197 198 197 195 197 197 196 197 197 195 195 195 194 194 193 192 193 196 196 196 196 195 195 196 195 195 194 192 191 189 188 188 187 187 185 186 185 184 184 182 181 183 181 181 182 182 182 180 180 181 180 179 179 179 176 177 176 174 174 172 171 172 173 173 175 176 177 177 178 178 179 178 178 178 178 180 181 182 183 184 183 186 185 184 185 186 185 185 185 185 187 187 188 188 189 189 187 188 186 186 188 188 188 190 190 188 190 188 186 187 187 187 186 186 186 187 187 187 188 185 185 183 184 183 182 184 183 184 183 182 182 183 184 182 181 182 182 183 182 180 179 181 181 182 173 140 104 89 104 123 137 145 148 144 141 137 126 113 99 86 82 78 84 101 131 153 162 150 90 13 2 5 3 3 2 2 3 3 2 1 1 5 2 3 5 5 6 6 6 3 4 4 5 5 3 5 5 5 3 4 4 4 2 3 4 5 4 3 4 2 2 1 1 2 1 0 3 3 3 3 2 2 2 2 1 3 1 2 3 0 0 0 0 0 0 0 0 0 0 0 0 0 0 0 0 0 0 0 0 0 0 0 0 0 0 0 0 0 0 0 0 0 0 0 0 0 0 4 2 4 3 2 2 1 1 1 0 0 0 0 0 0 0 1 2 2 0 0 1 0 0 2 0 1 0 0 0 0 0 0 0 0 0 0 0 0 0 0 0 0 0 0 0 0 0 0 0 0 0 0 0 0 0 0 0 0 0 0 0 0 0 0 0 2 2 3 3 3 3 2 1 2 1 0 2 2 3 2 2 5 3 4 4 3 3 2 2 1 2 3 3 3 1 1 1 2 3 4 5 4 3 2 3 2 1 1 1 1 1 1 2 1 1 2 
2 4 2 1 2 4 5 5 6 6 6 5 4 4 2 1 1 1 1 0 0 0 0 0 0 0 0 0 0 2 2 3 2 2 1 0 0 0 1 1 2 0 0 1 0 2 1 1 2 2 5 5 5 4 3 4 4 4 2 1 1 1 0 0 0 1 1 1 0 1 0 0 0 0 0 0 0 1 0 0 0 0 0 0 0 0 0 0 0 0 0 0 0 0 0 0 0 0 0 0 0 0 0 0 0 0 0 0 0 0 0 0 0 0 0 0 1 1 0 0 0 0 0 0 1 0 0 1 2 1 1 2 3 5 2 1 2 1 1 0 0 0 0 0 0 0 2 1 0 0 1 1 0 0 1 1 1 0 0 0 0 0 0 0 0 1 0 0 5 73 153 171 173 176 179 183 183 184 185 186 185 186 188 187 186 186 185 184 182 181 181 183 183 182 183 185 188 191 193 191 194 196 197 195 195 197 198 199 200 198 197 198 198 200 199 200 200 200 199 200 199 199 200 199 199 202 201 199 200 200 200 199 200 200 199 198 197 199 197 197 198 199 198 197 198 197 198 197 197 196 196 198 197 196 196 197 197 196 197 197 195 196 195 197 195 195 196 195 195 194 193 192 193 194 195 196 197 195 195 195 195 195 196 196 195 195 194 192 191 191 190 191 193 191 191 190 189 190 189 189 189 188 188 188 188 187 190 189 188 186 184 184 183 182 183 182 181 181 182 182 186 187 185 186 188 186 186 184 185 185 184 184 185 185 184 185 185 187 187 187 187 188 188 187 186 187 187 188 189 188 189 189 189 189 189 189 189 188 190 189 190 189 190 188 188 187 186 186 186 186 186 186 186 187 188 187 185 184 184 184 184 184 184 183 183 183 183 183 182 183 181 182 183 183 184 183 181 182 181 171 138 104 101 125 148 161 163 161 160 158 155 153 151 146 140 134 126 113 100 95 107 132 154 159 123 36 0 2 2 3 2 2 2 4 3 4 1 2 2 3 3 3 6 4 3 3 4 4 2 3 2 4 4 3 3 3 3 3 4 4 3 4 3 3 4 2 3 3 2 1 2 2 2 3 3 4 4 2 1 1 1 0 0 0 0 0 0 0 0 0 0 0 0 0 0 0 0 0 0 0 0 0 0 0 0 0 0 0 0 0 0 0 0 0 0 0 0 0 0 0 0 0 0 2 3 4 5 2 2 1 0 0 0 0 0 0 0 0 0 1 1 1 0 1 1 0 0 1 1 0 0 0 0 0 0 0 0 0 0 0 0 0 0 0 0 0 0 0 0 0 0 0 0 0 0 0 0 0 0 1 1 0 1 0 0 1 0 1 2 3 3 2 3 3 1 2 1 2 2 1 2 2 1 4 5 4 4 5 4 3 3 1 2 2 4 5 4 3 2 0 3 3 3 2 2 4 3 2 2 1 1 1 2 2 1 2 2 3 3 3 
3 2 2 2 3 4 3 3 5 3 5 5 4 3 1 0 0 0 0 0 0 0 0 0 0 0 0 0 1 2 2 3 4 2 2 1 0 0 1 1 2 0 0 1 1 2 2 1 1 3 3 6 4 3 3 3 3 2 3 1 0 0 1 0 1 2 0 0 1 1 0 0 0 0 0 0 0 0 0 1 0 0 0 0 0 0 0 0 0 0 0 0 0 0 0 0 0 0 0 0 0 0 0 0 0 0 0 0 0 0 0 0 0 0 0 0 2 2 0 0 0 0 0 0 0 1 3 2 3 1 3 2 3 5 2 2 2 1 1 1 0 1 0 0 0 0 0 0 1 2 2 1 1 0 0 0 0 1 0 1 0 0 0 0 0 1 0 0 0 46 141 168 171 175 179 183 183 184 184 185 187 188 186 186 186 185 185 185 181 182 180 182 182 182 183 187 190 191 194 194 194 196 196 196 195 195 197 197 199 198 197 200 199 200 200 201 201 200 200 199 200 199 201 200 200 200 200 200 200 201 200 201 199 199 198 198 198 197 198 197 197 199 198 197 197 196 196 197 198 197 198 197 196 197 197 196 195 195 196 196 197 196 195 196 196 194 195 195 192 194 193 193 193 194 195 195 196 195 195 196 196 197 197 199 197 196 195 194 192 191 192 190 194 194 193 193 193 195 194 193 193 193 193 192 192 194 193 192 192 191 189 189 189 188 187 186 186 186 187 187 190 188 188 188 189 188 187 187 185 186 186 186 186 186 187 187 187 185 186 187 188 189 189 187 187 187 186 187 188 189 190 189 190 189 188 188 188 188 188 189 190 190 189 188 186 187 188 186 186 186 187 186 188 188 187 187 185 185 185 185 186 184 185 182 184 183 183 183 184 184 183 182 184 184 184 182 181 182 167 135 116 125 147 160 166 169 167 166 165 165 164 161 160 158 154 153 151 148 143 134 129 131 139 150 139 70 14 8 4 1 2 2 3 5 5 3 0 2 4 3 3 3 4 4 2 1 5 5 2 2 4 4 3 5 3 4 3 1 3 4 3 4 4 3 3 3 4 4 3 1 2 2 4 3 4 3 2 2 1 1 0 0 1 0 0 0 0 0 0 0 0 0 0 0 0 0 0 0 0 0 0 0 0 0 0 0 0 0 0 0 0 0 0 0 0 0 0 0 0 0 0 0 2 1 2 3 1 3 1 0 0 0 0 0 0 0 0 0 0 0 0 0 0 1 1 0 2 0 1 1 1 0 0 0 1 0 0 0 0 0 0 0 0 0 0 0 0 0 0 0 0 0 0 0 0 0 0 1 0 0 0 0 1 0 0 0 1 1 2 3 4 2 3 3 1 0 0 3 2 1 2 1 3 3 4 4 3 3 3 1 1 0 1 1 4 4 5 3 1 2 2 3 1 1 2 2 3 3 3 2 3 3 1 1 1 3 3 3 3 3 
3 3 3 3 1 2 3 4 4 3 3 3 2 2 1 1 0 0 0 0 0 0 0 0 0 0 0 0 1 1 1 2 4 2 1 1 1 0 0 2 1 0 0 0 1 3 2 3 2 1 3 4 3 2 4 2 2 2 2 2 0 0 1 0 1 1 2 1 0 0 0 0 0 0 0 0 0 0 0 0 0 0 0 0 0 0 0 0 0 0 0 0 0 0 0 0 0 0 0 0 0 0 0 0 0 0 0 0 0 0 0 0 0 0 0 0 1 1 0 0 0 0 0 0 0 1 2 1 2 2 1 3 2 3 4 4 1 0 0 1 0 0 1 0 0 0 0 0 2 3 2 2 2 1 2 1 1 1 2 3 1 1 4 2 0 0 0 2 0 22 116 162 172 176 180 182 183 184 185 184 186 187 185 185 185 185 184 184 182 181 181 184 186 185 187 188 191 192 194 196 195 196 196 196 196 196 198 196 198 197 197 199 200 199 199 199 199 200 200 200 200 198 201 199 200 199 200 199 200 200 199 200 198 197 197 199 197 199 198 197 197 197 197 196 196 196 196 196 195 196 197 196 196 195 197 195 195 196 197 195 196 196 194 194 193 191 194 192 193 193 192 193 195 193 194 194 194 194 195 194 195 196 197 196 196 197 196 194 192 193 192 192 194 194 193 194 193 196 195 196 194 194 192 192 192 194 192 192 192 193 190 190 191 188 189 187 187 188 189 189 188 189 190 189 190 189 188 187 188 187 187 187 186 187 188 187 188 187 187 187 187 188 189 188 188 188 185 187 185 189 188 188 190 189 189 189 189 187 190 191 190 189 187 188 187 188 187 186 186 186 186 187 187 188 187 188 187 185 186 186 185 184 185 184 184 184 185 184 184 183 184 185 186 185 183 182 181 173 138 124 142 164 172 172 174 174 170 170 167 169 168 167 166 164 160 161 158 157 156 152 149 148 143 143 138 113 81 59 39 18 9 5 5 3 4 1 0 1 2 1 0 1 3 3 5 4 3 3 3 2 3 3 2 3 3 2 2 3 4 3 3 3 5 4 7 4 5 4 2 2 2 3 4 4 4 3 1 1 0 0 0 0 1 1 0 0 0 0 0 0 0 0 0 0 0 0 0 0 0 0 0 0 0 0 0 0 0 0 0 0 0 0 0 0 0 0 0 0 0 0 0 0 0 1 1 2 1 1 1 0 0 0 0 0 0 1 0 0 0 0 1 1 0 2 2 1 1 1 2 1 1 1 0 0 0 0 0 0 0 0 0 0 0 0 0 0 0 1 0 2 1 0 0 0 0 1 0 0 0 0 0 0 1 0 1 1 0 1 3 2 2 4 3 2 1 2 1 3 2 1 1 1 3 3 2 3 3 2 2 2 0 1 0 1 1 3 4 3 4 2 2 2 3 2 3 3 5 2 2 2 3 3 4 1 2 3 5 5 5 4 
2 2 3 2 2 3 1 2 2 4 3 3 2 2 0 0 0 0 0 0 0 0 0 0 0 0 0 0 0 1 1 0 2 2 1 0 0 0 0 1 0 0 0 0 1 1 1 1 4 2 2 2 3 2 3 2 1 1 3 4 1 0 1 2 1 1 2 1 0 0 0 0 0 0 0 0 0 0 0 0 0 0 0 0 0 0 0 0 0 0 0 0 0 0 0 0 0 0 0 0 0 0 0 0 0 0 0 0 0 0 0 0 0 0 0 0 0 0 0 0 0 0 0 0 0 0 2 1 3 1 3 3 4 4 3 5 0 1 0 0 0 0 0 0 0 0 0 1 1 3 2 3 2 3 3 3 2 3 4 3 2 3 3 1 1 0 1 1 0 6 80 152 171 176 178 181 183 183 185 184 186 186 184 184 185 183 184 183 183 184 183 185 186 185 190 190 192 193 195 195 195 194 195 195 195 198 199 197 196 198 198 198 197 198 198 199 200 201 200 199 199 199 200 200 200 200 199 201 200 199 199 200 198 198 197 200 197 197 196 196 197 197 197 197 195 195 195 194 195 195 196 194 194 195 195 196 194 196 195 193 194 195 196 193 192 192 192 191 192 190 193 192 194 195 195 194 193 195 194 195 194 195 195 196 197 195 194 194 192 193 194 194 193 194 193 195 195 196 196 196 195 193 191 190 191 193 192 191 190 193 192 191 190 188 189 188 188 189 188 190 189 189 190 191 191 191 189 188 189 188 187 188 189 189 188 188 188 188 187 188 189 189 189 189 188 188 187 187 189 189 189 188 187 188 189 188 187 189 189 190 191 189 189 190 189 188 186 185 187 187 187 188 189 186 187 188 187 187 186 186 186 186 185 186 184 185 185 184 184 184 185 185 184 186 184 182 178 153 129 141 166 176 176 177 177 175 175 173 173 173 172 170 169 166 165 165 163 160 161 159 157 159 155 152 148 146 139 129 117 98 78 56 34 16 9 3 0 0 0 0 0 1 3 2 4 3 3 2 2 3 3 4 4 3 3 3 2 3 4 4 5 5 4 5 5 4 4 3 3 3 2 3 3 5 5 4 1 1 1 0 0 0 0 0 0 0 0 0 0 0 0 0 0 0 0 0 0 0 0 0 0 0 0 0 0 0 0 0 0 0 0 0 0 0 0 0 0 0 0 0 0 0 0 0 1 1 0 0 0 0 0 0 0 0 1 1 1 0 0 0 0 0 0 1 1 1 1 0 2 2 2 0 0 0 0 0 0 0 0 0 0 0 0 0 0 0 1 1 0 0 1 0 0 0 0 1 0 1 1 0 0 1 0 0 2 2 2 2 2 2 2 3 2 2 2 3 3 3 2 1 1 3 3 3 2 3 3 2 0 2 1 0 0 0 2 1 3 3 4 3 2 4 1 3 3 4 5 3 4 4 5 4 3 4 3 3 4 4 6 5 
2 2 2 1 1 0 2 2 3 2 3 2 2 1 1 0 0 0 0 0 0 0 0 0 0 0 0 0 1 0 0 0 1 1 0 0 0 0 0 0 0 0 0 0 2 2 0 1 1 1 0 0 2 1 3 2 1 2 3 4 2 2 2 1 2 2 2 0 0 0 0 0 0 0 0 0 0 0 0 0 0 0 0 0 0 0 0 0 0 0 0 0 0 0 0 0 0 0 0 0 0 0 0 0 0 0 0 0 0 0 0 0 0 0 0 0 1 0 0 0 0 0 0 0 0 1 1 0 3 1 1 2 4 3 4 2 1 2 2 0 0 0 0 0 0 0 0 0 1 3 4 4 3 4 4 2 2 5 3 3 3 5 2 1 3 1 2 0 2 2 45 137 171 176 180 182 183 182 184 186 185 184 183 184 185 185 185 186 185 184 185 184 185 187 189 190 190 192 194 193 195 196 194 195 196 196 197 197 195 196 196 197 197 198 199 198 199 200 200 198 199 200 199 199 198 199 199 199 199 199 201 200 200 198 197 198 198 197 198 196 197 197 196 197 196 196 195 195 195 194 193 193 193 193 194 194 195 195 195 195 196 194 193 193 191 193 190 190 190 188 192 193 192 195 193 195 195 194 194 194 193 194 195 194 195 195 193 194 194 193 194 194 194 194 196 194 193 195 195 194 194 193 192 192 191 193 192 192 192 193 192 190 188 189 189 189 189 189 188 188 189 191 189 191 192 191 191 189 190 189 189 189 189 187 190 187 188 187 187 188 189 188 188 188 190 189 188 187 189 188 188 190 187 188 188 189 188 188 190 191 190 191 189 188 188 186 187 187 187 189 188 187 186 186 187 187 188 187 186 186 186 186 185 186 186 185 184 183 184 185 186 186 186 186 184 183 166 141 147 169 179 180 179 180 180 180 179 179 178 177 173 171 172 169 169 168 167 165 165 164 162 162 163 162 159 157 155 152 151 145 137 128 115 94 74 48 24 7 2 0 0 0 1 3 3 3 2 1 2 2 5 3 4 2 3 3 4 4 4 4 6 4 3 3 3 3 4 2 2 2 3 3 2 4 4 3 2 0 0 0 0 0 0 0 0 0 0 0 0 0 0 0 0 0 0 0 0 0 0 0 0 0 0 0 0 0 0 0 0 0 0 0 0 0 0 0 0 0 0 0 0 0 0 0 1 0 0 0 1 0 1 1 1 0 0 1 0 0 1 1 1 0 0 1 1 0 0 0 1 1 1 1 0 0 0 0 0 0 0 0 0 0 0 0 0 1 1 1 0 0 0 1 0 0 1 1 2 3 1 0 0 1 1 3 3 2 2 2 4 3 3 2 1 1 3 2 2 3 2 2 2 2 1 3 2 3 2 1 0 1 1 0 1 1 1 2 3 3 4 4 4 3 4 4 4 5 5 4 5 5 3 4 5 5 4 5 4 5 5 4 
2 3 2 1 0 1 1 2 2 1 3 2 2 1 0 0 0 0 0 0 0 0 0 0 0 0 0 0 0 0 0 0 0 0 0 0 0 0 0 0 0 0 0 0 0 0 0 1 0 0 2 0 2 3 2 4 3 3 2 2 1 0 1 0 2 2 2 2 1 1 0 0 0 0 0 0 0 0 0 0 0 0 0 0 0 0 0 0 0 0 0 0 0 0 0 0 0 0 0 0 0 0 0 0 0 0 0 0 0 0 0 0 0 0 0 0 0 0 0 0 0 0 0 0 0 0 0 0 0 2 2 2 1 3 3 3 2 1 2 0 0 1 0 1 0 0 0 2 4 5 6 6 4 4 3 2 2 4 4 4 2 4 2 3 2 0 2 2 2 0 17 109 165 174 180 181 180 183 184 186 185 184 185 185 185 186 185 185 185 184 184 185 184 187 188 190 191 192 194 193 194 194 194 195 194 194 196 197 196 197 195 196 195 197 197 198 199 199 200 199 199 199 199 200 200 199 200 199 197 197 200 199 198 196 198 199 198 196 198 197 197 197 196 197 195 194 194 192 194 194 192 194 192 193 194 193 194 194 194 193 193 192 191 193 191 191 191 189 190 190 190 191 193 193 194 195 194 192 193 193 193 193 195 194 193 195 194 192 193 193 193 194 194 193 194 194 193 196 194 193 193 194 193 192 192 193 192 191 193 192 191 191 191 191 188 189 189 189 190 190 190 190 190 191 191 191 191 190 189 189 191 188 190 189 187 188 188 188 187 187 189 188 190 188 190 189 189 189 189 187 187 189 187 188 189 188 189 191 191 193 190 190 188 188 188 187 187 188 187 187 187 185 185 186 186 186 188 187 188 187 187 187 187 186 185 185 184 185 185 186 188 186 186 186 186 181 156 147 171 181 183 183 183 185 183 184 181 182 180 178 176 175 175 174 173 171 170 168 166 166 166 167 168 167 165 162 161 160 158 156 155 151 146 139 134 122 104 82 60 35 14 7 3 2 1 2 4 2 2 4 5 4 4 3 3 3 3 3 2 2 5 3 4 4 3 3 3 2 2 1 2 2 3 4 2 2 1 0 0 0 0 0 0 0 0 0 0 0 0 0 0 0 0 0 0 0 0 0 0 0 0 0 0 0 0 0 0 0 0 0 0 0 0 0 0 0 0 0 0 0 0 0 0 0 1 1 2 1 2 1 1 0 0 0 0 0 4 2 1 0 0 0 0 0 1 0 0 0 0 0 0 2 0 0 0 0 0 1 0 1 2 0 1 0 0 0 1 1 0 1 2 2 0 2 4 4 2 3 1 0 1 0 1 1 2 2 1 2 2 2 1 2 2 1 0 1 2 2 3 1 1 3 2 3 1 2 3 1 3 1 1 2 2 1 3 2 3 2 5 4 5 2 3 6 5 5 5 5 6 5 4 4 4 5 5 5 4 5 3 3 
4 4 2 2 1 1 2 2 2 2 2 2 1 1 0 0 1 0 0 0 0 0 0 0 0 0 0 0 0 0 0 0 0 0 0 0 0 0 0 0 0 0 0 0 0 0 0 1 3 2 2 4 2 2 2 3 2 2 2 2 0 2 1 0 0 2 2 0 1 0 0 0 0 0 0 0 0 0 0 0 0 0 0 0 0 0 0 0 0 0 0 0 0 0 0 0 0 0 0 0 0 0 0 0 0 0 0 0 0 0 0 0 0 0 0 0 0 0 0 0 0 0 0 0 0 0 0 1 1 0 1 1 4 4 3 3 2 2 2 3 0 2 2 1 1 1 2 3 3 5 5 5 6 3 5 3 3 3 3 4 4 5 4 3 2 1 2 2 1 0 6 73 152 173 179 179 180 183 185 186 185 184 184 186 186 185 184 184 184 184 183 183 183 185 186 189 190 192 193 193 193 194 193 194 194 195 197 198 196 197 195 196 195 197 197 198 199 199 200 200 200 199 201 200 199 198 198 197 196 199 198 198 196 197 199 198 197 196 196 196 195 196 195 197 198 194 194 193 192 192 190 191 192 192 195 194 193 194 194 193 194 192 192 191 191 190 191 191 190 190 192 192 192 194 194 193 193 192 193 194 195 194 194 194 192 193 192 192 191 190 192 191 192 193 192 193 193 192 195 193 193 194 195 193 191 192 194 192 191 191 191 190 190 188 190 190 190 190 190 190 190 191 190 189 192 192 189 189 190 190 189 189 188 188 188 189 187 187 187 186 188 189 190 189 190 190 189 190 189 188 186 188 187 188 188 189 191 190 190 190 190 187 187 186 186 188 189 187 186 187 186 185 186 187 187 187 187 187 188 188 189 189 189 187 187 185 186 185 186 186 186 185 187 187 186 177 152 160 179 185 186 185 186 185 185 186 184 184 183 181 178 177 177 177 174 174 172 172 170 169 170 169 168 169 167 165 166 165 164 162 158 156 156 152 150 148 143 137 128 114 94 73 48 27 10 6 2 0 3 5 5 4 4 2 3 3 3 2 2 2 3 4 3 4 3 1 1 1 1 2 2 2 3 4 4 3 2 1 0 0 0 0 0 0 0 0 0 0 0 0 0 0 0 0 0 0 0 0 0 0 0 0 0 0 0 0 0 0 0 0 0 0 0 0 0 0 0 0 0 0 0 0 0 0 1 0 1 0 0 1 0 0 0 0 0 2 2 2 1 0 0 0 1 1 2 1 0 0 1 0 1 1 0 0 1 0 0 1 1 1 2 2 1 0 0 0 2 1 0 1 2 2 1 3 3 4 2 2 0 1 0 3 0 1 2 0 1 1 1 1 1 0 2 2 1 0 1 2 3 3 1 1 2 2 1 2 2 2 2 3 1 2 3 3 3 4 2 1 4 4 5 4 4 5 4 5 4 5 5 6 5 4 3 4 3 3 4 4 5 4 
4 4 3 2 0 2 1 2 2 2 2 2 0 0 0 1 1 0 0 0 0 0 0 0 0 0 0 0 1 0 0 0 0 0 0 0 0 0 0 0 0 0 0 0 0 0 1 1 2 2 3 2 3 2 2 1 4 4 1 1 2 2 1 0 0 0 1 0 0 0 0 0 0 0 0 0 0 0 0 0 0 0 0 0 0 0 0 0 0 0 0 0 0 0 0 0 0 0 0 0 0 0 0 0 0 0 0 0 0 0 0 1 0 0 0 0 0 0 0 0 0 0 0 0 0 0 1 1 1 1 0 2 2 3 2 2 2 2 2 2 2 3 3 2 1 2 4 3 3 4 3 5 6 3 4 2 4 4 4 4 4 3 6 4 3 4 1 1 1 3 2 39 133 171 177 180 180 181 185 185 183 185 183 184 183 184 184 184 184 183 182 181 183 184 187 188 189 190 191 193 193 193 193 195 194 196 198 196 197 197 196 198 196 197 199 197 199 199 198 200 200 199 200 199 199 198 197 196 197 198 198 198 196 197 197 197 196 194 195 196 195 195 196 197 197 195 194 194 192 190 192 191 193 192 194 194 194 194 194 193 192 193 193 191 192 192 191 192 190 190 193 192 191 193 194 193 193 192 192 193 195 194 193 193 192 192 192 192 191 188 190 192 192 191 191 191 192 192 194 193 194 194 194 194 193 192 193 191 193 190 191 190 189 190 190 191 190 190 190 190 190 190 189 191 189 191 190 189 191 189 190 191 190 189 187 189 188 188 186 188 190 190 188 188 190 188 190 190 190 190 188 187 187 188 188 190 190 190 190 187 189 187 186 187 187 188 187 188 187 188 188 187 186 187 188 186 186 186 186 187 188 189 190 188 188 188 188 187 186 186 185 185 185 187 187 175 156 173 188 189 188 189 189 189 189 187 187 186 184 180 178 179 179 179 179 177 176 175 174 174 173 171 170 171 170 169 168 168 167 163 162 161 160 159 157 156 153 151 149 147 143 136 124 105 83 60 36 17 8 7 3 4 3 3 2 2 3 1 3 2 3 3 3 4 3 3 1 1 1 1 1 2 3 3 5 4 2 1 0 0 0 0 0 0 0 0 0 0 0 0 0 0 0 0 0 0 0 0 0 0 0 0 0 0 0 0 0 0 0 0 0 0 0 0 0 0 0 0 0 0 0 0 0 2 0 0 1 0 0 0 0 0 0 0 0 0 0 0 0 0 1 0 0 0 0 0 0 0 0 1 1 1 1 1 2 1 1 0 2 1 2 3 1 0 1 2 1 1 4 2 2 3 2 2 4 4 5 4 1 2 1 2 2 1 0 0 1 1 0 1 0 0 1 0 0 0 1 0 1 3 1 2 2 3 2 3 3 2 3 4 2 3 3 3 2 1 2 2 3 5 4 5 4 5 4 4 4 5 4 4 3 3 3 4 2 2 4 4 4 5 
5 3 3 2 2 1 1 2 2 2 3 1 0 0 0 0 0 0 0 0 0 0 0 0 0 0 0 0 1 0 0 0 0 0 0 0 0 0 0 0 0 0 0 0 0 0 0 1 2 3 2 3 4 2 1 1 1 2 1 2 1 1 0 1 0 0 0 0 0 0 0 0 0 0 0 0 0 0 0 0 0 0 0 0 0 0 0 0 0 0 0 0 0 0 0 0 0 0 0 0 0 0 0 0 0 0 0 0 0 0 0 0 0 0 0 0 0 0 0 0 0 0 0 0 0 0 1 0 2 2 2 3 1 2 1 3 3 4 1 2 4 4 3 3 3 2 4 2 4 3 4 4 6 5 4 4 4 4 5 4 4 5 4 6 6 4 4 4 3 3 0 17 101 162 174 178 180 181 183 184 185 184 184 183 183 182 183 183 184 183 182 182 184 185 188 188 189 191 191 190 192 194 193 193 194 196 197 196 196 196 196 198 196 197 197 198 197 196 198 198 200 198 197 198 198 197 196 197 196 199 197 197 197 199 198 195 196 195 194 195 194 195 196 197 197 196 194 193 193 191 191 189 191 192 192 194 193 194 194 195 192 192 192 193 192 190 192 191 189 189 190 191 191 193 193 193 193 194 194 193 193 193 194 194 192 191 191 191 191 190 190 190 191 191 193 190 190 191 194 193 193 194 193 195 194 193 192 191 192 192 190 190 190 190 190 191 191 191 192 190 191 191 190 189 190 188 190 190 190 190 190 191 189 189 189 190 188 187 186 187 187 189 191 190 189 188 189 190 189 189 188 188 186 188 189 189 190 190 188 187 188 188 186 186 186 187 187 187 188 188 189 187 187 188 187 188 187 186 187 188 187 189 189 189 188 188 188 187 187 186 185 187 187 186 186 172 161 179 191 191 191 189 191 190 190 191 190 187 186 182 184 182 181 181 180 179 180 178 176 175 175 175 174 175 172 171 171 171 170 166 166 165 164 164 161 160 159 159 156 157 155 153 150 145 141 131 117 98 74 49 25 10 5 4 2 3 2 3 3 4 2 3 2 3 3 2 2 2 2 1 2 1 1 2 4 3 1 1 1 0 0 0 0 0 2 0 0 0 0 0 0 0 0 0 0 0 0 0 0 0 0 0 0 0 0 0 0 0 0 0 0 0 0 0 0 0 0 0 0 0 0 0 0 3 1 1 0 0 0 0 0 0 0 0 0 0 0 0 0 0 0 0 0 0 0 0 0 0 1 2 1 1 2 1 1 1 1 2 1 1 0 0 0 1 0 0 1 2 3 2 2 3 3 3 4 5 3 3 2 2 0 2 2 1 0 1 1 1 1 2 0 1 1 0 0 0 0 0 0 3 3 3 2 1 2 2 4 3 2 2 2 2 3 3 2 3 2 2 4 4 5 4 4 3 5 3 5 6 6 5 6 4 5 4 3 4 4 3 3 4 
3 3 4 2 1 1 0 2 1 1 1 1 0 0 0 0 0 0 0 0 0 0 0 0 0 0 0 0 0 1 2 2 0 0 0 1 0 0 0 0 0 0 0 0 0 0 0 0 2 1 2 3 3 1 0 0 1 1 1 1 1 1 0 0 0 0 0 0 0 0 0 0 0 0 0 0 0 0 0 1 0 0 0 0 0 0 0 0 0 0 0 0 0 0 0 0 0 0 0 0 0 0 0 0 0 0 0 0 0 0 0 0 0 0 0 0 0 0 0 0 0 0 0 0 0 0 0 0 1 1 2 0 2 2 1 2 2 2 2 2 2 4 3 4 3 3 2 1 3 3 5 6 6 7 5 7 5 5 7 6 5 5 5 5 6 3 3 5 4 4 4 6 62 147 170 174 178 180 181 182 183 183 185 184 183 182 182 184 183 184 181 182 184 187 188 189 189 190 189 191 191 191 193 194 195 196 195 196 197 197 197 198 197 196 196 197 196 197 196 199 199 198 197 197 198 197 196 197 196 197 198 198 197 198 196 194 194 194 194 193 193 196 197 197 196 196 195 193 192 191 190 190 191 192 192 192 192 194 196 193 191 191 193 193 192 191 190 190 188 188 187 189 190 191 193 193 194 193 194 193 195 194 194 193 190 190 192 189 189 191 189 190 193 192 192 191 191 191 191 193 191 192 192 191 193 193 193 192 191 191 190 190 189 189 189 188 189 189 190 190 190 189 190 189 190 192 190 191 190 191 190 190 191 190 190 190 190 187 188 187 188 190 190 190 189 189 190 190 191 189 188 188 185 188 189 189 189 189 187 187 187 188 186 187 188 185 186 187 187 189 189 188 188 187 188 188 188 188 188 187 188 188 189 189 189 188 187 186 186 186 186 186 187 188 185 170 165 184 193 194 194 193 191 192 192 191 191 188 187 186 186 185 184 184 182 181 182 181 179 179 177 176 176 177 175 175 174 172 172 170 168 169 166 166 165 165 163 162 161 163 161 159 159 157 155 152 149 145 137 126 105 79 51 27 11 5 3 1 3 2 2 2 1 1 2 2 2 2 2 2 2 0 1 2 3 2 1 2 0 0 0 0 0 0 0 1 0 0 0 0 0 0 0 0 0 0 0 0 0 0 0 0 0 0 0 0 0 0 0 0 0 0 0 0 0 0 0 0 0 0 0 0 0 1 1 1 0 1 0 0 0 0 0 0 0 0 0 0 0 0 0 0 0 0 0 0 2 3 2 2 1 1 3 1 2 2 1 2 1 0 0 0 0 0 0 1 2 2 4 4 3 4 4 4 5 4 3 3 1 1 2 1 2 0 1 0 1 2 2 1 1 0 0 1 0 0 0 1 1 1 2 1 2 2 2 2 2 2 1 1 2 3 3 3 2 2 2 3 4 3 4 3 4 4 4 4 6 7 5 5 4 3 3 4 2 1 2 2 3 2 
2 3 3 1 2 1 2 2 2 1 2 0 0 0 0 0 0 0 0 0 0 0 0 0 0 0 0 0 0 1 1 0 0 0 0 0 0 0 0 0 0 0 0 0 0 0 0 0 0 1 1 1 2 1 2 0 1 2 0 0 0 0 0 1 0 0 0 0 0 0 0 0 0 0 0 0 1 0 0 2 0 0 0 0 0 0 0 0 0 0 0 0 0 0 0 0 0 0 0 0 0 0 0 0 0 0 0 0 0 0 0 0 0 0 0 0 0 0 0 0 0 0 0 0 0 1 2 1 0 1 3 1 0 0 1 1 1 1 2 0 4 3 3 2 4 4 2 3 4 3 4 5 5 6 6 4 4 6 8 8 6 7 6 6 5 3 4 4 3 4 4 2 31 123 165 170 174 178 177 181 183 184 184 183 181 184 184 184 184 182 181 181 186 187 188 189 191 191 193 192 193 192 193 194 196 196 195 197 197 197 197 196 196 195 195 197 196 196 196 197 197 196 197 199 198 197 197 196 196 197 196 196 195 195 195 195 194 194 194 192 193 195 197 197 196 195 193 194 192 191 191 192 192 193 193 193 192 193 194 193 193 191 192 193 190 191 190 190 190 190 189 189 191 191 193 195 193 193 193 194 195 193 193 193 190 190 190 190 189 189 190 190 191 192 192 192 191 191 192 192 192 192 192 192 192 192 193 193 192 190 193 190 190 189 189 190 190 190 191 191 189 188 188 190 191 191 192 192 193 192 192 191 191 190 190 191 190 188 188 187 190 191 191 190 188 188 190 190 190 189 189 189 188 189 189 190 187 189 189 188 188 187 187 188 188 187 186 187 187 188 188 189 188 188 189 189 188 188 188 186 187 187 188 189 189 186 187 187 187 186 185 186 187 188 187 172 166 186 194 196 195 195 193 194 192 192 191 189 189 189 188 188 185 184 184 185 184 183 183 181 180 180 180 179 179 177 176 175 177 174 172 171 170 169 168 167 166 166 166 166 165 165 163 161 161 157 158 156 155 154 149 141 127 105 80 50 23 9 4 0 1 1 2 1 1 1 4 1 2 2 2 2 2 1 2 1 2 1 0 0 0 0 0 0 0 1 0 0 0 0 0 0 0 0 0 0 0 0 0 0 0 0 0 0 0 0 0 0 0 0 0 0 0 0 0 0 0 0 0 0 0 0 1 1 1 0 0 1 0 0 0 0 0 0 0 0 0 0 0 0 0 0 0 0 0 0 0 2 3 2 1 0 1 3 2 3 3 3 1 3 1 2 1 0 1 2 3 1 3 4 5 6 5 3 4 5 3 1 2 2 1 1 0 2 0 0 2 0 2 0 2 2 1 0 0 0 1 1 2 1 1 1 1 2 2 1 2 0 0 2 2 2 3 2 2 0 3 4 3 4 3 4 4 4 5 6 6 5 5 5 4 4 4 4 3 2 1 2 2 2 
3 1 2 1 1 2 1 1 2 2 1 0 0 0 0 0 0 0 0 0 0 0 0 0 0 0 0 0 0 0 0 0 0 0 1 1 0 0 0 0 0 0 0 0 0 0 0 0 0 0 2 1 1 1 2 2 1 0 1 1 1 0 0 0 0 0 0 0 0 0 0 0 0 0 1 1 0 0 0 0 0 0 0 0 0 0 0 0 0 1 1 0 0 0 0 0 0 0 0 0 0 1 0 0 0 0 0 0 0 0 0 0 0 0 0 0 0 0 0 0 0 0 0 0 0 0 2 2 1 1 1 1 1 1 1 1 2 0 2 1 1 4 2 2 5 3 2 3 4 3 5 5 6 4 6 6 5 6 7 7 7 7 6 6 4 2 3 4 3 3 2 0 12 90 153 168 172 176 176 177 180 181 181 182 182 184 183 184 182 181 180 184 186 186 188 188 190 192 191 192 191 193 194 195 194 194 196 195 196 197 196 195 195 196 195 195 194 195 196 197 195 196 196 196 197 198 196 197 195 196 196 196 196 196 195 195 195 194 194 192 194 194 196 196 193 192 193 194 194 191 194 193 194 194 195 194 195 194 194 193 192 193 191 191 192 191 190 189 190 190 188 190 190 192 193 195 192 193 194 193 194 193 192 192 192 189 190 190 189 190 191 190 190 193 193 192 191 190 191 192 193 191 191 191 193 192 193 193 192 191 191 191 190 189 189 191 191 192 191 190 190 190 191 192 192 192 194 193 193 192 192 192 191 191 190 189 189 188 189 189 190 190 190 189 190 189 191 190 188 188 189 189 189 191 191 191 189 190 188 188 187 186 187 187 187 187 186 187 188 188 189 188 188 188 189 189 188 190 188 186 187 187 189 188 189 188 187 188 189 187 187 188 188 188 188 176 163 182 192 194 193 194 194 194 193 193 192 190 189 189 188 189 188 187 185 186 186 185 183 183 183 182 181 181 181 180 179 177 178 176 177 173 173 172 172 171 170 169 169 169 168 167 166 167 164 162 164 163 159 158 156 157 153 147 139 126 106 79 48 23 8 3 2 1 2 2 1 0 0 1 1 1 2 0 0 1 1 1 0 0 0 0 0 0 0 0 1 0 0 0 0 0 0 0 0 0 0 0 0 0 0 0 0 0 0 0 0 0 0 0 0 0 0 0 0 0 0 0 0 0 0 0 1 1 1 0 1 0 0 0 0 0 0 0 0 0 0 0 0 0 0 0 0 0 0 1 1 2 3 3 1 2 2 3 3 3 3 4 2 3 5 4 3 3 1 1 1 1 3 6 6 6 5 4 4 3 3 1 1 1 3 1 0 1 2 1 1 1 1 1 1 2 3 3 0 2 1 1 1 2 1 1 1 2 2 0 1 2 1 2 3 1 3 2 2 1 3 4 5 4 3 2 4 5 5 5 5 6 6 6 4 3 4 4 3 1 0 1 0 2 
2 2 0 0 0 2 0 1 2 2 0 1 0 0 0 0 0 0 0 0 0 0 0 0 0 0 0 0 0 0 0 0 1 0 0 0 0 0 0 0 0 0 0 0 0 0 0 0 0 1 0 0 0 1 0 0 1 0 0 0 0 0 0 0 0 0 0 0 0 0 0 0 0 0 0 2 2 1 0 0 0 0 0 0 1 0 0 1 1 2 0 0 0 0 0 0 0 0 0 0 0 1 0 0 0 0 0 0 0 0 0 0 0 0 0 0 0 0 0 0 0 0 0 0 0 0 1 0 0 2 1 0 1 0 0 0 0 0 2 1 1 2 3 2 2 3 3 2 4 4 5 4 5 6 6 8 7 8 7 7 7 6 6 5 5 3 2 2 2 1 2 3 3 52 136 165 168 173 175 176 180 181 183 181 182 183 181 181 181 182 182 183 187 188 187 190 190 190 191 193 192 192 192 194 193 194 196 194 195 195 196 194 196 195 195 196 196 196 196 194 195 193 196 194 196 196 197 197 197 198 196 196 195 194 194 194 194 192 194 193 193 194 195 193 192 191 191 193 192 192 192 194 193 196 195 195 194 192 193 194 192 193 191 192 192 191 190 190 191 191 191 191 190 191 192 192 192 194 194 193 193 192 191 193 192 190 189 191 190 191 191 189 192 191 192 191 190 191 192 190 192 191 191 192 192 192 192 191 191 190 191 192 191 190 191 190 192 192 192 191 193 192 192 191 192 194 195 194 194 193 193 192 191 190 191 190 190 189 188 188 189 189 190 190 189 188 190 189 188 188 188 190 190 190 191 190 189 189 188 186 185 185 186 185 186 188 187 187 187 188 189 189 188 187 189 192 189 189 189 188 187 189 188 188 190 188 188 189 189 188 187 188 187 188 189 180 163 176 189 191 193 193 193 195 193 193 191 192 192 190 190 188 187 187 186 186 185 185 184 185 186 185 183 184 183 181 181 180 181 180 178 174 175 174 175 174 174 172 171 172 171 170 170 169 165 166 166 166 165 165 162 161 159 156 154 154 148 139 126 105 78 50 24 7 1 0 0 0 0 1 1 1 1 0 1 0 1 0 1 0 0 0 0 0 0 0 0 0 0 0 0 0 0 0 0 0 0 0 0 1 0 0 0 0 0 0 0 0 0 0 0 0 0 0 0 0 0 0 0 0 0 0 0 0 0 0 0 0 0 0 0 0 0 0 0 0 0 0 0 0 0 0 0 0 1 3 3 4 3 3 2 5 4 2 2 2 4 3 2 3 4 3 4 3 3 2 3 1 4 5 6 5 4 2 2 3 4 3 2 3 2 1 1 0 2 2 1 1 0 1 2 3 3 3 2 2 1 2 2 1 3 1 1 3 1 1 1 1 1 1 1 1 2 2 1 3 3 5 6 5 5 4 3 4 5 4 3 5 5 3 4 2 5 4 2 1 1 1 2 1 
2 1 1 0 0 0 0 0 0 1 1 0 1 0 0 0 0 0 0 0 0 0 0 0 0 0 0 0 0 0 0 1 0 0 0 0 0 0 0 0 0 0 0 0 0 0 0 0 0 1 0 0 1 0 1 0 0 0 1 1 0 0 0 0 0 0 0 0 0 0 0 0 0 0 1 2 2 1 1 0 0 0 0 0 0 0 0 0 1 2 0 0 0 0 0 0 0 0 0 0 0 0 0 0 0 0 0 0 0 0 2 0 0 0 0 0 0 0 0 0 0 0 0 0 0 0 0 0 0 2 2 1 2 0 0 1 0 0 1 2 2 0 2 2 3 3 4 3 4 4 5 5 5 7 8 9 7 7 7 7 7 6 6 6 5 3 1 2 2 3 3 4 2 22 104 155 164 169 175 177 178 180 182 180 184 180 180 180 180 179 182 184 188 189 189 188 190 191 191 192 193 193 193 193 195 194 195 193 194 194 194 193 195 193 194 196 194 194 194 196 194 195 195 195 196 195 196 195 197 197 195 196 194 193 194 192 192 192 193 193 191 193 195 192 191 191 191 193 192 193 193 193 194 196 195 195 195 193 192 192 192 191 192 190 192 191 191 190 192 190 190 190 189 191 193 194 194 194 194 193 192 191 190 190 192 191 189 190 191 190 190 190 191 191 190 192 191 190 190 192 192 193 192 191 192 191 193 191 191 189 191 191 189 191 191 192 193 193 192 195 193 193 194 193 193 194 195 195 194 193 192 190 190 189 190 189 191 190 188 189 189 189 191 191 188 189 190 188 187 189 189 189 190 190 189 191 188 188 187 187 185 186 187 186 186 186 187 185 188 188 187 187 189 189 190 192 191 189 189 188 188 187 187 189 189 189 190 190 191 189 189 187 187 188 188 185 168 166 181 186 187 190 190 194 192 193 192 191 190 190 189 190 189 187 187 187 186 187 186 187 187 186 186 186 184 186 184 183 182 182 180 178 178 177 175 175 175 175 173 172 174 173 173 171 170 170 169 169 169 168 168 167 164 164 162 159 158 153 153 148 138 126 102 68 33 10 1 0 0 0 1 1 2 0 0 0 0 0 0 0 0 0 0 0 0 0 1 0 0 0 0 0 0 0 0 0 0 0 0 0 1 0 0 0 0 0 0 0 0 0 0 0 0 0 0 0 0 0 0 0 0 0 0 0 0 1 0 0 0 0 0 0 0 0 0 0 0 0 0 0 0 0 0 1 1 2 4 3 2 3 4 5 5 4 3 4 3 4 4 3 5 5 3 3 2 3 2 4 6 6 5 4 6 4 2 2 3 3 3 2 2 0 2 2 1 2 0 1 1 1 2 2 4 3 2 3 1 2 2 2 1 2 3 1 0 0 1 1 2 0 1 1 1 2 2 4 5 6 5 5 3 5 4 4 5 5 4 5 6 5 3 4 5 4 3 2 1 1 2 2 
1 0 0 0 0 0 0 0 1 1 1 2 2 0 0 0 0 0 0 0 0 0 0 0 0 0 0 0 0 1 0 0 0 0 0 0 0 0 0 0 0 0 0 0 0 0 0 0 0 0 0 0 0 0 0 0 0 0 0 0 0 0 0 0 0 0 0 0 0 0 0 0 0 0 1 0 2 2 1 1 2 1 0 0 0 1 0 0 2 3 0 0 0 0 0 0 0 0 0 0 0 0 0 0 0 0 0 0 0 0 2 2 0 0 0 0 0 0 0 0 0 0 0 0 0 0 0 0 0 0 2 0 2 0 1 2 1 1 1 1 0 2 1 3 4 2 4 5 6 5 5 7 8 7 7 8 8 6 6 8 6 6 6 3 4 2 1 3 3 5 3 5 4 9 63 136 162 168 172 176 177 179 180 181 181 181 181 181 179 179 181 183 188 189 190 192 191 192 193 192 194 195 194 193 195 194 193 192 192 192 193 194 195 195 197 196 194 196 194 195 195 195 194 195 195 195 196 195 196 196 196 194 193 192 193 193 193 192 193 192 193 193 193 192 190 192 191 192 192 192 191 191 194 195 194 193 194 194 194 194 192 193 191 191 191 191 191 192 192 190 191 190 191 190 193 193 193 193 193 191 192 191 189 191 190 189 189 189 189 188 188 189 191 192 192 191 191 192 190 191 190 193 192 191 192 192 193 191 191 190 190 191 188 189 191 192 194 193 194 193 192 193 193 194 194 193 196 195 194 194 192 191 190 190 192 193 191 190 189 188 189 192 190 189 190 191 189 191 189 188 187 188 189 189 189 189 187 188 189 188 188 187 187 187 185 187 187 188 188 188 188 189 189 188 187 189 189 189 189 188 188 189 188 189 189 189 190 190 189 187 188 188 188 188 188 187 175 157 162 178 182 183 185 188 189 188 189 190 189 188 190 189 187 185 186 187 188 187 187 187 187 187 188 186 186 187 187 187 185 184 181 180 178 178 177 175 175 176 176 175 176 175 177 173 173 173 170 171 171 171 171 169 169 168 167 166 164 160 159 156 155 152 146 134 114 83 48 19 4 0 0 1 3 2 0 0 0 0 0 0 0 0 0 0 0 0 1 0 0 0 0 0 0 0 0 0 0 0 0 0 2 0 0 0 0 0 0 0 0 0 0 0 0 0 0 0 0 0 0 0 0 0 0 0 0 0 0 0 0 0 0 0 0 0 0 0 0 0 0 0 1 0 2 3 2 2 2 2 2 3 4 3 6 3 3 1 3 3 3 3 4 3 3 2 3 3 2 5 6 6 6 4 5 4 2 1 5 4 2 3 3 1 2 1 2 2 1 0 1 0 1 2 3 1 2 2 1 1 2 3 3 2 1 1 1 1 1 1 1 3 2 1 1 3 2 4 4 6 6 4 4 3 4 6 5 5 5 5 5 2 3 3 3 4 2 2 1 2 2 0 
1 1 0 0 0 0 2 0 0 0 0 2 3 0 0 0 0 0 0 0 0 0 0 0 0 0 0 0 0 0 0 0 0 0 0 0 0 0 0 0 0 0 0 0 0 0 0 0 0 0 0 0 0 0 0 0 0 0 0 0 0 0 0 0 0 0 0 0 0 0 0 0 0 0 0 0 2 3 2 1 3 1 0 0 0 0 1 1 1 1 0 0 0 0 0 0 0 1 1 2 0 0 0 0 0 0 0 0 0 1 0 1 0 2 0 0 0 0 0 0 0 0 0 0 0 0 0 0 0 2 1 3 1 1 0 2 2 1 3 3 1 2 1 3 3 3 5 5 6 5 6 7 7 8 7 8 7 5 3 5 6 6 6 3 3 3 3 3 1 2 3 2 4 3 22 94 151 165 170 173 175 179 180 179 180 181 180 179 178 180 183 184 187 188 190 190 190 192 194 194 194 193 193 192 193 193 194 193 193 192 192 194 195 196 195 193 195 195 194 195 194 194 194 195 194 195 196 194 195 194 195 194 192 193 194 194 192 193 194 193 195 194 194 192 190 192 191 190 190 191 191 194 194 195 195 194 193 194 193 193 191 192 191 192 192 193 192 191 192 192 191 190 191 190 193 194 193 195 192 192 191 191 189 190 191 190 188 189 190 187 188 189 189 189 191 190 190 192 191 192 191 192 193 194 194 193 193 191 191 191 190 190 190 190 191 193 195 194 193 193 193 193 194 192 194 195 195 195 195 195 193 190 190 191 192 192 192 191 190 190 189 191 189 190 191 190 190 190 189 188 189 189 188 190 189 188 187 188 189 189 188 187 188 187 187 187 189 189 188 189 188 188 189 189 189 189 190 189 188 188 188 187 188 189 189 189 190 189 190 189 188 188 187 189 187 186 185 168 149 154 164 168 173 179 183 182 185 187 186 187 186 186 186 185 186 187 186 186 187 186 187 186 189 188 188 188 187 187 185 185 182 182 181 180 180 178 178 179 178 177 177 177 178 177 176 176 175 174 173 171 172 171 171 170 169 169 167 165 163 162 160 158 156 154 148 138 124 98 65 31 10 2 0 0 2 1 1 1 1 0 0 0 0 0 0 0 0 0 0 0 0 0 0 0 0 0 1 1 0 0 2 1 0 0 0 1 0 0 0 0 0 0 0 0 0 0 0 0 0 0 0 0 0 0 0 0 0 0 0 0 0 0 0 0 0 0 0 0 0 0 1 1 1 2 2 2 2 2 3 3 4 4 3 2 3 3 3 1 1 3 3 1 3 4 3 1 3 6 5 7 7 5 6 5 4 4 4 3 4 2 4 2 2 3 1 0 0 1 1 0 0 2 1 1 2 2 0 0 0 1 3 3 2 1 0 1 0 1 1 1 2 1 2 2 3 2 5 3 3 3 2 3 4 5 4 5 5 4 5 3 1 2 2 2 3 2 1 3 2 1 
2 1 0 0 0 0 2 1 1 1 1 1 2 0 0 0 0 0 0 0 0 0 0 0 0 0 0 0 0 0 0 0 0 0 0 0 0 0 0 0 0 0 0 0 0 0 0 0 0 0 0 0 0 0 0 0 0 0 0 0 0 0 0 0 0 0 0 0 0 0 0 0 0 0 0 1 1 2 2 0 1 0 0 0 1 1 1 2 2 2 1 2 1 0 1 0 0 2 2 2 1 0 0 0 2 1 0 0 0 2 1 0 1 0 0 0 0 0 0 0 0 0 0 0 0 0 0 0 1 2 0 1 1 0 2 2 2 1 3 3 3 5 2 3 4 4 5 5 5 5 8 8 8 7 7 7 6 6 6 5 4 4 5 3 1 3 4 2 3 2 2 3 4 4 6 46 121 158 168 172 175 177 178 179 179 179 180 179 177 179 183 185 189 189 190 190 190 193 194 194 194 193 193 193 192 193 194 192 192 193 193 192 192 193 193 195 194 193 193 194 194 194 192 194 194 193 193 194 194 192 193 191 191 193 193 193 194 192 193 192 194 195 193 194 192 191 191 190 190 191 193 193 195 196 196 193 195 193 192 191 190 192 193 193 192 191 192 192 193 193 192 190 191 190 192 193 195 193 192 193 191 191 191 188 189 190 189 189 188 188 187 189 189 189 189 190 188 190 192 192 192 193 194 195 194 195 193 193 191 192 191 190 190 190 191 191 192 192 194 195 195 195 195 195 194 195 195 195 194 193 192 191 192 191 192 192 193 191 191 191 191 191 191 188 190 190 190 189 189 190 189 188 188 189 189 189 188 188 187 187 188 188 187 188 188 190 189 189 187 189 188 188 190 188 188 190 192 191 187 187 188 188 187 188 187 188 191 189 188 187 189 188 188 186 187 188 187 185 171 153 144 146 153 160 166 170 174 178 180 183 184 184 183 182 185 185 185 186 186 185 187 189 190 188 189 187 187 187 187 186 185 184 182 182 183 181 181 179 179 178 178 179 178 180 180 179 176 176 177 175 174 173 173 170 170 170 168 169 166 167 166 166 161 158 154 154 152 147 135 113 81 46 16 4 1 1 1 2 1 0 0 0 0 0 0 0 0 0 0 0 0 0 0 0 0 0 1 1 1 3 1 2 0 0 0 0 0 0 0 0 0 0 0 0 0 0 0 0 0 0 0 0 1 0 0 0 0 0 0 0 0 0 0 0 0 0 0 1 0 0 0 1 1 2 4 3 1 1 4 4 4 4 4 4 5 2 2 1 2 3 2 2 4 3 5 3 3 4 5 6 8 5 6 5 6 5 4 4 3 3 2 3 2 2 2 1 0 1 1 0 0 1 1 2 3 2 1 0 1 1 2 2 1 2 1 1 0 1 1 1 3 2 1 1 3 4 3 2 2 1 1 4 3 3 2 3 3 4 3 2 1 1 1 1 1 1 1 3 2 1 
0 0 0 1 1 0 1 2 3 2 2 2 2 1 0 0 0 0 0 0 0 0 0 0 0 0 0 0 0 0 0 0 0 0 0 0 0 0 0 0 0 0 0 0 0 0 0 0 0 0 0 0 0 0 0 0 0 0 0 0 0 0 0 0 0 0 0 0 0 0 0 0 0 0 0 0 0 1 2 0 2 1 1 0 1 2 2 1 2 4 2 2 1 1 0 1 2 0 0 2 2 1 0 0 1 0 0 0 0 0 0 1 0 0 0 0 0 0 0 0 0 0 0 0 0 0 1 0 1 1 0 0 0 1 3 4 1 2 2 3 3 2 3 3 3 3 5 4 4 5 6 5 6 6 6 7 7 6 7 6 3 4 4 5 3 3 5 1 4 3 3 2 4 4 6 15 75 143 162 169 172 176 178 177 179 179 180 178 179 181 186 185 187 189 191 191 190 191 192 192 193 192 194 193 193 194 193 191 191 192 192 193 194 194 193 192 194 193 194 194 195 193 192 193 194 193 192 193 193 193 190 192 190 191 193 194 193 193 193 193 194 194 194 194 192 189 192 191 191 191 192 193 194 195 194 194 194 193 193 192 192 193 193 192 192 193 193 194 192 191 191 192 191 192 191 194 194 194 192 192 191 188 188 188 188 188 188 189 189 187 187 188 190 189 190 191 190 191 193 192 193 193 196 194 195 194 193 194 193 192 190 192 193 192 192 191 193 195 194 193 193 195 195 195 195 196 195 193 194 193 193 192 191 191 192 193 194 193 190 190 191 191 191 190 189 192 189 189 190 190 190 188 188 189 189 189 188 188 187 188 187 188 188 188 187 189 189 188 188 187 188 188 188 188 188 188 189 190 189 188 188 190 190 188 188 188 187 187 188 187 188 187 188 186 187 187 188 188 186 181 174 165 159 151 148 149 155 160 164 168 173 176 177 177 179 180 182 184 186 186 188 188 188 190 189 188 187 188 188 187 187 186 184 184 185 184 183 182 183 181 181 180 180 181 181 180 178 178 178 176 176 175 175 173 171 170 171 170 170 170 170 168 166 163 161 160 160 159 156 152 142 127 96 55 17 3 0 1 2 0 0 0 0 0 1 0 0 0 0 0 0 0 0 0 0 1 1 3 1 2 0 0 0 0 0 0 0 0 0 0 0 0 0 0 0 0 0 0 0 0 0 0 0 0 0 0 0 0 0 0 0 0 0 0 0 1 1 0 0 0 1 0 1 1 2 3 3 1 3 5 4 4 5 5 2 1 2 1 2 2 4 3 5 6 4 4 4 4 6 6 5 6 7 6 5 4 3 5 1 1 4 3 2 4 2 1 1 1 0 0 0 1 1 2 2 1 2 1 1 1 3 2 2 2 2 1 2 2 3 1 3 3 2 2 2 4 4 3 2 3 1 3 2 2 1 2 2 1 1 1 2 1 1 1 2 0 1 1 2 0 
0 0 0 1 1 3 2 1 2 3 2 2 1 0 0 0 0 0 0 0 0 0 0 0 0 0 0 0 0 0 0 0 0 0 0 0 0 0 0 0 0 0 0 0 0 0 0 0 0 0 0 0 0 0 0 0 0 0 0 0 0 0 0 0 0 0 0 0 0 0 0 2 0 0 0 0 0 1 4 3 2 2 2 1 3 2 2 2 3 2 1 1 2 2 2 2 2 2 0 2 1 0 0 0 0 0 0 0 0 0 0 0 0 0 0 0 0 0 0 0 0 0 0 0 0 0 0 1 2 2 1 1 2 2 2 1 3 2 2 2 2 1 2 3 4 3 4 3 5 3 4 4 3 5 5 6 5 6 5 5 4 5 4 4 4 3 3 1 3 2 2 4 3 4 6 5 32 106 154 165 169 171 174 175 178 178 177 178 180 184 185 186 187 189 189 191 191 190 192 192 191 193 193 193 192 193 192 192 191 194 192 192 192 195 193 192 194 192 193 193 192 192 192 193 191 193 192 193 193 194 190 190 189 190 192 192 193 192 192 194 194 195 194 194 193 193 191 191 190 191 192 193 195 194 196 198 196 196 194 193 192 193 192 193 192 193 193 193 192 191 190 191 191 191 192 193 194 194 193 192 190 188 188 189 190 190 189 190 190 188 188 189 191 191 190 191 192 192 194 194 193 193 193 194 194 194 193 193 193 192 193 193 192 192 192 192 193 193 193 194 194 194 195 195 196 196 194 193 193 192 193 192 193 190 192 193 194 193 193 191 190 189 190 191 191 189 188 190 190 190 190 189 189 190 189 190 188 187 186 187 188 187 188 188 188 187 188 189 188 188 189 188 188 188 188 188 188 189 188 186 188 188 188 187 188 187 188 187 187 187 187 187 186 186 187 186 186 187 189 188 187 183 183 180 177 169 159 150 147 150 156 159 163 169 171 175 177 180 182 184 186 186 186 189 189 189 190 189 188 187 187 186 185 186 186 184 185 185 184 184 183 182 184 182 181 182 181 179 180 180 178 177 176 175 174 174 173 172 172 172 171 170 170 168 168 166 165 165 163 162 159 157 148 128 90 47 13 1 0 0 0 0 1 1 2 0 0 0 0 0 0 0 0 1 3 1 2 2 0 0 1 0 0 0 0 0 0 0 0 0 0 0 0 0 0 0 0 0 0 0 0 0 0 0 0 0 0 0 0 0 0 0 0 0 1 0 0 0 0 0 0 0 1 0 2 2 2 2 2 4 6 6 4 6 2 1 3 3 3 5 4 4 4 6 4 3 5 6 7 6 6 6 5 5 3 4 4 3 3 3 4 5 4 2 1 1 1 0 0 0 1 2 1 1 1 2 0 4 3 3 3 1 2 2 2 3 2 2 2 2 2 2 3 3 3 4 4 3 4 2 2 3 2 1 1 0 1 2 0 1 2 2 1 1 1 1 2 1 0 0 
0 0 0 1 1 1 2 1 1 2 3 1 0 0 0 0 0 0 0 0 0 0 0 0 0 0 0 0 0 0 0 0 0 0 0 0 0 0 0 0 0 0 0 0 0 0 0 0 0 0 0 0 0 0 0 0 0 0 0 0 0 0 0 0 0 0 0 0 0 0 0 1 1 1 0 0 0 2 3 4 4 3 3 2 4 2 4 3 2 1 1 1 2 3 2 1 1 0 1 2 1 1 0 0 1 0 0 0 0 0 0 0 0 0 0 0 0 0 0 0 0 0 0 0 0 0 1 0 2 2 2 1 3 1 2 2 2 2 2 2 2 2 3 5 4 3 2 4 4 4 6 6 5 5 4 5 4 4 4 5 6 5 6 3 4 3 2 3 3 1 3 4 3 5 6 4 7 55 129 160 164 168 170 172 175 178 179 179 183 184 185 187 189 188 189 191 192 190 192 190 192 191 192 193 193 192 192 194 194 194 195 192 193 192 191 192 192 193 194 193 191 191 192 192 192 192 191 191 191 192 190 191 191 190 191 191 191 192 193 192 194 193 193 194 192 192 192 191 192 191 193 195 196 196 197 197 197 195 195 194 194 192 191 191 193 192 192 191 190 190 188 190 190 190 191 193 194 193 192 191 191 189 189 189 187 191 191 190 190 189 189 189 189 190 189 191 192 193 193 193 191 191 193 193 193 194 192 191 192 193 193 194 192 194 193 193 193 194 193 194 196 196 197 196 196 195 194 193 193 193 194 193 192 191 191 192 194 192 191 190 191 190 190 190 189 189 189 191 189 188 189 191 190 189 190 190 189 188 189 190 189 188 187 187 186 187 187 186 190 188 188 188 188 188 186 187 189 190 188 187 186 187 187 186 187 187 186 185 186 186 187 185 187 186 186 185 186 187 187 187 186 184 187 187 185 186 183 179 174 166 155 146 144 147 152 161 166 172 176 178 180 181 183 185 186 187 188 190 189 189 188 187 185 185 185 183 184 185 185 184 184 184 184 185 184 182 183 181 182 180 181 180 179 177 175 175 175 175 175 174 174 173 172 171 170 171 170 170 169 167 166 163 162 157 147 124 83 38 9 0 0 1 1 2 2 0 0 0 0 0 1 2 1 1 2 3 1 1 1 3 0 2 1 1 1 0 0 0 0 0 0 0 0 0 0 0 0 0 0 0 1 0 1 0 0 0 0 0 0 0 0 0 0 0 0 0 0 0 0 0 0 2 3 1 0 0 2 1 3 4 6 6 6 6 5 3 3 3 3 4 4 4 3 4 5 5 4 6 6 6 5 5 6 5 4 3 3 5 2 1 3 3 3 2 3 2 2 0 1 0 2 3 3 2 1 2 3 4 3 4 3 1 1 4 2 2 2 0 1 0 2 2 2 2 1 1 2 2 2 2 3 3 2 2 2 1 1 1 0 1 0 1 1 0 1 2 1 2 1 0 
0 0 0 0 2 1 1 1 1 1 1 1 0 0 0 0 0 0 0 0 0 0 0 0 0 0 0 0 0 0 1 0 0 0 0 0 0 0 0 0 0 0 0 0 0 0 0 0 0 0 0 0 0 0 0 0 0 0 0 0 0 0 0 0 0 0 0 0 0 0 0 0 0 1 1 1 0 2 6 5 6 6 4 3 3 3 3 4 2 2 1 1 0 3 3 2 1 0 0 1 2 1 1 1 0 3 1 0 0 0 0 0 0 0 0 0 0 0 0 0 0 0 0 0 1 1 1 0 1 0 2 2 2 1 2 2 2 2 1 2 3 4 4 4 3 3 2 4 5 4 5 5 5 5 6 5 5 6 3 5 5 4 6 6 2 3 2 2 2 3 1 4 4 6 5 3 0 17 86 147 161 164 168 171 172 176 178 181 184 186 186 188 188 190 191 192 191 190 191 191 192 192 193 193 193 191 192 192 194 194 192 192 192 190 190 189 190 191 191 191 191 190 192 191 190 192 190 189 191 190 190 190 190 189 190 191 192 192 191 192 193 194 194 191 191 192 193 194 194 195 193 196 196 196 199 197 196 195 194 192 193 191 190 193 192 190 190 191 191 190 189 189 190 192 191 192 194 192 193 191 190 190 189 189 188 189 190 190 190 190 189 188 189 190 190 190 191 192 191 192 192 192 193 193 194 193 192 193 193 192 193 194 194 193 193 194 193 194 193 193 195 196 196 197 196 196 195 194 193 194 192 190 191 191 190 191 191 192 192 191 190 190 189 189 189 189 189 189 191 191 190 191 190 189 188 189 189 189 189 188 189 189 186 186 187 187 188 188 187 189 189 189 188 188 189 189 189 188 188 187 187 188 188 188 187 186 186 186 186 186 184 186 186 186 187 186 185 187 187 187 186 186 187 186 187 185 185 182 183 181 177 173 160 141 125 127 134 148 158 166 170 175 176 179 182 184 187 188 186 185 186 186 184 185 184 184 185 187 185 184 184 185 184 184 185 185 184 182 182 184 182 182 180 180 177 177 177 178 177 176 176 175 174 174 173 174 171 172 171 171 172 168 166 164 161 158 145 118 75 31 7 0 0 4 2 3 1 1 3 3 2 2 2 2 1 1 1 0 1 1 1 1 2 1 1 1 0 0 2 0 0 0 0 0 0 0 0 0 0 0 0 2 0 1 0 0 0 0 0 0 0 0 0 0 0 0 0 0 0 0 1 3 1 1 0 3 2 3 3 5 6 6 6 6 6 4 4 4 5 3 2 3 1 3 3 3 4 5 5 4 6 5 6 6 4 3 5 5 2 1 2 2 3 2 3 4 3 2 1 0 1 4 4 2 2 2 4 3 3 4 1 1 1 3 2 2 1 2 1 1 1 1 1 1 0 0 0 1 2 4 3 3 3 1 2 2 0 0 0 1 2 0 1 0 0 0 0 0 0 0 
0 0 0 0 0 0 0 1 1 0 0 1 1 0 0 0 0 0 0 0 0 0 0 0 0 0 0 0 0 0 0 1 0 1 0 0 0 0 0 0 0 0 0 0 0 0 0 0 0 0 0 0 0 0 0 0 0 0 0 0 0 0 0 0 0 0 0 0 0 0 0 0 0 0 1 1 2 3 6 5 6 7 5 4 4 4 4 3 1 1 1 0 0 3 1 3 1 0 1 4 4 4 2 0 3 2 2 1 2 0 1 0 0 0 0 0 0 0 0 0 0 0 0 1 2 1 0 1 2 1 0 1 0 3 2 2 1 2 1 1 3 4 3 3 3 3 2 4 4 5 6 6 5 5 4 6 5 5 5 5 5 4 4 4 3 3 2 2 1 1 3 3 4 4 4 4 4 3 40 114 153 161 163 168 172 176 178 183 186 187 187 188 189 190 190 192 193 193 193 192 192 192 193 192 192 191 192 192 194 195 193 192 191 190 189 190 189 188 190 189 189 191 190 189 190 190 188 190 191 191 190 189 189 189 190 192 193 194 193 192 193 193 192 193 191 193 195 194 193 194 193 195 195 196 199 196 196 194 194 193 192 191 192 191 192 190 188 190 191 192 190 191 190 190 191 192 192 193 194 193 191 190 190 190 190 190 190 189 191 189 189 188 188 189 190 190 190 190 190 190 191 192 193 193 192 192 193 192 193 192 193 193 192 192 193 193 194 195 192 194 195 194 195 197 196 196 194 194 194 193 192 191 191 192 193 193 191 190 188 188 190 190 189 190 191 190 190 190 190 190 192 189 189 189 189 188 190 189 189 189 188 188 189 188 187 186 188 189 187 189 187 187 187 187 189 188 189 188 188 189 188 188 188 188 187 186 185 186 187 184 185 186 184 186 187 184 186 187 185 185 187 185 187 185 187 185 185 183 183 182 181 180 177 166 144 107 76 84 102 124 141 153 162 166 172 176 180 180 182 182 183 183 185 184 184 184 184 184 184 185 187 187 185 185 186 187 185 184 184 186 184 183 181 181 181 180 179 178 177 177 176 178 178 177 176 174 175 174 177 174 175 173 169 168 166 164 161 156 142 114 71 25 4 3 4 3 2 2 1 2 2 3 3 2 2 3 1 2 1 1 3 2 2 2 1 1 0 1 1 0 0 0 2 0 0 0 0 0 0 2 1 1 1 0 0 0 0 0 0 0 0 0 0 0 0 0 0 0 0 0 0 1 2 2 4 3 3 4 4 5 6 6 8 7 5 3 5 5 5 4 3 4 4 3 3 3 4 5 6 7 5 7 6 6 5 4 4 4 1 0 1 3 2 2 3 2 1 2 1 1 3 2 4 3 3 2 2 3 4 2 1 0 0 0 1 1 1 1 1 0 1 0 0 1 0 0 0 1 1 3 3 3 2 1 1 1 1 0 0 0 0 0 0 1 1 0 0 0 0 0 
0 0 0 0 0 0 0 1 1 0 0 0 0 0 0 0 0 0 0 0 0 0 0 0 0 0 0 0 0 0 0 0 0 0 0 0 0 0 0 0 0 0 0 0 0 0 0 0 0 0 0 0 0 0 0 0 0 0 0 0 0 0 0 0 0 0 0 0 0 0 0 1 1 0 2 3 3 4 5 5 4 5 5 4 6 4 4 4 3 1 2 1 0 0 2 3 3 1 3 3 3 3 3 4 2 2 2 2 1 1 1 0 0 0 0 0 0 0 0 0 0 0 0 2 2 0 1 2 2 0 0 1 0 2 2 0 1 2 3 1 2 2 2 1 3 4 3 3 5 3 4 4 4 5 5 5 4 4 3 4 5 5 4 2 1 1 1 1 1 0 1 3 4 4 5 4 5 2 9 66 135 155 158 163 168 173 179 185 187 188 188 189 190 190 190 193 192 192 191 191 191 191 191 193 193 191 193 193 195 193 193 193 192 191 190 187 187 187 189 189 190 190 190 189 190 189 190 189 192 192 191 190 188 189 191 193 193 194 193 192 192 192 191 190 191 191 193 193 194 194 193 194 195 196 197 197 195 194 193 193 192 192 192 192 191 189 191 191 191 191 192 190 190 189 192 193 194 194 193 191 191 191 190 190 189 189 189 189 191 190 190 189 189 191 192 190 190 190 190 190 192 191 192 191 194 193 192 193 193 194 193 192 193 193 192 192 192 192 193 194 195 194 194 195 195 195 195 194 193 192 192 192 193 192 192 191 192 191 191 190 191 190 190 191 191 191 189 192 191 191 191 190 190 189 189 190 191 190 189 188 188 188 190 187 187 188 188 188 187 188 188 187 187 187 188 189 189 187 190 189 189 187 186 186 187 186 185 185 185 185 186 186 185 187 187 186 186 187 186 186 187 186 189 188 188 186 186 186 182 182 181 179 179 177 164 131 82 48 26 39 62 86 110 131 147 159 165 168 172 175 176 177 181 180 181 181 182 183 183 186 187 187 187 186 185 187 186 186 186 187 184 183 183 184 185 182 180 179 179 180 179 180 180 179 178 178 176 177 178 176 177 174 174 173 172 169 167 164 162 157 140 102 45 8 1 4 3 0 1 2 4 2 1 0 1 3 2 1 0 3 2 2 3 4 2 0 0 0 0 0 0 0 0 0 0 0 0 0 0 1 1 1 0 0 0 0 0 0 0 0 1 2 1 0 0 1 0 0 0 0 0 1 1 2 3 2 4 4 4 4 4 5 6 6 7 3 4 4 3 1 3 2 4 2 3 4 4 4 4 4 6 7 5 5 5 5 4 4 3 1 1 2 3 3 2 2 2 0 1 2 3 3 3 2 4 3 3 2 2 2 1 0 0 1 1 1 0 1 0 1 0 0 0 0 0 0 1 1 2 1 2 3 1 3 2 2 2 0 0 0 0 0 0 0 1 0 0 0 0 0 
0 0 0 0 0 0 1 1 1 0 1 2 1 1 0 0 0 0 0 0 0 0 0 0 0 0 0 0 0 0 0 0 0 0 0 0 0 0 0 0 0 0 0 0 0 0 0 0 0 0 0 0 0 0 0 0 0 0 0 0 0 0 0 0 0 0 0 0 0 0 0 1 1 2 2 2 4 4 7 6 3 2 3 3 2 3 3 4 3 2 1 1 0 0 2 3 2 0 2 2 3 4 3 3 3 4 3 2 1 3 2 2 0 0 0 0 0 0 0 0 0 2 2 2 2 3 0 0 1 1 2 1 2 2 3 4 3 3 2 2 2 3 2 3 2 3 3 3 4 3 3 4 4 4 4 3 3 3 3 3 3 2 3 1 1 0 0 1 1 1 1 3 5 4 5 4 2 4 3 27 98 144 154 161 166 171 182 186 187 188 189 189 189 190 189 191 192 190 191 191 192 192 192 192 191 193 191 192 193 192 192 191 191 188 188 187 187 188 188 187 188 189 188 188 189 191 192 191 192 191 191 190 190 191 193 191 192 194 191 192 193 191 191 191 191 191 192 192 193 193 194 193 194 196 197 196 194 193 194 193 192 190 191 191 190 189 191 190 192 192 193 190 191 191 191 191 192 194 192 192 190 191 190 189 187 188 190 189 190 190 189 189 191 192 193 191 191 192 192 191 193 192 192 192 193 194 193 192 194 193 192 192 192 192 193 193 193 192 193 194 194 195 194 195 196 195 194 194 193 193 194 194 192 191 191 189 190 191 192 191 192 191 191 191 191 191 192 192 192 192 191 192 189 190 191 191 191 191 190 189 190 188 188 187 186 188 188 187 187 187 187 186 186 185 186 187 188 188 188 188 187 187 187 185 186 185 184 184 184 186 184 185 184 186 187 186 188 186 186 186 186 187 189 188 189 187 186 186 184 181 181 180 178 180 175 155 115 68 19 5 7 11 25 47 72 98 120 139 152 159 165 170 174 176 175 179 181 182 180 184 185 187 186 188 186 186 187 188 189 186 186 185 185 185 184 183 182 180 182 180 180 180 182 179 179 179 181 180 178 180 179 177 179 178 175 173 173 172 168 167 162 153 119 61 17 2 3 1 1 1 1 0 1 1 1 2 3 2 2 1 4 3 4 3 3 2 0 0 0 2 2 1 0 0 0 0 0 0 1 2 2 3 1 0 1 0 0 0 0 0 1 2 2 0 1 0 0 0 0 0 0 0 0 0 3 2 3 4 3 4 5 5 5 5 4 4 3 3 2 1 0 2 2 1 3 3 4 4 4 5 5 7 5 5 5 3 2 2 4 2 2 2 1 2 2 1 1 2 2 2 3 4 3 4 5 4 4 3 1 1 2 1 0 0 1 0 1 0 0 0 0 0 0 1 0 0 0 0 1 1 1 2 2 1 1 1 0 0 0 0 0 0 0 0 0 0 0 0 0 0 
0 0 0 0 0 0 1 1 1 0 0 0 1 1 0 0 0 0 0 0 0 0 0 0 0 0 0 0 0 0 0 0 0 0 0 0 0 0 0 0 0 0 0 0 0 0 0 0 0 0 0 0 0 0 0 0 0 0 0 0 0 0 0 0 0 0 0 0 0 0 0 0 0 0 1 2 4 3 6 6 3 3 2 3 3 3 3 4 2 3 3 3 2 2 1 2 2 1 1 1 4 3 3 4 5 5 3 3 3 3 2 3 1 1 0 0 0 0 0 1 0 3 3 1 3 2 3 2 2 1 2 3 2 4 3 2 3 3 3 2 3 1 1 2 1 2 3 1 2 2 2 2 2 3 3 2 3 2 4 3 5 3 2 0 3 1 1 2 2 2 2 4 4 4 6 7 5 6 6 7 50 113 145 155 160 172 183 188 189 189 189 189 189 189 190 190 191 191 190 191 191 192 193 192 191 191 192 193 190 191 189 190 188 188 187 187 187 189 189 188 187 187 188 189 190 190 191 191 191 191 191 191 189 190 190 190 191 192 190 192 193 192 191 191 190 191 192 191 193 194 193 195 195 195 196 195 193 193 195 193 192 190 192 190 191 190 190 191 191 191 192 191 191 192 193 192 192 192 192 191 191 190 190 187 187 188 190 189 189 190 189 189 191 192 192 191 192 192 192 192 193 194 193 194 195 196 193 191 193 193 193 193 193 194 192 192 193 192 193 194 194 194 194 193 195 195 194 195 193 194 193 192 192 192 190 190 191 192 191 192 191 192 192 191 191 192 193 192 194 193 191 192 192 191 190 191 190 190 191 190 189 189 189 187 188 188 188 187 187 189 188 185 185 186 187 188 188 189 189 189 187 187 187 185 186 184 183 184 185 184 184 184 185 186 187 187 188 187 187 186 187 187 187 187 187 185 188 185 185 183 182 179 180 180 180 170 146 99 40 5 3 3 2 3 6 16 34 61 87 112 131 148 157 161 166 171 174 176 177 180 181 184 184 184 184 185 186 187 188 185 187 187 186 187 185 184 183 182 181 182 181 181 182 182 181 181 182 181 181 183 182 181 182 181 179 177 177 176 173 173 171 167 159 134 83 25 3 2 1 2 2 2 0 2 0 1 2 2 2 4 4 4 3 2 2 2 1 0 0 0 0 0 0 0 0 0 0 1 2 2 3 2 1 2 1 0 0 0 0 0 0 1 3 2 2 0 0 0 0 0 0 0 2 2 2 3 3 4 4 4 3 4 4 3 2 2 4 2 2 3 1 2 2 2 2 3 5 5 4 5 6 6 6 6 4 4 2 3 1 1 1 1 2 2 2 1 0 0 0 2 1 5 5 5 5 4 5 3 1 1 3 1 0 2 2 1 0 0 0 0 0 0 0 0 1 0 0 0 1 0 1 0 1 0 0 0 0 0 0 0 0 0 0 0 0 0 0 0 0 0 
0 0 0 0 0 0 1 0 0 0 0 2 1 1 0 0 0 0 0 0 0 0 0 0 0 0 0 0 1 0 0 0 0 0 0 0 0 0 0 0 0 0 0 0 0 0 0 0 0 0 0 0 0 0 0 0 0 0 0 0 0 0 0 0 0 0 0 0 0 0 0 0 0 0 2 2 3 4 5 5 4 3 2 4 3 3 4 4 2 3 2 3 3 4 3 3 4 3 4 3 2 3 5 3 3 2 2 4 3 2 2 1 2 1 0 1 0 0 0 0 2 1 2 5 3 5 3 2 2 2 3 2 3 5 3 3 3 2 1 0 3 0 3 2 1 1 2 2 3 4 2 1 1 1 4 2 1 2 3 4 2 2 2 2 2 0 1 2 2 2 4 4 4 4 5 5 6 6 8 4 16 67 119 144 156 176 182 185 189 187 189 189 189 189 189 191 192 193 190 190 192 191 191 192 192 192 192 192 190 188 188 188 189 188 185 185 188 186 189 188 188 189 187 190 189 190 190 191 190 190 191 190 189 190 189 188 191 191 190 190 191 189 190 188 190 193 192 192 194 193 193 193 193 195 194 194 194 193 194 192 192 191 190 192 191 191 191 191 192 192 191 191 190 192 192 191 191 191 190 192 190 190 188 189 188 188 189 188 188 188 188 191 191 192 191 192 193 193 193 193 195 194 194 196 195 194 193 192 192 192 193 191 193 193 193 193 193 193 192 193 193 195 193 194 193 194 194 195 194 194 192 193 192 192 191 192 193 191 193 192 194 192 194 191 191 192 192 194 193 193 194 192 191 192 192 191 190 189 189 191 190 189 188 188 187 188 188 189 188 187 188 186 188 187 187 187 189 189 188 188 186 186 185 185 185 185 185 183 184 186 184 183 183 185 185 188 186 187 187 186 186 187 187 186 187 186 186 183 184 183 183 180 181 181 180 178 162 123 62 13 4 5 3 1 2 2 1 5 11 29 64 114 136 132 139 154 162 167 170 174 175 179 182 182 183 182 184 184 187 185 185 186 186 187 186 187 184 183 182 183 184 182 184 183 183 184 183 184 183 186 184 183 184 182 181 181 180 179 178 177 176 173 169 166 148 96 35 6 1 3 3 4 1 1 1 1 1 1 2 5 5 3 3 3 2 1 0 0 0 0 0 0 0 0 0 0 1 0 3 3 4 2 2 1 3 2 0 0 0 1 2 2 2 2 1 0 0 0 0 0 1 1 3 2 3 5 5 5 6 4 3 4 5 3 1 3 2 0 2 0 0 1 1 3 4 4 2 3 5 6 6 7 6 7 4 3 2 2 1 2 2 2 1 1 2 2 1 1 0 3 3 3 4 5 6 4 3 2 1 2 3 1 1 1 2 1 0 0 0 0 0 0 0 0 0 0 0 0 0 0 0 0 0 0 0 0 0 0 0 0 0 0 0 0 0 0 0 0 0 0 
0 0 0 0 1 0 2 1 0 0 0 1 0 0 1 0 0 0 0 0 0 0 1 0 0 0 0 0 2 0 0 0 0 0 0 0 0 0 0 0 0 0 0 0 0 0 0 0 0 0 0 0 0 0 0 0 0 0 0 0 0 0 0 0 0 0 0 0 1 0 0 0 0 0 2 4 4 3 4 4 4 3 3 4 1 2 4 3 3 3 4 3 3 4 3 2 3 3 5 3 2 1 4 2 2 1 2 4 3 3 2 1 1 2 1 1 0 0 0 0 1 3 3 3 3 5 2 2 4 4 4 4 2 2 4 5 4 4 2 2 1 2 2 0 1 1 1 1 2 2 1 1 0 0 3 2 3 3 3 3 4 4 2 2 1 0 1 1 2 2 4 4 3 6 5 6 5 7 6 4 7 22 70 118 149 177 183 185 187 188 188 189 188 188 189 189 192 193 190 192 193 192 192 191 192 190 192 191 189 188 187 188 189 188 184 185 188 187 189 187 187 188 190 189 189 190 190 190 190 191 192 191 189 190 189 188 189 188 188 190 191 191 189 192 192 192 192 193 193 195 193 193 193 193 193 194 192 194 192 192 191 192 192 191 192 192 191 191 191 191 192 192 191 192 193 191 190 190 191 190 192 189 189 189 189 189 189 187 188 189 190 190 191 192 192 192 192 195 194 194 195 193 193 194 194 193 193 193 193 192 192 193 193 193 194 194 193 194 194 194 194 194 194 195 193 195 195 194 194 195 193 194 193 193 193 192 192 192 193 193 193 193 193 191 193 192 192 193 192 193 191 192 194 193 193 191 190 188 189 189 189 190 188 190 190 190 189 188 188 188 188 188 189 188 188 188 188 188 189 186 185 183 183 184 184 184 184 186 185 186 185 184 184 184 187 186 186 187 186 186 187 186 185 187 185 185 183 186 183 184 181 180 181 180 179 180 174 145 96 44 17 4 3 1 2 1 2 0 0 2 34 110 142 101 67 93 120 139 153 160 165 170 175 177 179 180 182 183 183 183 185 185 185 186 186 184 185 185 184 184 185 184 184 185 185 185 185 185 184 186 186 186 187 184 183 184 183 182 181 181 178 177 174 173 167 157 114 55 10 1 3 3 3 2 1 2 0 3 3 4 5 4 3 2 2 2 1 0 0 0 0 0 0 0 0 0 2 3 2 2 2 2 2 2 2 1 0 0 1 2 2 2 0 1 0 0 1 0 0 0 0 1 3 3 3 5 6 6 5 4 2 3 5 2 2 1 2 2 2 0 0 1 1 3 2 3 3 3 4 5 7 6 5 4 4 2 3 2 3 2 2 1 3 1 2 3 1 2 1 3 2 4 4 5 5 4 2 2 2 2 1 0 2 1 0 0 0 0 0 0 1 1 1 0 0 0 0 0 0 0 0 0 0 0 0 0 0 0 0 0 0 0 0 0 0 0 0 0 0 0 
1 0 0 0 0 1 1 0 1 1 0 1 0 0 0 0 0 0 0 0 0 0 0 0 1 0 0 0 0 0 0 0 0 0 0 0 0 0 0 0 0 0 0 0 0 0 0 0 0 0 0 0 0 0 0 0 0 0 0 0 0 0 0 0 0 0 0 0 0 0 0 0 0 2 4 3 4 2 3 4 4 4 4 3 4 4 3 3 3 3 4 4 4 4 3 4 4 4 3 4 3 3 3 2 2 3 3 3 2 3 1 3 3 1 2 1 0 1 1 0 3 3 4 4 4 3 3 3 2 5 3 5 2 2 4 4 4 3 1 3 1 0 0 0 0 0 0 0 1 2 0 0 0 1 0 2 3 4 3 5 4 3 1 0 0 0 2 2 2 1 2 2 3 5 5 6 6 7 7 5 4 2 20 67 142 178 182 185 186 187 187 188 190 189 189 188 191 192 191 192 192 192 189 190 191 189 190 190 189 187 186 187 188 187 185 186 188 188 191 189 189 189 189 188 188 188 188 187 189 190 189 190 188 188 188 188 190 189 188 190 190 189 190 192 191 192 191 193 193 194 194 193 193 193 194 192 191 192 193 193 191 193 191 190 190 191 191 190 191 193 191 192 192 191 192 191 191 192 191 191 191 190 190 191 190 190 191 190 190 190 191 191 190 191 191 193 194 196 195 195 193 194 194 193 194 195 193 194 192 191 192 192 193 193 193 194 193 193 193 194 195 194 193 193 194 194 194 195 195 194 193 195 193 192 193 194 192 193 192 192 193 194 193 192 191 194 193 192 193 193 191 193 193 193 193 192 191 189 189 189 188 189 187 188 189 189 188 189 189 189 187 187 188 188 188 188 187 188 187 185 184 182 182 185 184 185 185 184 185 184 184 184 185 184 184 185 184 185 185 186 186 187 185 186 185 185 184 184 183 182 181 181 180 179 179 181 179 164 120 65 27 5 3 1 1 1 3 2 2 0 15 92 149 109 18 10 33 63 91 118 137 150 160 164 170 172 178 179 181 182 183 184 185 188 187 184 185 187 186 184 185 187 186 186 186 186 187 185 185 187 186 187 187 187 185 186 185 185 184 183 181 179 176 175 172 169 163 132 62 9 2 3 1 2 1 3 2 2 2 4 5 3 2 1 2 1 2 1 0 0 0 0 1 1 1 0 2 3 3 3 2 4 3 2 2 2 1 2 3 2 3 2 1 0 1 1 0 0 0 0 1 3 3 4 5 5 5 5 4 5 2 4 3 3 0 3 1 2 1 0 0 1 1 3 3 3 4 5 6 7 7 5 4 4 2 2 2 2 3 3 4 2 4 3 2 4 2 2 2 4 3 5 4 5 5 5 3 2 3 2 1 0 2 1 1 1 1 0 0 0 1 0 1 0 0 0 0 0 0 0 0 0 0 0 0 0 0 0 0 0 0 0 0 0 0 0 0 0 0 0 
1 0 1 0 1 2 1 1 1 1 1 2 1 0 0 0 0 0 0 0 0 0 0 0 0 0 0 0 0 0 0 0 0 0 0 0 0 0 0 0 0 0 0 0 0 0 0 0 0 0 0 0 0 0 0 1 1 0 0 0 0 0 0 0 0 0 0 0 0 0 0 2 1 2 4 4 5 3 6 5 5 3 4 4 3 3 5 4 2 3 4 3 3 5 5 4 4 3 4 4 4 3 3 3 3 3 4 5 4 1 3 2 2 3 3 1 0 1 2 1 4 4 4 6 5 2 3 1 3 4 2 3 2 3 3 4 4 2 2 2 0 0 0 0 0 0 0 1 2 2 0 0 0 1 1 3 3 3 3 3 3 2 0 0 0 0 1 0 0 1 2 4 4 6 5 5 5 5 5 3 4 3 3 37 143 182 181 185 186 188 188 190 189 188 187 189 190 191 191 190 190 192 190 190 191 190 190 191 190 190 188 188 187 185 185 186 186 187 190 191 189 189 188 187 187 187 188 186 188 188 188 189 188 188 188 189 189 189 189 189 190 190 192 192 191 193 193 193 193 193 194 195 194 194 194 193 193 192 193 192 191 191 190 190 191 191 190 189 190 191 192 193 193 193 191 192 192 193 191 191 191 190 190 191 191 191 193 192 192 193 194 191 192 192 192 194 193 194 195 194 194 194 194 194 194 194 194 192 191 191 194 194 194 192 193 193 193 194 194 194 194 194 194 194 194 194 195 194 195 195 194 193 192 192 192 193 194 192 194 193 192 193 194 193 193 192 193 191 193 193 193 193 194 193 192 191 190 189 189 188 188 188 189 190 191 189 189 188 188 188 188 188 188 187 187 188 187 187 186 184 183 182 181 184 183 184 183 185 184 184 185 184 182 183 184 183 183 184 185 185 187 186 185 186 185 186 184 185 182 181 182 182 182 181 181 179 183 176 139 84 35 7 3 2 2 1 1 0 0 0 4 72 144 130 28 0 0 1 10 33 61 92 116 136 150 160 168 172 175 177 181 182 184 186 186 187 187 186 186 185 186 187 188 187 188 187 187 188 187 187 189 190 189 190 188 186 187 188 186 184 183 182 180 177 177 174 173 168 123 43 4 3 2 3 1 3 1 2 2 2 3 2 2 2 4 2 2 1 1 1 1 0 3 1 2 2 2 3 4 3 4 5 6 4 3 2 2 3 2 2 3 2 1 0 1 0 0 0 0 1 1 3 4 4 5 5 5 6 3 2 2 2 1 3 1 3 1 1 1 0 0 1 2 2 1 3 3 4 6 6 5 4 5 4 3 3 2 1 1 4 4 3 3 3 2 3 5 3 3 3 3 5 3 5 4 4 3 1 1 1 0 1 1 1 0 1 0 0 0 0 0 0 0 0 0 0 0 0 0 0 0 0 0 0 0 0 0 0 0 0 0 0 0 0 0 0 0 0 0 0 
0 0 0 2 1 1 2 1 0 1 1 1 1 1 0 0 0 0 0 0 0 0 0 0 0 0 0 0 0 0 0 0 0 0 0 0 0 0 0 0 0 0 0 0 0 0 0 0 0 0 0 0 0 0 0 0 1 0 0 0 0 0 0 0 0 0 0 0 0 0 0 0 3 3 4 5 5 4 7 6 2 3 4 3 2 4 3 1 0 3 3 4 3 4 3 3 3 2 5 4 4 3 4 3 5 5 5 5 5 3 5 5 4 3 3 2 3 5 4 4 6 4 6 6 5 3 4 4 3 4 3 3 2 2 1 2 2 1 0 1 0 0 1 0 0 0 0 1 3 0 0 0 0 0 0 3 3 3 1 3 2 1 0 0 0 0 1 0 0 1 2 2 5 4 4 3 4 4 4 3 4 2 5 48 156 183 181 185 185 187 187 188 188 186 188 190 190 190 190 189 189 189 189 189 189 190 191 192 190 188 187 187 186 185 186 187 187 188 188 190 188 189 188 187 187 186 185 187 189 189 188 190 189 189 187 188 191 189 190 189 189 189 192 192 192 191 192 193 194 193 193 194 194 192 193 193 190 191 190 192 189 190 190 189 192 191 190 190 192 192 193 192 192 193 193 193 193 193 192 192 191 192 191 192 191 193 193 194 194 193 192 192 193 192 191 191 193 195 195 195 194 195 194 194 196 195 193 193 192 192 193 194 194 192 192 191 191 192 194 193 193 194 195 193 194 194 195 194 194 194 193 192 192 194 193 193 193 194 194 195 194 195 195 194 193 193 193 193 194 192 194 194 193 194 191 192 192 191 189 187 187 188 188 188 189 189 188 187 189 188 188 187 188 186 186 186 187 186 185 184 182 183 182 182 183 183 183 183 183 184 183 182 184 184 183 183 182 184 185 186 186 185 186 186 185 185 184 184 182 182 182 181 182 181 182 182 182 178 157 112 53 7 1 2 2 0 0 0 0 0 1 53 135 141 51 0 0 0 0 0 2 11 29 61 93 122 142 155 163 168 172 177 180 181 184 185 186 186 186 186 186 187 188 189 188 187 190 188 189 190 191 191 191 190 189 189 188 188 188 185 185 186 184 182 180 178 176 174 165 105 31 1 3 2 2 1 4 3 2 3 1 2 3 3 3 2 3 3 1 2 1 3 2 3 2 2 2 4 5 5 4 5 3 5 3 1 2 2 3 4 3 1 1 1 0 0 0 0 2 2 1 3 3 4 4 5 4 4 4 2 1 1 1 1 2 2 2 1 1 1 0 1 1 1 2 3 1 4 5 4 5 4 4 4 3 3 1 3 1 2 4 3 4 2 3 4 5 4 3 4 4 4 4 5 3 3 2 0 0 0 1 0 1 1 0 0 0 0 0 0 0 0 0 0 0 0 0 0 0 0 0 0 0 0 0 0 0 0 0 0 0 0 0 0 0 0 0 0 0 0 
0 0 1 0 1 0 1 1 0 0 0 1 1 1 2 0 0 0 0 0 0 0 0 0 0 0 0 0 1 1 0 0 0 0 0 0 0 0 0 0 0 0 0 0 0 0 0 0 0 0 0 0 0 0 0 2 1 0 0 0 0 0 0 0 0 0 0 0 0 0 0 1 3 3 6 7 6 4 5 5 4 5 3 3 3 3 3 2 1 2 2 3 2 3 4 2 4 4 4 5 3 3 4 2 4 8 5 6 6 4 5 6 7 6 5 5 3 5 4 6 6 5 6 5 4 4 4 4 4 4 2 2 3 2 3 0 2 1 0 0 0 1 1 0 0 0 0 2 2 1 1 0 0 0 0 0 0 0 1 3 1 1 0 0 0 0 2 0 0 2 3 3 3 4 4 3 3 4 5 4 5 1 7 76 166 183 181 184 186 187 187 188 187 187 187 189 189 191 190 192 190 189 188 187 187 191 192 189 189 189 188 185 186 186 187 186 187 186 188 190 187 187 187 186 185 185 185 188 189 190 188 188 189 189 189 190 189 188 189 190 191 190 191 191 190 190 191 193 192 193 193 194 192 193 192 191 191 190 190 190 190 191 191 192 192 193 191 191 190 192 192 192 192 192 192 194 193 193 194 194 194 194 193 194 193 193 194 195 195 195 194 193 193 192 190 191 192 193 194 195 195 195 195 194 195 194 193 194 193 191 193 193 192 193 192 192 192 193 193 194 193 194 195 195 195 195 195 195 194 194 193 192 194 193 192 193 194 194 195 194 194 195 195 194 195 193 193 194 194 194 194 193 193 195 193 193 192 191 188 189 188 188 187 188 187 187 188 188 189 189 189 187 189 188 186 186 185 186 184 183 182 181 183 183 182 182 184 183 183 184 182 182 182 182 182 182 183 184 184 185 184 185 186 186 186 186 185 183 183 183 183 182 182 183 183 182 182 179 164 130 72 16 1 3 0 0 0 0 0 0 0 35 121 145 76 2 0 0 0 0 0 0 0 1 13 40 72 104 130 147 159 168 171 174 178 179 182 183 186 186 185 187 187 188 190 191 191 190 191 191 191 193 194 192 190 188 189 188 187 188 187 188 187 184 184 180 179 178 178 159 94 18 0 3 1 2 4 4 4 2 3 2 4 4 4 4 2 3 2 1 2 2 2 2 3 4 5 5 5 6 5 5 3 4 3 1 3 4 2 2 3 2 1 0 1 1 1 1 2 2 3 2 4 5 6 5 4 1 2 1 1 3 2 2 1 1 0 0 1 0 1 1 0 1 2 1 2 3 2 2 4 3 3 3 3 2 3 3 0 1 2 3 3 2 2 4 4 4 3 3 3 3 3 4 3 3 1 0 0 0 0 0 1 0 1 0 0 0 0 0 0 0 0 0 0 0 0 0 0 0 0 0 0 0 0 0 0 0 0 0 0 0 0 0 0 0 0 0 0 0 
0 0 0 0 0 1 0 0 1 0 0 0 1 0 0 0 0 0 0 0 0 0 0 0 0 0 0 0 0 0 0 0 0 0 0 0 0 0 0 0 0 0 0 0 0 0 0 0 0 0 0 0 0 1 0 0 1 2 0 0 0 0 0 0 0 0 0 0 0 0 2 2 3 3 5 5 6 5 4 5 2 4 3 4 2 2 2 0 1 2 1 1 3 2 3 5 3 5 7 6 5 5 3 3 5 8 7 7 7 6 6 7 8 6 5 5 3 4 4 5 5 7 5 4 5 4 5 4 5 4 2 2 3 1 0 1 2 2 1 0 0 0 1 0 0 0 0 0 2 0 1 0 0 1 0 0 0 1 0 1 0 0 0 0 0 0 0 1 1 2 1 0 1 4 3 3 4 3 3 3 5 1 11 106 174 183 182 185 186 187 186 185 187 188 189 189 189 191 190 191 190 189 187 186 187 187 190 188 187 188 188 186 187 187 186 186 186 187 187 188 187 189 189 187 186 187 186 189 191 190 189 190 190 190 187 188 190 189 190 189 190 191 191 191 190 192 191 192 191 191 190 193 192 194 192 192 190 190 190 191 191 192 190 193 193 192 191 190 191 192 192 191 191 191 193 194 193 192 194 195 196 195 195 193 193 194 194 193 195 195 194 193 192 192 191 191 191 194 193 195 196 195 195 195 194 193 193 192 192 191 192 193 192 193 192 192 193 193 194 193 192 194 195 195 196 194 194 194 193 194 195 193 192 191 193 193 196 194 193 194 193 194 195 194 195 194 193 194 195 195 195 194 194 194 193 193 193 192 189 188 189 190 186 185 186 188 189 188 188 188 187 188 188 186 186 185 186 183 183 183 182 183 183 183 184 182 182 183 183 182 183 183 182 183 181 184 183 185 185 184 185 187 187 187 186 185 184 183 182 183 183 182 182 183 183 184 182 181 175 144 88 30 4 3 1 0 0 0 0 0 0 17 101 151 104 10 0 0 0 0 0 0 0 0 0 0 4 21 50 82 115 139 154 162 169 174 178 179 181 184 185 186 189 188 190 191 190 191 192 193 193 193 192 191 191 191 191 190 189 189 189 190 189 187 188 184 182 183 179 177 149 70 9 2 5 4 3 5 3 4 4 3 4 4 5 4 5 6 2 2 1 2 3 4 4 3 4 6 6 5 3 4 4 4 3 2 3 4 3 3 6 3 2 2 3 2 2 1 1 2 2 3 3 3 5 3 4 1 1 1 2 0 2 1 2 1 1 0 0 1 0 1 0 1 2 1 2 2 3 3 4 4 3 4 3 3 3 2 2 1 2 1 2 2 2 5 3 2 3 2 2 2 2 2 3 1 2 1 1 0 0 1 0 0 0 0 0 0 0 0 0 0 0 0 0 0 0 0 0 0 0 0 0 0 0 0 0 0 0 0 0 0 0 0 0 0 0 0 0 0 
0 0 0 0 0 0 1 0 0 0 0 0 1 0 0 0 0 0 0 0 0 0 0 0 1 0 0 0 1 0 0 0 0 0 0 0 0 0 0 0 0 0 0 0 0 0 0 0 0 0 0 0 0 1 2 2 2 2 2 1 0 0 1 2 0 0 0 0 0 0 2 3 5 2 4 3 5 3 1 3 2 2 4 3 3 4 3 1 0 2 2 0 2 3 4 6 5 4 6 6 6 6 3 6 7 7 8 7 5 7 7 7 8 6 4 3 5 7 6 6 4 5 4 2 4 4 5 5 3 4 2 2 2 0 0 0 0 0 0 0 0 0 0 0 0 0 0 0 0 0 0 0 0 0 0 0 0 2 0 0 0 0 0 0 0 0 1 1 0 0 1 0 1 3 4 2 3 4 4 4 4 0 23 133 179 182 185 185 186 186 187 186 186 188 190 190 190 190 189 190 190 189 187 186 188 188 188 187 187 187 187 186 186 186 187 186 187 187 188 188 190 188 190 190 189 188 186 188 190 190 191 191 189 188 190 189 189 188 189 189 190 190 192 190 191 191 192 190 192 192 192 192 191 192 192 193 192 191 190 191 190 191 192 192 192 191 191 192 192 192 193 194 192 193 193 195 193 194 196 196 195 196 195 194 194 195 194 194 196 195 194 193 193 193 192 192 191 192 195 195 196 196 195 195 195 193 192 194 192 191 192 192 190 192 192 192 191 192 194 192 192 194 196 196 195 193 194 194 195 195 194 192 193 192 193 194 194 196 194 192 193 195 193 193 194 195 195 195 194 194 194 194 192 191 193 192 194 193 189 190 190 189 187 188 186 187 188 188 187 187 186 187 186 187 186 184 184 182 183 182 181 182 183 183 182 182 182 182 183 183 184 182 182 182 182 184 186 186 185 185 186 187 185 185 185 184 184 181 181 182 183 182 183 182 182 183 180 182 180 159 106 52 14 3 1 0 0 1 0 0 0 7 79 149 125 23 0 0 0 0 0 0 0 0 0 0 0 0 1 10 32 64 97 130 151 161 168 173 177 180 182 184 188 187 191 192 194 194 192 194 193 193 195 195 194 192 192 193 191 191 191 192 191 189 187 186 185 184 185 180 175 135 50 4 4 5 6 5 4 3 4 4 4 4 4 5 4 3 2 3 3 4 5 4 5 3 3 5 6 5 4 3 5 3 3 2 4 5 6 5 4 3 2 4 4 2 2 2 1 3 2 1 3 2 3 4 4 3 1 2 0 1 2 1 1 0 1 0 0 0 0 1 0 0 2 2 2 1 3 4 3 2 2 3 2 2 3 2 2 2 2 3 3 2 1 2 3 3 2 2 3 2 1 2 1 1 1 0 2 0 1 1 1 0 0 0 0 0 0 0 0 0 0 0 0 0 0 0 0 0 0 0 0 0 0 0 0 0 0 0 0 0 0 0 0 0 0 0 0 0 
0 0 0 0 0 0 1 1 0 0 0 1 0 0 0 0 0 0 0 0 0 0 0 1 1 1 0 1 1 1 0 1 0 0 0 0 0 0 0 0 0 0 0 0 0 0 0 0 0 1 0 0 0 1 2 2 3 2 3 2 1 1 2 2 0 0 0 0 0 0 2 3 3 4 4 4 3 3 1 2 1 2 2 1 2 2 3 4 3 3 2 3 3 3 5 5 5 5 6 5 5 6 5 6 6 8 7 7 8 7 6 6 4 5 4 4 6 5 7 6 5 3 3 4 3 3 4 4 4 4 3 2 1 0 0 0 0 0 0 0 0 0 0 0 0 0 0 0 0 0 0 0 0 0 0 0 0 1 0 0 0 0 0 0 0 0 0 0 0 2 3 0 1 2 1 0 2 2 3 4 4 4 46 153 180 182 183 185 184 186 188 188 187 187 188 189 190 188 188 188 190 188 187 188 188 188 189 188 187 188 187 186 186 186 185 186 186 187 187 189 188 191 190 190 189 187 187 189 190 192 191 190 188 189 189 189 189 190 191 190 192 191 191 190 190 190 192 189 191 191 193 192 192 191 193 192 193 192 192 192 192 193 193 192 193 191 192 193 194 193 193 192 193 193 194 195 195 195 194 194 194 196 195 194 193 193 194 193 195 195 195 194 193 193 192 192 192 195 196 196 195 195 197 194 194 192 192 193 191 192 193 193 191 191 192 190 191 191 192 193 193 195 194 195 195 197 196 195 194 194 193 192 193 193 192 191 194 194 194 194 194 193 194 195 194 195 194 194 196 194 193 192 193 193 193 193 192 192 190 190 190 189 189 188 188 188 188 185 186 184 186 186 186 184 185 183 183 183 183 182 182 181 183 183 181 180 182 182 184 183 183 182 182 182 183 184 185 184 186 185 185 185 185 183 183 183 184 181 180 180 182 182 181 181 182 183 180 181 181 167 124 72 24 4 0 0 0 0 0 0 0 2 59 141 139 42 0 0 0 0 0 0 0 0 0 0 0 0 0 0 0 4 22 55 96 130 150 161 169 174 179 181 185 187 192 191 193 192 193 194 194 195 195 195 194 192 195 193 194 192 191 193 192 191 191 189 188 188 186 184 182 174 108 19 2 6 5 5 5 1 4 4 4 3 4 4 4 3 4 4 3 4 4 5 5 4 5 4 6 5 7 4 5 2 3 5 5 4 7 6 5 5 4 4 3 2 3 5 3 2 1 1 2 2 3 4 3 1 1 2 0 0 1 0 0 1 0 0 0 0 0 0 1 1 2 2 1 2 2 4 2 2 2 1 3 3 3 3 2 2 1 2 3 2 1 1 2 0 0 3 2 1 1 1 1 1 2 0 0 0 1 0 0 0 0 0 0 0 0 0 0 0 0 0 0 0 0 0 0 0 0 0 0 0 0 0 0 0 0 0 0 0 0 0 0 0 0 0 0 0 
0 0 0 0 0 2 1 0 0 0 0 0 0 1 0 0 0 0 0 0 0 0 1 1 1 1 2 1 0 0 0 0 0 0 0 0 0 0 0 0 0 0 0 0 1 0 0 1 1 0 1 1 0 2 3 3 3 3 3 3 2 1 0 0 0 0 1 1 0 1 1 3 3 2 3 3 2 1 1 3 3 3 2 1 2 2 3 2 3 3 2 3 3 3 6 5 6 5 5 5 5 5 5 7 6 6 8 9 8 7 6 7 4 3 2 4 4 4 6 6 5 4 3 4 3 2 2 3 4 3 3 3 2 0 0 0 0 0 0 0 0 0 0 0 0 0 0 0 0 0 0 0 0 0 0 0 0 0 0 0 0 0 0 0 0 0 0 0 0 3 3 1 2 1 1 0 1 1 3 4 1 7 73 162 179 181 182 184 185 185 185 187 186 186 187 187 188 188 188 190 188 186 188 188 189 188 188 188 188 188 188 187 187 188 187 187 187 187 189 190 190 192 189 190 190 187 188 190 191 190 191 191 188 189 190 190 189 189 189 191 192 190 191 189 190 189 191 189 191 190 192 193 192 191 194 193 194 194 193 192 191 193 192 194 194 192 191 192 194 195 195 193 196 195 196 195 195 195 194 195 195 195 194 194 194 194 195 195 194 194 195 195 192 193 192 194 193 195 194 193 194 193 194 194 194 192 193 193 193 191 192 191 191 192 191 191 189 191 191 191 193 195 195 196 196 196 195 195 194 193 193 191 193 191 190 191 193 194 194 195 193 193 195 194 194 195 193 192 194 194 191 191 192 193 193 193 191 191 189 191 192 189 189 187 188 188 186 184 185 184 185 185 186 184 185 184 184 183 182 180 181 182 183 183 183 181 183 182 183 183 182 181 182 181 184 184 185 184 185 183 183 184 185 182 181 182 182 181 180 180 181 182 181 181 181 181 179 180 180 173 140 84 30 4 1 1 0 1 2 0 0 0 45 134 147 66 1 0 0 0 0 0 0 0 0 0 0 0 0 0 0 0 0 3 22 57 96 129 151 164 170 175 180 184 186 190 191 193 193 194 193 194 195 195 195 195 195 195 194 196 192 192 192 192 191 191 190 189 188 187 185 183 152 49 6 5 7 4 4 3 3 4 3 4 4 3 4 4 4 2 3 4 4 5 5 4 6 6 5 6 4 4 4 4 3 4 5 5 7 4 3 4 4 5 2 3 2 3 2 2 1 2 2 2 0 2 3 1 2 1 0 2 2 1 1 0 0 0 0 0 0 0 0 1 2 2 3 2 3 1 2 2 3 1 2 3 3 2 1 1 2 0 1 1 1 2 1 0 1 3 3 1 1 0 1 1 2 0 1 0 0 0 0 0 0 0 0 0 0 0 0 0 0 0 0 0 0 0 0 0 0 0 0 0 0 0 0 0 0 0 0 0 0 0 0 0 0 0 0 0 
0 0 0 0 0 0 1 0 1 0 0 0 0 0 0 0 0 0 0 0 0 0 0 0 2 0 2 2 1 0 1 1 2 1 0 0 0 0 0 0 0 0 0 1 0 1 0 1 0 0 1 2 2 2 4 4 4 5 1 2 1 1 1 0 0 0 1 1 0 1 1 2 3 1 0 0 0 0 1 4 4 3 2 0 3 5 3 2 2 3 2 3 1 2 3 5 5 5 5 4 5 7 7 7 7 7 8 7 7 5 4 5 4 5 4 4 4 4 5 6 6 4 4 3 3 3 3 3 3 2 1 2 0 0 1 0 0 0 0 0 0 0 0 0 0 0 0 0 0 0 0 0 0 0 0 0 0 0 0 0 0 0 0 0 0 0 0 0 0 3 0 1 1 2 0 0 1 1 4 5 1 11 99 170 179 181 182 183 184 184 185 185 184 185 186 186 188 187 188 189 189 187 189 189 189 188 190 188 189 189 188 189 188 186 187 189 188 187 188 190 189 191 190 191 191 188 188 190 189 190 191 190 189 188 190 189 187 188 189 188 191 190 191 190 189 189 189 188 191 192 190 193 192 192 193 194 194 193 193 192 193 193 193 192 192 192 191 192 193 194 195 195 195 195 196 197 196 194 195 194 195 193 193 194 195 195 195 196 195 196 194 193 193 193 194 194 194 193 194 194 194 194 196 196 195 193 193 194 193 193 192 191 191 189 191 190 190 191 191 192 194 194 195 196 194 195 196 194 195 192 193 192 192 192 192 193 195 195 194 193 194 194 194 194 193 193 194 194 193 192 192 191 192 192 192 191 191 190 189 190 189 189 187 187 187 187 186 184 183 185 185 185 187 187 184 184 184 184 183 182 183 183 182 182 184 182 182 183 183 181 182 182 181 183 184 182 183 183 185 183 184 183 183 181 183 181 180 181 181 181 181 182 182 182 181 180 180 181 180 175 153 93 30 4 1 0 1 0 0 1 0 0 34 123 153 91 5 0 0 0 0 0 0 0 0 0 0 0 0 0 0 0 2 0 1 5 24 58 97 130 151 165 174 180 182 185 189 192 193 192 193 195 192 196 197 195 195 194 194 196 194 194 194 191 190 192 190 191 190 189 189 187 173 90 11 3 6 4 4 5 5 4 4 3 4 5 5 4 5 4 3 5 5 7 6 5 6 5 5 6 4 5 5 5 5 6 6 5 5 6 4 5 4 4 3 2 1 0 1 2 2 3 1 1 0 2 1 3 1 0 2 1 2 0 0 0 0 0 0 0 0 0 0 0 1 2 2 2 4 2 1 3 2 2 1 2 2 1 0 2 1 0 0 0 0 1 0 1 3 2 1 0 1 1 1 2 1 0 1 0 0 0 0 0 0 0 0 0 0 0 0 0 0 0 0 0 0 0 0 0 0 0 0 0 0 0 0 0 0 0 0 0 0 0 0 0 0 0 0 0 
0 0 0 0 0 1 1 2 0 0 0 0 0 0 0 1 0 0 0 0 0 1 0 0 1 1 0 1 0 1 1 2 2 3 0 0 0 0 1 0 0 0 2 2 1 1 1 1 1 2 2 2 3 4 5 5 4 3 3 0 0 1 1 0 0 1 1 1 1 1 1 1 1 0 1 1 0 0 1 2 1 2 2 2 3 3 1 1 4 0 2 2 1 2 4 5 5 4 3 6 7 6 8 7 8 8 6 7 6 6 6 5 3 3 3 5 5 5 6 6 5 4 4 2 4 3 2 2 1 3 1 1 1 1 1 0 0 0 0 0 0 0 0 0 0 0 0 0 0 0 0 0 0 0 0 0 0 0 0 0 0 0 0 0 0 0 0 0 1 3 0 0 2 0 0 0 0 1 1 4 0 15 121 175 178 179 179 181 183 183 183 184 184 185 186 187 186 187 189 188 189 189 189 188 187 188 191 191 189 190 191 189 190 187 189 188 187 188 188 190 190 190 191 189 190 187 189 189 189 189 189 188 190 190 188 188 187 188 188 191 191 190 188 188 187 187 188 190 192 190 192 191 192 192 192 191 191 193 192 192 190 192 192 191 192 192 192 193 195 196 197 196 196 196 198 197 197 196 195 195 195 194 195 194 194 194 195 195 196 195 193 194 194 194 194 195 195 196 196 194 194 193 194 195 193 192 191 192 193 193 192 190 190 190 191 192 192 192 192 193 193 194 194 195 195 194 195 194 193 192 193 194 195 194 193 194 194 193 194 193 193 195 193 195 193 195 195 195 194 193 193 191 191 190 191 190 190 189 189 189 189 189 189 187 187 185 185 186 184 186 186 187 185 186 184 186 185 185 183 181 183 182 182 182 182 184 183 182 182 181 181 182 183 183 183 182 183 183 183 184 184 183 182 181 184 182 182 181 182 180 181 181 179 182 181 181 180 181 180 179 162 109 44 6 0 0 1 0 1 2 1 0 18 108 154 114 13 0 0 1 0 0 0 0 0 0 0 0 0 0 0 0 1 1 1 0 0 4 25 63 106 139 159 170 177 182 186 189 193 193 192 194 193 197 196 195 196 195 195 196 193 194 193 192 191 192 189 191 191 191 191 187 185 133 26 2 7 3 3 5 4 2 3 2 3 6 6 5 3 3 4 5 6 6 5 6 6 6 5 7 6 5 6 5 5 7 6 5 5 4 5 2 2 3 2 1 1 2 2 2 2 1 0 0 0 1 1 1 2 2 1 2 1 1 0 0 0 0 0 0 0 0 0 0 2 2 2 1 4 3 1 2 0 1 1 1 1 1 0 0 1 0 0 1 1 0 0 2 3 1 1 2 1 1 2 1 0 1 0 0 0 0 0 1 0 0 0 0 0 0 0 0 0 0 0 0 0 0 0 0 0 0 0 0 0 0 0 0 0 0 0 0 0 0 0 0 0 0 0 0 
0 0 0 0 0 1 0 0 0 0 0 0 0 0 0 0 0 0 0 0 0 0 0 0 1 0 0 1 3 2 1 3 3 3 1 1 0 1 2 1 2 1 2 3 4 3 1 2 0 2 2 2 4 5 5 5 4 3 2 2 1 0 0 0 0 0 0 2 1 0 1 0 0 0 0 0 2 1 2 3 1 1 2 2 1 0 0 1 0 0 2 4 3 3 2 2 5 5 6 7 7 7 7 6 7 7 6 6 7 6 7 5 4 4 3 6 5 6 6 6 5 4 1 3 4 3 2 1 2 1 1 1 2 0 1 0 0 0 0 0 0 0 0 0 0 0 0 0 0 0 0 0 0 0 0 0 0 0 0 0 0 0 0 0 0 0 0 0 1 2 1 3 3 1 0 0 0 0 1 2 1 25 136 176 177 178 180 182 181 182 183 184 183 184 183 187 188 190 189 188 189 188 190 191 189 191 192 190 190 190 191 190 191 189 188 189 190 190 188 189 190 191 191 190 190 189 190 189 187 188 189 189 189 188 188 188 188 188 188 189 191 190 190 188 188 187 190 193 192 192 192 192 192 192 194 193 192 192 190 191 191 192 192 191 192 192 191 193 194 194 197 197 197 195 198 197 195 198 197 198 196 196 196 196 195 195 195 195 196 195 193 194 193 194 194 195 194 195 194 194 195 194 195 195 192 192 191 192 193 194 191 190 190 189 189 191 191 192 191 192 192 193 192 194 195 194 193 192 193 193 193 194 194 194 194 195 194 194 193 194 194 195 193 193 194 193 194 194 195 193 193 192 191 190 189 189 188 188 186 187 188 189 188 187 187 187 186 186 186 186 187 190 185 185 185 184 184 183 183 182 183 183 180 182 183 182 182 182 181 182 181 181 182 182 181 182 183 182 184 183 184 182 182 182 182 182 181 181 182 181 180 182 182 182 182 181 182 180 181 179 170 127 64 11 0 0 0 0 0 0 1 0 12 94 153 130 25 0 0 0 0 0 0 0 0 0 1 2 2 2 1 0 2 1 2 1 0 0 0 8 42 89 128 154 168 176 183 185 190 192 192 193 195 195 195 195 197 197 197 195 196 195 194 193 193 192 193 191 192 193 193 187 188 161 58 5 5 4 3 4 4 3 4 5 5 5 4 4 3 4 5 5 6 6 5 6 6 6 6 7 6 6 7 8 6 7 6 4 3 3 2 3 4 3 2 0 2 2 3 3 1 2 1 0 2 1 2 2 1 2 0 1 1 0 0 0 0 0 0 0 0 0 0 0 1 2 2 1 3 3 1 1 3 0 1 0 0 0 0 0 1 0 0 0 1 0 0 0 0 1 2 2 0 0 0 0 0 0 0 0 0 0 0 0 0 0 0 0 0 0 0 0 0 0 0 0 0 0 0 0 0 0 0 0 0 0 0 0 0 0 0 0 0 0 0 0 0 0 0 1 
0 0 0 0 0 0 0 0 0 0 0 0 0 0 0 0 0 0 0 0 0 0 0 1 0 0 1 1 1 2 2 2 2 3 2 1 1 1 2 2 1 3 3 3 4 1 1 0 1 1 2 3 3 4 5 5 4 4 3 2 2 1 0 0 0 0 0 1 0 0 1 1 1 1 1 1 1 1 2 3 2 1 2 2 1 0 0 0 0 2 4 3 3 3 3 3 5 4 6 6 6 9 7 5 4 6 6 6 7 5 6 5 6 4 5 5 5 6 5 6 3 3 3 4 4 3 1 2 1 2 2 2 2 1 0 0 0 0 0 0 0 0 0 0 0 0 0 0 0 0 0 0 0 0 0 0 0 0 0 0 0 0 0 0 0 0 0 0 0 1 0 0 0 0 0 0 0 0 1 0 0 40 149 179 176 177 180 181 181 185 185 185 184 184 184 185 187 190 189 189 189 190 191 192 190 190 191 189 190 190 191 189 189 189 188 188 189 190 189 190 188 190 189 191 190 191 190 189 189 187 189 188 188 188 188 189 187 188 189 192 189 190 189 189 190 189 190 192 192 193 193 192 192 194 193 192 191 192 190 191 192 192 191 191 193 195 194 194 195 195 196 196 197 196 198 197 197 197 198 197 196 196 196 197 197 196 196 195 195 195 192 193 195 195 194 193 193 195 194 194 194 193 194 193 192 191 192 192 192 192 193 191 191 189 190 190 190 191 193 193 193 191 194 194 195 193 192 191 191 191 193 194 194 196 194 194 194 194 194 193 192 193 192 191 193 193 193 194 194 193 192 192 191 190 189 189 187 187 186 187 186 187 190 188 189 189 188 187 187 186 187 187 186 184 186 184 184 184 184 183 183 183 182 183 184 182 180 180 179 182 179 180 182 181 182 182 183 184 183 184 184 184 182 181 183 182 182 182 182 180 180 181 181 183 182 183 181 181 181 180 175 141 84 24 4 0 0 0 0 1 1 1 6 73 149 142 44 3 0 0 0 0 0 0 0 1 3 3 2 3 1 0 1 0 0 1 1 0 0 0 0 26 72 118 147 164 174 182 186 188 192 192 196 194 194 196 196 197 198 196 196 196 195 193 194 195 193 192 193 191 193 190 188 177 102 14 3 5 3 3 3 3 5 3 4 6 5 3 4 3 3 5 5 5 5 7 7 6 6 8 8 7 5 8 5 4 5 4 4 3 5 4 3 3 1 1 3 1 2 3 2 0 1 1 1 1 2 0 0 0 1 0 0 0 0 0 0 0 0 0 0 0 0 0 0 1 3 0 2 2 3 2 1 0 0 0 0 0 1 1 2 0 1 0 1 0 1 2 1 1 0 2 0 1 0 0 0 1 0 0 0 0 0 0 0 0 0 0 0 0 0 0 0 0 0 0 0 0 0 0 0 0 0 0 0 0 0 0 0 0 0 0 0 0 0 0 0 0 0 0 
0 0 1 0 0 0 0 0 0 1 0 0 0 0 0 0 0 0 0 0 0 2 0 1 2 0 0 0 1 0 3 3 3 3 3 2 3 3 3 3 2 3 4 4 4 3 1 1 0 1 4 4 3 2 4 4 5 3 1 1 2 1 0 0 0 0 1 1 0 1 1 1 0 1 0 2 3 3 3 2 2 1 1 0 0 0 0 0 0 2 2 4 2 4 3 3 6 3 5 7 6 6 6 7 6 5 7 5 5 4 5 4 5 4 6 4 4 3 5 4 4 1 2 5 3 2 1 2 2 1 2 2 3 1 0 0 0 0 0 0 0 0 0 0 0 0 0 0 0 0 0 0 0 0 0 0 1 0 0 0 0 0 0 0 0 0 0 0 0 0 0 0 0 0 0 0 0 0 0 0 0 58 156 178 177 176 180 181 180 183 185 185 185 185 185 186 190 190 189 189 190 190 191 190 191 192 191 190 190 190 190 189 190 189 187 189 189 190 190 190 188 191 191 192 192 191 191 191 189 191 191 189 188 187 187 189 188 189 189 192 191 191 192 189 190 190 190 193 193 193 192 193 192 193 192 192 191 191 193 192 191 191 191 191 194 195 195 194 194 194 195 197 196 196 199 198 198 197 198 198 197 196 196 197 197 197 196 195 194 193 193 194 195 193 193 193 194 195 194 194 194 193 192 192 192 194 192 191 191 192 192 191 191 190 190 189 191 192 192 192 192 193 194 193 195 194 193 193 191 190 191 193 194 194 194 192 193 193 191 192 191 191 191 190 191 193 193 192 193 193 192 191 191 189 190 188 188 186 186 185 187 186 187 186 188 187 187 187 188 186 187 185 185 185 185 184 184 184 184 182 184 183 183 182 182 181 180 179 180 181 180 181 180 179 182 182 183 182 184 184 184 183 182 183 182 183 182 182 181 181 181 181 181 182 183 182 182 182 181 181 178 153 93 22 0 0 0 0 0 0 0 1 2 55 142 151 68 5 0 2 0 0 1 1 3 3 4 2 1 1 0 2 1 2 1 2 0 0 0 0 0 0 13 53 101 140 158 170 180 183 190 191 194 195 194 195 197 197 197 197 196 195 195 195 196 196 194 193 193 193 195 192 190 188 140 30 2 5 4 4 5 3 4 5 5 6 5 4 2 4 4 3 4 4 7 6 7 6 4 7 5 7 7 6 6 4 6 4 3 3 4 2 2 2 3 2 2 3 3 3 1 1 0 0 0 1 2 1 2 0 0 0 0 0 0 0 0 0 0 0 0 0 0 0 0 0 1 1 2 3 2 1 1 0 0 0 0 0 1 0 1 0 0 1 1 1 1 0 2 1 1 1 1 0 0 0 0 1 0 0 0 0 0 0 0 0 0 0 0 0 0 0 0 0 0 0 0 0 0 0 0 0 0 0 0 0 0 0 0 0 0 0 0 0 0 0 0 0 0 0 
0 0 0 0 0 0 0 0 0 0 0 0 0 0 0 0 0 0 0 0 1 1 0 1 2 0 1 1 1 2 2 4 3 3 3 4 4 5 3 3 3 4 5 2 3 1 1 2 1 3 4 5 3 4 4 5 4 4 3 2 1 0 0 0 0 0 0 0 1 0 1 0 0 1 2 2 3 2 2 1 1 0 0 0 0 0 0 0 1 3 2 2 5 3 5 4 4 4 5 6 6 7 6 6 6 5 7 6 3 4 5 4 2 3 4 3 3 4 3 5 3 1 2 3 2 2 2 0 0 1 1 0 0 0 0 0 0 0 0 0 0 0 0 0 0 0 0 0 0 0 0 0 0 0 1 0 0 0 0 0 0 0 0 0 0 0 0 0 0 0 0 0 0 0 0 0 0 0 0 0 3 81 163 177 175 178 180 179 182 185 185 186 186 187 186 186 188 189 191 191 191 190 189 191 190 191 192 192 191 190 190 189 189 188 188 189 189 188 189 190 188 189 191 192 191 192 190 191 191 190 190 190 189 188 188 187 187 187 188 191 190 194 192 192 191 191 190 190 191 192 193 193 191 192 193 192 190 192 191 192 193 192 193 193 196 195 196 196 196 196 197 197 196 195 197 197 198 197 198 198 198 197 197 197 196 195 195 195 194 193 195 194 196 195 193 193 194 194 195 194 194 193 192 193 193 192 192 192 192 190 191 190 191 191 190 190 190 191 191 192 193 193 194 195 194 193 191 193 191 191 191 192 192 192 192 191 193 192 191 191 191 191 193 192 191 191 191 192 192 191 191 191 191 190 189 189 187 188 187 186 186 186 188 187 187 187 186 188 186 187 186 187 186 185 185 185 184 182 183 181 182 182 183 182 181 181 182 181 180 183 182 181 181 182 182 183 184 185 183 182 182 183 183 183 182 182 182 182 181 181 181 181 180 181 183 182 182 182 181 181 180 160 102 30 1 0 0 0 0 0 0 0 1 43 132 157 91 8 0 4 2 2 1 2 3 2 4 2 2 3 2 2 3 3 1 1 2 1 0 0 0 0 0 8 39 94 136 156 171 178 187 190 192 193 194 195 199 197 198 196 196 195 195 196 196 196 194 194 195 195 195 193 192 192 164 53 6 4 5 3 4 4 3 3 3 4 5 5 6 4 5 4 4 4 6 5 6 6 5 6 5 7 6 4 6 5 6 3 2 2 3 3 1 3 2 2 4 1 3 2 0 0 0 0 1 1 0 0 0 2 0 0 0 0 0 0 0 0 0 0 0 0 0 0 1 2 2 2 2 1 0 0 0 1 0 0 0 0 1 0 0 0 0 0 0 1 0 0 1 0 0 1 0 0 0 0 0 0 0 0 0 0 0 0 0 0 0 0 0 0 0 0 0 0 0 0 0 0 0 0 0 0 0 0 0 0 0 0 0 0 0 0 0 0 0 0 0 0 0 0 
0 0 0 0 0 0 0 0 1 0 0 0 0 0 0 0 0 0 0 2 1 1 2 2 1 1 1 3 3 2 2 4 1 2 3 4 4 4 2 2 4 4 4 1 3 2 3 3 3 4 5 5 5 4 6 5 5 3 1 2 2 0 0 1 0 0 0 0 1 0 0 0 1 1 1 3 3 2 0 2 2 0 0 0 0 0 0 1 2 3 3 3 4 5 4 4 3 4 5 6 6 6 6 5 5 7 6 5 3 4 3 3 2 4 4 3 3 4 2 6 3 3 3 3 3 2 1 0 1 1 0 0 0 0 0 0 0 0 0 0 0 0 0 0 0 0 0 0 0 0 0 0 0 0 0 0 0 0 0 0 0 0 0 0 0 0 0 0 0 0 0 0 0 0 0 0 0 0 0 0 6 102 167 175 176 177 178 181 182 184 185 186 186 186 185 186 188 191 190 190 190 190 190 191 190 192 191 191 192 189 191 191 188 189 190 190 190 188 190 190 190 192 191 195 191 191 191 191 192 192 191 189 188 190 187 189 188 189 189 190 190 191 190 191 191 192 190 190 191 190 192 191 191 190 191 193 193 192 194 193 194 195 194 193 195 196 196 196 196 197 196 196 196 195 196 197 197 197 197 197 196 196 197 197 196 194 194 193 194 193 193 194 195 195 191 191 192 194 194 193 194 194 193 191 192 192 190 190 191 190 191 192 191 191 190 191 189 190 192 192 193 193 194 193 192 192 192 192 190 190 190 192 192 191 192 191 191 191 191 191 191 190 190 192 192 191 192 192 191 191 192 191 191 191 191 189 188 190 189 188 188 188 187 187 187 186 186 186 186 185 187 185 186 185 184 184 184 184 183 184 182 181 183 183 181 181 180 181 181 182 182 181 182 181 183 184 185 185 182 181 182 183 183 183 182 182 181 181 182 181 179 179 180 180 182 182 181 182 180 182 179 166 118 49 9 0 0 0 0 0 0 0 0 26 116 158 112 13 1 4 2 2 3 2 4 3 4 4 3 3 1 1 3 3 2 1 2 1 0 0 0 0 0 2 5 41 100 141 158 171 180 186 189 192 194 197 200 198 196 198 195 196 195 196 196 196 195 196 196 195 196 195 194 195 170 63 7 4 5 5 4 3 0 2 2 3 5 6 7 6 4 4 6 6 6 6 6 6 5 6 7 6 6 4 5 5 6 4 4 4 3 2 1 0 1 3 2 1 3 2 1 1 1 1 0 0 0 0 0 1 0 0 0 1 0 0 0 0 0 0 0 0 1 1 0 2 1 1 1 1 0 0 0 0 0 0 0 0 1 0 0 0 0 0 0 0 0 0 0 0 0 0 0 0 0 0 0 0 0 0 0 0 0 0 0 0 0 0 0 0 0 0 0 0 0 0 0 0 0 0 0 0 0 0 0 0 0 0 0 0 0 0 0 0 0 0 0 0 0 0 
0 0 0 0 0 0 0 0 0 0 0 0 0 0 0 0 0 0 0 0 2 2 1 2 3 3 2 2 2 3 2 2 2 3 2 2 1 3 4 3 5 4 5 2 2 2 2 3 4 5 6 5 5 5 7 5 5 5 2 2 0 1 0 0 0 0 1 0 1 0 0 0 0 0 0 1 2 1 1 2 1 0 2 0 0 0 0 2 2 2 2 3 1 3 3 2 0 3 5 5 5 4 6 5 6 6 5 3 3 3 1 4 3 4 4 4 5 5 3 5 4 4 2 4 3 2 3 2 1 0 0 0 0 0 0 0 0 0 0 0 0 0 0 0 0 0 0 0 0 0 0 0 0 0 0 1 0 0 0 0 0 0 0 0 0 0 0 0 0 0 0 0 0 0 0 0 0 0 0 0 14 122 169 175 176 179 179 181 182 184 188 188 186 186 185 186 187 189 189 190 191 190 191 190 191 191 190 190 190 190 189 190 189 188 189 191 191 190 192 193 192 195 195 192 193 191 190 191 191 190 190 190 190 189 188 189 188 190 189 189 191 190 190 190 191 191 189 188 191 191 192 192 192 192 191 192 193 193 194 193 194 195 195 194 195 195 197 196 196 195 196 196 195 196 195 194 194 196 196 196 197 197 197 196 195 196 194 193 193 194 195 196 195 192 191 191 193 195 194 192 193 193 192 193 192 192 191 192 190 191 190 191 191 191 190 189 190 190 192 192 192 193 194 193 192 191 191 192 191 189 190 191 191 191 190 191 191 190 190 189 188 189 190 190 191 191 192 192 190 192 192 192 191 191 190 189 187 188 188 188 187 186 186 187 186 187 185 186 187 187 185 186 187 185 184 184 184 185 184 183 183 182 183 183 182 181 180 182 183 183 184 183 182 182 182 183 184 185 183 183 183 185 184 179 180 182 182 180 180 180 179 180 180 181 181 181 180 181 181 181 179 172 133 72 18 0 0 0 0 0 0 0 0 16 102 160 131 27 1 4 1 2 4 2 3 2 2 3 4 3 2 2 5 3 2 3 2 1 0 0 1 1 0 0 1 7 45 105 146 159 174 183 188 191 193 196 197 197 197 195 196 195 198 198 199 199 197 198 198 198 198 194 195 195 173 67 6 4 4 4 4 3 4 3 3 2 5 6 5 6 5 4 6 4 5 7 7 7 5 6 7 6 6 5 4 5 5 5 5 4 3 1 2 1 0 2 2 2 2 1 3 2 2 2 0 0 0 0 0 1 0 0 0 0 0 0 0 0 1 0 0 0 1 0 2 1 1 1 1 1 0 0 0 0 0 0 0 0 0 0 0 0 0 0 0 0 0 0 0 0 0 0 0 0 0 0 0 0 0 0 0 0 0 0 0 0 0 0 0 0 0 0 0 0 0 0 0 0 0 0 0 0 0 0 0 0 0 0 0 0 0 0 0 0 0 0 0 0 0 0 
0 0 0 0 0 0 0 0 0 0 0 0 0 0 0 0 0 0 0 0 0 1 2 4 4 3 2 2 1 3 2 2 3 4 1 3 3 3 5 6 5 5 4 4 2 3 4 3 4 5 6 5 5 6 6 6 4 2 2 2 1 1 0 0 0 1 1 1 0 0 1 0 0 0 0 0 0 1 2 3 1 0 1 1 0 0 0 1 3 3 3 3 3 4 3 3 2 3 3 3 3 3 5 4 5 4 4 3 3 3 2 3 2 1 3 3 5 4 3 4 4 3 3 3 2 2 1 1 0 1 0 0 0 0 0 0 0 0 0 0 0 0 0 0 0 0 0 0 0 0 0 0 0 0 0 0 0 0 0 0 0 0 0 0 0 0 0 0 0 0 0 0 0 0 0 0 0 0 0 0 25 133 173 175 177 177 178 179 180 182 185 186 185 184 185 187 188 189 189 190 190 190 191 190 191 190 190 190 191 192 189 189 189 189 191 192 191 192 193 196 191 193 194 194 191 192 191 192 190 188 189 189 190 189 188 191 189 188 190 189 190 190 189 191 190 190 190 190 191 191 191 193 193 191 193 192 194 194 192 193 193 193 195 195 195 196 196 196 196 196 195 195 193 196 195 194 194 194 196 196 197 197 196 197 196 196 194 194 192 194 193 195 193 191 191 192 193 194 193 194 194 194 194 192 191 191 192 192 190 190 190 190 190 189 190 190 191 190 191 191 193 193 192 192 191 190 191 189 189 189 189 192 192 191 189 190 190 189 190 187 188 188 190 190 190 190 193 191 192 193 192 192 191 189 189 187 187 186 188 186 187 185 184 185 186 187 187 187 187 186 187 187 188 186 186 184 186 184 184 182 182 183 184 183 183 182 183 182 185 184 185 182 184 183 183 183 184 183 182 184 182 183 182 181 180 180 180 180 180 179 178 179 179 180 180 181 181 181 180 181 180 177 142 78 19 0 1 0 0 0 0 2 2 9 86 160 145 46 4 2 2 0 0 4 3 3 5 4 4 4 4 4 3 4 4 3 2 3 1 1 0 0 0 0 2 3 7 51 118 149 163 176 184 189 192 193 195 196 196 195 194 196 197 199 199 199 199 199 198 198 197 195 192 195 174 68 7 3 7 5 4 3 3 3 2 4 6 4 4 6 3 3 5 4 6 6 8 5 7 6 7 6 4 4 4 5 6 5 4 3 2 2 4 1 0 1 1 1 2 2 2 2 0 1 2 1 1 0 0 1 0 0 0 0 0 0 0 0 1 0 0 0 0 0 0 0 0 0 0 0 0 0 0 0 0 0 0 0 0 0 0 0 0 0 0 0 0 0 0 0 0 0 0 0 0 0 0 0 0 0 0 0 0 0 0 0 0 0 0 0 0 0 0 0 0 0 0 0 0 0 0 0 0 0 0 0 0 0 0 0 0 0 0 0 0 0 0 0 0 0 
0 0 0 0 0 0 0 0 0 0 0 0 0 0 0 0 0 0 0 0 1 1 2 4 2 5 4 2 3 3 1 3 3 3 3 4 3 5 4 5 6 5 2 4 4 4 4 4 5 5 6 5 6 6 6 6 4 2 4 2 2 0 0 0 0 1 0 0 2 0 0 0 0 2 2 1 0 2 2 3 1 0 0 0 0 1 1 1 0 2 3 2 4 1 3 3 3 3 4 3 3 3 4 6 5 3 4 2 2 1 2 4 3 2 3 4 3 3 2 3 2 3 2 2 1 0 1 1 0 0 0 0 0 0 0 0 0 0 0 0 0 0 0 0 0 0 0 0 0 0 0 0 0 0 0 0 0 0 0 0 0 0 0 0 0 0 0 0 0 0 0 0 0 0 0 0 0 0 0 0 35 142 174 175 178 179 178 179 179 181 184 184 184 187 186 187 190 189 190 190 191 190 190 190 191 189 190 191 191 191 191 191 189 191 192 192 192 193 193 193 191 192 194 193 192 191 192 190 188 187 189 190 190 190 189 189 189 188 190 190 189 190 190 190 190 191 190 191 191 191 192 191 192 192 191 193 194 193 192 193 194 194 195 196 196 197 195 196 195 194 194 195 195 196 196 196 195 194 195 195 196 196 195 196 197 196 195 193 194 195 194 192 191 191 191 192 193 193 195 193 193 193 194 192 193 190 192 192 191 188 191 190 190 190 190 189 189 189 189 192 193 192 192 192 192 191 189 189 188 189 189 191 191 191 190 190 190 189 190 188 188 188 189 190 189 190 190 190 191 192 190 189 187 187 187 186 185 185 186 186 184 185 185 186 186 186 188 187 187 185 188 188 189 187 188 184 185 185 183 182 182 182 183 185 184 184 183 184 185 186 183 183 181 182 183 180 182 182 182 183 181 182 182 180 180 181 181 180 180 180 179 178 179 182 182 181 181 182 180 182 181 178 149 85 27 2 0 0 0 0 0 1 2 9 76 156 154 64 5 1 3 0 1 2 2 3 5 5 5 6 6 5 5 5 4 2 2 1 2 2 1 2 3 0 1 4 2 15 81 139 153 166 179 185 191 193 194 195 196 197 196 196 197 197 199 200 201 200 200 201 198 196 193 195 174 74 7 2 6 5 4 4 4 3 4 4 4 5 5 5 3 6 3 4 6 5 7 5 6 6 5 5 2 2 2 4 4 4 4 2 2 2 1 2 1 1 0 3 2 2 3 2 1 1 1 1 1 0 0 0 0 0 0 0 0 0 0 0 1 0 0 0 0 0 0 1 1 0 0 0 0 0 0 0 0 0 0 0 0 0 0 0 0 0 0 0 0 0 0 0 0 0 0 0 0 0 0 0 0 0 0 0 0 0 0 0 0 0 0 0 0 0 0 0 0 0 0 0 0 0 0 0 0 0 0 0 0 0 0 0 0 0 0 0 0 0 0 0 0 0 
0 0 0 0 0 0 0 0 0 0 0 0 0 0 0 0 0 0 0 0 2 2 2 2 3 4 5 4 4 3 4 2 4 4 4 5 6 4 4 4 6 6 5 5 5 5 4 4 5 5 6 5 4 5 5 3 4 2 2 3 1 2 1 0 1 0 1 1 0 0 2 0 1 3 3 1 1 2 3 1 1 1 0 0 0 1 2 1 0 1 2 4 4 2 4 1 2 3 4 3 3 3 3 4 3 3 2 1 0 0 3 5 3 4 3 3 2 3 4 1 0 0 0 2 2 0 2 2 1 1 0 1 1 1 0 0 0 0 0 0 0 0 0 0 0 0 0 0 0 0 0 0 0 0 0 0 0 0 0 0 0 0 0 0 0 0 0 0 0 0 0 0 0 0 0 0 0 0 0 0 42 146 176 176 178 179 179 179 180 182 185 184 184 185 187 187 189 190 190 191 191 190 191 190 190 191 191 192 191 191 192 191 191 193 193 193 193 192 193 192 191 191 193 190 190 190 190 189 190 189 188 190 190 190 189 188 188 188 189 190 191 191 191 192 190 191 192 190 192 191 191 192 192 193 193 194 193 194 192 193 194 193 195 195 196 195 195 195 195 197 195 193 194 195 195 195 195 196 194 196 196 194 196 195 196 195 195 195 195 193 194 191 190 191 190 192 194 193 195 195 194 195 193 192 192 190 192 191 191 189 189 191 190 190 189 189 188 189 189 190 191 192 191 191 191 192 190 190 189 191 192 192 191 189 188 190 191 190 189 189 188 188 189 189 187 189 189 188 191 189 189 188 188 186 186 185 185 185 187 187 186 186 186 187 187 187 188 187 187 185 186 188 188 188 186 187 185 185 184 182 183 183 185 185 184 183 184 183 185 183 183 183 183 182 181 183 182 183 182 182 180 181 181 181 181 181 181 181 180 182 180 179 180 182 182 182 183 180 179 179 179 178 158 97 26 0 2 1 2 2 1 3 3 9 71 153 157 80 7 1 6 2 1 3 4 4 6 6 6 6 5 4 4 5 2 2 2 2 2 2 2 2 1 2 3 3 4 5 44 122 151 157 173 182 189 191 193 194 196 196 197 197 198 199 198 199 199 199 199 200 198 197 194 196 176 80 6 2 5 3 3 4 4 3 3 5 6 5 6 3 3 4 3 5 5 5 5 5 5 6 4 3 2 2 2 1 2 2 3 2 1 2 1 2 3 2 1 2 3 2 2 3 0 0 1 0 1 2 0 1 1 0 0 0 0 0 0 0 0 0 0 0 0 0 0 0 0 0 0 0 0 0 0 0 0 0 0 0 0 0 0 0 0 0 0 0 0 0 0 0 0 0 0 0 0 0 0 0 0 0 0 0 0 0 0 0 0 0 0 0 0 0 0 0 0 0 1 0 0 0 0 0 0 0 0 0 0 0 0 0 0 0 0 0 0 0 0 0 0 0 
1 0 0 0 0 0 0 1 0 0 0 0 0 0 0 0 0 0 0 1 3 1 2 3 4 5 4 4 3 5 2 4 4 6 8 8 6 5 5 6 5 5 5 4 7 4 4 3 5 4 5 5 4 4 5 3 2 3 2 4 2 2 1 0 2 1 1 1 0 0 2 1 1 1 0 2 2 3 2 0 0 1 0 0 0 1 1 0 1 0 2 3 4 3 4 2 3 2 2 2 2 2 3 4 4 3 2 0 1 2 2 3 1 3 1 0 2 2 1 1 1 0 2 1 3 1 2 0 0 1 0 1 2 1 0 1 0 0 0 0 0 0 1 1 0 0 0 0 0 0 0 0 0 0 0 0 0 0 0 0 0 0 0 0 0 0 0 0 0 0 0 0 0 0 0 0 0 0 0 0 49 149 173 175 175 179 178 180 181 182 185 185 183 185 187 188 188 189 190 190 190 192 192 192 191 193 193 193 192 191 191 191 191 192 192 192 192 191 192 192 190 190 192 190 191 191 191 189 190 190 190 191 191 190 189 190 188 189 190 190 190 189 190 193 191 191 190 190 191 191 191 192 192 193 193 193 193 193 192 192 192 193 194 195 195 194 194 194 194 196 195 194 193 194 195 196 196 194 196 195 194 195 195 194 195 194 192 194 192 194 192 192 192 192 191 192 193 193 194 193 194 195 193 191 191 190 190 191 190 189 189 190 190 190 189 189 187 189 188 188 190 192 192 191 191 190 190 189 190 190 190 191 190 189 190 189 188 188 188 188 188 188 188 188 189 188 189 188 191 188 188 187 187 187 186 185 185 186 188 189 187 187 186 187 188 188 189 188 186 186 187 187 189 187 187 186 186 186 184 186 184 183 185 184 185 184 184 184 185 184 183 182 183 183 182 184 182 183 181 183 182 181 180 181 182 182 182 182 181 182 179 179 179 183 180 181 183 180 180 179 180 179 165 113 36 0 1 2 3 3 2 4 2 6 59 146 161 91 7 1 5 2 5 5 6 4 7 8 7 6 6 4 2 4 2 3 5 4 4 3 3 3 2 4 2 2 3 1 14 89 145 157 169 179 186 190 192 194 194 195 199 197 197 198 198 198 198 198 201 199 198 199 195 197 178 85 8 2 6 2 2 5 3 2 2 6 6 5 4 4 3 3 4 1 3 3 4 5 4 4 2 3 1 2 2 1 4 4 4 2 3 3 2 2 3 2 2 2 1 0 2 2 0 0 2 1 2 2 1 1 2 1 0 0 0 0 0 0 0 0 0 0 0 0 0 0 0 0 0 0 0 0 0 0 0 0 0 0 0 0 0 0 0 0 0 0 0 0 0 0 0 0 0 0 0 0 0 0 0 0 1 0 0 0 0 0 0 0 0 0 0 0 0 1 0 1 1 1 1 1 0 1 0 0 0 0 0 0 0 0 0 0 0 0 0 0 0 0 0 0 
0 0 0 0 0 0 0 0 0 1 0 0 0 0 0 0 0 0 0 0 1 2 4 4 3 4 4 4 3 3 2 4 5 7 6 6 5 4 6 6 6 4 5 5 6 4 3 3 4 6 4 4 4 4 2 4 5 2 3 3 2 1 1 0 1 1 1 2 1 1 1 3 2 2 1 1 2 2 3 0 0 0 0 0 0 2 1 0 0 1 3 2 2 3 1 1 0 1 0 1 1 2 1 3 3 3 1 0 0 1 1 1 1 0 0 0 0 1 2 0 0 0 2 3 2 1 1 0 0 1 1 1 2 3 2 0 0 0 0 0 0 0 0 0 0 0 0 0 0 0 0 0 0 0 0 0 0 0 0 0 0 0 0 0 0 0 0 0 0 0 0 0 0 0 0 0 0 0 0 0 58 153 173 172 176 179 179 180 182 182 184 184 183 185 186 187 188 189 190 191 190 191 192 193 192 193 192 192 192 192 190 191 191 191 191 192 191 191 191 192 192 191 189 190 191 191 191 189 188 189 190 190 191 191 190 190 190 188 190 190 189 191 191 192 191 191 190 190 190 191 191 192 192 193 194 193 193 193 193 193 192 193 192 193 195 192 192 193 194 194 195 195 195 194 194 195 195 195 194 195 194 194 193 194 194 193 192 193 193 192 193 193 192 192 192 191 192 192 193 193 193 195 194 192 191 189 190 191 191 190 188 188 190 188 190 189 188 190 190 191 191 192 192 192 191 191 189 189 189 189 189 189 188 188 189 189 188 187 188 188 189 189 187 189 188 186 188 189 189 188 188 187 188 185 186 184 186 186 188 188 187 187 188 189 188 188 191 189 187 188 187 188 187 188 187 187 186 185 185 186 186 183 186 184 185 185 183 183 184 182 184 182 182 182 184 183 183 182 184 183 183 182 182 183 182 184 183 182 183 183 182 181 180 181 180 181 182 181 180 180 179 178 171 123 53 3 1 2 2 2 3 4 5 5 49 140 163 101 11 1 5 4 5 5 6 6 7 6 6 5 6 5 2 3 3 2 4 4 5 4 4 4 2 3 3 4 3 2 3 55 136 156 162 177 185 188 191 195 194 196 198 197 198 197 199 198 198 197 200 199 201 197 195 197 180 91 10 4 6 3 3 3 1 2 2 3 3 5 4 3 4 3 2 3 2 2 4 3 2 2 3 4 2 1 0 2 2 2 2 2 2 3 3 3 1 2 0 0 1 0 0 1 0 0 2 3 3 1 0 0 1 0 0 0 0 0 0 0 0 0 0 0 0 0 0 0 0 0 0 0 0 0 0 0 0 0 0 0 0 0 0 0 0 0 0 0 0 0 0 0 0 0 0 0 0 0 0 1 0 0 1 0 0 0 0 0 0 0 0 0 0 0 0 1 0 1 0 0 0 1 1 0 0 0 0 0 0 0 0 0 0 0 0 0 0 0 0 0 0 1 
1 1 0 0 0 0 0 0 1 0 0 0 0 0 0 0 0 0 0 0 1 1 5 5 4 3 2 3 3 2 2 3 4 4 6 6 5 5 5 6 5 5 4 5 5 4 2 5 5 5 4 4 2 4 2 4 4 4 5 5 2 2 0 1 1 2 2 2 1 3 3 3 2 3 2 2 2 3 0 0 0 1 1 1 0 1 0 0 0 1 1 2 1 2 2 0 1 1 1 0 1 2 1 0 2 0 2 1 1 2 0 0 0 0 0 0 1 2 0 0 0 0 2 1 1 0 1 0 0 1 2 1 2 3 3 1 0 1 0 0 0 0 0 0 0 0 0 0 0 1 1 0 0 0 0 0 0 0 0 0 0 0 0 0 0 0 0 0 0 0 0 0 0 0 0 0 0 0 0 0 69 155 173 172 177 178 180 181 183 182 183 183 184 186 187 188 187 190 189 189 191 192 194 193 193 192 193 192 191 190 191 192 191 191 192 192 191 192 193 193 193 193 190 192 191 189 189 188 188 190 191 190 190 191 191 190 189 190 192 191 190 190 191 191 193 191 191 190 190 191 192 191 193 193 194 195 193 193 193 193 192 193 192 192 192 192 192 193 193 195 196 195 195 194 194 194 194 194 194 194 192 194 193 194 193 193 192 193 192 192 193 194 194 190 191 190 192 191 193 193 193 192 194 193 192 191 192 191 191 189 188 189 189 189 189 190 189 190 191 190 192 192 191 191 191 191 191 189 189 188 188 187 187 187 187 186 186 185 187 187 189 187 187 188 188 187 186 188 188 186 186 186 186 186 186 185 187 187 188 188 189 189 188 188 188 190 191 191 187 187 189 189 188 187 187 187 187 185 185 185 185 186 186 184 185 185 184 183 183 183 184 183 182 182 183 184 184 183 183 183 182 182 181 182 183 182 184 185 183 183 182 183 180 181 181 182 182 183 182 181 180 178 173 134 65 9 1 4 2 3 4 5 5 4 37 129 163 114 17 2 6 4 3 4 7 6 6 6 7 6 5 4 4 3 4 3 4 5 3 5 4 4 3 5 3 2 3 4 3 38 131 157 159 172 181 187 190 194 195 196 198 199 196 197 197 199 200 199 200 200 200 198 196 195 180 87 11 3 6 2 2 3 1 1 1 2 4 2 3 2 3 3 3 2 0 2 2 2 2 4 3 2 0 2 1 3 3 2 2 2 1 3 5 3 1 1 0 0 1 0 1 2 1 0 3 1 1 1 1 0 1 0 0 0 0 0 0 0 0 0 0 0 0 0 0 0 0 0 0 0 0 0 0 0 0 0 0 0 0 0 0 0 0 0 0 0 0 0 0 0 0 0 0 0 0 0 0 0 0 1 1 0 0 0 0 0 0 0 0 0 0 0 2 3 3 2 2 1 0 1 0 0 0 0 0 0 0 0 0 0 0 0 0 0 0 0 0 0 0 1 
2 0 0 0 0 0 0 0 0 0 1 0 0 0 0 1 0 0 2 2 3 2 3 3 3 5 3 4 2 2 3 4 5 4 5 6 7 6 3 5 4 6 5 5 5 5 4 4 5 5 4 5 3 2 4 3 4 3 3 2 1 1 2 2 2 2 1 2 1 2 3 3 3 1 3 2 2 1 1 0 0 2 1 3 2 2 0 1 0 0 0 0 1 0 1 0 0 0 0 0 0 3 1 1 0 0 1 0 0 0 1 0 0 0 0 0 1 0 0 0 1 1 1 1 0 0 0 0 1 1 2 1 1 4 3 2 0 0 0 0 0 0 0 0 0 0 0 0 0 0 0 0 0 0 0 0 0 0 0 0 0 0 0 0 0 0 0 0 0 0 0 0 0 0 0 0 0 0 0 0 81 157 174 174 178 179 181 181 182 182 183 184 183 186 187 187 187 188 190 191 192 193 194 194 192 193 192 190 190 189 191 190 189 189 190 192 191 192 192 193 192 191 191 191 191 191 191 190 188 189 190 190 191 188 191 189 190 190 191 191 190 190 191 191 192 191 191 193 192 192 192 191 194 193 193 194 193 194 192 193 192 192 191 192 193 192 192 193 194 194 193 194 194 193 194 194 194 195 195 194 193 194 194 194 193 192 194 193 193 192 193 192 191 189 190 191 191 192 192 193 193 192 193 193 192 191 191 190 190 191 190 188 187 189 189 190 191 190 191 190 191 192 193 190 191 190 190 189 187 187 184 186 187 187 187 186 186 187 187 188 187 187 187 188 187 187 186 190 188 188 186 186 186 186 186 186 187 189 189 189 188 187 187 188 188 188 187 187 189 189 191 187 188 188 186 186 186 185 184 186 183 183 187 184 186 186 185 183 183 185 183 183 182 184 183 183 183 183 182 182 182 183 182 182 182 183 184 185 184 184 181 182 181 180 180 181 180 181 182 181 181 181 177 143 68 16 2 4 3 3 4 4 5 3 24 118 162 122 20 0 4 4 5 5 5 7 7 8 7 6 6 6 5 3 3 2 2 2 4 4 4 3 3 4 3 2 4 4 4 31 128 157 159 166 177 185 191 195 195 196 199 199 196 197 197 199 200 200 200 200 199 198 196 195 177 74 7 3 3 4 2 2 1 0 0 1 3 2 2 1 2 3 1 2 0 2 1 2 2 2 1 1 2 1 2 2 4 4 2 3 3 4 4 2 2 0 0 0 0 0 0 1 1 1 0 0 0 1 0 1 0 0 0 0 1 0 0 0 0 0 0 0 0 0 0 0 0 0 0 0 0 0 0 0 0 0 0 0 0 0 0 0 0 0 0 0 0 0 0 0 0 0 0 0 0 0 0 0 0 1 0 0 0 0 0 0 0 0 0 0 0 2 1 3 3 4 3 1 0 0 0 1 0 0 0 0 0 0 0 0 0 0 0 0 0 0 0 0 1 0 
1 1 0 0 0 0 0 0 0 2 1 0 0 1 1 0 1 1 2 1 1 1 2 3 3 3 3 3 4 2 4 3 5 5 6 5 6 6 4 5 4 4 6 6 5 5 5 5 4 6 3 4 4 4 4 4 3 2 2 2 2 2 1 3 3 2 0 2 1 1 2 1 2 1 2 2 3 1 1 0 0 2 2 2 0 0 1 1 0 0 0 0 0 0 0 0 0 0 0 0 2 1 1 1 0 0 0 0 0 0 0 2 0 0 1 0 1 0 0 0 0 0 0 1 0 0 0 1 0 0 0 3 4 1 2 1 1 1 2 0 0 0 0 1 1 1 2 0 0 0 0 0 0 0 0 0 0 0 0 0 0 0 0 0 0 0 0 0 0 0 0 0 0 0 0 0 0 0 0 3 92 161 173 173 178 178 180 180 181 183 183 183 184 185 187 186 187 187 190 190 192 192 193 193 192 193 191 191 191 189 189 189 187 189 190 193 192 190 192 192 192 191 191 191 193 193 192 191 191 190 189 189 191 190 191 192 188 190 191 192 189 192 191 191 190 191 192 192 192 191 191 193 193 194 194 194 193 193 192 193 193 193 193 191 192 191 191 193 195 194 195 192 193 193 193 196 194 194 195 194 194 194 194 192 194 192 192 191 190 191 192 190 191 191 191 191 191 193 193 192 193 194 193 194 192 190 190 190 191 192 190 190 188 190 190 192 191 190 191 192 191 191 192 190 189 189 188 186 186 185 186 186 187 188 186 186 185 185 186 186 185 187 187 186 186 186 186 186 189 188 187 187 186 186 188 187 188 188 188 188 189 188 187 186 187 187 186 187 188 191 189 188 188 186 187 186 186 186 187 185 185 185 186 185 187 187 185 186 184 185 183 183 182 184 183 183 184 183 184 181 182 181 183 182 182 184 183 184 185 183 182 183 180 181 180 181 181 183 183 182 181 182 180 150 80 29 4 2 3 3 3 5 5 5 21 111 162 130 27 2 2 4 5 6 7 7 8 8 6 6 6 5 5 5 3 2 2 3 4 2 3 3 2 3 3 2 3 4 3 26 124 160 160 165 176 183 188 193 195 196 197 197 196 197 199 199 199 200 200 200 199 198 195 194 169 56 4 2 3 3 1 0 0 0 0 0 0 0 1 1 0 1 1 0 1 3 2 2 2 2 2 2 1 2 0 1 2 3 1 2 2 3 4 4 3 0 0 0 0 0 0 0 2 2 1 0 0 0 1 1 0 0 0 1 1 0 0 0 0 0 0 0 0 0 0 0 0 0 0 0 0 0 0 0 0 0 0 0 0 0 0 0 0 0 0 0 0 0 0 0 0 0 0 0 0 0 0 0 0 1 1 2 1 0 0 0 0 0 1 0 0 0 2 3 5 4 2 2 1 1 0 1 0 0 0 1 0 0 1 0 0 0 0 0 0 0 0 0 0 1 
1 1 0 0 0 0 0 0 0 1 1 0 1 2 2 2 2 1 3 2 2 4 2 3 3 3 1 3 4 5 5 3 4 5 5 5 5 5 4 4 5 5 6 6 4 4 4 4 5 5 4 4 5 5 4 5 4 3 3 2 2 3 3 3 2 0 1 3 1 2 2 2 3 3 2 2 4 2 1 0 2 3 1 1 1 2 0 1 0 0 0 0 0 0 1 0 0 0 0 0 0 1 1 0 0 0 0 0 0 0 0 2 0 0 0 0 0 0 0 0 0 0 0 0 0 0 0 1 0 1 0 1 2 2 3 2 2 1 0 0 2 1 1 1 1 1 0 1 1 1 0 0 0 0 0 0 0 0 0 0 0 0 0 0 0 0 0 0 0 0 0 0 0 0 0 0 0 0 0 5 100 164 174 175 176 177 180 180 180 181 183 183 183 186 186 188 187 188 188 187 190 191 191 193 192 192 190 190 188 188 188 189 187 189 190 192 192 190 191 192 192 192 190 191 191 192 191 189 189 191 191 190 192 191 190 192 189 190 190 192 191 193 192 192 191 192 192 192 191 192 192 192 193 192 193 193 194 191 192 191 193 192 193 193 192 192 192 193 193 192 194 193 192 193 193 193 193 193 194 194 192 193 193 192 194 192 191 191 189 190 191 191 192 191 193 191 193 192 195 193 192 194 193 192 191 190 191 191 190 190 191 189 190 189 189 191 191 192 192 191 191 191 190 190 189 188 188 186 186 185 186 186 185 185 187 185 186 186 186 185 185 183 185 185 187 186 189 189 189 188 189 188 186 187 188 188 188 189 188 188 187 187 187 186 187 187 188 190 188 189 190 188 186 188 187 186 185 185 185 184 186 186 187 186 188 187 184 186 184 184 183 182 183 183 186 185 184 184 183 184 183 181 183 182 182 182 183 184 184 185 183 182 182 182 180 180 182 184 183 184 184 184 180 154 88 26 2 2 2 3 4 4 6 3 17 104 163 136 35 1 2 5 6 5 6 7 8 7 8 6 6 6 6 6 3 3 2 3 3 4 2 1 3 2 3 3 4 5 1 21 121 162 163 165 176 183 189 193 196 197 197 198 196 197 200 200 199 200 198 199 199 197 196 193 158 36 2 1 2 3 1 0 0 0 0 0 0 1 0 1 0 0 0 0 1 2 3 1 1 0 2 1 1 0 0 0 3 2 1 0 2 1 2 3 2 1 0 1 2 0 0 0 1 2 0 0 0 0 1 0 0 0 0 0 0 0 0 0 0 0 0 0 0 0 0 0 0 0 0 0 0 0 0 0 0 0 0 0 0 0 0 0 0 0 0 0 0 0 0 0 0 0 0 0 0 0 0 0 0 0 3 2 0 0 0 0 0 0 0 0 0 0 2 1 3 3 1 3 1 2 1 2 0 0 2 1 0 0 0 0 0 0 0 0 0 0 0 0 1 1 
0 0 0 0 0 0 0 0 0 2 1 1 1 1 2 1 2 3 2 3 5 6 5 2 3 3 3 3 5 5 6 3 4 5 6 5 4 4 3 4 3 6 5 4 5 3 4 4 4 3 3 5 4 5 5 5 5 5 3 3 3 5 3 3 1 1 2 4 2 2 4 3 4 2 1 2 2 2 1 2 4 3 1 1 0 1 0 0 0 0 0 0 1 0 0 0 0 0 1 0 0 1 1 1 0 0 0 0 0 0 0 0 0 0 0 0 0 0 0 0 0 0 0 0 1 1 1 0 0 1 1 1 1 1 2 1 1 1 0 1 1 1 1 2 0 2 1 2 0 0 0 0 1 0 0 0 0 0 0 0 0 0 0 0 0 0 0 0 0 0 0 0 0 0 0 0 0 0 0 7 102 165 174 175 176 179 179 179 181 181 185 185 184 186 186 187 187 189 187 188 189 191 190 192 193 192 191 189 191 189 188 190 188 191 191 192 192 192 190 190 192 192 189 190 191 190 189 188 190 190 190 190 191 192 189 191 190 192 190 192 192 193 191 193 194 193 194 192 192 191 193 192 192 192 193 193 193 193 193 191 192 192 194 193 192 192 193 192 193 193 193 193 192 192 193 191 193 192 193 193 191 191 191 193 193 192 191 191 191 192 190 190 190 191 191 191 192 193 194 194 192 194 192 192 191 190 190 191 191 191 190 190 190 191 190 189 191 192 191 190 190 189 189 189 189 188 188 187 187 185 185 186 187 185 186 185 184 184 184 185 184 185 185 187 188 188 188 188 186 185 187 187 187 187 187 188 187 188 187 187 188 187 189 187 188 188 188 189 188 188 189 188 186 188 188 187 189 185 188 187 187 187 188 186 189 187 186 185 183 183 185 184 183 187 184 185 184 185 184 184 183 182 183 182 182 182 184 182 185 184 183 183 182 182 182 183 182 183 185 184 184 183 180 159 99 24 1 2 4 3 4 3 5 1 13 94 160 143 45 2 2 4 4 5 6 8 5 5 7 6 5 4 4 5 3 4 2 2 2 2 1 1 2 2 3 4 5 7 4 27 130 164 163 164 175 184 189 193 194 196 200 198 197 198 199 200 199 199 198 200 199 196 196 191 140 22 0 1 1 2 1 0 0 0 0 0 0 0 0 0 0 0 1 1 0 1 1 1 1 0 1 0 0 0 0 2 2 1 1 2 1 1 2 0 0 0 0 2 0 0 1 2 0 0 2 0 2 1 2 0 0 1 1 0 0 0 0 0 0 0 0 0 0 0 0 0 0 0 0 0 0 0 0 0 0 0 0 0 0 0 0 0 0 0 0 0 0 0 0 0 0 0 0 0 0 0 0 0 0 1 3 1 0 0 0 0 0 0 2 1 0 2 1 3 4 3 2 1 0 1 0 0 0 0 1 0 2 2 0 1 0 0 0 0 0 0 0 2 2 1 
2 0 0 0 0 0 0 0 0 1 2 1 2 1 1 2 1 2 1 2 6 4 3 2 2 2 2 3 3 4 3 2 4 5 6 5 6 5 3 2 3 5 4 3 4 4 2 3 3 3 4 4 3 5 4 6 7 5 4 4 4 3 2 2 2 2 1 3 4 2 3 4 3 2 2 1 2 2 2 0 4 3 3 1 0 0 0 0 0 0 0 0 0 0 0 0 0 0 0 0 0 0 1 1 0 0 0 0 0 0 0 0 0 0 0 0 0 0 0 0 1 0 0 2 1 3 1 0 0 0 0 0 0 0 1 2 0 2 0 1 3 1 1 0 1 1 1 0 0 0 0 0 0 0 0 0 0 0 0 0 0 0 0 0 0 0 0 0 0 0 0 0 0 0 0 0 0 0 0 8 104 166 174 174 176 178 178 180 181 181 184 184 183 185 186 187 186 187 187 188 190 189 191 191 191 191 190 190 190 189 189 189 188 189 191 192 190 190 190 191 192 191 191 191 192 192 191 189 190 191 190 190 191 192 191 190 189 192 192 193 193 194 193 192 193 194 192 193 193 192 193 192 193 193 191 192 192 193 193 192 193 191 193 191 193 193 194 193 193 193 192 192 193 192 193 192 191 191 194 191 190 189 192 192 192 191 191 191 191 191 191 192 192 190 191 191 191 193 195 193 194 192 191 192 191 192 193 190 190 192 191 192 191 190 190 190 189 190 190 190 189 188 187 187 186 187 186 186 187 186 186 187 187 187 186 184 184 184 184 184 185 185 188 187 188 188 187 187 186 185 187 189 188 187 188 187 187 186 187 189 187 188 188 188 188 187 189 189 189 187 189 188 189 186 188 186 187 188 189 189 188 187 187 188 188 185 185 184 184 184 184 185 184 187 186 185 184 185 185 187 186 183 184 183 183 182 182 184 183 184 184 184 183 183 183 183 184 184 183 183 184 183 181 165 109 31 1 3 4 3 3 4 3 1 13 83 158 147 49 4 1 3 5 5 5 5 4 5 7 7 5 4 5 4 4 3 2 3 2 2 2 3 5 4 4 4 6 6 7 44 142 167 161 164 175 181 186 191 196 196 197 198 198 200 200 199 199 200 200 199 197 196 195 188 121 14 0 0 0 0 1 0 0 1 0 0 0 0 0 0 1 0 0 0 1 0 1 0 0 0 0 2 0 0 1 0 0 1 0 1 1 1 1 2 0 0 0 0 0 2 2 1 2 1 1 3 0 2 3 0 1 1 0 0 0 0 0 0 0 0 0 0 0 0 0 0 0 0 0 0 0 0 0 0 0 0 0 0 0 0 0 0 0 0 0 0 0 0 0 0 0 0 0 0 0 0 0 0 0 1 0 0 0 0 0 0 1 0 1 2 1 2 4 4 3 3 2 1 0 0 0 0 0 0 0 0 1 2 2 1 0 0 0 0 0 0 2 0 2 1 
0 0 0 0 1 0 1 0 0 0 1 2 2 3 2 1 2 1 3 2 3 3 1 2 3 2 2 4 4 5 3 3 5 6 5 6 5 5 3 3 3 2 1 2 1 2 2 2 3 3 3 3 5 6 5 5 6 6 5 3 2 4 2 2 2 2 2 3 3 3 4 5 2 3 4 2 1 1 2 1 2 2 3 2 1 1 1 0 0 0 0 0 0 0 0 0 0 0 0 0 0 0 1 0 0 0 0 0 0 0 0 0 0 0 0 0 0 0 0 0 0 0 1 1 2 1 2 1 0 0 0 0 0 0 0 0 0 1 2 1 4 3 1 1 1 0 0 0 0 0 0 0 0 0 0 0 0 0 0 0 0 0 0 0 0 0 0 0 0 0 0 0 0 0 0 0 0 0 0 8 105 167 173 174 177 178 178 179 180 182 182 184 184 185 186 187 187 188 188 189 188 190 190 191 190 190 191 189 190 190 191 192 191 190 191 190 190 191 192 191 190 190 191 192 193 192 191 189 190 191 190 191 191 191 190 190 191 193 192 191 191 192 194 193 194 193 191 192 191 192 192 191 192 193 193 193 193 193 192 192 193 192 193 192 193 193 192 193 192 192 192 191 189 191 191 190 192 192 190 190 189 188 189 189 190 190 190 192 192 192 193 192 191 190 190 191 193 192 195 193 192 192 192 191 192 191 191 191 190 190 191 191 192 190 190 188 188 189 189 190 190 186 187 186 186 187 186 186 187 187 186 187 186 185 186 185 184 184 184 184 185 187 187 187 186 188 188 187 185 184 187 188 187 186 187 187 187 187 186 188 186 187 187 186 188 188 190 190 190 189 188 188 188 186 187 188 187 188 189 189 188 187 187 188 188 186 187 184 185 184 185 186 186 187 186 186 186 185 185 185 186 184 184 184 184 183 184 183 184 184 182 183 184 183 182 183 183 183 183 184 183 184 183 171 117 40 4 3 4 2 2 3 2 1 7 76 157 145 49 3 2 3 4 5 5 4 4 5 5 6 5 5 5 4 5 3 3 2 2 2 3 3 6 6 4 5 7 5 8 68 153 168 163 166 174 181 185 191 195 196 196 198 199 197 199 198 199 201 200 198 197 196 195 181 91 7 0 0 0 0 0 0 0 0 0 0 0 0 0 0 0 0 0 0 0 0 0 0 1 0 0 1 0 0 0 0 0 1 1 1 0 2 2 2 1 0 1 1 1 3 0 0 2 1 2 1 1 3 2 1 1 1 0 0 0 0 0 0 0 0 0 0 0 0 0 0 0 0 0 0 0 0 0 0 0 0 0 0 0 0 0 0 0 0 0 0 0 0 0 0 0 0 0 0 0 0 0 0 0 0 0 0 0 0 0 0 1 0 1 1 2 3 1 3 2 2 1 0 0 2 1 0 0 0 0 2 1 1 2 1 1 0 0 0 1 0 1 1 1 2 
0 0 1 2 1 2 1 0 1 1 0 2 1 2 2 2 2 4 4 4 4 3 3 3 3 2 3 3 4 4 4 3 5 4 6 5 5 4 4 3 3 4 1 3 3 3 3 3 3 3 4 4 5 4 5 7 7 7 6 4 4 3 2 2 2 2 2 2 3 3 3 3 2 4 2 2 1 1 0 1 0 2 1 1 1 0 1 0 0 0 0 0 0 0 0 0 0 0 0 0 0 0 0 0 0 0 0 0 0 0 0 0 0 0 0 0 0 0 0 0 0 0 1 0 2 0 3 1 0 0 0 0 0 0 1 0 0 3 0 1 1 2 0 1 0 0 0 0 0 0 0 0 0 0 0 0 0 0 0 0 0 0 0 0 0 0 0 0 0 0 0 0 0 0 0 0 0 0 0 7 105 165 172 174 177 180 179 178 180 183 181 182 183 183 184 186 187 188 188 189 189 189 188 189 191 190 189 188 191 190 189 190 190 191 190 189 189 191 192 190 191 193 191 191 192 193 192 190 192 191 191 192 192 189 191 191 192 192 194 194 193 193 194 194 193 194 191 193 191 193 192 192 191 192 194 193 191 191 191 191 190 191 192 190 192 192 193 191 191 191 191 190 188 190 190 190 192 191 190 189 190 188 189 191 192 190 191 191 192 194 193 192 192 191 190 190 191 192 194 193 192 193 191 192 191 190 189 188 189 191 192 191 190 190 190 188 188 189 189 189 189 188 184 186 185 186 187 187 188 188 188 187 187 185 186 185 185 185 182 184 184 186 186 187 187 186 188 186 186 185 185 185 184 186 186 185 185 187 186 187 188 187 186 186 188 189 189 189 191 191 189 189 189 188 187 187 187 188 188 187 189 188 188 188 186 186 186 185 185 184 185 186 187 187 187 185 184 185 184 186 185 185 186 186 185 184 186 185 184 185 184 184 183 183 183 185 184 183 185 185 184 185 182 173 116 39 5 2 3 2 2 2 2 0 7 76 155 145 47 3 2 4 4 4 5 5 2 3 4 4 4 5 4 5 3 4 3 4 4 5 4 4 5 8 7 6 8 5 17 104 163 168 164 166 172 181 186 190 192 194 196 197 197 198 198 199 199 199 199 199 199 196 195 172 63 4 0 0 0 0 0 1 0 0 0 0 0 0 0 0 0 0 0 0 0 0 0 0 0 0 0 1 0 0 0 0 0 1 0 0 0 1 1 2 1 0 1 2 2 2 1 0 0 0 2 2 0 1 0 0 1 2 1 0 0 0 0 0 0 0 0 0 0 0 0 0 0 0 0 0 0 0 0 0 0 0 0 0 0 0 0 0 0 0 0 0 0 0 0 0 0 0 0 0 0 0 2 0 0 0 0 0 0 0 0 0 0 0 1 3 2 2 1 2 2 1 0 0 0 0 0 1 0 0 2 1 1 0 2 1 2 2 2 2 1 1 2 3 1 1 
2 2 1 2 2 2 1 0 0 2 3 3 0 2 4 2 3 4 3 2 3 3 2 3 2 0 1 2 2 3 3 4 5 6 6 5 4 4 4 4 1 2 2 4 3 2 3 4 3 2 3 3 5 4 6 6 7 5 4 5 4 3 3 2 4 4 2 3 3 4 4 3 5 3 2 0 2 1 0 0 0 0 2 1 0 0 0 0 0 0 0 0 0 0 0 0 0 0 0 0 0 0 0 0 0 0 0 0 0 0 0 0 0 0 0 0 0 0 0 0 0 0 0 1 2 0 2 1 1 0 0 0 0 0 2 1 0 0 0 0 0 0 0 0 0 0 0 0 0 0 0 0 0 0 0 0 0 0 0 0 0 0 0 0 0 0 0 0 0 0 0 0 0 0 0 0 0 0 0 8 104 165 172 174 178 180 178 180 181 181 182 184 184 183 184 186 186 187 187 189 189 189 190 189 191 188 189 189 189 189 189 189 189 191 190 190 188 189 192 191 190 192 191 190 192 192 191 191 191 193 191 192 191 190 192 191 192 192 193 193 194 193 194 194 193 193 193 193 194 192 192 192 192 192 191 193 192 192 192 191 192 191 191 191 191 191 191 191 191 190 190 189 189 187 188 189 192 192 190 191 192 190 189 191 192 191 190 190 191 192 194 192 193 191 192 192 191 191 194 193 193 191 192 192 190 190 189 187 190 191 192 189 191 189 190 190 189 188 187 189 187 186 184 185 184 186 186 186 187 186 188 188 187 184 185 186 184 184 184 184 184 185 186 186 187 186 184 186 185 185 184 185 185 184 185 187 185 184 187 185 187 189 188 188 187 188 190 190 190 191 190 188 188 188 187 186 185 187 187 186 188 190 189 187 187 186 185 185 184 184 186 185 186 186 186 185 184 184 184 186 186 186 185 186 184 186 186 186 186 186 183 184 184 185 183 186 185 185 186 186 185 185 184 174 122 46 13 4 3 3 3 0 1 1 7 74 154 146 46 2 2 6 5 4 3 3 1 2 2 5 5 5 4 6 4 5 5 6 5 7 5 6 5 7 8 6 9 7 37 136 169 168 166 166 175 183 186 188 193 196 196 199 198 199 199 199 199 199 199 198 199 194 193 162 42 0 1 0 0 0 0 0 1 0 0 0 0 0 0 0 0 0 0 0 0 0 0 0 0 0 0 0 0 0 0 0 0 3 0 0 0 2 0 1 1 1 3 1 1 2 2 0 0 0 0 0 1 0 0 0 0 1 0 0 0 0 0 0 0 0 0 0 0 0 0 0 0 0 0 0 0 0 0 0 0 0 0 0 0 0 0 0 0 0 0 0 0 0 0 0 0 0 0 0 0 1 2 0 0 0 0 0 0 0 0 0 0 0 1 2 1 2 2 2 1 0 2 1 0 0 1 1 0 2 2 3 2 2 1 2 2 2 1 2 3 2 3 4 1 1 
2 4 3 2 2 2 2 3 2 3 3 4 3 4 3 3 4 4 4 3 4 4 2 1 1 2 1 2 3 3 3 3 4 6 5 5 5 4 4 2 2 2 1 3 4 3 3 3 4 3 3 3 5 5 4 6 5 4 4 5 4 3 4 4 3 4 4 3 5 5 4 2 3 3 3 2 1 1 1 0 1 0 1 0 1 0 0 0 0 0 0 0 0 0 0 0 0 0 0 0 0 0 0 0 0 0 0 0 0 0 0 0 0 0 0 0 0 0 0 0 0 0 0 0 1 1 2 2 1 0 0 0 0 0 0 0 1 1 1 1 0 0 1 0 0 0 0 0 0 0 0 0 0 0 0 0 0 0 0 0 0 0 0 0 0 0 0 0 0 0 0 0 0 0 0 0 0 0 0 8 105 166 173 175 178 181 181 181 182 182 182 183 183 184 184 186 188 187 186 188 188 189 189 191 191 190 189 187 189 189 188 188 188 189 189 191 190 190 191 190 189 191 190 191 192 192 191 190 192 192 191 191 191 193 193 192 193 193 196 194 192 192 193 194 194 193 194 194 193 193 193 193 191 190 189 191 190 191 191 191 190 190 189 191 191 190 191 190 190 189 189 187 187 186 189 190 190 190 191 192 191 191 190 190 189 190 190 190 190 192 192 192 191 191 190 192 191 194 192 194 193 191 192 193 190 191 190 190 189 190 189 188 188 190 189 190 191 190 189 186 186 186 186 185 185 186 187 186 185 185 185 187 186 186 186 184 183 182 183 182 185 184 185 185 185 186 185 185 187 187 185 185 187 186 185 185 186 187 188 187 186 187 189 188 188 189 189 190 192 191 190 189 187 188 188 187 186 188 187 189 187 189 189 187 186 185 185 185 185 185 186 185 184 186 185 188 184 184 185 187 187 186 186 186 187 187 187 185 186 187 186 185 185 185 188 186 187 184 185 186 185 186 183 178 129 44 6 2 3 2 3 2 2 0 9 75 154 143 47 3 2 5 3 4 3 2 1 1 3 6 7 5 5 5 4 5 4 4 4 6 5 3 3 6 6 7 9 11 68 154 172 167 166 170 179 184 188 190 194 196 196 197 198 199 199 198 198 200 199 198 197 194 190 146 24 0 1 0 0 0 0 0 0 0 0 0 0 0 0 0 0 0 0 0 0 0 0 0 0 0 0 1 1 0 0 0 0 2 0 0 0 1 0 2 1 2 2 1 0 0 2 1 0 0 0 0 0 0 0 0 2 1 0 0 0 0 0 0 0 0 0 0 0 0 0 0 0 0 0 0 0 0 0 0 0 0 0 0 0 0 0 0 0 0 0 0 0 0 0 0 0 0 1 1 1 2 2 2 0 0 0 0 0 0 0 0 0 0 2 2 2 1 2 1 0 1 2 1 0 2 2 1 1 2 3 1 3 4 2 3 2 4 1 2 2 3 4 3 2 2 
2 4 4 3 3 3 3 4 4 3 4 4 3 3 3 3 4 5 4 4 3 4 3 2 2 2 1 1 0 2 2 2 4 4 3 5 5 4 3 4 3 3 2 2 1 3 3 2 3 4 4 5 6 5 4 4 4 5 3 5 5 4 4 4 3 4 3 4 4 4 3 3 4 5 4 1 2 1 2 0 1 0 0 0 0 0 0 0 0 0 0 0 0 0 0 0 0 0 0 0 0 0 0 0 0 0 0 0 0 0 0 0 0 0 0 0 0 0 0 0 0 0 0 0 0 0 2 1 0 0 0 0 0 0 1 0 2 1 1 1 1 1 1 0 0 0 0 0 0 0 0 0 1 1 0 1 0 0 0 0 0 0 0 0 0 0 0 0 0 0 0 0 0 0 0 0 0 0 0 11 107 167 173 175 178 181 181 182 181 182 182 182 181 186 186 186 187 188 189 188 188 188 189 189 190 187 188 189 188 189 189 189 190 190 189 192 189 189 190 189 190 191 191 191 191 192 192 190 191 192 191 191 191 192 193 193 194 194 196 194 193 193 193 193 193 193 194 193 195 194 193 193 194 192 192 190 191 189 190 191 189 190 189 190 190 190 190 191 188 190 189 187 187 187 188 188 190 190 190 191 190 191 190 191 190 190 190 191 191 191 192 189 190 189 190 191 191 191 193 193 192 190 191 191 192 191 189 191 191 189 189 189 188 189 189 189 188 189 188 188 188 187 186 186 185 186 185 185 186 186 184 184 185 185 184 183 183 184 182 182 182 183 184 185 187 187 187 185 186 186 186 187 188 186 185 186 186 188 188 188 188 187 189 188 188 189 190 191 191 190 189 188 187 189 186 185 185 187 187 189 187 188 187 186 186 185 185 187 187 186 186 187 187 184 186 187 186 185 187 187 188 188 187 187 189 188 190 188 187 189 188 187 187 187 187 186 187 184 185 186 185 183 183 177 137 59 8 2 1 3 3 2 2 2 11 75 153 143 47 4 2 2 3 4 3 2 2 2 3 6 6 4 4 4 4 4 3 4 4 4 4 3 3 4 5 5 6 19 107 165 170 169 167 172 181 186 188 192 193 195 198 198 198 198 198 199 198 198 197 198 195 194 186 122 13 0 0 0 0 0 0 0 0 0 0 0 0 0 0 0 0 0 0 0 0 0 0 0 0 0 0 0 0 0 0 0 1 0 0 0 0 1 0 0 1 1 1 0 0 0 0 0 0 0 0 0 0 1 1 0 1 1 0 0 0 0 0 0 0 0 0 0 0 0 0 0 0 0 0 0 0 0 0 0 0 0 0 0 0 0 0 0 0 0 0 0 0 0 0 0 0 0 0 1 2 1 2 0 0 0 0 0 0 0 0 0 0 2 2 3 3 1 1 1 1 1 3 2 1 2 3 2 1 2 3 2 3 3 1 2 3 3 2 2 2 3 3 4 3 3 
3 4 2 3 3 4 3 4 4 4 4 5 6 4 3 3 2 4 5 4 4 4 4 3 1 2 1 1 2 0 3 1 3 2 2 4 3 1 2 3 5 3 2 2 3 4 2 2 3 3 5 5 4 4 4 4 4 3 3 3 3 3 2 2 3 4 4 4 4 3 3 3 3 3 3 2 2 2 2 1 0 0 0 0 0 0 0 0 0 0 0 0 0 0 0 0 0 0 0 0 0 0 0 0 0 0 0 0 0 0 0 0 0 0 0 0 0 0 0 0 0 0 0 0 0 0 0 1 0 0 0 0 0 0 3 2 2 1 2 1 2 1 1 3 2 0 0 0 0 0 0 0 0 0 0 0 0 0 0 0 0 0 0 0 0 0 0 0 0 0 0 0 0 0 0 0 2 1 0 10 109 168 172 175 179 181 181 180 181 181 181 182 182 185 184 185 188 186 186 187 188 189 188 188 188 187 186 188 188 189 188 189 190 190 190 189 191 189 190 189 189 192 191 190 191 192 191 191 193 192 192 192 192 192 194 193 195 194 194 195 193 193 192 191 190 192 191 192 192 193 193 191 193 193 192 191 192 190 188 190 190 190 188 190 191 192 191 190 190 191 189 188 188 187 187 188 190 190 189 190 190 191 189 189 188 190 190 190 190 189 190 189 189 189 189 190 191 191 191 190 190 190 192 191 190 189 189 191 191 188 188 188 188 190 189 187 189 189 189 189 189 187 186 184 185 186 185 185 184 185 184 185 184 183 184 183 183 182 183 183 183 184 184 185 187 186 186 188 186 187 189 187 188 186 186 186 186 187 187 188 188 186 187 187 186 188 190 190 190 188 190 187 188 187 186 186 186 187 188 187 187 187 188 186 185 186 187 187 187 187 187 188 187 186 187 188 185 186 188 188 187 190 188 188 188 188 190 188 187 189 189 187 187 186 187 187 186 186 184 185 187 183 182 177 147 74 10 3 4 4 2 1 1 1 9 78 154 143 45 2 2 4 3 4 3 3 2 2 3 5 5 5 6 3 4 4 4 3 4 4 5 4 4 4 4 6 5 41 136 169 169 168 169 176 184 188 191 192 194 196 198 199 196 197 198 199 198 200 197 196 193 192 172 77 3 0 0 0 0 0 0 0 0 0 0 0 0 0 0 0 0 0 0 0 0 0 0 0 0 0 0 0 0 0 0 0 1 0 0 0 0 0 0 0 0 0 0 0 0 0 0 0 0 0 0 0 0 0 0 1 0 0 0 0 0 0 0 0 0 0 0 0 0 0 0 0 0 0 0 0 0 0 0 0 0 0 0 1 0 0 0 0 0 0 0 0 0 0 0 0 0 0 0 0 3 0 1 1 0 0 0 0 0 0 0 0 0 0 3 4 3 3 2 4 1 3 2 2 3 3 2 1 1 2 2 3 4 4 2 1 3 2 1 2 4 4 3 3 1 3 
3 3 3 3 3 5 4 5 4 5 4 6 5 3 3 4 2 3 3 3 2 2 2 2 0 1 1 0 1 2 3 2 3 2 1 2 3 1 2 4 3 3 2 4 5 5 2 3 4 3 2 3 2 1 4 4 3 3 3 4 5 3 2 4 3 5 3 3 3 2 3 3 3 3 1 1 0 3 2 0 0 1 0 0 0 1 0 0 0 0 0 0 0 0 0 0 0 0 0 0 0 0 0 0 0 0 0 0 0 0 0 0 0 0 0 0 0 0 0 0 0 0 0 0 0 0 0 0 0 0 0 0 0 0 3 3 3 2 1 1 0 0 0 2 2 0 0 0 0 0 0 0 0 0 0 0 0 0 0 0 0 0 0 0 0 0 0 0 0 1 0 0 0 0 0 0 3 2 0 12 109 166 172 176 179 180 180 180 180 180 182 181 182 186 184 184 184 186 186 186 187 187 189 188 188 187 185 188 187 187 188 188 188 189 189 190 191 191 191 191 187 190 191 191 193 192 190 191 191 193 194 192 193 193 194 193 194 194 194 195 192 193 193 192 191 191 192 192 192 192 192 193 193 192 192 191 191 191 189 190 191 190 189 190 191 191 190 189 188 190 189 187 185 186 188 188 188 189 190 191 190 190 189 189 189 190 188 188 188 189 189 189 188 190 189 191 190 190 190 189 190 191 191 192 190 190 191 191 188 189 188 189 190 188 187 186 187 188 188 188 188 186 186 185 184 185 186 184 184 184 184 185 185 184 183 184 184 183 183 184 184 185 185 187 187 187 187 188 188 186 187 188 187 187 186 185 184 185 186 187 186 187 188 187 187 188 188 189 188 189 188 187 186 185 186 187 186 187 188 186 187 187 187 186 187 187 188 190 189 190 190 189 188 189 189 187 187 187 187 188 189 190 189 189 190 189 190 189 189 191 189 188 188 186 185 185 184 185 185 185 185 184 184 180 150 78 8 3 2 2 2 2 2 1 7 77 155 143 41 2 4 2 4 4 4 3 2 2 4 4 5 5 5 5 4 3 4 2 4 4 4 5 5 6 5 3 13 87 159 169 170 169 171 177 183 190 194 192 195 196 197 196 196 197 197 198 197 197 197 193 192 188 146 34 0 0 0 0 0 0 0 0 0 0 0 0 0 0 0 0 0 0 0 0 0 0 0 0 0 0 0 0 0 0 0 0 0 0 0 0 0 0 0 0 0 0 0 0 0 0 0 0 0 0 0 0 0 0 0 0 0 0 0 0 0 0 0 0 0 0 0 0 0 0 0 0 0 0 0 0 0 0 0 0 0 0 0 1 0 0 0 0 0 0 0 0 0 0 0 0 0 0 0 2 2 0 1 0 0 0 1 1 0 1 0 0 2 1 2 2 3 2 2 4 3 2 3 3 3 2 2 2 2 1 2 3 5 3 1 1 2 2 3 4 6 5 4 4 4 2 
2 3 2 2 4 4 4 4 5 6 6 5 4 2 2 2 3 2 2 4 2 2 1 2 1 0 0 0 3 1 2 2 2 2 3 1 0 1 1 2 3 2 2 1 2 2 4 2 2 3 1 2 2 3 3 3 4 2 2 3 3 4 3 3 3 3 2 2 2 1 2 1 0 0 2 1 2 3 2 1 0 0 0 0 0 0 0 0 0 0 0 0 0 0 0 0 0 0 0 0 0 0 0 0 0 0 0 0 0 0 0 0 0 0 0 0 0 0 0 0 0 0 0 0 0 0 0 0 0 0 0 0 0 0 2 3 2 1 0 0 0 0 0 2 0 0 0 0 0 0 0 0 0 0 0 0 1 0 0 0 0 0 1 1 0 0 0 0 0 1 2 0 0 0 1 1 3 3 0 13 110 169 174 176 179 180 180 179 180 182 180 181 183 184 185 184 185 186 187 185 187 189 188 187 186 187 186 186 186 190 187 188 188 188 188 189 190 189 190 191 190 190 191 190 192 192 191 191 193 191 193 194 195 193 195 196 194 195 195 193 192 192 192 192 191 191 193 192 192 193 192 192 192 192 191 191 191 190 190 190 191 190 190 190 190 188 188 188 188 188 187 185 185 186 187 188 189 189 190 191 190 190 189 189 189 189 189 188 188 189 189 188 188 191 191 191 191 190 190 189 190 191 191 191 189 190 190 189 188 188 189 189 187 186 186 186 186 186 189 186 185 185 185 184 186 187 187 185 185 184 185 185 185 185 185 183 184 184 186 185 185 184 186 185 187 186 186 187 188 186 185 188 188 189 187 186 185 184 185 186 187 186 188 186 187 188 188 186 187 188 187 187 186 186 188 187 189 188 188 187 187 188 187 187 189 188 188 191 190 190 190 191 190 190 189 188 189 188 188 189 190 191 191 190 191 191 192 192 191 189 189 189 187 187 185 187 185 185 184 187 186 184 184 181 152 79 14 2 4 1 3 3 4 1 10 85 158 137 34 0 1 1 1 1 3 4 4 1 2 2 4 5 6 6 5 4 2 2 3 3 4 4 6 6 6 6 42 131 169 170 171 169 170 176 182 188 192 194 196 196 196 195 195 196 196 197 195 195 195 192 190 181 109 9 0 0 0 0 0 0 0 0 0 0 0 0 0 0 0 0 0 0 0 0 0 0 0 0 0 0 0 0 0 0 0 0 0 0 0 0 0 0 0 0 0 0 0 0 0 0 0 0 0 0 0 0 2 0 0 0 0 0 0 0 0 0 0 0 0 0 0 0 0 0 0 0 0 0 0 0 0 0 0 0 1 0 0 1 0 0 0 0 0 0 0 0 0 0 0 0 0 0 0 1 2 0 2 1 2 0 0 1 0 0 0 0 1 1 3 1 2 2 2 2 2 3 2 3 2 3 2 3 3 2 3 5 4 4 4 2 4 3 6 5 5 4 5 4 4 4 
3 3 1 4 3 4 4 5 3 4 4 4 3 2 1 2 3 2 2 3 2 1 1 2 0 0 1 0 1 0 2 1 2 1 3 1 1 0 1 1 0 2 0 2 1 2 2 1 2 1 0 2 2 2 3 2 3 2 4 4 3 4 4 3 1 2 1 1 0 1 2 1 0 0 1 0 3 3 2 0 0 0 0 0 0 0 0 0 0 0 0 0 0 0 0 0 0 0 0 0 0 0 0 0 0 0 0 0 0 0 0 0 0 0 0 0 0 0 0 0 0 0 0 0 0 0 0 0 0 0 0 0 0 0 3 2 1 2 1 0 0 0 0 0 0 1 0 3 0 0 1 0 0 0 0 1 1 0 2 1 2 3 2 1 0 0 0 0 1 0 1 1 0 0 3 3 2 3 0 11 106 167 173 176 180 180 181 180 179 180 179 180 179 182 184 185 186 186 186 186 186 187 188 187 188 185 187 186 185 187 188 188 190 189 188 190 189 189 191 192 191 190 189 190 192 190 192 191 192 193 193 193 193 193 193 193 193 195 195 194 192 192 193 192 191 191 191 191 192 191 192 190 190 190 190 190 190 189 188 189 189 188 190 189 189 189 188 187 187 188 185 187 185 185 186 186 188 189 190 190 191 189 188 189 189 189 188 189 189 188 188 188 188 190 189 191 190 190 189 189 192 191 191 189 188 189 188 189 188 188 189 190 187 186 186 185 184 184 186 186 185 184 184 185 185 187 187 186 186 185 184 185 186 185 184 184 183 185 185 186 186 185 185 185 186 185 186 187 187 188 187 187 188 187 187 186 185 184 185 185 187 188 188 187 185 188 189 188 187 188 189 187 186 186 185 186 186 188 188 187 187 189 188 187 188 188 190 191 191 191 192 191 190 190 191 189 190 189 190 189 191 190 192 191 191 190 191 191 189 190 190 190 187 186 185 187 185 185 186 186 186 187 184 184 155 76 14 2 4 2 3 2 2 0 11 88 156 130 23 0 3 0 1 2 3 3 3 2 3 4 3 4 6 5 4 4 2 3 6 3 4 5 5 6 5 16 89 160 171 169 171 167 170 178 183 187 192 194 195 194 195 195 196 197 195 197 193 193 192 191 191 165 60 0 0 0 0 0 0 0 0 0 0 0 0 0 0 0 0 0 0 0 0 0 0 0 0 0 0 0 0 0 0 0 0 0 0 0 0 0 0 0 0 0 0 0 0 0 0 0 0 0 0 0 0 0 1 0 0 0 0 0 0 0 0 0 0 0 0 0 0 0 0 0 0 0 0 0 0 0 0 0 0 1 1 1 0 2 1 0 0 0 0 0 0 0 0 0 0 0 0 1 2 2 2 2 3 3 1 1 0 0 0 0 0 0 2 1 1 3 1 2 3 3 2 2 2 2 3 3 3 4 3 4 5 4 5 5 4 4 6 5 5 6 5 5 6 6 5 4 
2 3 3 4 4 3 5 4 4 3 3 4 3 2 1 2 3 2 2 1 1 1 2 0 0 0 0 0 0 1 1 3 2 2 3 1 3 2 1 0 0 0 0 1 0 0 0 0 1 2 2 3 3 2 2 3 2 4 5 4 2 3 3 3 1 1 1 1 1 0 0 0 0 0 0 1 3 3 1 0 0 0 0 0 0 0 0 0 0 0 0 0 0 0 0 0 0 0 0 0 0 0 0 0 0 0 0 0 0 0 0 0 0 0 0 0 0 0 0 0 0 0 0 0 0 0 0 0 0 0 0 0 0 0 1 0 2 0 0 0 0 0 0 0 1 1 1 2 1 0 2 1 0 0 2 0 0 1 2 2 2 3 1 3 1 0 0 1 2 1 1 1 1 1 3 1 4 3 1 11 104 166 175 175 179 180 182 181 180 180 181 181 179 182 183 184 186 185 186 187 187 186 187 187 187 185 187 187 186 187 186 188 188 188 188 189 189 189 191 191 190 191 190 191 191 192 192 190 191 194 193 191 193 192 194 194 192 194 194 194 192 191 191 192 191 192 192 193 190 191 191 191 190 191 190 190 188 188 188 188 189 188 187 187 188 189 187 187 186 187 187 186 185 186 185 185 187 189 189 188 188 188 187 187 188 189 191 190 190 188 189 190 187 187 189 189 189 189 189 189 191 190 190 190 188 187 186 187 188 188 187 188 187 185 185 185 183 184 186 186 185 184 185 186 185 186 186 187 185 186 185 185 186 185 185 186 184 185 186 187 186 185 185 185 184 186 186 186 186 186 188 187 186 187 187 187 188 187 187 186 187 188 188 187 185 187 187 186 187 189 187 187 184 186 186 186 188 188 188 189 187 188 188 187 188 189 189 190 190 191 192 191 191 191 191 192 191 190 190 190 191 192 191 191 193 191 191 190 189 190 189 189 188 187 187 188 187 185 185 185 185 185 185 183 156 73 11 1 1 2 0 0 1 0 10 91 155 120 14 0 2 1 0 4 2 4 1 2 3 4 2 4 5 4 5 3 4 4 4 2 4 5 4 6 6 41 132 168 170 170 170 168 174 178 183 187 189 192 193 193 194 194 193 196 196 195 193 193 192 189 187 135 25 0 2 0 0 0 0 0 0 0 0 0 0 0 0 0 0 0 0 0 0 0 0 0 0 0 0 0 0 0 0 0 0 0 0 0 0 0 0 0 0 0 0 0 0 0 0 0 0 0 0 0 1 1 2 0 0 0 0 0 0 0 0 0 0 2 0 1 0 0 0 0 0 0 0 0 0 0 2 0 0 0 1 1 3 3 1 0 0 0 0 0 0 0 0 0 0 0 1 0 3 2 3 3 3 1 0 0 0 0 0 1 1 1 1 2 1 2 2 2 2 1 2 2 2 3 3 3 3 3 5 4 5 3 4 5 4 3 5 6 6 6 6 6 5 4 5 3 
2 4 4 4 2 4 3 4 4 5 4 3 4 3 1 2 2 2 1 0 0 0 1 0 0 0 0 0 0 0 2 1 2 1 2 3 1 1 2 0 0 0 0 0 0 0 0 0 0 1 1 2 0 2 2 3 4 5 5 4 2 3 1 2 0 2 1 2 2 2 1 0 0 0 0 0 1 1 1 0 0 0 0 0 0 0 0 0 0 0 0 0 0 0 0 0 0 0 0 0 0 0 0 0 0 0 0 0 0 0 0 0 0 0 0 0 0 0 0 0 0 0 0 0 0 0 0 0 0 0 0 0 0 0 0 0 1 1 0 0 0 0 0 0 0 0 0 0 1 2 1 2 2 0 2 1 2 1 3 1 3 4 3 2 2 2 0 1 2 2 2 1 2 2 3 1 2 5 0 10 99 167 175 174 178 180 181 181 182 181 182 180 178 182 181 182 185 183 185 186 186 186 186 184 186 185 186 186 185 186 186 186 187 188 187 188 189 189 190 191 190 191 189 190 191 193 192 190 191 192 194 193 194 192 193 192 192 194 193 194 192 191 191 192 192 191 193 191 192 190 190 190 190 190 189 188 188 187 187 187 188 188 187 187 187 186 186 186 187 187 186 184 185 186 185 185 187 187 187 187 187 188 188 189 189 189 189 190 190 189 189 189 188 188 187 187 187 188 189 189 189 190 190 189 188 186 187 187 188 189 187 187 186 185 184 185 184 185 183 185 186 184 185 186 186 187 185 186 185 186 186 186 186 185 186 186 187 184 187 187 185 185 186 185 186 186 186 186 186 187 187 187 188 189 188 188 188 185 187 187 187 187 188 187 187 187 189 186 188 188 188 188 186 185 187 188 190 189 190 188 189 188 190 189 189 188 188 190 191 193 193 191 190 189 191 191 190 191 191 192 193 191 193 193 193 192 189 189 190 190 189 188 187 188 186 187 187 186 186 186 185 184 186 185 156 73 12 1 2 3 0 1 0 0 11 95 155 109 8 0 1 0 1 1 2 3 1 2 3 3 3 3 5 3 4 3 4 3 3 4 7 6 4 6 16 87 157 171 170 169 170 170 175 180 182 185 189 191 193 192 192 195 193 195 195 194 193 192 192 189 174 88 7 0 1 0 0 0 0 0 0 0 0 0 0 0 0 0 0 0 0 0 0 0 0 0 0 0 0 0 0 0 0 0 0 0 0 0 0 0 0 0 0 0 0 0 0 0 0 0 0 0 0 0 0 1 1 0 0 0 0 0 0 0 0 0 1 0 0 0 0 0 0 0 0 0 0 1 1 1 2 1 0 2 1 0 1 1 1 1 1 0 0 0 1 0 0 1 0 1 1 1 3 4 2 3 3 2 0 0 0 0 0 0 0 0 1 2 3 4 1 1 3 3 4 3 2 3 2 4 4 4 5 4 5 2 3 2 5 4 5 4 5 6 6 6 6 6 3 4 
3 3 4 5 3 3 1 4 4 5 2 3 4 4 3 4 4 2 1 0 0 0 0 0 0 0 0 0 0 0 1 0 0 2 1 3 1 0 1 0 0 0 0 0 0 0 0 0 0 0 1 1 2 2 3 3 3 4 4 3 4 2 2 1 1 2 0 1 2 1 1 0 0 0 0 0 1 0 1 0 0 0 0 0 0 0 0 0 0 0 0 0 0 0 0 0 0 0 0 0 0 0 0 0 0 0 0 0 0 0 0 0 0 0 0 0 0 0 0 0 0 0 0 0 0 0 0 0 0 0 0 0 0 0 0 0 0 0 0 0 0 0 0 0 0 0 0 1 1 1 1 2 2 3 1 2 2 3 4 4 3 3 4 3 3 3 2 2 3 3 3 3 4 2 3 2 3 7 4 12 96 164 174 174 177 179 180 179 180 184 181 181 179 181 182 182 185 183 184 185 186 186 184 184 186 186 186 186 186 185 186 187 187 189 187 190 188 189 189 190 189 189 189 188 191 193 191 189 191 191 191 192 193 193 193 191 192 193 190 192 192 191 191 190 191 191 191 191 191 189 189 190 190 190 189 188 188 188 189 187 187 187 188 187 186 186 187 185 185 185 184 184 184 186 187 187 188 189 186 187 187 187 189 189 189 189 190 190 189 189 189 187 187 188 188 186 185 187 186 188 189 188 188 187 186 186 185 185 187 187 187 185 184 186 183 184 184 184 184 185 186 186 187 186 186 186 186 187 186 186 185 186 186 186 187 186 186 185 187 186 186 187 186 185 186 186 187 187 188 186 187 186 186 188 186 187 186 185 187 188 188 188 187 187 186 187 186 187 187 188 187 187 188 186 189 188 189 190 191 188 188 190 189 189 188 189 190 189 191 191 191 190 190 190 191 192 191 192 193 192 193 193 195 193 193 192 190 191 190 190 189 188 186 188 186 187 187 187 188 186 186 187 187 183 156 77 15 2 1 1 0 1 0 0 16 109 155 94 4 0 2 0 1 1 2 2 1 2 2 2 2 4 4 3 2 3 3 3 4 6 5 5 5 7 52 135 168 170 169 168 170 171 178 180 185 186 190 190 192 191 190 193 192 194 195 194 194 193 190 189 152 45 0 1 2 0 0 0 0 0 0 0 0 0 0 0 0 0 0 0 0 0 0 0 0 0 0 0 0 0 0 0 0 0 0 0 0 0 0 0 0 0 0 0 0 0 0 0 0 0 0 0 0 0 2 2 0 0 0 0 0 0 0 0 2 1 0 0 0 0 0 0 0 1 0 0 1 1 3 2 2 1 0 2 1 2 2 2 1 1 1 0 0 1 0 1 0 2 1 0 1 1 2 3 3 2 2 1 0 0 0 0 0 0 0 0 1 2 3 4 2 1 2 2 3 3 4 3 3 3 4 5 3 4 4 3 2 2 3 6 5 4 5 6 6 5 5 5 5 4 
3 4 4 4 4 3 3 3 4 3 3 3 2 1 4 4 3 2 0 1 1 0 0 0 0 0 1 0 0 0 0 1 1 2 1 2 1 0 0 0 0 0 0 0 0 0 0 1 0 0 1 1 0 1 2 2 1 3 3 3 2 1 2 2 2 0 0 0 2 1 0 0 0 1 0 0 0 1 1 1 1 1 0 0 0 0 0 0 0 0 0 0 0 0 0 0 0 0 0 0 0 0 0 0 0 0 0 0 0 0 0 0 0 0 0 0 0 0 0 0 0 0 0 0 0 0 0 0 0 0 0 0 0 0 0 0 1 0 0 0 0 0 0 0 0 0 0 1 2 2 2 3 4 1 1 3 2 3 4 4 3 5 5 3 5 4 5 5 5 6 3 3 3 3 4 4 4 5 4 10 92 162 172 174 178 179 180 179 179 180 180 179 180 181 182 182 184 184 184 184 184 186 185 185 185 185 187 185 186 186 186 186 188 187 187 186 187 188 188 190 188 189 188 187 189 191 192 190 191 191 192 190 191 192 190 191 190 191 190 190 191 192 190 191 192 190 191 189 188 188 188 190 188 190 187 187 186 188 188 188 187 188 186 186 187 185 185 185 183 186 185 183 185 186 186 186 188 188 188 187 188 188 190 188 188 189 188 188 189 189 189 189 187 187 187 185 184 186 187 186 187 186 186 187 186 187 186 187 186 187 187 187 187 187 186 185 185 185 185 185 186 187 187 186 186 186 189 187 187 186 186 187 186 185 185 186 187 186 187 188 187 187 186 186 186 188 186 186 186 186 186 186 185 187 186 187 187 186 187 189 187 187 187 186 187 188 186 186 186 186 186 186 187 187 186 188 189 189 189 189 190 189 189 189 190 189 189 188 189 189 190 192 192 191 191 191 191 192 191 192 193 193 193 191 193 193 190 189 189 190 190 189 190 189 186 187 188 186 187 186 185 186 185 184 158 79 14 1 1 0 0 1 1 0 22 120 154 81 2 0 0 0 1 1 3 3 3 1 2 4 2 3 2 1 1 1 3 2 2 2 3 4 2 29 108 164 170 170 170 167 169 173 178 182 186 188 189 190 190 191 192 192 193 196 196 194 193 194 191 180 106 15 0 1 1 0 0 0 0 0 0 1 0 0 0 0 0 0 0 0 0 0 0 0 0 0 0 0 0 0 0 0 0 0 0 0 0 0 0 0 0 0 0 0 0 0 0 0 0 0 0 0 0 0 0 0 0 0 0 0 0 0 0 0 0 1 0 1 0 0 0 0 0 0 0 0 0 1 3 4 3 2 2 3 5 3 2 2 0 0 0 0 0 1 0 1 1 1 1 1 2 2 3 3 3 2 3 1 0 1 0 0 0 0 0 0 1 2 4 2 2 3 2 3 2 3 3 2 3 2 2 3 4 6 3 4 3 2 4 5 5 4 6 5 5 3 5 5 4 5 
3 4 3 4 4 4 4 5 3 5 4 3 2 2 4 3 3 1 0 1 0 1 0 0 0 0 0 0 0 0 1 0 1 1 1 0 0 0 0 0 0 0 1 0 0 0 0 0 0 0 0 0 0 0 1 2 1 2 1 3 1 0 2 1 1 1 1 0 1 0 0 0 0 0 0 0 0 1 1 1 0 1 0 0 0 0 0 0 0 0 0 0 0 0 0 0 0 0 0 0 0 0 0 0 0 0 0 0 0 0 0 0 0 0 0 0 0 0 0 0 0 0 0 0 0 0 0 0 0 0 0 0 0 0 0 0 1 0 0 0 0 0 0 0 0 0 0 1 2 3 2 1 1 3 2 2 4 4 4 5 4 6 6 5 5 6 4 4 4 6 4 2 4 3 4 4 5 4 3 10 90 160 173 174 178 176 178 177 179 179 180 178 179 180 181 183 183 184 185 186 186 186 183 184 185 185 185 185 184 186 185 187 186 188 187 188 187 188 188 188 188 186 188 188 189 190 190 191 191 191 192 191 190 189 191 190 187 190 191 191 191 191 190 189 190 190 189 189 187 188 189 189 188 188 186 186 185 187 189 186 186 186 187 188 187 186 184 187 185 185 185 185 186 186 187 187 186 187 186 187 187 187 188 187 187 187 187 186 187 187 188 187 185 186 187 186 185 185 186 187 186 186 188 186 187 187 187 187 186 188 187 187 188 187 187 186 184 184 186 184 185 186 187 187 187 187 188 188 188 187 187 187 186 187 186 187 188 188 187 188 188 187 186 188 187 188 189 188 187 186 187 187 186 187 186 187 185 185 186 186 186 186 187 188 187 187 186 188 186 187 188 186 186 187 188 188 188 191 189 190 190 192 191 191 190 190 189 189 190 189 190 191 192 192 193 191 192 192 193 192 192 193 193 193 193 191 191 189 189 190 190 191 189 188 187 186 186 186 189 187 185 186 186 181 157 85 14 0 1 0 1 1 1 1 32 131 152 63 1 0 0 1 3 1 4 3 2 1 4 4 2 2 2 2 2 2 0 0 1 2 3 1 15 79 152 170 169 169 167 166 170 174 180 182 187 189 190 191 191 193 192 192 195 196 196 193 194 193 190 147 47 0 0 1 1 0 0 0 0 0 0 0 0 0 0 0 0 0 0 0 0 0 0 0 0 0 0 0 0 0 0 0 0 0 0 0 0 0 0 0 0 0 0 0 0 0 0 0 0 0 0 0 0 0 0 0 0 0 0 0 0 0 0 0 1 1 1 2 1 0 0 0 0 0 0 0 1 0 2 3 3 3 3 3 4 2 2 1 1 0 0 0 0 0 0 1 0 0 2 2 1 3 2 3 1 2 2 1 1 0 1 0 0 0 0 2 2 1 3 3 2 1 2 2 4 2 2 3 5 3 3 3 4 5 4 4 3 4 5 5 5 5 5 5 3 5 5 5 5 5 
4 3 4 3 6 5 5 3 4 4 4 2 3 2 2 2 3 1 0 0 1 0 0 0 0 0 0 0 0 0 0 0 0 0 1 3 1 0 0 0 0 0 0 0 0 0 0 0 0 0 0 0 0 1 2 1 2 0 0 1 0 0 0 0 0 0 0 1 1 0 1 0 0 0 0 0 0 0 0 1 0 0 0 0 0 0 0 0 0 0 0 0 0 0 0 0 0 0 0 0 0 0 0 0 0 0 0 0 0 0 0 0 0 0 0 0 0 0 0 0 0 0 0 0 0 0 0 0 0 0 0 0 0 0 0 0 0 1 1 0 0 0 0 0 0 0 0 0 2 2 1 1 2 3 4 1 3 5 5 5 5 6 6 6 7 7 4 4 5 5 4 3 3 5 4 4 4 5 3 10 82 158 170 173 176 176 176 177 179 181 179 179 179 178 181 181 184 184 186 186 185 186 185 184 186 185 186 185 185 186 186 187 186 188 186 187 187 187 185 187 187 188 187 188 188 189 190 190 190 191 191 190 191 190 191 189 189 190 190 190 189 189 189 189 189 188 189 189 188 187 187 188 188 185 185 184 187 188 187 185 186 187 188 188 187 187 186 186 185 186 186 185 187 188 187 187 187 188 187 187 187 187 189 188 186 187 186 185 185 187 185 185 186 186 185 185 184 186 185 186 185 187 185 186 187 186 185 185 187 188 187 188 188 186 186 186 184 185 185 186 188 186 186 187 187 188 188 189 189 189 188 189 189 188 187 187 186 186 188 187 186 187 187 188 188 188 188 189 187 187 186 187 186 186 185 184 186 186 186 186 185 186 188 186 186 187 187 188 187 188 188 188 187 187 187 187 188 189 191 190 190 190 191 189 190 190 190 190 189 190 192 192 192 193 193 192 194 193 193 193 191 194 193 193 194 192 192 191 191 190 191 191 190 189 187 187 187 186 185 186 184 186 183 182 157 85 12 0 2 1 2 2 2 1 39 138 148 48 0 1 0 1 2 2 3 4 1 2 1 3 3 2 2 1 0 0 0 1 1 1 1 8 59 134 169 169 169 169 167 168 171 175 180 183 186 189 191 190 191 193 193 193 194 196 196 192 191 191 172 89 10 0 0 0 0 0 0 0 0 0 0 0 0 0 0 0 0 0 0 0 0 0 0 0 0 0 0 0 0 0 0 0 0 0 0 0 0 0 0 0 0 0 0 0 0 0 0 0 0 0 0 0 0 0 0 0 0 0 0 0 0 1 1 2 0 1 1 1 2 1 0 0 0 0 0 0 2 1 2 4 4 3 3 4 4 3 1 2 1 0 0 0 0 0 0 1 2 1 2 0 0 1 1 0 1 0 2 0 0 0 1 0 1 0 0 2 2 1 1 1 1 1 2 1 3 4 2 3 4 5 4 3 4 4 4 5 5 5 5 4 4 5 5 5 5 5 5 5 4 5 
4 4 3 3 5 3 4 5 4 2 1 3 2 1 2 2 1 1 0 0 0 0 0 0 0 0 0 0 0 0 0 0 0 0 1 2 0 0 0 0 0 0 0 0 0 0 0 0 0 0 0 0 2 2 3 3 2 3 2 0 0 0 0 0 0 0 0 1 1 1 0 2 0 0 0 0 0 0 1 1 0 0 0 0 0 0 0 0 0 0 0 0 0 0 0 0 0 0 0 0 0 0 0 0 0 0 0 0 0 0 0 0 0 0 0 0 0 0 0 0 0 0 0 0 0 0 0 0 0 0 0 0 0 0 0 0 0 1 2 1 1 0 0 1 0 0 1 1 4 1 2 2 2 3 4 4 4 5 6 6 5 7 7 7 6 5 3 6 4 4 4 4 3 4 3 4 3 5 4 8 65 150 171 173 173 176 176 176 179 179 178 177 180 179 180 180 182 182 184 186 185 183 183 184 185 184 184 184 183 185 185 184 185 185 186 186 184 185 187 187 186 186 187 187 188 188 190 189 188 189 189 191 190 190 189 187 188 189 189 188 188 187 188 188 188 188 188 187 186 184 186 187 185 183 186 184 187 187 187 188 186 187 188 187 187 185 185 184 186 186 188 187 186 186 187 186 188 187 186 186 186 186 185 187 186 185 186 185 185 186 186 186 184 185 185 185 185 186 187 185 186 185 186 186 186 184 186 186 187 189 188 187 187 185 185 185 186 184 185 186 186 186 188 186 187 188 189 190 190 190 189 190 188 187 187 188 186 187 187 187 187 186 187 188 189 188 191 189 188 188 187 187 187 187 185 186 185 187 187 187 186 186 186 187 187 186 187 188 187 188 188 187 186 186 186 187 189 189 190 190 191 190 191 191 191 191 190 191 191 190 192 191 192 193 193 193 193 192 193 193 195 193 192 194 194 191 192 190 191 190 191 190 191 189 189 188 186 186 185 184 184 184 183 181 157 81 11 0 1 2 3 2 1 1 54 147 144 40 2 0 0 1 2 1 1 1 0 0 1 1 2 1 1 1 0 0 0 0 1 1 4 48 123 165 168 169 169 169 166 170 173 178 181 184 188 189 191 190 191 191 193 194 194 193 192 191 188 186 129 31 0 0 0 0 0 0 0 0 0 0 0 0 0 0 0 0 0 0 0 0 0 0 0 0 0 0 0 0 0 0 0 0 0 0 0 0 0 0 0 0 0 0 0 0 0 0 0 0 0 0 0 0 0 0 0 0 0 0 0 0 1 2 1 1 1 1 0 1 1 2 0 0 1 2 2 2 4 3 3 4 5 4 3 3 4 1 2 1 1 2 0 0 1 0 0 0 0 1 1 0 1 0 3 1 1 2 1 0 0 0 0 1 0 2 1 1 1 3 1 2 2 2 1 1 3 3 2 3 3 4 4 4 3 4 4 5 5 6 5 4 4 5 6 6 4 4 6 5 4 3 
3 4 3 4 4 3 4 3 2 1 1 3 3 2 1 1 2 0 0 0 0 0 0 0 0 0 0 0 0 0 0 0 1 0 0 0 0 1 0 0 0 0 0 0 0 0 0 0 0 0 0 0 1 1 2 2 3 1 0 0 0 0 0 0 0 0 0 1 0 0 0 0 0 0 0 0 0 0 0 0 0 0 0 0 0 0 0 0 0 0 0 0 0 0 0 0 0 0 0 0 0 0 0 0 1 0 0 0 0 0 0 0 0 0 0 0 0 0 0 0 0 0 0 0 0 0 0 0 0 0 0 0 0 0 0 0 0 1 2 1 0 0 0 0 1 1 1 1 1 2 2 4 3 4 4 4 3 6 7 8 7 8 6 7 6 4 3 5 4 5 5 4 5 2 5 4 4 6 6 5 43 140 168 171 174 176 175 177 177 179 178 177 178 180 179 180 180 182 182 183 184 185 184 184 184 184 183 183 183 185 185 185 185 185 185 185 183 184 185 184 186 188 188 188 188 188 190 187 186 189 189 190 189 190 188 188 189 189 187 187 188 186 187 187 186 187 186 186 186 185 184 186 185 185 186 186 186 187 187 188 188 187 187 187 187 187 184 184 183 185 189 187 185 187 188 188 188 186 185 187 186 185 185 185 185 186 187 186 186 186 185 184 184 184 185 185 185 186 186 186 186 186 186 186 186 187 186 186 185 186 187 187 186 186 186 187 185 185 184 185 187 188 187 188 188 188 189 189 189 190 188 190 189 188 188 187 186 186 187 185 186 187 189 189 189 189 190 190 188 187 186 186 188 187 186 186 186 186 186 185 186 184 186 186 186 187 187 187 186 187 188 187 186 188 187 187 187 189 190 189 191 190 190 190 192 190 192 192 191 192 193 193 193 194 194 194 193 193 192 192 193 194 195 193 194 193 192 190 191 191 190 191 191 189 189 188 187 187 186 187 185 185 184 181 155 72 8 0 2 2 2 1 0 5 73 156 137 31 0 0 1 1 2 1 0 0 0 0 1 2 3 2 2 2 2 0 0 0 1 2 40 114 162 167 169 169 167 167 165 171 175 180 182 185 187 190 191 191 191 191 192 194 193 192 191 189 189 158 63 3 2 0 0 0 0 0 0 0 0 0 0 0 0 0 0 0 0 0 0 0 0 0 0 0 0 0 0 0 0 0 0 0 0 0 0 0 0 0 0 0 0 0 0 0 0 0 0 0 0 0 0 0 0 0 0 0 0 0 0 0 1 2 1 3 1 1 1 1 1 1 1 0 1 2 2 2 2 4 4 4 5 3 3 2 2 1 0 1 2 2 1 1 2 0 0 1 0 0 2 0 0 0 3 3 2 2 2 0 1 0 1 1 0 1 1 2 1 1 1 2 0 0 2 0 2 3 2 2 3 3 5 4 3 4 4 5 4 5 5 5 4 5 5 4 2 2 5 4 4 3 
3 3 3 4 4 5 3 2 2 2 2 3 2 1 1 2 1 1 0 0 0 0 0 0 0 0 0 0 0 0 0 0 0 0 0 0 0 0 0 0 0 0 0 0 0 0 0 0 0 0 0 0 1 1 3 2 2 2 0 0 0 0 0 0 0 0 0 0 0 0 0 0 0 0 0 0 0 0 1 0 0 0 0 0 0 0 0 0 0 0 0 1 0 0 0 0 0 0 0 0 0 0 0 0 0 0 0 0 0 0 0 0 0 0 0 0 0 0 0 0 0 0 0 0 0 0 0 0 0 0 0 0 0 0 0 2 1 0 1 1 0 0 0 0 0 0 1 1 2 2 4 4 2 1 3 3 4 6 8 6 6 7 6 5 6 5 3 4 5 5 5 4 3 3 6 4 4 5 6 4 26 126 166 171 174 176 176 177 177 177 177 178 178 179 180 179 180 180 180 181 183 181 182 185 184 183 183 184 184 184 185 185 185 185 186 185 185 182 184 184 186 187 188 187 186 189 188 187 187 187 188 187 188 188 189 188 187 187 187 186 186 186 187 188 187 186 185 186 185 185 186 187 186 185 186 187 185 186 187 187 188 188 189 188 187 188 186 185 184 183 185 186 186 186 187 186 186 187 186 185 186 186 185 185 186 187 187 186 186 186 186 183 184 184 184 182 184 187 187 185 185 186 185 187 186 186 186 185 188 188 187 186 186 187 185 185 184 184 185 184 188 187 187 189 189 190 190 189 190 190 190 190 189 189 188 187 187 186 188 188 187 187 186 186 189 190 189 190 188 188 187 187 187 187 186 186 186 186 185 184 185 185 185 185 186 186 186 185 186 187 188 188 186 187 187 187 188 188 188 189 190 192 191 190 191 192 193 194 193 193 194 192 191 194 193 194 193 192 193 192 193 194 194 193 193 194 192 191 191 191 190 191 191 190 191 190 189 188 187 187 187 184 184 181 152 60 5 2 3 3 1 2 1 9 86 156 120 16 0 0 1 1 1 1 0 0 0 0 0 1 2 2 3 1 3 0 1 2 0 30 103 155 168 169 168 167 167 165 169 171 177 181 182 186 188 188 190 188 191 192 191 192 192 191 188 188 177 105 16 0 3 0 0 0 0 0 0 0 0 0 0 0 0 0 0 0 0 0 0 0 0 0 0 0 0 0 0 0 0 0 0 0 0 0 0 0 0 0 0 0 0 0 0 0 0 0 0 0 0 0 0 0 0 1 1 0 0 0 0 0 0 1 0 1 2 4 4 2 2 0 0 1 0 1 1 1 1 2 4 3 3 4 4 4 3 2 2 1 2 2 1 2 1 1 1 1 1 1 2 1 1 0 1 2 3 2 2 2 2 0 0 2 1 1 2 1 2 1 2 2 3 1 3 0 0 2 2 2 3 3 5 4 3 4 5 5 6 5 3 6 4 6 4 4 5 2 3 4 3 4 
2 4 3 3 4 2 3 4 3 2 3 2 1 1 1 2 2 3 1 0 1 0 0 0 0 0 0 0 0 1 0 0 0 0 0 0 0 0 0 0 0 0 0 0 0 0 0 0 0 0 0 0 0 0 1 1 1 2 0 0 0 0 0 0 0 0 0 0 0 0 0 0 0 0 0 0 0 0 1 1 0 1 1 0 0 0 0 0 0 0 0 2 0 0 0 0 0 0 0 0 0 0 0 0 0 0 0 0 0 0 0 0 0 0 0 0 1 1 0 0 0 0 0 0 0 0 0 0 0 0 0 0 0 0 0 1 0 0 1 1 0 0 0 0 0 0 0 0 2 2 2 3 3 4 4 5 6 6 6 6 6 6 5 5 6 4 2 4 5 4 1 3 5 4 3 4 5 6 5 4 16 106 164 171 172 174 175 174 176 177 177 178 179 178 178 179 179 181 181 181 182 183 183 184 184 182 183 184 183 184 183 184 185 184 184 183 184 182 184 184 186 185 185 187 186 186 185 186 185 186 187 187 187 188 187 185 185 186 186 185 185 185 185 185 186 187 187 187 186 185 186 186 187 187 187 187 187 185 186 187 188 188 189 187 188 187 186 186 185 184 186 186 185 185 185 185 185 186 186 186 187 186 187 185 186 187 187 187 185 184 184 183 182 182 182 182 184 185 186 185 187 185 185 185 186 185 186 185 186 186 186 185 187 185 185 185 186 184 184 186 187 189 188 188 191 189 190 190 192 190 190 188 190 187 189 188 188 188 189 188 186 185 188 188 189 189 190 191 188 186 186 186 187 187 185 186 186 186 185 183 186 186 186 187 188 187 185 186 186 186 188 186 187 188 188 189 189 189 189 191 191 191 191 191 191 191 191 193 193 192 192 192 191 193 194 194 192 193 193 192 193 194 193 191 191 191 193 191 192 191 190 188 189 189 188 190 188 187 186 186 187 184 184 184 150 54 4 3 5 4 2 3 0 13 102 154 97 8 0 0 0 0 1 0 0 0 0 0 0 0 0 1 0 1 1 1 3 0 27 93 152 167 170 167 166 164 164 164 171 174 179 180 183 186 188 190 190 189 191 192 192 191 191 190 188 184 141 44 0 2 1 0 0 0 1 0 0 0 0 0 0 0 1 0 0 0 0 0 0 0 0 0 0 0 0 0 0 0 0 0 0 0 0 0 0 0 0 0 0 0 0 0 0 0 0 0 0 0 0 0 0 0 0 0 0 0 0 0 0 1 1 1 0 2 4 4 3 4 2 1 1 0 1 1 0 1 0 0 2 3 4 3 4 6 4 3 2 2 2 1 2 2 1 0 2 1 2 1 3 2 2 2 2 2 4 2 3 1 0 0 0 0 0 1 1 0 1 2 2 5 4 2 3 0 2 2 3 3 3 3 4 2 5 4 4 5 6 6 5 6 5 4 4 3 4 2 4 3 3 3 
1 2 2 3 3 3 3 2 3 3 2 1 1 2 2 1 2 2 0 0 0 0 0 0 0 0 0 0 1 1 2 2 1 0 0 0 0 0 0 0 0 0 0 0 0 0 0 0 0 0 0 0 0 0 0 0 1 0 0 0 0 0 0 0 0 0 0 0 0 0 0 0 0 0 0 0 0 0 2 2 1 0 0 0 0 1 0 0 0 0 0 1 0 0 0 0 0 0 0 1 1 0 0 0 0 0 0 0 0 0 0 1 0 0 0 0 0 0 0 0 0 0 0 0 0 0 0 0 0 0 0 0 0 0 0 0 0 0 0 1 0 0 0 0 0 0 0 1 2 2 3 3 4 5 5 7 7 7 6 7 7 6 6 6 5 4 3 2 3 3 3 3 4 4 3 3 4 6 7 4 10 81 156 170 172 174 174 173 174 176 176 177 177 178 179 178 180 181 182 182 182 182 183 184 183 183 180 183 185 183 183 184 186 185 184 183 183 183 181 183 185 184 186 187 185 186 184 185 185 184 185 186 186 187 187 185 184 186 186 184 184 186 184 184 186 188 188 188 186 186 186 186 186 185 186 186 185 184 188 187 186 187 188 187 187 186 187 183 183 185 186 185 185 185 184 184 184 185 186 188 187 188 187 185 187 187 188 185 184 184 184 182 181 181 181 182 183 184 184 185 185 185 186 186 188 187 185 185 184 185 185 185 187 187 187 186 185 184 186 186 189 188 190 190 190 190 191 191 192 191 191 191 191 190 190 190 190 189 189 188 186 187 187 189 189 188 189 189 188 186 187 187 188 186 186 186 185 185 185 185 186 186 186 187 190 189 188 188 188 187 188 187 187 190 188 188 190 190 190 190 193 192 193 193 191 192 192 191 191 192 191 192 192 193 193 192 191 192 192 191 193 192 192 191 191 191 191 192 191 189 190 190 189 189 189 189 188 187 186 186 186 186 186 184 150 58 7 3 4 2 1 2 0 18 113 152 74 4 0 1 0 0 0 0 0 1 0 0 0 0 1 1 0 2 2 2 2 31 95 150 165 167 167 167 165 163 162 166 170 175 179 181 183 185 187 189 187 189 190 191 189 189 189 187 186 161 77 9 0 1 1 0 0 1 2 0 0 1 0 0 0 0 0 1 0 0 0 0 0 0 0 0 0 0 0 0 0 0 0 0 0 0 0 0 0 0 0 0 0 0 0 0 0 0 0 0 0 0 0 0 0 0 0 0 1 0 2 2 0 0 1 3 1 2 3 4 2 2 1 0 1 1 1 2 0 0 1 1 3 3 5 6 5 5 5 5 4 1 4 5 2 2 2 0 2 3 3 2 2 5 3 2 2 1 2 2 2 1 0 0 0 1 0 0 1 2 2 3 2 3 3 3 3 2 2 2 3 3 3 2 2 3 5 3 4 5 5 5 5 5 4 3 2 3 2 2 1 4 3 2 
0 1 1 4 4 4 2 3 3 3 3 2 0 2 0 1 3 2 0 1 0 0 0 0 0 0 1 0 0 1 1 2 2 1 1 1 0 0 0 0 0 0 0 0 0 0 0 0 0 0 0 0 0 0 0 0 0 0 0 0 0 0 0 0 0 0 0 0 0 0 0 0 0 0 0 0 0 2 1 3 2 2 1 0 1 0 0 1 1 1 0 1 0 0 0 0 2 1 2 1 1 1 0 0 0 0 0 0 2 1 0 1 0 0 1 0 0 0 0 0 0 0 0 0 0 0 0 0 0 0 0 0 0 0 0 0 0 0 0 0 0 0 0 0 0 0 1 2 4 4 4 4 3 6 5 7 7 6 6 7 7 8 6 5 4 5 2 1 2 4 3 4 3 3 5 4 3 4 6 5 7 56 146 169 170 172 173 172 175 174 176 175 177 177 178 180 182 182 182 183 183 183 183 184 183 182 181 183 183 183 184 185 185 186 184 183 184 181 181 183 184 183 185 184 184 184 184 184 182 183 183 185 184 186 185 185 185 185 183 185 184 185 185 186 187 188 187 187 186 185 186 186 186 186 186 185 186 187 186 186 185 186 188 187 187 185 184 185 184 186 185 185 184 185 184 184 184 185 186 187 187 189 188 187 188 185 185 184 183 183 181 181 180 180 180 182 184 183 183 184 185 185 185 185 185 186 184 185 185 184 184 183 185 187 187 187 187 185 185 187 190 189 190 189 189 191 192 193 192 193 193 192 192 192 191 189 188 189 190 188 188 187 186 187 188 189 188 188 186 187 187 187 187 187 187 186 186 187 186 186 185 186 186 187 190 189 188 188 187 189 190 189 189 190 189 189 189 190 190 191 191 192 191 191 190 189 190 191 193 193 192 191 192 191 192 193 192 192 191 190 193 194 192 193 194 192 194 192 190 191 191 189 190 189 189 191 187 187 186 187 187 186 186 182 142 46 4 3 2 1 0 1 0 31 127 144 52 0 0 1 0 0 0 0 0 0 0 0 0 0 2 0 1 4 2 2 39 101 151 164 163 167 166 165 164 163 164 168 170 175 179 182 181 185 187 188 187 188 189 189 189 189 188 185 178 113 23 0 3 1 1 0 0 0 2 0 1 2 2 1 0 1 0 0 0 0 0 0 0 0 0 0 0 0 0 0 0 0 0 0 0 0 0 0 0 0 0 0 0 0 0 0 0 0 0 0 0 0 0 0 0 0 0 1 1 0 1 0 1 1 2 1 1 1 1 2 2 1 1 0 0 0 2 1 1 1 2 2 2 3 3 4 4 5 4 5 4 3 5 5 3 3 1 1 2 2 2 2 3 3 4 3 1 0 1 1 3 3 3 0 0 0 0 1 1 2 1 0 2 3 4 4 2 3 2 1 3 4 4 3 3 4 3 5 4 5 4 5 5 5 3 4 3 2 1 0 3 2 2 2 
3 1 1 3 2 5 2 2 3 3 2 0 2 1 2 2 3 0 0 0 0 0 0 0 0 0 0 0 0 0 0 1 0 0 0 0 0 0 0 0 0 0 0 0 0 0 0 0 0 0 0 0 0 0 0 0 0 0 0 0 0 0 0 0 0 0 0 0 0 0 0 0 0 0 0 0 0 1 1 3 2 1 0 1 0 0 1 1 1 2 2 1 0 0 0 1 1 2 2 3 2 2 1 0 0 0 0 1 1 0 0 0 0 0 0 0 0 0 0 0 0 0 0 0 0 0 0 0 0 0 0 0 0 1 0 0 0 0 0 0 0 0 0 0 1 2 3 2 3 3 3 4 3 4 7 5 7 8 7 8 8 6 5 5 4 3 1 2 2 2 1 3 4 4 4 4 4 5 5 7 4 37 130 166 168 170 171 171 174 174 176 175 176 179 178 180 181 182 183 182 183 182 183 184 182 182 182 182 184 184 183 182 182 184 183 183 182 181 182 182 183 182 184 184 184 184 185 184 182 183 183 184 184 184 184 184 183 182 183 183 184 184 185 185 184 187 186 187 187 184 183 184 185 186 186 186 187 187 186 186 186 187 187 187 186 186 186 186 185 185 185 185 185 184 184 184 184 185 185 186 187 188 187 187 187 184 185 183 182 181 181 182 180 182 181 182 183 184 184 184 184 185 186 185 185 185 186 186 186 186 185 185 187 187 187 187 188 188 187 187 190 189 188 191 191 191 192 191 191 192 193 191 192 191 189 189 190 189 188 189 187 187 187 187 187 188 189 187 187 186 187 186 186 188 188 188 187 187 187 185 186 185 186 186 188 188 188 188 188 189 190 189 190 189 190 189 190 190 191 192 190 192 191 192 191 190 190 191 191 193 190 191 189 192 191 191 191 193 192 192 194 194 194 193 194 193 193 192 191 191 190 190 190 189 190 189 188 187 186 184 186 184 186 182 132 31 2 3 2 1 1 0 1 45 139 136 32 0 1 0 0 0 0 0 0 0 0 0 0 0 0 2 1 0 4 46 112 153 163 161 163 165 165 162 162 163 167 170 174 177 181 181 183 185 186 186 186 189 188 187 187 187 184 182 139 47 0 1 2 3 1 0 1 0 2 2 2 3 3 1 1 2 1 0 0 0 0 0 0 0 0 0 0 0 0 0 0 0 0 0 0 0 0 0 0 0 0 0 0 0 0 0 0 0 0 0 0 0 0 0 0 0 0 0 0 0 1 0 0 0 1 2 1 1 2 2 2 1 1 0 2 2 2 1 3 2 2 2 3 4 4 3 3 4 5 5 3 4 5 4 4 4 3 2 2 2 1 1 2 3 3 2 2 1 1 3 3 2 1 0 1 0 0 0 1 2 2 1 2 3 3 2 3 3 3 3 3 3 4 4 3 3 2 4 3 4 4 4 5 4 2 1 3 1 0 1 2 1 1 1 
3 3 1 1 2 4 2 2 5 3 1 2 1 0 2 2 2 1 0 0 0 0 0 0 0 0 0 0 0 2 0 0 0 0 0 0 0 0 0 0 0 0 0 0 0 0 0 0 0 0 0 0 0 0 0 0 0 0 0 0 0 0 0 0 0 0 0 0 0 0 0 0 0 0 0 0 0 0 2 2 3 1 1 1 0 1 0 2 2 2 1 0 2 0 1 0 2 4 4 4 3 3 2 1 0 0 0 1 1 1 0 0 0 0 0 0 0 0 0 0 0 0 0 0 0 0 0 0 0 0 0 0 0 0 0 0 0 0 0 0 1 0 0 0 1 1 2 3 3 4 3 3 3 5 4 5 5 6 6 7 7 7 7 5 4 3 2 1 3 4 3 6 3 4 6 5 4 4 5 7 4 18 105 160 167 168 169 171 173 174 175 175 176 178 181 181 181 180 181 184 181 181 182 183 183 182 184 182 183 182 181 181 184 182 180 181 182 180 181 182 182 182 183 183 183 182 183 183 182 182 182 183 183 184 184 183 182 181 182 182 182 183 183 183 184 186 186 185 185 184 183 184 183 184 187 187 187 187 187 187 187 187 188 188 185 185 184 185 185 186 185 186 186 184 184 184 185 184 185 186 186 186 187 187 185 183 183 184 183 183 181 181 182 182 183 182 182 184 184 184 185 185 184 186 186 187 187 187 187 186 186 186 186 187 187 188 189 188 188 188 190 190 190 191 192 192 192 193 191 190 191 192 191 191 188 189 189 189 190 189 186 187 188 188 189 189 189 188 187 187 186 187 187 188 187 188 188 187 187 189 188 188 187 187 188 188 188 189 187 188 189 189 189 188 189 190 190 190 190 190 192 192 192 190 190 190 189 190 190 190 189 190 190 190 191 192 191 191 192 194 193 193 193 192 192 192 193 193 190 191 192 191 189 188 188 188 187 186 185 185 185 185 185 179 124 24 3 5 3 2 1 1 1 68 151 121 17 0 0 0 1 0 0 0 0 0 0 0 1 0 1 0 0 7 53 119 156 162 162 164 164 164 163 163 162 166 170 173 177 181 181 182 183 185 187 185 187 189 188 188 185 183 184 152 72 6 0 1 1 2 1 1 1 1 3 1 2 2 1 1 0 0 0 0 0 0 0 0 0 0 0 0 0 0 0 0 0 0 0 0 0 0 0 0 0 0 0 0 0 0 0 0 0 0 0 0 0 0 0 0 0 0 0 0 0 0 0 1 0 1 0 0 1 1 2 3 2 2 1 0 1 4 3 3 2 2 3 3 3 4 5 4 5 3 3 4 4 3 4 3 4 4 2 0 1 1 0 1 1 2 3 2 2 1 2 2 2 4 2 1 2 0 1 1 1 2 2 2 2 1 3 2 2 3 2 2 2 2 3 3 2 3 2 2 3 2 2 3 5 2 1 1 2 1 0 0 1 2 2 3 
3 3 3 3 3 3 3 2 2 3 1 1 1 2 3 1 2 1 0 0 0 0 0 0 0 0 0 0 0 0 0 1 0 0 0 0 0 0 0 0 0 0 0 0 0 0 0 0 0 0 0 0 0 0 0 0 0 0 0 0 0 0 0 0 0 0 0 0 0 0 0 0 0 0 0 0 0 0 2 1 1 1 3 2 1 0 0 1 1 2 1 0 0 0 1 0 2 4 4 3 2 3 3 1 0 0 0 0 0 0 2 0 0 0 0 0 0 0 0 0 0 0 0 0 0 0 0 0 0 0 0 0 0 0 0 0 1 0 2 1 0 0 0 0 0 1 2 1 2 2 3 3 3 5 5 5 4 7 5 5 6 7 5 4 5 3 2 3 2 5 6 6 5 5 4 5 5 3 5 5 5 9 76 150 166 166 169 169 171 173 174 175 176 179 180 181 182 180 182 182 181 181 181 182 182 182 185 182 182 181 184 183 181 181 181 180 181 180 179 182 181 182 181 181 182 180 181 181 183 182 184 182 184 184 183 182 179 182 182 180 181 182 181 180 182 185 185 186 186 184 182 183 184 185 186 186 187 187 188 188 187 187 186 185 186 185 184 185 184 185 184 184 185 184 185 185 185 186 184 185 184 185 184 183 184 183 184 183 182 181 181 180 180 182 182 183 183 185 185 185 185 185 185 185 187 187 186 186 185 186 186 186 186 187 188 187 187 187 187 187 189 190 191 192 194 192 192 192 191 191 191 190 190 190 190 188 187 188 188 189 187 188 188 189 189 191 190 189 188 188 188 187 187 187 188 187 188 189 188 188 188 187 189 189 187 187 187 187 186 188 189 189 189 187 187 189 190 191 189 191 189 191 190 189 189 189 189 191 190 190 190 190 190 191 190 192 191 191 190 193 193 192 193 193 192 192 190 192 191 191 191 192 188 186 187 187 184 184 183 183 184 186 187 179 121 26 6 5 2 3 2 0 8 97 153 93 7 0 1 0 0 0 0 0 0 0 0 0 0 0 0 0 19 76 130 159 162 163 164 163 164 163 163 164 166 170 172 176 180 180 182 183 184 185 186 188 189 189 187 188 184 184 158 83 13 0 0 1 2 3 2 3 2 0 2 1 2 1 1 1 1 0 0 0 0 0 0 0 0 0 0 0 0 0 0 0 0 0 0 0 0 0 0 0 0 0 0 0 0 0 0 0 0 0 0 0 0 0 0 0 0 0 0 0 0 0 0 1 0 1 1 1 1 1 0 2 3 2 3 2 3 3 5 3 4 3 3 3 4 6 5 5 4 4 4 4 4 4 3 4 3 2 1 0 0 0 1 0 0 2 1 2 3 4 2 4 3 3 2 1 2 3 3 1 3 2 3 3 2 2 3 1 1 2 1 2 2 2 1 1 0 2 3 2 2 2 1 4 2 2 2 3 1 0 0 0 1 1 3 2 
2 3 3 4 4 1 2 2 1 1 1 1 1 2 2 2 2 1 0 0 0 0 0 0 0 0 0 0 1 1 0 0 0 0 0 0 0 0 0 0 0 0 0 0 0 0 0 0 0 0 0 0 0 0 0 0 0 0 0 0 0 0 0 0 0 0 0 0 0 0 0 0 0 0 0 0 0 0 2 3 3 2 3 2 1 1 0 0 1 2 1 1 0 1 1 2 2 3 2 3 2 1 2 2 0 0 0 0 0 0 0 0 0 0 0 0 0 0 0 0 0 0 0 0 0 0 0 0 0 0 0 0 0 0 0 0 0 1 1 1 1 1 0 0 0 2 2 1 2 3 4 4 3 3 5 3 4 6 6 4 5 3 3 3 4 5 3 3 3 5 5 6 6 7 6 4 3 2 5 4 4 5 45 135 164 165 167 170 170 172 173 175 176 179 180 181 181 181 181 181 182 181 181 181 180 181 181 183 181 181 182 181 181 180 179 181 180 179 180 180 180 181 179 180 182 180 179 181 182 181 181 183 184 183 181 182 180 181 181 181 182 182 181 180 182 183 183 184 186 183 182 184 185 186 185 185 186 187 187 185 187 186 187 188 186 185 186 187 185 186 185 183 184 186 184 184 185 185 184 185 185 183 184 183 184 183 184 182 182 183 180 181 182 182 181 183 183 185 184 186 186 186 186 186 187 188 186 185 187 186 186 186 186 186 187 187 188 188 187 188 190 191 192 193 193 191 192 192 191 191 189 189 189 189 190 188 187 188 189 187 188 189 189 188 190 190 190 189 189 188 187 188 189 188 188 188 189 189 189 188 189 189 189 187 187 188 187 188 188 187 187 187 186 187 187 189 191 191 190 189 188 190 189 189 190 190 189 191 191 191 191 190 190 190 192 190 189 190 191 191 191 191 192 192 191 191 191 191 190 190 190 190 188 186 187 186 187 185 184 184 186 186 187 177 106 18 4 6 5 3 2 0 26 127 144 53 3 0 1 0 0 0 0 0 0 0 0 0 0 0 6 45 99 144 160 164 163 164 162 163 163 163 162 165 170 172 176 178 179 180 182 182 184 184 186 187 188 187 188 185 184 164 88 17 0 0 0 0 1 2 2 3 2 1 3 1 2 0 0 1 0 0 0 0 0 2 0 0 1 1 0 1 1 1 0 0 0 0 0 0 0 0 0 0 0 0 0 0 0 0 0 0 0 0 0 0 0 0 0 0 0 0 0 0 0 0 0 0 1 3 1 0 2 0 1 2 2 2 1 1 2 3 4 3 3 3 2 3 4 6 4 4 4 3 4 4 5 4 4 4 3 1 0 0 1 2 1 1 2 3 3 4 3 3 5 3 4 3 4 3 4 3 2 3 4 4 3 1 3 3 0 0 0 1 1 2 2 1 3 2 2 2 2 1 2 2 1 3 2 2 2 2 1 1 0 2 2 2 1 0 
3 3 2 3 3 1 3 2 0 2 0 0 3 1 2 1 2 1 0 0 0 1 0 0 0 0 0 0 1 0 0 0 0 0 2 0 0 0 0 0 0 0 0 0 0 0 0 0 0 0 0 0 0 0 0 0 0 0 0 0 0 0 0 0 0 0 0 0 0 0 0 0 0 0 0 0 0 1 1 3 4 3 2 3 2 0 0 0 1 1 2 0 0 0 0 1 3 3 2 2 1 2 2 2 2 1 1 0 0 0 0 0 0 0 0 0 0 0 0 0 0 0 0 0 0 0 0 0 0 1 0 0 0 0 1 1 0 0 2 1 0 0 0 0 0 1 2 1 2 3 3 2 3 4 3 4 4 4 4 5 3 3 3 2 3 2 2 3 4 4 5 4 5 5 5 4 2 2 4 3 6 4 21 108 160 165 166 168 170 171 173 175 176 179 180 180 181 181 180 179 180 182 179 180 180 181 181 182 180 181 181 182 179 180 178 179 178 178 180 181 178 181 179 179 178 180 179 179 180 180 181 182 183 184 180 180 180 180 181 181 182 180 181 182 184 184 185 185 184 184 184 184 186 187 187 187 187 188 186 187 186 187 186 187 186 187 186 186 184 185 185 184 183 185 184 185 186 184 186 185 184 185 184 184 183 184 182 184 181 182 182 181 182 182 182 183 184 184 184 184 186 185 187 188 189 187 187 186 187 186 184 187 187 188 188 188 188 187 188 188 189 192 192 192 193 192 191 191 191 190 188 188 189 188 188 189 188 189 188 188 189 188 189 189 190 190 189 190 190 188 187 188 188 189 189 187 189 189 188 188 187 188 188 189 187 188 187 188 187 188 187 187 189 188 188 188 189 191 190 188 188 189 189 190 189 189 192 191 191 191 189 190 190 191 191 190 189 190 189 191 191 191 191 192 192 190 190 190 189 189 189 188 189 188 187 188 187 187 186 185 186 186 188 175 90 12 4 5 5 4 2 2 48 142 112 19 0 1 0 0 0 0 0 0 1 0 0 0 5 27 74 125 154 163 162 162 164 164 163 162 161 162 164 168 171 174 175 177 179 179 183 181 182 184 185 185 186 187 186 184 169 100 21 0 0 0 0 0 2 1 2 1 2 0 4 0 0 1 1 1 1 1 0 0 0 0 0 1 1 2 1 0 0 0 0 0 0 0 0 0 0 0 0 0 0 0 0 0 0 0 0 0 0 0 0 0 0 0 0 0 0 0 0 0 0 0 1 2 2 1 1 3 3 1 2 2 2 1 1 1 1 2 2 3 3 3 2 3 4 6 5 4 2 4 4 4 4 4 3 4 4 3 0 0 1 1 0 1 1 3 3 3 5 5 5 3 4 4 4 3 4 3 3 3 4 3 3 2 1 1 2 0 0 0 2 2 1 2 1 2 1 3 3 2 1 1 2 2 2 3 3 2 1 0 1 0 3 3 1 0 
2 1 1 2 2 1 0 1 1 2 2 0 1 2 3 2 0 1 0 1 0 0 0 0 0 0 0 1 1 1 0 1 0 1 0 0 0 0 0 0 0 0 0 0 0 0 0 0 0 0 0 0 0 0 0 0 0 0 0 0 0 0 0 0 0 0 0 0 0 0 0 0 0 0 0 0 0 2 0 2 4 2 3 3 2 1 1 1 2 1 1 1 1 1 2 2 2 3 2 3 3 1 1 2 2 3 1 1 0 0 0 1 0 0 1 0 1 1 0 0 0 0 0 0 0 0 0 0 0 0 0 0 1 0 1 0 0 0 1 0 0 2 1 0 1 3 3 4 3 4 4 3 4 4 3 5 5 3 4 4 3 1 2 3 1 1 2 2 3 3 4 4 4 2 3 2 2 3 4 5 5 6 10 75 149 164 166 170 171 172 173 175 175 177 179 179 179 180 181 179 180 180 179 181 181 181 181 180 180 179 180 180 179 178 177 178 177 176 177 179 179 180 178 178 177 177 178 177 178 178 180 180 182 182 179 181 181 180 182 182 181 180 182 182 183 184 184 185 184 184 184 185 184 187 185 185 187 186 185 186 185 185 186 187 185 186 187 184 186 184 183 184 185 185 185 185 185 185 185 186 184 184 186 184 184 182 182 183 181 181 182 182 183 182 183 184 183 184 184 184 185 185 187 188 188 188 187 188 187 188 187 187 187 186 189 187 187 187 188 190 192 192 191 192 192 193 192 192 190 189 188 188 189 188 187 188 187 185 188 187 188 189 190 189 191 190 190 191 190 190 188 188 190 188 189 189 188 188 188 188 190 190 189 189 187 188 188 189 188 189 186 186 187 188 188 188 189 190 188 188 189 189 189 188 188 188 191 190 189 190 190 188 189 188 188 189 189 187 187 189 191 191 189 190 190 190 190 190 189 189 189 188 189 188 188 188 187 187 186 186 186 187 187 168 79 11 4 6 4 2 1 5 77 137 66 2 1 0 0 0 0 0 0 0 0 0 3 26 68 115 146 160 163 164 165 165 163 163 163 162 160 161 168 169 173 175 178 177 180 180 179 179 181 184 185 184 186 185 183 171 108 29 0 2 0 0 0 0 1 0 1 0 1 1 0 0 0 0 1 1 1 1 0 0 0 1 1 1 1 1 1 0 0 0 0 0 0 0 0 0 0 0 0 0 0 0 0 0 0 0 0 0 0 0 0 0 0 0 0 0 0 0 0 0 1 2 2 0 0 3 3 4 4 3 3 3 3 2 1 1 0 0 2 1 2 3 1 3 3 5 4 3 3 3 4 3 3 3 4 3 4 2 4 2 2 4 3 0 3 3 5 4 4 5 5 3 5 4 4 4 4 4 4 3 3 4 3 2 1 3 0 0 0 0 1 2 1 2 2 2 3 3 3 3 1 1 0 0 2 2 1 1 1 0 1 0 1 2 2 1 
0 1 0 1 0 1 0 1 2 2 1 2 3 2 2 2 2 0 1 1 0 2 1 1 0 1 0 2 3 1 2 0 2 1 0 0 0 0 0 0 0 0 0 0 0 0 0 0 0 0 0 0 0 0 0 0 0 0 0 0 0 0 0 0 0 0 0 0 0 0 0 0 0 0 0 0 0 2 2 3 2 2 2 2 2 1 0 1 1 1 1 3 2 3 1 2 4 3 2 4 3 1 0 3 3 0 1 0 1 0 0 1 2 2 2 1 1 1 0 0 0 0 0 0 0 0 0 0 0 0 0 0 3 0 3 0 0 0 0 2 1 1 2 0 2 1 3 2 1 2 3 2 3 4 2 4 4 4 3 3 0 0 1 2 2 1 3 1 2 4 4 3 3 2 2 1 1 3 3 5 4 7 8 45 134 162 164 168 170 172 172 173 174 175 177 178 177 178 180 178 178 179 181 181 182 181 181 180 181 179 179 179 180 178 179 176 177 176 176 179 178 178 177 176 177 177 179 176 179 177 178 179 181 180 180 179 181 181 182 183 180 181 182 182 182 182 184 184 184 184 184 185 188 186 186 187 186 187 186 184 184 185 185 187 186 185 185 184 184 183 182 183 183 184 185 186 186 185 186 186 187 185 183 182 182 182 181 182 182 182 182 181 181 182 183 184 183 183 184 185 185 186 188 187 188 187 187 188 188 187 186 188 187 187 187 187 186 186 188 189 189 190 191 190 192 193 191 191 190 190 187 188 190 189 188 187 187 187 186 186 189 191 190 189 190 191 190 192 192 191 187 189 188 189 188 188 188 189 190 189 188 189 189 189 188 190 187 187 188 189 186 187 188 186 187 191 189 190 190 189 189 189 189 187 187 189 189 189 190 190 188 188 187 188 187 189 189 189 188 188 190 190 190 189 189 190 191 189 188 189 190 190 189 188 190 188 189 188 187 188 187 186 187 161 64 10 3 6 3 3 1 17 108 115 25 0 2 0 1 0 0 0 0 0 4 26 69 116 143 160 163 163 164 165 165 163 164 163 162 161 163 165 171 172 174 176 176 177 178 179 179 179 182 182 183 181 184 183 172 118 37 1 2 0 0 0 0 1 2 1 1 0 0 1 0 0 0 1 2 1 1 0 0 0 0 0 0 0 1 1 2 0 1 0 0 0 0 0 0 0 0 0 1 0 0 0 0 0 0 0 0 0 0 0 0 0 0 0 0 0 0 0 0 0 0 1 2 1 2 2 3 4 5 3 3 1 3 2 1 0 1 0 0 2 0 1 2 4 3 5 5 5 5 6 5 4 3 4 2 5 3 2 2 2 1 3 3 2 3 4 4 5 5 4 4 2 3 3 3 2 3 4 4 4 3 2 3 3 2 0 1 1 0 2 2 2 2 2 3 3 4 5 3 1 0 0 0 0 0 0 0 1 0 0 0 0 0 1 2 0 
0 0 1 0 0 1 1 1 1 0 2 1 2 1 1 2 1 0 1 1 1 1 1 1 1 1 1 1 2 3 0 1 3 2 1 0 0 0 0 0 0 0 0 0 0 0 0 0 0 0 0 0 0 0 0 0 0 0 0 0 0 0 0 0 0 0 0 0 0 0 0 0 0 0 0 0 2 1 2 1 1 3 3 2 0 0 0 1 1 1 2 2 1 2 0 2 2 2 2 4 1 1 2 2 2 2 2 3 3 1 0 0 2 3 2 0 1 0 0 0 0 0 0 0 0 0 0 0 1 0 3 2 1 0 0 0 0 1 1 1 1 2 1 1 2 1 2 3 1 2 2 1 1 2 1 2 3 4 4 4 2 0 0 2 2 2 3 1 2 3 3 1 2 1 1 3 3 4 3 6 5 8 4 21 106 157 162 165 169 171 172 173 174 176 178 176 177 177 177 178 179 180 181 179 180 182 181 180 181 179 178 180 178 176 178 175 176 176 175 176 177 176 176 177 177 177 177 178 179 179 179 178 178 179 179 179 179 180 181 182 180 181 183 184 185 184 184 185 183 183 183 185 185 186 185 188 186 187 186 185 183 183 184 184 187 187 186 186 186 183 182 183 183 183 184 185 185 186 186 186 186 185 185 182 182 180 181 181 181 182 182 182 183 183 185 183 183 183 184 185 184 185 186 189 188 187 187 186 186 187 186 187 187 189 188 188 186 187 187 189 188 190 190 191 191 191 191 191 191 189 188 188 189 188 189 190 188 188 187 188 190 190 190 190 190 190 190 189 190 191 189 187 188 188 189 187 188 189 187 189 189 189 190 190 188 188 188 186 186 186 187 187 188 188 190 190 190 190 187 188 189 188 188 188 186 187 188 189 189 188 188 188 188 188 188 190 189 189 187 188 189 190 189 188 191 189 190 191 189 190 190 191 191 190 189 189 188 187 188 187 187 186 185 150 56 6 4 4 6 3 1 36 114 70 5 0 0 1 0 0 0 0 4 25 69 116 145 159 162 162 162 164 164 166 165 164 164 163 164 163 166 170 173 173 175 176 176 176 177 179 178 180 179 181 182 181 181 170 119 44 2 0 0 0 0 0 0 0 1 0 0 1 0 0 1 0 1 1 2 0 1 1 0 0 0 0 0 0 0 1 1 0 0 0 0 0 0 0 0 0 0 0 0 0 0 0 0 0 0 0 0 0 0 0 0 0 0 0 0 0 0 0 0 0 0 1 1 1 3 3 4 5 5 2 3 1 1 1 1 0 0 0 0 1 0 1 1 4 3 4 4 4 4 4 5 6 3 3 4 5 4 3 2 1 2 3 2 1 3 5 5 5 4 4 3 2 3 3 4 3 3 4 4 3 2 3 4 2 2 0 1 2 3 2 1 1 1 2 2 2 3 4 2 2 0 0 0 0 0 0 0 0 0 0 0 1 0 0 0 0 
0 1 0 1 1 1 0 0 0 0 2 2 2 2 1 1 1 2 0 1 1 1 0 1 1 1 0 0 1 0 1 1 3 0 0 0 0 0 0 0 0 0 0 0 0 0 0 0 0 0 0 0 0 0 0 0 0 0 0 0 0 0 0 0 0 0 0 0 0 0 0 0 0 0 0 0 2 1 2 1 1 1 1 0 0 0 1 0 1 1 1 1 2 2 0 1 1 0 2 3 1 2 1 3 2 3 0 0 1 0 1 1 2 3 1 0 0 1 1 1 0 0 0 0 0 0 0 0 1 2 2 2 2 0 0 2 1 1 2 2 1 2 0 0 3 2 0 1 2 0 1 1 2 2 0 2 4 3 4 2 1 1 1 0 2 3 2 1 1 0 4 3 2 2 5 4 4 4 2 4 4 6 4 10 72 144 160 163 168 170 172 173 174 175 176 176 176 177 177 177 179 180 179 180 182 179 180 179 180 179 178 179 178 177 176 174 174 177 176 176 177 177 177 177 176 177 178 179 179 181 180 179 180 181 179 179 179 178 182 181 181 183 183 183 183 183 184 183 183 181 184 184 185 186 185 184 186 186 186 184 185 183 183 182 185 185 184 185 184 183 184 183 182 183 184 185 186 184 186 186 186 186 184 183 182 183 181 181 180 181 182 183 184 184 184 184 184 184 183 185 185 185 186 187 187 188 187 187 187 186 186 187 186 187 186 188 187 187 189 187 188 189 190 190 191 192 191 190 189 190 189 189 189 189 188 189 188 188 189 188 189 189 190 190 190 190 190 190 188 189 188 188 187 187 187 189 191 190 189 189 189 189 189 190 189 189 187 187 186 186 187 189 189 188 190 190 191 191 188 189 190 189 188 187 186 185 186 187 188 186 186 186 189 189 188 190 190 190 189 189 190 189 189 189 189 191 191 191 192 190 191 189 189 188 190 189 190 186 187 186 187 185 182 134 43 5 4 3 6 3 8 68 106 31 0 0 0 0 0 0 8 34 73 115 144 157 162 163 164 164 165 166 167 166 165 162 162 164 164 168 171 172 172 174 175 176 176 176 177 175 177 178 180 179 179 180 161 107 39 1 0 0 0 0 0 0 0 1 1 1 1 1 0 0 0 1 1 1 1 2 0 1 1 0 0 0 0 1 0 2 2 1 0 0 0 0 0 0 0 0 0 0 1 1 0 0 0 0 0 1 0 0 0 1 0 0 0 0 0 0 0 0 1 0 0 1 1 3 3 3 4 3 2 1 1 2 3 1 0 1 1 0 0 1 2 1 1 2 2 4 2 2 4 5 6 5 4 3 4 4 4 2 3 2 1 2 3 2 5 5 6 4 5 5 4 1 4 4 3 4 3 5 5 4 2 3 2 1 2 1 2 2 1 1 2 1 2 3 1 2 2 2 2 3 1 1 0 0 0 0 0 0 0 1 0 0 0 0 0 1 
0 0 0 0 1 0 1 1 1 2 1 1 3 1 1 0 1 1 0 1 0 1 0 0 0 1 0 0 0 0 1 2 0 1 0 0 0 0 0 0 0 0 0 0 0 0 0 0 0 0 0 0 0 0 0 0 0 0 0 0 0 0 0 0 0 0 0 0 0 0 0 0 0 0 0 0 0 1 2 0 1 1 1 1 0 0 0 1 2 1 2 2 2 1 1 2 2 2 2 3 3 4 2 3 5 2 1 1 0 0 0 1 1 3 0 2 1 0 0 2 0 0 0 1 1 1 1 1 0 1 3 3 2 2 3 1 1 1 1 1 1 0 0 0 1 1 0 0 0 0 0 2 3 2 3 2 4 3 4 2 3 2 1 1 3 2 1 1 2 1 1 3 4 4 3 3 5 5 4 4 5 5 4 6 38 125 158 162 167 170 172 173 174 173 175 177 176 175 177 177 178 179 180 180 179 179 179 179 178 178 178 175 175 175 176 175 175 174 176 176 175 176 178 177 177 179 179 177 178 179 180 179 178 179 178 179 179 179 180 182 180 181 181 182 182 183 183 182 181 182 184 184 186 185 184 184 185 186 184 185 183 183 182 182 184 183 182 183 183 184 183 182 181 184 183 183 184 184 185 186 185 185 185 184 184 182 181 181 182 182 182 184 184 183 185 184 183 184 185 186 185 184 185 187 189 187 187 188 187 187 187 186 187 186 187 186 186 186 187 188 189 188 189 190 190 192 190 190 188 190 189 188 191 189 189 189 190 189 189 188 189 189 188 190 191 190 188 191 190 190 190 187 188 188 189 188 191 190 190 189 190 189 188 189 190 190 190 188 186 188 188 189 189 190 191 191 190 190 190 189 190 187 188 187 185 185 185 188 188 187 186 186 187 188 188 190 191 190 190 190 189 190 189 189 190 192 191 190 190 191 188 188 187 187 188 190 187 186 186 186 186 187 174 102 23 4 6 5 5 3 13 78 73 9 0 0 0 0 7 31 73 118 144 157 160 160 163 164 165 166 165 165 166 164 164 163 162 166 168 171 171 172 172 174 175 174 176 176 175 175 177 178 179 178 178 150 87 24 0 0 0 0 0 0 0 0 0 0 1 2 1 1 0 0 0 0 0 2 2 2 1 1 0 0 0 0 0 2 1 0 2 0 0 0 0 0 0 0 0 0 0 1 2 0 1 1 1 1 1 3 2 1 0 0 0 0 0 0 0 0 0 1 0 2 1 2 1 3 4 2 3 2 1 1 0 1 1 1 0 0 0 1 0 0 1 1 3 2 3 4 3 2 4 4 4 5 3 5 5 5 5 4 3 1 2 1 2 4 6 5 5 7 6 6 5 2 4 4 3 3 2 4 6 5 2 1 0 1 1 1 1 2 2 0 1 1 1 1 0 1 1 1 1 1 2 2 1 0 0 0 0 0 0 0 0 0 0 0 0 0 
0 0 1 0 0 1 0 0 2 1 2 3 2 1 1 2 3 0 1 1 1 2 0 0 0 0 0 0 0 0 0 0 0 0 0 0 0 0 0 0 0 0 0 0 0 0 0 0 0 0 0 0 0 0 0 0 0 0 0 0 0 0 0 0 0 0 0 0 0 0 0 0 0 0 0 0 1 2 2 1 1 0 1 0 0 0 0 0 1 1 1 1 2 0 1 1 0 2 3 3 4 4 2 3 3 3 3 2 2 0 1 1 1 1 1 2 2 3 2 3 3 1 1 2 3 2 1 3 2 3 2 4 5 4 2 0 0 0 0 1 3 0 0 0 2 0 0 0 0 0 2 2 2 3 2 2 3 3 4 4 2 2 1 2 1 0 0 0 0 2 2 2 2 2 1 3 5 7 6 7 5 5 5 2 18 95 148 158 164 169 169 172 172 174 174 176 177 176 176 178 179 178 179 179 179 179 178 180 178 177 176 174 174 175 175 174 173 174 176 173 174 176 177 177 178 178 178 179 178 177 176 177 178 180 178 177 178 180 179 181 181 181 180 181 180 181 182 182 180 181 182 185 183 183 183 185 185 185 185 184 184 184 183 183 181 181 182 181 183 182 182 182 182 182 182 183 184 182 183 184 184 185 184 185 184 182 182 181 183 183 183 183 184 185 184 185 184 184 185 186 185 185 187 187 187 188 188 187 186 186 185 185 185 187 188 185 186 187 186 187 187 188 190 191 190 191 190 189 189 189 188 190 190 191 188 190 189 189 188 189 189 189 188 189 190 189 190 190 191 191 190 190 190 190 189 190 190 190 191 191 190 189 188 189 189 189 188 188 187 188 189 190 188 190 191 190 189 189 187 188 188 188 187 185 185 186 186 188 187 186 186 185 185 187 187 188 188 188 190 188 189 188 189 188 190 193 190 189 189 188 189 188 186 187 187 188 187 187 185 185 186 187 161 70 11 3 6 6 6 5 20 58 29 1 2 1 0 16 63 112 144 155 158 160 161 163 165 166 166 165 165 166 164 163 162 165 166 170 172 172 171 173 173 174 174 174 174 173 174 176 177 179 179 174 139 71 12 0 0 0 0 0 0 0 0 0 0 2 1 2 0 0 0 0 0 0 0 3 1 2 3 1 1 0 0 0 0 0 0 0 0 0 0 0 0 0 0 0 1 0 0 1 1 2 3 3 2 1 1 3 2 1 2 1 1 0 2 0 0 0 2 1 1 1 2 2 2 2 2 3 4 2 2 2 3 1 1 3 0 0 0 0 0 1 1 2 1 4 3 4 2 3 3 3 5 5 4 3 5 5 4 6 3 3 3 3 3 3 4 5 7 7 7 7 6 4 4 4 4 3 4 3 5 3 4 2 1 0 1 1 2 0 1 1 1 1 0 0 0 0 1 1 1 1 0 1 0 0 0 0 0 0 0 0 0 0 0 0 0 0 
0 0 1 0 0 0 1 1 1 2 2 2 2 2 2 2 2 0 0 0 0 0 0 0 1 0 0 0 0 0 0 0 0 0 0 0 0 0 0 0 0 0 0 0 0 0 0 0 0 0 0 0 0 0 0 0 0 0 0 0 0 0 0 0 0 0 0 0 0 0 0 0 0 0 0 0 2 3 1 1 1 2 2 0 0 0 0 1 0 0 1 2 3 3 1 2 2 2 2 3 2 5 3 2 3 4 2 2 1 3 1 2 2 1 2 3 3 3 4 3 3 1 3 2 3 3 3 3 3 4 3 4 4 4 4 1 1 0 1 1 2 0 0 0 0 0 0 0 1 0 1 2 1 0 2 2 2 3 2 3 3 1 2 1 1 0 0 0 1 1 1 2 1 2 2 4 6 6 6 7 6 4 5 1 6 54 128 153 159 166 168 170 171 172 174 175 175 175 177 177 179 178 178 177 178 178 178 179 177 176 174 174 174 175 175 176 175 174 175 172 173 173 176 177 177 176 178 180 177 177 177 176 175 178 177 177 177 176 178 179 180 180 179 181 181 180 181 181 182 182 183 182 183 185 184 183 185 184 183 184 183 183 182 184 182 183 183 182 182 182 181 183 183 182 185 184 183 184 183 183 185 185 184 183 183 182 181 181 182 183 183 184 185 184 184 184 185 185 185 186 187 187 186 186 187 187 187 187 187 187 186 185 186 185 187 187 187 187 187 186 186 188 190 190 191 190 190 189 189 190 189 189 191 189 189 189 187 188 187 189 188 188 188 189 190 190 192 191 190 191 192 190 190 191 190 191 190 191 191 189 190 191 189 189 190 188 190 189 186 187 188 188 188 189 188 189 189 190 187 187 187 187 187 187 187 185 187 187 187 185 186 185 185 186 187 188 188 187 189 187 188 188 189 190 190 188 191 190 189 189 188 187 186 186 187 187 187 186 185 185 186 183 144 54 7 6 4 4 3 5 15 25 6 0 4 15 33 81 132 155 161 161 161 163 165 166 166 168 167 167 165 164 165 164 166 168 170 171 172 172 172 171 172 172 172 172 173 173 175 176 175 178 168 124 56 7 0 0 0 0 0 0 0 0 0 0 0 1 2 0 1 1 0 0 0 0 0 2 1 2 3 2 1 1 1 0 0 0 0 1 0 0 0 0 0 0 0 0 2 2 2 2 3 3 3 4 3 3 0 2 1 2 2 1 0 1 1 0 1 1 2 2 0 0 0 1 2 0 2 2 2 3 2 2 2 1 2 3 1 0 0 0 1 0 1 1 1 3 4 4 3 4 4 5 4 5 5 3 4 4 3 5 4 4 3 3 3 3 4 5 6 7 6 6 6 6 4 5 3 2 3 3 5 3 4 2 0 0 1 2 2 0 1 0 0 0 0 1 0 0 0 1 0 1 1 0 0 0 0 0 0 0 0 0 0 0 0 0 0 0 
0 0 0 0 2 0 2 0 1 2 1 2 1 0 1 2 1 1 1 0 0 0 0 0 0 0 0 0 0 0 0 1 1 0 0 0 0 0 0 0 0 0 0 0 0 0 0 0 0 0 0 0 0 0 0 0 0 0 0 0 0 0 0 0 0 0 0 0 0 0 0 0 0 0 0 0 0 2 3 2 3 2 1 2 0 0 0 0 0 1 1 1 1 2 3 2 0 0 1 1 3 4 4 1 3 4 4 3 3 3 3 4 4 5 5 3 4 3 2 3 1 0 3 2 4 5 5 5 4 4 5 5 3 3 5 2 1 0 1 1 2 1 0 0 0 0 1 1 0 0 2 2 1 0 1 2 2 4 0 3 2 2 3 1 0 1 0 0 0 2 2 2 2 3 3 5 7 6 6 5 6 6 5 5 1 20 93 142 153 160 164 169 171 171 172 173 174 175 176 176 177 178 176 176 176 177 176 176 175 174 174 173 174 173 175 175 175 175 172 173 172 173 175 176 176 176 177 179 178 177 178 177 177 175 176 176 175 175 176 177 180 180 179 180 180 181 181 183 182 179 182 182 182 182 184 183 182 183 182 184 184 183 183 182 183 184 183 181 181 182 181 181 183 183 183 184 184 184 184 184 183 185 184 184 184 183 180 180 183 184 183 183 183 183 183 184 186 186 187 187 187 188 188 187 186 187 187 187 187 187 185 184 185 185 186 186 185 184 187 187 187 187 190 190 189 190 190 190 188 188 189 189 189 189 189 188 188 187 188 187 187 187 189 189 190 192 193 193 192 192 191 191 192 192 191 192 191 192 192 191 190 189 189 190 189 188 190 188 186 187 188 187 189 187 188 188 189 189 187 187 186 186 187 186 188 185 185 187 185 185 185 185 185 185 186 186 186 186 188 189 189 189 190 190 190 188 189 189 189 189 186 185 187 185 186 187 186 185 187 184 187 176 116 34 6 4 6 3 1 3 3 3 2 2 16 57 102 142 158 161 162 164 163 164 166 167 166 166 168 167 166 164 166 166 169 171 171 171 171 172 172 171 171 171 170 172 173 173 175 175 176 158 106 40 3 0 1 0 0 0 0 0 0 0 0 0 0 0 0 0 1 1 0 0 0 0 0 1 1 1 3 3 2 2 1 0 0 0 0 0 1 1 0 0 0 0 2 4 3 2 2 4 4 5 5 4 2 1 1 2 1 1 1 1 0 1 0 1 1 2 2 4 1 0 0 0 0 1 0 3 3 3 3 2 1 1 2 2 2 2 1 0 2 1 0 2 2 2 2 5 4 5 4 5 5 4 5 2 3 3 3 3 3 4 3 4 3 5 4 5 7 6 7 5 5 6 5 5 5 2 2 3 4 5 4 2 0 1 0 1 1 0 0 0 0 0 0 0 0 0 0 0 0 0 0 0 0 0 0 0 0 0 0 0 0 0 0 0 0 0 
0 2 1 0 1 0 0 1 0 0 0 2 0 0 1 1 0 0 0 0 0 0 0 0 0 0 0 0 0 0 0 0 1 0 0 0 0 0 0 0 0 0 0 0 0 0 0 0 0 0 0 0 0 0 0 0 0 0 0 0 0 0 0 0 0 0 0 0 0 0 0 0 0 0 0 0 0 0 3 2 1 1 1 2 1 0 0 0 0 0 2 1 2 2 1 1 1 0 0 1 4 5 4 3 3 4 4 4 5 3 4 3 5 4 5 5 3 3 4 2 1 1 3 3 5 4 4 7 6 4 3 3 4 4 3 1 0 2 3 2 3 1 0 0 0 1 1 1 0 0 1 1 1 0 0 0 0 1 0 0 1 1 1 0 0 0 1 0 1 1 1 2 4 2 4 5 7 7 5 7 5 5 4 4 4 6 50 122 150 156 162 167 169 170 169 172 173 173 174 177 176 177 175 175 175 175 176 175 175 175 173 174 173 174 173 175 174 173 173 173 173 173 173 174 175 174 176 176 177 176 177 177 176 176 175 176 174 175 176 177 178 181 179 180 180 180 180 181 181 178 179 180 181 181 182 182 182 182 183 184 182 184 182 181 183 183 183 182 182 181 181 181 182 183 184 183 183 184 185 184 184 184 184 183 181 183 183 182 183 183 182 183 184 184 185 185 186 185 187 188 187 188 189 188 187 186 187 186 186 186 185 185 185 185 185 186 186 186 186 186 187 188 188 188 190 189 189 189 189 187 188 188 187 189 188 188 189 187 188 188 187 189 188 189 190 194 192 192 193 193 193 192 192 192 192 192 192 191 192 192 190 189 189 188 188 189 190 187 187 187 188 186 186 186 187 188 188 189 186 185 185 186 185 186 185 186 185 185 185 185 186 185 184 184 186 185 186 187 188 189 188 189 188 189 189 188 189 188 188 187 186 184 185 185 184 186 187 186 185 184 186 167 84 18 4 4 4 3 1 2 1 1 4 19 61 119 153 161 162 162 165 166 164 165 167 167 167 167 165 166 168 169 167 168 169 170 173 172 172 172 172 172 170 170 171 172 172 174 174 173 143 84 25 0 3 1 2 1 0 0 0 0 0 0 0 0 0 0 0 1 0 0 0 0 0 0 0 1 1 0 0 0 1 2 1 1 0 1 1 0 1 1 1 2 2 2 3 4 3 2 3 4 6 6 5 4 2 3 3 3 3 2 2 0 1 0 1 0 1 2 3 2 1 2 2 1 1 1 2 2 4 2 2 2 1 2 1 0 0 0 0 2 0 2 2 2 1 3 2 3 4 4 4 5 4 5 4 3 3 2 3 4 4 4 3 4 3 4 1 4 4 6 7 6 4 4 6 6 5 3 5 4 3 4 5 2 1 0 0 1 0 1 0 1 0 0 0 0 0 0 0 0 0 0 0 0 0 0 0 0 0 0 0 0 0 0 0 0 0 0 
1 2 1 0 1 0 0 0 0 1 1 1 0 0 0 1 0 0 0 0 0 0 0 0 0 0 0 0 0 0 0 1 0 0 0 0 0 0 0 0 0 0 0 0 0 0 0 0 0 0 0 0 0 0 0 0 0 0 0 0 0 0 0 0 0 0 0 0 0 0 0 0 0 0 0 1 0 1 1 2 1 1 1 2 1 1 1 2 0 0 0 1 1 1 1 0 1 1 2 3 2 5 5 3 4 5 6 4 5 5 5 5 5 5 4 4 5 4 4 4 3 3 3 5 5 7 6 6 5 5 4 3 4 5 3 1 3 3 3 2 2 2 1 2 0 1 1 1 1 2 1 2 0 0 0 0 0 0 0 1 1 0 0 0 0 0 0 0 0 1 2 2 2 4 6 6 6 5 6 6 6 4 4 4 5 4 19 89 140 152 158 163 164 167 168 169 172 172 172 175 173 176 173 175 174 174 175 176 176 175 174 173 174 172 172 172 171 172 172 173 173 173 173 174 175 175 177 176 175 176 176 176 176 176 174 176 173 174 175 176 177 179 178 179 181 182 181 180 180 177 178 180 181 181 180 181 181 181 182 181 182 183 181 180 181 183 181 182 181 182 181 181 183 182 183 184 183 184 185 185 184 186 184 184 183 182 182 183 182 182 182 183 184 184 185 186 186 186 186 186 187 189 188 187 186 186 186 186 187 186 187 185 184 184 185 185 185 186 186 186 186 187 188 188 188 189 189 188 187 187 187 187 189 188 188 187 188 189 188 188 189 190 191 189 190 191 193 195 194 192 192 192 190 191 193 191 191 191 192 191 189 189 187 188 187 187 189 188 187 188 187 186 188 186 187 187 187 187 187 185 186 185 186 185 184 184 185 184 184 184 184 183 184 185 187 184 186 187 188 189 187 188 187 186 188 190 188 187 188 185 185 184 184 186 185 184 185 186 186 184 183 146 51 6 5 5 2 1 1 2 0 4 30 79 127 157 162 164 163 165 166 166 166 165 165 167 167 167 167 167 170 171 172 171 172 172 175 173 172 171 170 170 169 168 171 171 172 174 165 128 63 13 0 2 3 2 1 0 0 0 0 0 0 0 0 0 0 0 0 0 0 0 0 0 0 0 0 0 0 0 1 1 1 1 2 1 2 1 2 2 2 3 1 1 2 2 1 3 4 4 4 5 7 6 6 5 4 3 3 2 4 2 3 1 0 1 1 1 1 2 2 4 3 4 4 2 3 3 3 3 2 2 3 2 0 0 1 0 0 0 0 1 0 1 1 2 2 1 1 3 3 4 4 7 5 5 4 3 2 4 4 3 4 4 4 2 2 2 3 4 4 5 4 4 5 4 6 5 5 5 6 4 3 3 2 0 0 0 0 0 1 0 0 1 0 0 0 0 0 0 0 0 1 0 0 0 0 0 0 0 0 0 0 0 0 0 0 0 0 0 
0 1 0 0 0 0 0 0 0 1 0 0 0 0 0 0 1 0 0 0 0 0 0 0 0 0 0 0 0 0 0 0 1 0 0 0 0 0 0 0 0 0 0 0 0 0 0 0 0 0 0 0 0 0 0 0 0 0 0 0 0 0 0 0 0 0 0 0 0 0 0 0 0 0 0 2 3 2 1 0 0 1 1 3 0 0 0 0 0 1 1 0 1 0 1 0 0 1 2 2 3 4 5 5 4 4 3 4 3 4 5 4 5 6 6 5 5 3 4 3 3 4 3 4 5 7 7 7 5 4 2 3 2 2 2 0 2 3 3 2 1 1 1 0 1 1 2 2 1 1 2 0 0 0 0 0 0 1 2 0 1 2 0 0 0 0 0 0 0 0 0 0 2 5 5 4 6 5 5 3 4 3 3 2 2 3 6 47 117 148 153 157 160 164 168 167 168 171 171 174 172 172 173 173 173 171 175 175 174 172 172 170 172 173 173 172 170 170 171 171 173 171 172 174 175 176 176 174 174 175 176 175 175 177 176 175 175 174 177 177 179 178 177 179 181 181 180 178 179 180 179 179 180 181 181 181 180 182 182 180 181 181 180 180 181 181 181 180 181 183 181 181 181 184 184 185 184 185 184 185 185 184 185 185 184 183 183 183 184 183 184 183 184 185 185 185 187 186 187 188 188 189 188 186 185 187 186 187 187 187 186 185 184 184 184 185 184 186 186 187 186 187 186 189 190 189 191 190 187 187 187 187 187 188 187 188 187 188 189 190 190 191 191 190 191 191 192 193 192 192 191 190 191 192 193 192 192 192 191 191 190 189 187 188 188 188 189 188 188 188 186 188 187 185 188 188 187 188 187 186 186 186 185 186 184 183 184 184 184 184 184 186 185 186 186 186 185 186 188 186 187 187 186 187 186 189 189 188 186 186 185 184 185 184 184 183 184 186 184 185 175 105 21 2 5 5 3 2 1 0 3 29 78 130 156 163 164 166 167 166 165 164 166 166 165 167 168 169 171 172 173 175 173 172 172 171 173 173 170 170 169 170 169 168 169 172 170 147 100 42 6 0 0 1 0 0 0 0 0 0 0 0 0 0 0 0 0 0 1 1 0 0 0 0 0 0 0 0 0 0 1 1 0 0 2 2 0 2 4 3 2 2 1 2 1 3 2 3 2 4 5 6 5 4 5 4 4 3 3 3 4 1 2 3 1 2 1 1 2 2 2 4 4 3 5 4 3 1 2 2 2 1 3 0 0 0 1 0 1 0 0 0 0 0 0 0 1 1 0 1 3 5 4 6 6 5 5 4 3 4 4 2 4 4 3 3 2 2 1 3 4 5 4 4 4 4 5 5 4 4 2 4 2 2 1 1 0 0 0 0 1 0 0 0 0 1 0 0 0 0 0 0 0 0 0 0 0 0 0 0 0 0 0 0 0 0 0 0 0 0 
0 0 0 0 0 0 0 0 0 0 0 0 0 0 0 0 0 0 0 0 0 0 0 0 0 0 0 0 0 0 0 0 2 1 0 0 0 0 0 0 0 0 0 0 0 0 0 0 0 0 1 2 0 0 0 0 0 0 0 1 0 0 0 0 0 0 0 0 0 0 0 0 0 0 2 1 2 0 1 1 0 1 0 1 0 0 0 0 0 1 0 0 0 1 1 3 1 3 2 3 4 4 5 5 5 5 5 4 5 7 6 6 5 5 5 4 5 3 5 4 6 5 5 6 5 6 7 8 6 4 2 3 3 3 2 2 3 2 2 2 2 1 0 1 1 3 2 3 2 0 0 0 0 1 0 0 0 1 1 0 1 2 0 0 0 0 1 0 0 0 0 0 0 1 3 3 4 3 3 3 2 3 3 2 2 4 2 15 79 132 148 154 158 159 164 166 167 169 170 171 172 172 172 171 172 172 174 174 173 171 170 171 170 172 171 172 170 170 170 171 172 171 171 172 174 175 174 173 174 175 174 174 175 175 177 176 176 175 176 177 177 178 178 179 179 178 178 179 178 178 180 181 180 180 181 180 180 182 181 181 180 180 181 181 181 181 181 180 181 183 181 182 181 182 184 186 186 185 184 184 184 185 185 184 183 183 182 182 184 183 183 183 184 184 186 185 187 188 188 188 188 189 188 187 186 186 185 185 185 187 184 184 184 184 185 185 186 186 185 186 186 187 189 190 190 189 188 188 189 188 189 188 187 186 187 188 187 188 188 190 190 191 190 190 191 192 192 193 192 191 190 190 190 192 192 190 193 191 190 191 190 188 188 187 188 188 188 188 190 189 188 187 188 188 186 187 187 188 185 186 184 184 185 185 184 184 184 184 184 185 185 186 185 188 185 185 185 186 188 186 187 187 186 186 187 188 188 187 185 185 187 186 184 184 183 182 182 185 184 185 158 63 7 5 4 3 4 2 1 0 19 72 126 157 164 164 166 167 166 164 165 165 166 165 167 168 171 173 174 175 175 174 176 175 174 173 172 171 171 169 169 171 169 169 170 155 120 61 17 0 1 0 0 0 0 0 0 0 0 0 0 0 0 0 0 0 0 0 0 0 0 0 0 0 0 0 1 0 1 2 1 0 1 1 0 0 1 3 2 3 3 4 3 3 2 1 2 2 1 3 3 6 6 6 5 4 3 4 3 3 4 5 2 3 4 2 2 3 1 4 1 3 4 3 3 3 4 2 3 3 2 1 2 1 0 1 0 1 0 0 0 0 0 0 0 0 0 1 3 3 5 4 5 6 5 5 4 2 3 2 1 3 3 4 3 4 2 4 3 4 4 4 4 5 3 3 4 4 3 2 3 2 3 2 0 0 0 0 0 0 0 0 0 1 0 0 0 0 0 0 0 1 1 0 0 0 0 0 0 0 0 0 0 0 0 0 0 0 0 0 
0 0 0 0 0 0 0 0 0 0 0 0 0 0 0 0 0 0 0 0 0 0 0 0 0 1 0 0 0 0 1 1 0 1 1 0 0 0 0 0 0 0 0 0 0 0 0 0 0 0 0 0 0 0 0 0 0 0 0 0 0 1 1 1 0 0 0 0 0 0 0 0 0 0 0 0 1 0 1 1 0 1 0 1 0 0 0 0 0 1 0 1 0 1 3 3 4 3 4 4 5 4 7 5 4 5 5 4 7 6 6 6 6 6 5 5 4 5 5 5 3 5 5 6 6 7 8 7 5 4 4 3 3 3 3 2 2 3 2 1 0 0 0 0 2 1 1 3 2 3 1 0 1 0 0 0 0 0 2 1 0 0 0 0 0 0 0 0 0 0 0 0 1 0 1 2 2 2 0 2 1 3 3 3 4 2 2 3 34 100 140 149 154 156 160 163 165 167 168 168 169 169 171 171 170 171 173 171 170 170 170 171 170 171 170 171 170 171 171 171 171 171 171 171 174 174 174 174 175 174 174 174 175 176 176 176 174 175 176 176 176 176 179 180 178 177 177 178 179 179 179 179 179 178 180 180 181 181 182 180 179 178 179 180 180 179 181 182 183 181 182 182 181 183 184 186 186 186 185 186 185 186 186 185 184 184 184 182 184 184 185 186 185 183 186 186 186 187 188 189 189 187 187 189 186 186 186 185 184 185 183 184 183 184 184 186 186 185 186 186 186 186 188 188 190 188 188 188 188 187 187 188 186 187 187 186 187 187 189 187 189 191 190 191 190 190 191 190 190 192 190 191 189 191 193 192 191 192 192 190 189 187 188 188 188 188 189 188 190 189 189 188 188 187 188 187 187 185 185 184 183 183 182 185 184 183 183 183 185 185 185 184 184 186 185 187 185 187 186 186 185 185 186 187 188 187 188 187 186 186 187 185 184 184 185 183 184 184 184 178 121 29 2 4 2 3 2 3 4 18 67 124 153 165 164 165 166 165 163 163 167 167 166 168 170 173 175 176 176 177 176 176 175 174 173 173 172 170 169 169 168 171 170 162 130 78 27 2 0 1 1 0 0 0 0 0 0 0 0 0 0 0 0 0 0 0 0 0 0 0 1 0 1 0 1 0 0 0 2 1 2 1 1 0 0 1 1 1 2 4 4 4 4 3 3 1 2 1 2 3 3 4 6 5 5 3 5 5 5 4 4 5 4 4 5 3 1 1 1 3 2 0 1 2 2 3 3 1 2 3 2 0 2 1 0 0 0 0 0 0 0 0 0 0 0 0 1 2 4 3 4 5 4 5 5 5 2 3 3 2 2 2 3 3 3 4 3 4 3 2 3 4 3 3 3 2 1 3 1 3 2 1 0 0 0 0 0 0 0 0 0 0 0 0 0 0 0 0 0 0 0 1 1 1 0 0 0 0 0 0 0 0 0 0 0 0 0 0 0 0 
0 0 0 0 0 0 0 0 0 0 0 0 0 0 0 0 0 0 0 0 0 0 0 0 0 0 0 2 0 1 0 0 0 1 0 0 0 0 0 0 0 0 0 0 0 0 0 0 0 0 0 0 0 0 0 1 0 0 0 1 0 1 0 0 0 0 0 0 0 0 0 0 0 0 0 2 2 1 0 0 0 1 0 1 0 0 0 0 0 1 2 1 0 0 0 3 3 4 4 4 5 7 6 5 4 5 4 6 6 6 6 6 6 7 7 5 4 5 6 4 4 5 6 7 6 7 8 6 5 4 4 2 3 2 3 2 0 2 0 1 1 0 0 1 1 0 0 1 2 1 1 1 0 0 0 0 0 1 0 0 0 0 0 0 0 0 0 0 0 0 0 0 0 0 0 2 2 1 1 1 2 1 3 4 3 2 0 1 5 54 118 145 151 153 156 160 161 164 167 166 166 169 167 168 169 170 171 169 170 170 168 170 169 170 171 172 172 171 170 171 172 172 170 172 173 174 172 174 175 174 175 176 177 176 174 175 173 175 174 175 177 177 177 176 175 175 177 178 178 179 179 179 179 177 179 181 179 180 181 180 178 177 179 178 179 178 180 182 181 181 182 181 183 183 185 186 185 185 185 185 186 185 185 185 185 184 183 183 184 184 186 184 186 186 186 186 186 187 188 187 188 187 187 186 187 186 186 185 183 184 183 184 183 183 184 185 185 185 185 185 185 186 186 187 188 188 188 187 187 188 186 186 188 187 186 186 187 187 188 188 188 190 190 190 191 191 191 190 192 192 191 190 190 191 191 192 192 192 191 190 189 187 187 187 188 187 187 188 189 188 189 187 187 186 186 186 187 185 184 184 183 182 184 184 183 183 183 183 186 185 183 182 186 186 187 186 186 184 185 186 186 186 185 185 186 187 188 186 187 186 186 185 184 184 183 183 183 181 182 158 72 10 2 2 2 2 2 9 29 58 110 149 164 167 166 164 164 165 166 169 171 171 170 172 174 175 177 177 177 177 177 175 173 171 169 170 170 169 169 170 171 164 143 97 40 6 0 0 0 0 1 0 0 0 0 0 0 0 0 0 0 0 0 0 0 0 0 0 0 0 0 0 0 1 0 0 1 2 2 2 2 2 2 1 0 0 0 0 3 4 3 3 5 5 3 1 3 2 4 3 4 6 6 7 6 5 6 5 7 5 7 6 7 3 3 2 1 2 0 1 2 0 2 1 1 4 2 1 3 2 0 0 0 1 1 0 0 1 0 0 0 0 0 0 0 0 0 2 3 2 3 5 3 4 3 3 3 3 3 2 2 2 4 2 2 2 3 3 2 2 3 3 4 2 2 2 1 2 2 2 2 2 1 0 0 0 0 0 0 0 0 0 0 0 0 0 0 0 0 0 0 1 0 0 0 0 0 0 0 0 0 0 0 0 0 0 0 0 0 0 
0 0 0 0 0 0 0 0 0 0 0 0 0 0 0 0 0 0 0 0 0 0 0 0 0 0 0 0 0 1 0 0 1 0 0 0 0 0 0 0 0 0 0 0 0 0 0 0 1 1 1 1 2 2 1 0 2 1 2 3 1 1 0 0 0 0 0 0 0 0 0 0 0 0 1 2 2 0 1 0 0 1 1 0 0 1 0 0 1 1 0 0 1 1 1 2 4 3 4 3 4 5 4 5 3 6 5 5 7 5 5 6 6 8 7 5 4 4 5 5 4 5 5 5 6 6 6 6 6 4 3 3 3 3 3 2 0 1 1 0 0 1 0 0 0 0 0 1 1 1 0 0 0 0 0 0 0 1 1 0 0 0 0 0 0 0 0 0 1 0 0 0 0 0 1 1 1 1 2 1 1 3 3 4 3 1 0 1 0 14 76 128 144 148 152 156 159 162 164 165 165 167 167 168 169 169 170 169 169 170 169 168 169 169 170 170 172 173 172 171 170 171 173 173 171 172 173 175 175 175 174 175 176 175 175 175 174 174 174 174 176 175 177 177 175 174 176 177 177 178 179 180 178 179 178 177 180 180 180 181 179 178 176 177 178 178 180 180 181 182 183 181 182 183 183 185 184 184 185 187 186 186 185 185 184 184 183 184 184 184 185 187 187 187 185 186 187 186 187 186 187 186 187 185 186 184 185 185 184 184 183 183 186 184 183 183 186 185 186 186 186 185 185 187 186 186 188 188 187 186 187 186 187 186 185 186 188 188 188 189 189 189 190 190 190 191 191 192 193 192 192 191 191 190 190 191 191 190 190 189 188 187 186 187 187 187 187 187 186 187 188 187 187 186 184 185 186 185 183 184 183 184 185 185 184 183 184 185 185 185 183 184 184 185 186 186 186 185 185 185 187 185 186 188 186 185 185 185 186 186 186 187 184 183 183 183 183 181 173 113 27 1 2 3 2 2 4 17 51 93 139 163 166 167 167 166 168 168 170 173 172 174 174 176 176 176 176 178 177 176 175 172 170 167 166 167 168 171 169 166 152 112 55 14 0 0 0 0 0 0 0 0 0 0 0 0 0 0 0 0 0 0 0 0 0 0 0 0 0 0 0 0 0 0 0 0 0 1 1 1 1 1 1 2 0 0 2 3 3 3 4 4 3 3 3 4 3 3 3 6 6 6 8 8 8 6 6 4 4 5 5 7 6 3 2 2 2 1 0 2 0 0 2 2 3 3 2 3 2 2 0 0 1 2 1 0 0 0 0 1 0 0 0 0 0 1 1 2 2 3 2 3 3 4 4 3 3 3 3 3 2 3 1 2 1 2 2 3 0 1 1 2 2 2 1 2 1 3 3 1 0 1 0 0 0 0 0 0 0 0 0 0 0 0 1 0 0 0 0 0 0 0 0 0 0 0 0 0 0 0 0 0 0 0 0 0 0 0 0 0 
0 0 0 0 0 0 0 0 0 0 0 0 1 1 2 0 0 0 0 0 0 0 0 0 0 0 0 0 0 0 3 0 0 0 1 1 0 0 0 0 0 0 0 0 1 1 1 3 2 1 0 2 3 3 1 1 1 2 3 2 2 1 0 0 0 0 0 0 0 0 0 0 0 0 0 2 3 3 0 0 0 1 0 0 0 0 0 1 0 0 0 0 0 0 2 3 3 2 3 3 4 5 4 4 3 5 4 3 5 5 5 7 7 7 7 3 2 5 4 4 4 4 3 5 6 6 7 6 5 4 5 5 3 3 3 2 1 2 2 1 0 1 0 0 0 0 0 1 1 0 0 0 0 0 0 0 0 0 0 0 0 0 0 0 0 0 0 0 2 1 0 0 0 0 0 0 0 0 3 1 1 1 1 2 1 1 0 0 0 0 29 93 133 143 147 152 156 158 161 162 164 165 166 166 167 168 169 169 167 168 168 168 170 170 169 169 170 172 171 173 172 173 171 171 171 172 173 176 175 173 173 176 175 173 173 172 175 174 173 173 176 176 176 175 174 176 178 177 177 177 177 179 178 179 179 180 180 180 180 182 178 178 177 178 178 179 179 179 181 182 182 181 182 183 182 184 184 183 185 185 185 185 185 185 184 185 186 183 185 186 186 187 186 185 186 187 185 186 185 185 185 186 186 184 186 187 184 184 185 184 184 184 185 183 182 182 183 184 185 186 184 186 185 186 187 187 187 186 186 186 187 186 186 186 187 186 187 187 188 188 189 190 192 191 190 189 189 190 191 190 191 191 191 190 189 191 190 191 189 189 188 186 184 186 186 186 185 185 186 187 186 186 187 187 187 188 187 186 185 184 187 184 185 184 183 183 183 186 185 184 185 186 184 186 185 184 185 185 186 186 188 186 185 187 186 185 185 186 186 185 185 184 184 184 182 182 181 178 141 56 7 5 5 7 8 7 14 35 73 124 158 168 168 170 170 169 170 170 172 174 175 175 176 175 175 177 176 176 174 173 170 167 166 166 166 167 168 163 147 118 70 22 0 0 0 0 0 0 0 0 0 0 0 0 0 0 0 0 0 0 0 0 0 0 0 0 0 0 0 0 0 0 0 0 0 1 0 2 1 2 1 1 0 0 2 1 1 4 3 2 3 4 4 4 4 3 3 4 5 5 5 6 9 9 9 6 6 5 4 4 4 5 5 4 3 3 1 0 0 0 0 0 2 3 3 4 2 1 2 2 1 0 1 0 1 0 0 1 0 1 2 0 0 0 0 2 2 2 1 3 4 3 3 3 5 2 2 2 2 1 1 1 2 2 0 1 2 2 0 0 3 3 3 2 3 3 2 2 3 2 2 3 1 0 0 0 0 0 0 0 0 0 0 0 2 0 0 1 0 1 0 0 0 0 0 0 0 0 0 0 0 0 0 0 0 0 0 0 0 0 
0 0 0 0 0 0 0 0 0 0 0 1 1 0 1 0 0 0 0 0 0 0 0 0 0 0 0 0 0 0 1 1 0 1 1 1 2 1 2 1 1 2 0 0 2 2 0 3 0 0 2 3 3 2 2 0 1 2 2 3 2 1 1 1 0 0 0 0 0 0 0 0 0 1 1 2 0 2 1 1 0 1 2 0 1 0 0 0 0 0 0 0 1 2 3 3 3 3 2 3 3 4 4 3 4 4 4 4 4 5 6 7 8 7 5 4 5 6 3 4 4 4 6 5 5 8 6 7 5 6 3 4 3 2 4 2 2 2 3 0 0 0 0 0 0 0 0 0 0 0 0 0 0 0 0 0 0 0 0 1 0 0 0 0 0 0 0 0 0 0 0 0 0 1 1 1 0 0 0 1 0 1 1 2 1 0 0 0 0 0 4 47 109 136 145 148 152 155 157 160 163 162 162 166 168 167 168 168 169 169 168 167 168 169 170 170 169 170 170 171 172 171 170 172 173 173 174 173 173 174 174 174 173 172 172 174 173 173 172 172 176 176 175 176 177 174 176 175 177 177 177 177 177 177 178 178 179 179 178 178 176 177 177 176 178 178 181 181 180 181 182 183 183 183 182 184 184 184 185 185 186 186 185 184 184 184 184 185 187 188 185 187 185 187 187 185 184 184 184 186 187 185 185 185 185 187 186 187 185 183 184 185 184 182 183 183 184 185 184 186 186 184 185 185 186 189 188 187 187 188 186 185 186 184 187 188 187 189 189 188 189 191 191 190 190 190 190 189 190 189 189 190 192 191 190 191 191 192 190 188 187 185 185 185 185 186 185 185 185 186 187 186 187 187 186 190 187 186 186 186 186 185 185 184 184 182 184 186 184 184 185 186 185 186 186 185 186 185 185 186 186 185 185 185 184 183 184 184 184 184 183 183 183 181 181 181 180 162 87 27 22 25 28 32 32 34 45 70 105 148 169 173 171 170 172 171 174 172 173 174 175 175 176 176 174 175 172 173 170 168 167 165 166 166 165 158 140 108 61 23 2 0 0 0 0 0 0 0 0 0 0 0 0 0 1 0 0 0 0 0 0 0 0 0 0 0 0 0 0 0 0 0 0 0 0 0 1 0 0 2 1 1 0 0 1 2 2 2 2 3 4 4 4 2 4 2 3 6 6 5 5 6 7 7 7 7 6 5 5 3 3 4 3 3 3 1 1 0 0 0 0 0 3 2 2 4 3 2 1 0 1 2 1 2 1 0 0 0 1 0 0 0 0 0 0 1 1 2 3 3 3 3 3 3 1 0 1 0 3 2 1 0 2 0 0 0 2 2 0 1 2 4 3 4 2 0 1 2 3 0 2 1 0 0 0 0 0 0 0 0 0 0 0 0 0 0 0 0 0 0 0 0 0 0 0 0 0 0 0 0 0 0 0 0 0 0 0 0 0 0 
0 0 0 0 0 0 0 0 0 0 0 1 0 0 0 0 0 0 0 0 0 0 0 0 0 0 1 0 0 0 1 1 0 4 3 2 3 1 3 1 1 0 0 1 3 1 2 2 1 2 2 3 4 3 2 0 2 1 2 1 0 0 1 1 1 0 0 0 0 0 0 0 0 0 0 0 0 0 0 0 0 1 2 1 1 0 0 0 0 0 0 0 1 1 2 2 3 3 5 4 4 4 3 4 4 3 4 5 6 6 7 5 5 6 5 4 4 3 5 4 4 3 5 4 5 6 7 7 5 5 2 2 4 3 4 3 3 3 2 1 1 0 0 0 0 1 0 0 0 0 0 0 0 0 0 0 0 0 0 2 0 0 0 0 0 0 0 0 0 0 0 0 0 0 0 0 0 1 1 0 1 1 0 0 0 0 0 0 0 0 0 11 68 120 136 144 149 153 155 157 161 163 163 165 165 166 167 168 169 168 167 167 166 168 167 168 167 169 169 170 170 168 170 172 172 173 173 174 173 173 174 175 172 171 172 172 171 171 172 173 175 177 177 177 177 176 176 175 176 176 177 178 177 176 176 177 177 177 177 177 176 177 179 178 177 181 181 181 181 181 182 182 183 181 182 183 187 184 185 184 183 184 184 183 183 182 184 185 186 187 187 188 188 186 186 186 185 186 185 187 187 187 187 186 186 185 185 185 186 184 184 184 184 184 183 182 184 185 184 185 184 184 185 187 187 189 187 186 187 187 187 185 187 187 185 187 188 189 189 189 189 191 190 189 190 190 188 188 189 190 189 188 190 191 190 189 189 190 189 188 188 185 185 184 184 184 185 185 186 186 186 187 187 186 186 187 187 184 185 185 185 186 186 186 184 184 183 185 185 183 185 185 185 184 186 187 185 183 185 186 186 186 185 185 183 186 185 185 183 182 183 182 180 182 180 179 173 126 60 43 47 49 52 55 58 62 74 100 134 163 174 172 174 173 173 173 173 172 174 173 174 174 175 173 172 170 170 166 165 165 166 165 164 153 132 95 48 15 2 0 0 0 0 0 1 1 1 0 0 0 0 0 1 0 0 0 0 0 0 0 0 0 0 0 0 0 0 0 0 0 0 0 0 0 0 0 0 0 0 0 2 2 1 2 2 2 2 2 2 4 3 3 4 3 3 3 5 5 7 6 6 5 7 6 6 7 4 4 5 4 4 4 3 4 2 2 2 1 1 1 1 2 2 3 3 2 3 2 1 2 2 1 1 1 0 1 0 0 0 1 0 0 0 0 1 1 1 3 2 4 3 2 2 3 1 2 0 0 2 1 1 0 1 0 0 0 0 1 0 2 2 3 3 2 3 2 2 0 2 0 1 2 0 0 0 0 0 0 0 0 0 0 0 0 0 0 0 1 0 0 0 0 0 0 0 0 0 0 0 0 0 0 0 0 0 0 0 0 1 0 
0 0 0 0 0 0 0 0 0 0 0 0 1 0 0 0 0 0 0 0 0 0 0 0 0 0 3 0 0 0 2 2 2 4 1 3 2 1 2 2 0 2 1 1 2 0 2 0 1 3 3 3 3 3 2 1 1 2 2 2 2 1 1 1 0 0 0 0 0 0 0 0 0 0 0 0 0 1 1 0 0 0 0 1 1 2 2 0 0 0 0 0 0 0 1 3 4 3 4 3 3 3 4 5 6 4 4 5 5 6 6 6 4 4 3 3 4 4 5 4 4 4 6 4 6 5 6 5 4 3 3 5 5 2 4 2 3 2 1 1 0 0 0 0 0 1 1 0 0 1 0 0 0 0 0 0 0 1 0 0 0 0 0 0 0 0 0 0 0 0 0 0 0 0 0 0 0 0 0 0 0 0 0 0 0 0 0 0 0 0 0 0 24 84 124 136 142 148 152 156 159 160 162 162 164 164 167 166 167 166 165 166 166 165 166 164 166 167 169 169 169 169 168 171 173 171 172 174 174 174 173 172 172 173 172 172 171 171 173 173 173 174 174 175 175 175 175 176 176 175 176 177 177 177 176 176 175 176 178 178 178 179 179 177 180 181 180 182 182 182 184 182 182 181 182 183 185 185 185 185 185 183 182 182 182 181 184 186 185 185 185 186 186 187 187 187 185 184 185 186 185 186 187 187 186 184 185 185 185 185 185 184 183 185 185 184 184 183 184 185 185 184 185 185 186 187 187 186 187 187 186 186 185 185 186 187 188 188 188 189 189 189 188 189 189 187 187 188 188 190 190 188 190 190 191 191 190 189 189 190 188 186 186 184 184 185 184 184 185 186 188 186 185 185 186 186 187 185 185 185 186 186 185 185 183 182 184 183 184 184 183 184 184 185 186 186 185 186 186 186 186 186 185 185 184 184 183 184 183 181 182 181 180 180 178 177 148 87 64 69 68 71 76 78 82 89 96 121 146 169 174 177 175 176 175 175 174 173 171 171 172 172 170 168 167 165 164 163 163 164 161 148 123 82 39 11 0 0 0 0 0 0 0 0 0 1 0 0 0 0 0 0 0 0 0 0 0 0 0 0 0 0 0 0 0 0 0 0 0 0 0 0 0 0 0 0 0 0 0 0 1 0 2 2 2 3 2 2 2 3 2 3 4 2 1 2 5 5 6 5 6 6 5 7 6 5 5 4 2 2 3 1 3 4 1 2 2 2 0 2 0 2 3 2 2 1 2 2 1 2 1 0 2 0 0 0 1 0 0 0 0 0 0 0 1 0 1 3 3 2 5 4 2 3 1 0 1 1 0 0 0 0 0 0 0 0 0 1 0 1 2 2 2 2 1 2 0 0 0 2 0 0 2 0 0 0 0 0 0 0 0 0 0 0 0 0 1 2 1 0 0 0 0 0 0 0 0 0 0 0 0 0 0 0 0 0 0 0 0 0 
0 0 0 0 0 0 0 0 0 0 0 0 0 0 0 0 0 0 0 0 0 0 0 0 0 0 0 1 3 2 2 3 2 4 4 3 2 2 2 1 0 1 2 2 1 1 2 1 1 2 2 2 2 3 3 3 4 3 4 3 2 1 0 0 0 0 0 0 0 0 0 0 0 0 0 0 0 0 0 0 0 1 1 1 1 1 0 0 0 0 0 0 0 0 0 1 3 2 3 2 2 4 4 4 5 5 5 5 5 4 4 3 3 3 4 4 5 4 3 4 6 5 6 5 4 5 5 6 4 3 3 3 3 3 3 4 4 4 3 2 0 1 2 1 0 0 0 0 0 0 0 1 0 0 0 1 0 1 0 0 0 0 0 0 0 0 0 0 0 0 0 0 0 0 0 0 0 0 0 1 0 1 0 0 0 0 0 0 0 0 0 0 0 41 100 126 134 143 148 153 156 160 160 161 163 163 163 165 165 165 167 165 165 164 164 163 164 166 168 169 169 171 169 169 170 171 173 174 175 174 174 173 171 170 170 171 173 173 174 172 173 174 174 175 172 172 174 176 175 175 175 176 177 176 175 177 176 177 177 179 178 180 179 179 181 179 180 182 181 180 182 182 181 181 184 184 186 188 187 185 184 183 183 182 181 182 184 185 186 186 184 186 185 186 185 184 184 184 184 185 185 186 186 186 185 185 184 184 184 184 184 184 184 184 185 185 183 184 184 184 183 184 185 185 185 187 187 186 187 187 187 186 185 184 185 187 187 187 187 187 188 187 187 187 188 189 188 188 188 189 189 190 191 190 189 188 187 188 186 187 186 186 185 185 185 185 187 185 186 186 187 187 186 186 187 186 186 184 183 186 185 185 187 185 184 183 183 183 184 185 182 184 185 185 184 185 185 186 186 187 186 185 184 183 184 184 183 183 183 181 181 181 179 178 179 167 121 84 84 88 89 92 94 97 100 105 114 132 154 170 174 176 174 173 176 174 170 170 169 169 167 164 163 162 162 163 163 157 151 135 108 66 30 9 0 0 2 1 2 0 0 0 0 0 0 0 1 0 0 2 0 0 0 0 0 0 0 0 0 0 0 0 0 0 0 0 0 0 0 0 0 0 0 0 0 1 0 0 2 0 0 0 1 1 3 2 3 2 2 3 2 2 2 3 3 2 5 5 4 6 6 5 6 6 5 5 5 3 3 2 0 2 2 2 2 1 2 2 2 2 0 2 3 3 3 2 2 0 2 3 3 2 2 1 1 0 2 1 0 0 0 0 0 0 0 1 1 3 4 3 2 2 2 2 0 1 0 0 0 0 0 0 0 0 0 0 1 0 0 0 0 0 1 0 1 0 0 0 0 2 2 0 0 0 0 0 0 0 0 0 0 0 0 0 0 0 1 1 1 0 0 0 0 1 1 0 0 0 0 0 0 0 0 0 0 0 0 0 0 0 
0 0 0 0 0 0 0 0 0 0 0 0 0 0 0 0 0 0 0 0 0 0 0 0 0 1 2 1 2 3 1 2 3 4 4 4 2 1 1 1 1 2 2 0 0 0 0 3 1 1 0 1 2 4 3 4 3 3 3 2 2 1 1 0 0 0 0 0 0 0 0 0 0 0 0 0 0 1 1 0 0 0 1 2 1 0 0 0 0 0 0 0 0 0 1 1 2 1 2 3 3 4 4 3 6 5 4 5 5 4 3 4 3 3 1 3 3 4 4 5 4 5 5 6 6 6 5 3 3 2 2 1 1 2 2 2 3 3 3 2 1 0 1 0 1 0 1 2 2 1 1 0 0 0 0 1 2 0 1 0 0 0 0 0 0 0 0 0 0 0 0 0 0 0 0 0 0 0 1 0 0 0 0 0 0 0 0 0 0 0 0 0 0 8 57 105 123 132 141 148 152 155 156 158 159 159 161 163 162 164 165 163 164 164 164 165 166 165 166 169 171 169 170 169 171 170 173 171 173 173 173 171 171 171 169 170 172 173 173 174 174 174 174 172 172 171 174 173 174 174 174 175 176 175 177 176 176 176 177 178 178 180 178 179 179 179 179 179 180 183 182 180 182 182 184 185 185 187 185 184 186 182 183 182 182 182 183 183 185 186 186 186 185 184 186 184 185 184 184 185 184 186 187 186 183 185 184 183 182 185 184 183 182 184 183 182 182 184 184 184 184 184 185 185 184 186 188 187 186 186 187 187 186 185 185 186 184 185 185 186 187 186 187 187 187 189 187 186 188 188 189 188 189 190 188 188 188 185 185 185 186 186 185 185 186 185 186 186 185 184 188 188 186 187 187 184 185 185 185 185 187 185 185 184 182 183 184 184 185 184 185 186 185 186 186 188 186 186 186 186 185 186 184 183 184 182 182 182 180 180 180 180 178 177 175 153 108 97 101 102 103 105 106 109 113 117 126 143 158 171 172 172 170 170 170 170 166 165 163 160 157 156 157 159 156 149 133 106 74 42 19 8 2 3 3 4 1 3 2 0 0 0 0 0 0 1 2 2 1 1 1 0 0 0 0 0 0 0 0 0 0 0 0 0 0 0 0 0 0 0 0 0 0 1 1 1 2 0 1 1 0 1 3 2 2 3 2 2 2 1 2 2 1 1 2 2 2 4 5 6 5 6 6 5 5 5 5 3 4 2 2 0 2 3 2 1 2 2 1 1 1 2 3 4 3 3 2 3 4 3 4 2 1 1 2 1 1 1 0 0 0 0 0 0 1 2 2 2 3 4 3 4 2 1 1 0 1 0 0 0 0 0 0 0 1 0 0 1 0 0 0 0 2 1 0 0 0 0 0 1 2 1 0 0 0 0 0 0 0 0 0 1 2 0 0 1 3 3 2 1 0 0 1 1 1 0 0 0 0 0 0 0 0 0 0 0 0 0 0 0 
0 0 0 0 0 0 0 0 0 0 0 0 0 0 0 0 0 0 0 0 0 0 0 0 1 1 1 1 1 1 1 0 2 4 4 3 3 2 0 0 0 1 0 0 2 0 2 2 3 1 0 2 3 4 4 4 5 3 3 2 3 1 0 0 0 0 0 0 0 0 2 1 0 0 1 0 1 1 1 0 0 0 1 1 2 1 0 0 0 0 0 0 0 0 0 1 1 1 1 2 3 4 4 4 5 5 5 5 5 5 5 4 2 2 2 3 2 3 2 3 3 4 4 6 6 4 4 2 5 2 3 1 2 1 1 1 1 2 2 2 1 1 2 0 1 1 1 2 2 0 2 1 0 1 2 0 1 0 0 0 0 0 0 0 0 0 0 0 0 0 0 0 0 0 0 0 0 1 0 0 0 0 0 0 0 0 0 0 0 0 0 0 0 0 17 67 107 123 132 142 146 149 153 154 154 157 160 162 162 163 162 161 163 162 162 163 166 166 167 167 168 168 168 169 171 172 172 172 172 173 171 171 168 168 168 170 170 171 172 173 174 173 174 174 173 173 174 174 172 173 173 174 176 176 175 176 175 175 177 177 176 177 177 177 177 179 179 178 180 181 182 183 183 182 185 184 186 186 187 185 185 183 185 184 183 183 183 184 186 185 186 185 185 184 184 183 184 184 183 185 184 185 186 185 184 185 185 184 184 184 185 184 181 182 182 182 181 183 181 183 183 184 185 186 186 186 186 186 187 186 186 186 185 185 185 185 185 186 186 186 186 186 187 187 187 187 188 188 187 188 186 188 188 187 187 187 186 184 184 185 185 183 185 185 185 184 185 185 185 186 187 187 186 185 185 186 185 186 185 185 184 185 184 184 184 184 184 185 184 187 185 185 186 186 188 185 185 186 185 184 186 185 184 185 183 183 180 180 179 178 178 179 177 177 170 136 111 110 112 114 115 118 120 122 126 128 135 146 157 165 168 167 165 166 162 162 158 157 155 155 153 149 143 128 103 71 38 17 9 6 4 3 3 5 5 3 2 1 1 0 0 3 1 0 1 1 1 1 1 0 0 0 0 0 0 0 0 0 0 0 0 0 0 0 0 0 0 0 0 0 0 0 0 1 1 1 1 0 2 1 0 2 3 4 3 3 2 2 3 2 3 2 2 2 2 2 3 5 4 5 6 6 7 5 4 4 4 3 3 2 2 1 2 2 4 3 5 3 2 3 2 3 4 4 4 4 4 5 4 3 3 2 1 3 2 1 1 1 1 0 1 0 0 0 1 3 2 2 2 1 2 4 3 1 1 1 1 0 1 0 0 0 0 0 0 0 0 0 0 0 1 1 0 0 0 0 0 0 0 0 1 0 0 0 0 0 0 0 0 0 0 0 0 1 2 2 3 3 2 2 3 2 2 2 2 0 0 0 0 0 0 0 0 0 0 0 0 0 0 0 
0 0 0 0 0 0 0 0 0 0 0 0 0 0 0 0 0 0 0 0 0 0 0 0 2 2 1 1 1 1 0 1 3 3 3 2 1 2 0 1 2 1 1 1 0 1 3 3 3 2 2 2 3 4 4 5 5 4 4 3 2 1 0 0 0 0 0 0 0 0 1 1 1 2 1 0 2 2 1 0 0 0 0 2 1 0 0 0 0 0 0 0 0 0 2 1 3 0 2 2 2 5 3 4 4 4 5 5 5 3 3 1 2 2 2 3 3 4 4 4 4 4 5 5 4 4 3 5 2 4 3 4 2 3 2 1 2 1 2 1 0 2 0 1 1 1 0 1 1 0 1 2 2 2 1 0 0 0 0 0 0 0 0 0 0 0 0 0 0 0 0 0 0 0 0 0 0 0 0 0 0 0 0 0 0 0 0 0 0 0 0 0 0 0 0 25 71 106 121 132 141 144 147 149 151 153 155 158 159 159 160 161 161 161 162 160 162 164 166 167 167 167 167 168 170 172 172 172 171 172 170 170 168 167 168 170 171 169 172 174 173 172 172 174 172 172 173 174 173 173 173 175 176 174 174 175 175 174 177 176 176 177 177 176 177 178 177 179 179 180 180 180 181 183 184 185 188 186 185 184 183 185 184 184 183 182 183 184 184 185 184 183 185 184 185 185 185 183 182 183 185 184 185 185 184 183 184 184 185 184 185 183 182 181 183 182 180 182 182 184 184 184 186 185 186 185 185 186 187 187 187 186 185 185 184 185 184 185 186 185 184 186 184 186 186 187 189 187 188 186 186 188 187 187 185 185 183 184 184 183 183 184 182 184 183 183 185 184 185 187 187 186 185 185 186 184 186 184 186 186 185 185 184 185 185 185 185 186 187 184 184 184 187 188 187 185 185 186 184 183 184 184 184 183 184 182 180 178 177 178 178 178 175 176 164 128 118 120 123 125 126 129 130 132 133 136 141 145 150 157 159 159 157 155 153 153 151 151 147 136 119 95 65 36 16 9 4 3 2 4 4 4 3 2 4 4 2 0 0 1 0 1 0 0 0 0 1 1 1 1 0 0 0 0 0 0 0 0 0 0 0 0 0 0 0 0 0 0 0 0 0 1 1 2 0 1 1 1 1 0 0 2 4 2 1 2 1 2 1 1 2 1 2 1 3 3 2 4 4 5 6 5 6 6 5 4 3 2 4 2 1 1 1 3 3 2 4 4 4 2 3 3 4 2 3 3 3 3 3 4 4 3 4 2 1 1 1 0 1 0 1 0 0 0 0 2 3 2 2 1 3 2 2 2 0 2 2 1 1 1 0 0 0 0 0 0 0 0 0 0 0 0 0 0 0 0 0 0 0 0 0 0 0 1 1 0 0 0 0 0 0 1 0 2 2 2 2 2 3 3 2 2 3 3 2 1 0 0 0 0 0 0 0 0 0 0 0 0 0 0 
0 0 0 0 0 0 0 0 0 0 0 0 0 0 0 0 0 0 0 0 0 0 0 0 0 0 0 1 0 0 3 2 2 2 3 2 1 1 1 1 0 1 1 2 3 4 3 2 3 3 4 4 4 4 3 3 4 4 3 3 2 0 0 0 0 0 0 0 1 2 3 1 1 2 2 2 1 1 0 0 0 0 0 0 1 0 0 0 0 0 0 0 0 1 1 1 1 2 2 4 4 4 4 6 4 3 3 4 5 2 2 0 3 2 2 2 2 2 4 5 5 3 4 5 4 4 5 6 4 3 2 2 3 3 0 3 2 2 2 3 1 1 1 0 2 3 2 1 1 0 1 1 2 4 2 0 0 1 1 0 0 0 0 0 0 0 0 0 0 0 0 0 0 0 0 0 0 0 0 0 0 0 0 0 0 0 0 0 0 0 0 0 0 0 0 2 27 72 104 120 131 140 143 145 148 151 152 154 157 157 160 159 161 162 161 161 161 164 164 166 165 166 167 168 169 169 171 172 171 171 169 168 169 169 167 169 169 169 170 171 171 172 172 171 172 172 170 174 175 174 175 176 175 175 175 175 174 173 175 175 176 177 176 178 178 177 178 178 179 178 179 179 182 180 181 185 186 185 185 186 183 185 184 183 182 183 183 185 184 184 184 185 183 183 184 183 184 183 184 184 185 184 186 185 185 184 184 183 183 183 184 183 182 183 184 183 183 183 184 185 184 185 185 187 186 186 185 186 186 185 185 186 185 185 183 185 185 185 186 183 184 185 184 185 186 187 187 187 187 187 186 186 186 185 184 182 182 182 183 183 182 181 182 183 182 183 185 185 188 187 188 186 186 185 187 186 187 185 186 185 184 185 186 185 185 185 185 185 186 185 185 187 187 186 185 185 184 185 184 182 182 183 183 183 181 182 181 180 178 178 178 177 174 174 154 128 124 128 128 128 132 134 133 136 139 142 143 143 145 146 148 147 146 146 142 138 128 114 91 57 26 11 7 3 4 4 4 5 2 1 2 5 2 4 3 3 4 2 0 1 1 0 0 0 1 0 0 1 1 0 0 0 0 0 0 0 0 0 0 0 0 0 0 0 0 0 0 0 0 0 0 0 2 1 2 0 1 2 1 1 1 0 2 2 2 3 2 1 1 0 1 1 2 2 2 2 2 5 3 4 4 5 4 5 4 3 2 3 1 2 1 2 2 2 2 3 4 6 4 3 4 5 3 2 2 1 4 3 4 2 3 2 3 2 2 3 3 0 0 0 1 1 0 1 1 0 2 1 1 1 2 2 1 1 0 0 0 0 0 0 0 0 0 0 0 0 0 0 1 1 0 0 0 0 0 0 0 0 0 2 0 0 0 0 0 0 0 0 0 0 0 0 0 1 2 1 1 3 1 3 2 1 1 3 1 0 0 0 0 0 0 0 0 0 0 0 0 0 0 0 
0 0 0 0 0 0 0 0 0 0 0 0 0 0 0 0 0 0 0 0 0 0 0 0 0 1 0 0 0 1 2 2 2 2 2 2 1 1 0 0 1 1 1 2 3 5 5 4 3 2 3 4 5 5 3 2 5 3 4 3 2 0 0 1 0 0 0 0 1 1 2 1 2 2 3 4 3 3 2 2 3 1 0 1 0 2 0 0 0 0 0 0 1 1 2 2 0 2 1 3 3 3 1 2 2 2 2 2 3 1 2 0 2 1 2 0 2 3 3 2 1 2 2 4 3 4 6 4 3 4 2 2 3 4 2 2 3 2 2 3 2 1 0 1 1 2 2 2 1 1 2 3 1 1 2 0 0 0 0 1 0 0 0 0 0 0 0 0 0 0 0 0 0 0 0 0 0 0 0 0 0 0 0 0 0 0 0 0 0 0 0 0 0 0 0 0 4 31 73 102 121 132 137 142 145 148 149 151 153 156 155 158 159 161 162 160 161 164 165 165 165 164 165 166 166 166 167 169 170 170 171 168 170 168 168 168 170 169 170 172 171 171 170 171 171 171 173 172 173 173 173 174 175 175 176 175 173 177 174 175 178 176 176 177 178 176 178 178 180 178 179 180 180 180 182 182 183 183 182 185 183 183 184 183 183 182 185 184 183 184 183 184 183 183 185 184 183 182 182 184 184 185 185 184 185 183 183 182 182 182 183 183 182 182 183 183 182 183 184 184 185 187 187 186 185 185 186 185 185 185 185 184 184 184 184 184 183 183 183 183 182 183 184 185 185 185 186 187 186 188 186 185 185 183 183 181 179 180 182 183 181 182 183 182 183 184 184 187 186 188 188 186 185 186 186 186 185 187 185 185 185 186 186 187 185 186 186 186 185 186 186 185 185 185 186 185 184 183 183 182 180 183 181 181 181 180 179 177 176 176 177 177 175 167 143 131 133 133 134 134 135 136 138 138 139 143 145 142 142 138 134 128 121 105 85 64 42 22 10 3 1 1 2 5 5 4 5 2 3 3 2 3 4 4 5 4 4 0 0 2 1 0 0 0 0 3 1 3 2 2 1 1 0 0 0 0 1 0 0 0 0 0 0 0 0 0 0 1 0 0 0 1 2 0 2 1 2 2 0 1 2 1 2 2 2 3 2 1 0 0 1 2 1 1 3 3 3 4 4 4 3 4 4 4 3 2 2 3 3 2 0 0 2 2 3 4 5 5 5 5 4 3 2 2 3 3 3 2 5 3 4 4 4 3 3 3 2 1 2 1 0 1 2 1 0 0 0 1 1 1 1 0 0 0 0 0 0 0 0 0 0 0 0 0 0 0 0 0 0 0 0 0 0 0 0 0 0 0 0 0 0 0 0 0 0 0 0 0 0 0 0 0 2 2 0 0 1 1 0 2 1 1 1 0 1 0 0 0 0 0 0 0 0 0 0 0 0 0 0 0 
0 0 0 0 0 1 0 0 0 0 0 0 0 0 0 0 0 0 0 0 0 0 1 0 0 1 1 0 2 3 3 2 3 3 2 2 2 1 0 0 3 1 1 2 4 4 4 5 5 3 4 5 4 4 3 2 3 3 4 3 3 1 0 0 1 0 1 0 1 2 3 2 2 1 2 3 4 3 3 2 2 2 1 1 1 0 0 0 1 0 0 0 1 2 3 1 1 0 1 2 0 0 1 1 3 3 2 2 2 1 0 1 1 2 0 0 2 1 2 2 3 3 3 4 3 4 5 5 4 5 3 3 4 5 4 3 2 4 3 3 4 2 1 1 2 2 2 1 0 0 1 2 1 0 0 0 0 0 1 0 1 0 0 0 0 0 0 0 0 0 0 0 0 0 0 0 0 0 0 0 0 0 0 0 0 0 0 0 0 0 0 0 0 0 0 0 0 4 31 72 103 120 129 135 140 144 146 150 151 153 155 154 156 158 160 160 160 160 160 163 165 166 164 167 165 165 166 167 165 163 167 166 168 167 167 169 171 170 171 173 172 170 169 170 172 172 170 172 173 174 174 174 173 177 176 174 174 175 177 175 177 177 177 179 176 177 178 179 179 179 179 180 180 180 180 182 181 181 181 181 182 181 181 182 182 182 184 184 183 183 183 183 183 183 184 183 181 183 182 182 184 186 185 184 185 184 183 182 180 182 181 182 182 182 181 182 182 181 183 185 185 185 186 185 185 185 186 186 183 184 183 183 184 183 183 182 183 183 182 181 182 184 184 185 184 183 184 185 186 186 186 184 185 183 183 182 180 181 181 181 181 181 182 184 184 185 185 188 187 187 187 185 187 186 186 187 186 185 186 184 185 184 186 187 187 188 187 188 185 186 185 185 186 183 186 182 183 183 182 182 183 183 183 181 181 179 177 175 175 175 173 174 173 160 136 134 136 136 134 134 135 137 138 136 135 134 129 123 110 92 72 52 31 16 6 3 2 0 0 1 2 3 4 5 4 3 2 2 2 1 2 2 2 2 5 3 2 0 0 0 0 0 0 0 0 2 3 1 2 1 2 2 2 3 0 0 2 0 0 0 0 0 0 0 0 0 0 2 0 0 1 1 1 2 2 1 2 3 2 2 4 1 1 2 1 3 2 1 0 1 0 1 3 2 3 1 2 4 4 4 4 4 3 2 1 1 1 2 2 1 1 0 1 2 4 5 5 4 4 4 3 4 4 2 3 4 4 4 4 4 3 2 4 4 2 3 1 0 2 2 1 3 0 1 1 2 2 2 2 2 0 0 0 0 0 0 0 0 0 0 0 0 0 0 0 0 0 0 0 0 0 0 0 0 0 0 0 0 1 1 0 0 0 0 1 0 0 0 0 0 0 1 1 1 0 1 2 2 1 1 1 2 0 0 0 0 0 0 0 0 0 0 0 0 0 0 0 0 0 0 
0 0 0 0 0 0 0 0 0 0 0 0 0 0 0 0 0 0 0 1 0 0 0 0 0 0 0 2 1 3 2 3 2 3 3 2 2 2 2 1 2 2 2 3 4 5 5 4 5 3 3 3 4 4 3 2 3 3 2 4 1 2 1 0 0 2 1 0 1 1 2 1 2 3 2 2 3 3 3 3 3 2 2 0 1 1 0 0 1 0 1 1 0 2 1 0 1 0 0 0 0 0 1 2 1 2 1 0 0 1 0 2 1 2 0 0 1 1 1 2 3 3 2 2 5 4 5 5 5 4 4 4 4 4 3 1 2 2 2 2 3 2 3 2 2 2 2 1 1 0 0 0 0 0 0 0 0 0 0 1 1 0 0 0 0 0 0 0 0 0 0 0 0 0 0 0 0 0 0 0 0 0 0 0 0 0 0 0 0 0 0 0 0 0 0 0 0 0 4 28 67 101 119 128 132 137 140 143 145 149 151 153 155 156 157 157 158 159 160 162 164 164 163 163 165 164 167 166 165 163 163 164 164 164 167 168 168 171 170 170 171 172 169 168 171 172 172 171 173 174 174 175 176 176 173 172 174 174 175 175 177 177 176 176 175 177 179 179 179 179 180 180 180 180 180 180 181 180 181 179 181 182 181 181 181 181 181 182 183 183 183 182 183 182 182 184 183 182 184 183 185 186 185 184 184 184 182 183 182 183 182 183 182 182 181 181 181 182 183 184 184 184 186 186 184 184 186 185 185 183 184 184 184 182 183 185 184 183 183 183 181 182 182 182 182 182 183 185 185 186 185 182 182 181 181 181 182 181 181 181 182 181 181 182 184 183 185 187 187 187 187 187 187 187 187 186 186 187 184 184 186 185 186 187 189 188 186 186 185 187 186 185 184 185 185 184 183 182 183 181 180 183 181 181 178 178 177 174 174 174 174 173 171 151 132 132 131 130 125 124 121 116 110 102 93 81 61 43 24 10 4 2 0 0 0 0 2 0 0 3 3 3 4 4 4 3 4 2 0 2 2 1 4 2 3 1 0 0 0 2 2 0 0 0 0 0 2 1 1 0 1 3 4 2 1 1 0 0 1 1 0 0 0 0 0 0 0 1 0 0 0 0 0 2 3 2 3 2 2 4 3 1 2 2 2 1 2 0 0 0 0 1 2 1 3 3 5 5 5 4 3 2 3 2 1 1 0 3 2 2 1 1 1 2 4 5 3 4 4 2 2 2 2 2 4 4 4 5 4 4 3 3 4 4 4 3 2 3 3 1 0 0 0 0 1 2 3 2 3 2 1 0 0 0 0 0 0 0 0 0 0 0 0 0 0 0 0 0 0 0 0 0 0 0 0 0 0 0 1 2 2 0 0 0 1 0 1 0 0 0 0 0 0 0 1 1 1 2 1 0 0 0 0 0 0 0 0 0 0 0 0 0 0 0 0 1 0 0 0 0 
0 0 0 0 0 0 0 0 0 0 0 0 0 0 0 0 0 0 0 0 0 0 0 0 1 1 0 0 3 2 1 0 3 1 2 3 1 2 2 2 2 1 2 1 3 4 5 3 4 2 2 4 4 3 2 2 3 1 2 2 3 2 1 2 1 1 1 1 2 1 1 2 2 2 2 2 2 2 2 2 2 2 0 2 3 2 0 0 1 1 0 0 0 1 0 1 1 1 1 1 0 0 0 2 0 0 0 0 0 0 0 0 0 1 0 0 1 1 2 3 2 4 1 1 1 2 4 5 3 4 4 4 3 2 2 0 2 1 2 3 3 3 4 3 3 2 2 1 1 1 1 0 0 0 0 0 1 0 0 1 1 1 0 0 0 0 0 0 0 0 0 0 0 0 0 0 0 0 0 0 0 0 0 0 0 0 0 0 0 0 0 0 0 0 0 0 0 0 0 5 25 64 98 114 123 130 134 137 142 145 146 149 152 153 155 155 155 155 159 158 161 162 163 162 162 166 163 165 163 164 164 165 163 164 165 164 167 166 167 168 168 168 170 169 169 170 171 171 171 173 172 173 174 174 174 173 175 175 175 173 175 175 175 176 175 175 178 177 179 179 180 179 178 181 180 181 181 180 180 179 180 181 181 180 182 180 181 181 183 183 182 183 180 182 181 181 182 181 184 182 182 185 186 184 183 182 180 182 182 181 182 182 182 182 181 181 182 183 183 184 183 183 185 185 185 185 186 184 184 183 183 182 182 182 183 183 184 183 181 181 181 183 183 183 180 181 180 182 184 184 182 183 183 182 181 180 181 181 183 182 180 180 181 183 183 184 184 186 185 187 187 186 186 186 188 187 185 187 186 185 184 184 186 186 184 185 186 186 187 187 188 187 187 185 184 183 181 180 179 180 179 179 180 178 179 178 177 174 175 175 174 169 169 152 135 130 108 91 79 68 55 43 28 20 10 6 3 3 1 0 0 0 0 1 2 1 2 0 1 2 4 1 2 4 3 2 3 2 1 1 2 1 2 2 4 4 1 1 1 3 0 0 1 0 1 1 0 2 1 2 2 2 3 2 3 3 2 1 1 0 0 0 0 0 0 1 1 2 0 0 1 0 2 3 3 2 3 4 2 3 2 1 3 1 0 0 1 0 0 0 2 1 1 0 1 1 0 2 3 3 3 3 2 2 2 1 1 0 1 1 1 2 3 2 4 4 4 4 4 2 2 2 3 4 6 4 5 4 4 4 4 5 4 4 3 3 3 2 2 0 0 0 0 2 0 0 0 3 2 1 1 0 0 0 0 0 0 0 0 0 0 0 0 0 0 0 0 0 0 0 0 0 0 1 1 0 1 2 1 2 2 1 0 0 0 0 0 0 1 1 1 0 0 1 0 0 0 1 0 0 1 0 0 0 0 0 0 0 0 0 0 0 0 0 0 0 0 0 0 0 
0 0 0 0 0 0 0 0 0 0 0 0 0 0 0 0 0 0 0 0 0 0 0 1 1 1 0 1 2 0 1 1 0 3 2 2 1 1 2 4 2 1 1 4 3 4 3 2 2 2 3 4 4 1 3 3 4 3 2 2 3 3 2 0 3 2 1 0 1 1 2 2 2 2 3 1 2 4 4 4 3 3 2 1 1 0 1 0 1 1 0 0 1 0 0 1 1 2 0 0 0 1 1 1 2 0 1 0 0 0 0 0 0 1 0 0 0 0 1 3 3 3 1 0 2 1 2 2 3 2 3 2 3 2 2 2 0 2 3 2 1 2 2 3 3 3 0 2 2 2 1 0 0 0 2 0 0 0 1 0 0 0 0 0 0 0 0 0 0 0 0 0 0 0 0 0 0 0 0 0 0 0 0 0 0 0 0 0 0 0 0 0 0 0 0 0 0 0 0 0 1 23 60 95 112 118 125 130 136 140 142 146 147 149 151 150 153 154 156 157 157 158 160 159 163 162 161 162 164 164 163 164 164 164 165 167 167 166 166 166 167 168 168 169 169 169 171 172 171 173 174 173 174 173 174 174 174 174 174 175 174 175 176 174 175 177 176 176 178 178 180 180 178 179 180 180 180 180 179 179 179 180 179 180 179 180 181 182 182 183 181 181 181 180 181 181 181 182 182 181 181 183 184 184 183 181 180 181 181 181 183 183 182 182 183 182 183 183 185 185 185 184 184 185 184 184 185 184 182 182 183 181 182 182 182 182 182 182 183 180 180 182 183 182 180 179 181 181 182 183 183 182 181 181 180 180 179 181 183 183 181 181 182 182 183 184 183 184 184 185 187 188 188 187 188 187 187 187 186 185 184 184 185 184 185 187 187 186 186 188 186 186 184 185 185 184 181 181 179 179 179 180 177 179 179 177 177 176 173 173 170 169 167 160 151 113 47 13 5 1 0 0 0 0 0 0 0 0 0 1 0 0 0 0 1 0 0 0 0 0 0 1 3 3 3 3 2 2 2 2 3 2 3 3 4 2 4 2 2 2 1 1 2 2 0 1 1 2 2 1 3 1 4 3 3 3 1 2 2 1 0 0 0 1 0 0 3 2 3 1 2 1 3 3 3 1 2 3 3 3 2 3 1 1 0 1 0 0 0 2 0 0 0 0 1 1 0 2 4 3 0 0 2 2 1 2 1 2 2 1 3 1 2 2 4 4 4 3 4 3 4 3 5 4 7 6 4 4 4 4 3 4 2 2 2 2 2 3 2 1 1 1 0 1 0 1 3 2 2 1 0 0 0 0 0 0 0 0 0 0 0 0 0 0 0 0 0 0 0 0 0 0 0 0 1 1 1 1 1 2 0 1 0 0 0 0 0 0 0 1 1 2 1 0 0 0 1 1 0 1 0 0 0 0 0 0 0 0 0 0 0 0 0 1 1 0 1 0 0 0 
0 0 0 0 0 0 0 0 0 0 0 0 0 0 0 0 0 0 0 0 0 0 0 0 1 0 0 0 3 1 1 2 1 1 1 0 1 1 1 3 2 2 1 2 3 2 2 2 2 0 2 3 2 2 2 5 5 4 2 4 4 4 3 2 2 2 1 2 3 2 1 0 2 2 2 2 3 3 3 3 3 4 3 2 0 0 0 0 0 0 0 1 1 0 0 0 0 1 0 0 1 0 1 2 2 0 2 1 0 0 0 0 0 1 0 0 0 0 1 3 4 2 1 2 1 1 1 1 2 1 2 2 2 2 2 0 1 3 1 2 2 2 3 3 2 1 1 2 2 3 3 2 2 1 0 2 0 3 1 0 1 1 0 0 0 0 0 0 0 0 0 0 0 0 0 0 0 0 0 0 0 0 0 0 0 0 0 0 0 0 0 0 0 0 0 0 0 0 0 0 0 2 19 56 90 106 114 120 125 132 138 140 144 145 145 146 148 150 151 153 155 156 157 157 158 159 159 161 162 163 163 161 163 162 165 166 166 164 165 164 167 169 168 168 168 169 170 170 172 172 172 174 175 174 174 173 172 174 173 173 174 174 174 175 176 176 176 177 178 179 178 179 179 178 178 180 180 178 179 178 179 180 178 179 179 179 180 180 181 181 181 181 180 181 178 180 180 181 179 183 182 182 182 183 183 182 182 181 182 182 182 184 183 182 182 182 183 184 185 185 183 182 183 184 184 184 184 183 183 183 183 181 180 180 182 182 181 181 179 180 181 183 181 180 180 179 179 179 181 181 182 182 181 181 182 181 180 181 181 182 182 182 184 181 182 184 182 183 184 184 185 186 186 187 186 184 186 186 185 186 185 184 185 186 186 186 187 185 186 185 185 183 186 184 184 183 180 181 179 179 178 178 178 178 178 178 176 174 171 170 167 165 162 154 111 43 1 0 0 0 0 0 0 0 0 0 0 0 0 0 0 0 0 0 0 0 0 0 0 1 0 1 2 3 3 4 2 3 2 2 1 2 3 3 4 3 3 4 2 0 0 2 1 0 1 1 1 2 1 1 4 2 2 3 3 4 3 3 2 2 1 2 1 1 2 0 1 4 3 3 2 2 2 2 3 2 0 2 2 2 3 2 1 1 0 0 0 0 0 0 0 0 1 1 1 0 2 2 3 2 1 1 1 3 3 2 2 2 1 3 2 3 1 2 4 4 3 3 4 4 3 5 5 4 4 6 6 5 4 3 4 2 2 2 3 3 2 3 2 1 1 1 0 0 0 0 1 0 1 0 0 0 0 0 0 0 0 0 0 0 0 0 0 0 0 0 0 0 0 0 0 0 0 0 0 0 0 0 1 0 0 0 0 0 0 0 0 0 0 1 2 2 0 1 1 2 1 1 0 1 1 0 0 0 0 0 0 0 0 0 0 0 0 0 0 0 0 0 0 0 
0 0 0 0 0 0 0 0 0 0 0 0 0 0 0 0 0 0 0 0 1 0 0 1 0 0 2 1 0 1 0 3 1 1 1 0 2 2 3 3 2 2 1 2 2 2 1 1 1 0 2 3 2 1 6 4 5 4 3 6 5 5 5 2 4 4 4 2 3 3 2 2 2 1 2 3 3 3 3 3 3 4 4 1 1 0 0 1 0 0 0 0 1 0 0 0 0 1 0 1 1 1 2 2 1 1 0 0 0 1 2 1 1 0 0 0 0 0 0 2 2 1 1 1 2 2 1 1 1 1 2 1 2 2 2 3 2 3 1 0 3 2 5 4 2 3 2 2 3 5 3 2 1 3 1 2 1 1 1 1 1 0 0 0 0 0 0 0 0 0 0 0 0 0 0 0 0 0 0 0 0 0 0 0 0 0 0 0 0 0 0 0 0 0 0 0 0 0 0 0 0 0 2 18 51 83 99 108 116 122 129 132 137 140 143 146 147 147 148 149 151 152 153 152 154 157 158 158 160 161 161 162 162 162 163 165 167 167 165 165 166 167 168 169 166 168 167 167 170 170 172 173 173 172 174 174 172 173 172 172 172 171 172 174 175 176 175 175 176 179 180 180 180 178 178 177 177 177 177 179 177 178 179 179 180 179 178 178 180 181 178 178 179 181 181 179 179 180 180 180 179 181 182 183 184 183 182 182 183 183 183 183 184 183 182 183 183 182 184 183 183 185 183 181 182 183 182 182 182 181 181 180 180 180 181 179 181 180 179 179 179 179 179 179 177 178 178 178 179 181 180 182 182 180 181 180 179 179 179 181 182 181 183 183 182 183 182 184 182 184 183 185 183 183 185 186 185 185 184 185 184 182 184 185 186 186 186 185 185 184 182 182 183 182 182 182 180 180 180 180 179 178 179 178 180 177 175 171 170 169 167 163 150 100 36 0 0 0 0 0 0 0 0 0 0 0 0 0 0 0 0 0 0 0 0 0 0 1 0 0 0 0 2 4 5 4 4 2 3 2 2 3 2 2 2 1 3 2 2 1 1 2 2 2 1 1 1 2 2 2 3 4 6 3 2 2 3 1 3 5 3 1 1 1 2 3 3 4 5 4 3 3 0 1 4 2 1 3 2 2 1 2 0 0 0 1 0 0 0 0 0 0 0 1 1 1 3 2 2 2 1 1 1 2 2 2 2 1 1 2 2 4 3 4 6 4 2 3 2 4 3 5 5 4 4 6 6 6 5 4 4 2 2 2 2 3 3 1 2 0 1 0 0 0 0 0 0 1 1 1 0 0 0 0 0 0 0 0 0 0 0 0 0 0 0 0 0 0 0 0 0 0 0 0 0 0 0 0 0 0 0 0 0 0 0 0 0 0 0 1 1 1 0 3 2 1 2 3 1 2 0 0 1 0 1 0 0 0 0 0 0 0 0 0 0 0 0 0 0 0 
0 0 0 0 0 0 0 0 0 0 0 0 0 0 0 0 0 0 0 0 0 0 0 0 0 0 1 2 2 0 0 0 0 0 0 0 0 0 1 1 1 1 0 1 2 2 0 1 0 1 0 1 1 2 3 3 5 4 4 5 5 5 4 3 2 3 3 2 2 3 2 3 3 3 3 4 4 4 4 3 4 4 2 1 1 1 0 0 0 0 0 0 0 0 1 0 0 0 0 0 1 1 2 0 1 2 0 0 0 0 0 1 0 1 0 0 0 0 0 0 1 0 3 1 1 1 1 2 2 2 2 1 2 2 2 2 2 2 2 1 3 3 4 4 3 2 3 4 3 4 2 3 1 1 1 3 2 1 0 0 1 0 0 0 0 0 0 0 0 0 0 0 0 0 0 0 0 0 0 0 0 0 0 0 0 0 0 0 0 0 0 0 0 0 0 0 0 0 0 0 0 0 1 0 13 44 75 93 103 110 119 122 127 133 138 141 143 144 146 147 149 149 148 148 150 154 154 155 157 160 160 162 163 162 163 163 165 164 164 164 164 167 166 167 166 166 169 169 167 169 169 171 170 172 173 172 173 175 173 171 171 171 172 172 174 173 175 174 175 176 178 179 180 178 177 176 178 176 176 178 177 176 178 179 177 179 178 179 180 179 178 178 179 179 178 178 181 181 181 181 181 182 181 182 183 181 182 183 184 185 182 182 183 182 182 183 182 183 183 182 182 183 182 182 183 182 181 181 180 180 180 180 178 178 179 179 179 179 178 177 179 179 179 178 178 178 178 180 179 179 179 180 180 179 178 179 180 181 180 180 180 181 182 182 181 182 183 183 183 183 182 185 185 186 186 186 184 183 184 185 185 185 184 184 183 183 184 183 183 183 182 182 182 183 182 181 179 180 179 177 179 179 179 178 177 176 174 171 169 166 164 146 95 30 0 0 0 0 0 0 0 0 0 0 0 0 0 0 0 0 0 0 0 0 0 0 0 0 0 0 0 0 1 1 2 2 3 1 3 3 4 3 3 3 2 3 2 1 1 1 1 1 1 1 2 1 3 3 4 2 3 3 4 3 1 3 3 2 4 3 4 3 3 3 3 3 3 3 4 4 2 2 1 0 2 2 3 1 2 3 1 1 0 1 0 0 0 0 0 0 0 0 0 0 0 2 4 4 3 2 2 2 0 0 0 2 1 1 1 1 2 4 4 4 4 3 5 3 2 2 4 3 4 4 5 6 7 5 4 4 3 4 3 5 3 3 2 1 1 0 0 0 0 0 0 2 1 0 0 2 1 0 0 0 0 0 0 0 0 0 0 0 0 0 0 0 0 0 0 0 0 0 0 0 0 0 0 0 0 0 0 0 0 0 0 0 0 0 0 0 0 0 0 0 0 2 2 2 2 2 1 0 0 0 0 0 0 0 0 0 0 0 0 0 0 0 0 0 0 0 
1 0 0 0 0 0 0 0 0 0 0 0 0 0 0 0 0 0 0 0 0 0 0 0 0 1 0 1 1 1 1 1 0 0 0 1 0 0 1 0 1 0 2 2 1 1 1 1 1 1 0 0 1 3 4 5 5 2 5 5 5 5 4 3 2 2 2 3 3 3 4 4 6 5 4 3 3 5 3 5 5 4 4 2 1 1 0 0 0 0 1 0 0 0 1 2 1 1 0 0 2 2 2 1 1 1 1 0 0 0 0 0 0 0 0 0 0 0 0 0 0 1 1 1 2 2 1 1 1 4 3 3 3 2 4 2 2 3 2 2 3 5 4 2 4 3 2 2 2 2 1 1 1 0 1 0 1 0 0 0 0 0 0 0 0 0 0 0 0 0 0 0 0 0 0 0 0 0 0 0 0 0 0 0 0 0 0 0 0 0 0 0 0 0 0 0 0 0 0 0 0 2 1 0 0 11 38 66 83 95 104 112 118 124 131 134 138 140 142 142 143 145 146 149 151 150 151 153 155 156 158 159 159 160 161 161 161 162 163 164 166 167 166 166 167 166 168 170 168 168 172 172 172 170 170 171 171 170 172 171 171 172 173 174 174 173 174 174 175 176 177 178 179 178 177 177 177 177 176 177 177 176 176 178 177 177 179 180 179 178 178 176 177 177 178 179 181 181 181 182 182 181 182 183 182 182 182 183 183 184 183 184 184 183 181 181 179 180 180 180 181 182 183 181 183 181 182 180 181 179 180 179 178 178 177 177 178 179 179 178 178 178 177 178 177 179 178 180 180 179 179 180 181 180 178 179 180 178 178 179 182 181 183 180 181 183 183 184 183 184 185 186 186 186 184 185 185 185 186 185 184 185 185 181 183 184 182 181 183 182 180 180 180 180 181 182 180 178 177 177 178 178 176 176 175 175 172 169 166 161 138 84 23 0 0 0 0 0 0 0 0 0 0 0 0 0 0 0 0 0 0 0 0 0 0 0 0 2 1 0 0 0 0 0 0 1 1 1 3 5 3 2 1 1 2 3 2 1 2 1 1 0 1 0 3 2 4 5 4 4 3 5 4 5 3 2 3 3 4 3 2 3 4 2 4 3 3 4 3 4 3 2 2 1 3 5 3 2 2 1 0 1 1 0 0 0 0 0 0 0 0 0 0 0 0 1 2 3 1 2 0 1 0 1 0 1 2 0 2 0 3 4 4 4 3 2 4 3 3 4 4 4 5 5 4 5 4 4 4 3 3 3 3 5 4 3 4 2 2 0 0 0 0 0 0 0 0 1 1 0 1 0 0 0 0 0 0 0 0 0 0 0 0 0 0 0 0 0 0 0 0 0 0 0 0 0 0 0 0 0 0 0 0 0 0 0 0 0 0 0 0 0 0 0 1 1 2 3 1 2 3 0 0 0 0 0 0 0 0 0 0 0 0 0 0 0 0 0 0 0 
0 0 1 0 0 0 0 0 0 0 0 0 0 0 1 1 0 0 0 0 0 0 0 0 0 0 1 1 1 0 1 3 1 0 0 0 0 0 0 1 1 0 0 0 0 2 1 2 2 3 2 2 3 3 4 4 2 4 4 4 3 4 3 3 3 4 4 3 4 4 5 5 6 5 6 4 5 4 5 5 5 5 4 4 2 1 0 0 0 1 1 1 2 2 1 0 0 0 0 0 1 3 2 0 2 1 0 0 0 0 0 0 0 0 0 0 0 0 0 0 1 3 1 3 3 1 1 2 4 3 2 3 2 3 3 2 3 3 3 2 2 2 1 2 1 2 2 1 1 2 0 1 0 0 1 1 1 0 0 0 0 0 0 0 0 0 0 0 0 0 0 0 0 0 0 0 0 0 0 0 0 0 0 0 0 0 0 0 0 0 0 0 0 0 0 0 0 0 0 0 0 0 0 0 1 0 8 29 54 71 86 96 106 113 120 126 129 134 136 138 139 143 144 144 147 148 147 149 150 153 155 155 156 157 159 157 159 161 163 163 163 166 165 165 167 167 167 167 168 169 170 171 171 172 172 170 171 171 171 172 170 171 172 171 172 172 171 174 174 175 175 175 176 176 176 175 176 177 175 175 177 176 175 177 176 177 178 179 179 178 179 177 178 178 177 177 180 180 182 181 182 183 181 182 183 181 179 181 181 183 183 183 183 181 182 180 179 178 178 181 180 180 181 181 182 183 180 182 179 179 179 178 178 176 176 177 176 178 178 177 176 176 178 178 179 179 179 179 180 178 177 178 178 177 176 177 177 177 177 177 179 180 181 182 182 183 184 184 184 183 185 187 187 187 184 184 185 185 184 186 184 184 185 184 184 182 182 182 182 182 180 179 180 181 180 179 179 179 177 176 176 177 173 174 173 171 168 167 160 127 64 12 0 0 0 0 0 0 0 0 0 0 0 2 2 0 0 0 0 0 0 0 0 0 0 0 0 1 0 0 0 0 1 0 0 1 1 1 2 3 1 2 0 2 1 2 3 1 1 0 1 2 0 3 1 4 5 5 4 5 4 4 6 5 4 3 5 5 6 6 3 4 3 4 3 3 3 3 4 2 3 3 5 3 2 5 2 1 2 2 0 1 1 0 0 0 0 0 0 0 0 0 0 0 0 0 3 3 2 1 1 0 0 0 2 1 1 0 2 3 4 4 3 2 3 3 3 3 3 4 3 4 3 4 4 4 6 4 3 1 2 3 2 2 2 3 3 2 2 0 0 0 0 0 0 0 0 0 0 0 0 0 0 0 0 0 0 0 0 0 0 0 0 0 0 0 0 0 0 0 0 0 0 0 0 0 0 0 0 0 0 0 0 0 0 0 0 0 0 0 0 0 0 0 0 1 1 2 1 1 0 0 0 0 0 0 0 0 0 0 0 0 0 0 0 0 0 0 0 0 
0 1 0 0 0 0 0 1 1 0 0 0 0 0 0 0 0 0 0 0 0 1 0 0 1 0 1 1 0 1 0 0 2 1 0 0 0 0 0 2 1 1 1 2 1 3 2 4 2 4 4 3 5 4 4 5 3 3 5 3 3 4 3 2 4 3 3 4 4 4 7 7 6 4 4 5 6 3 4 6 6 6 5 5 2 2 0 0 0 0 1 1 2 3 1 0 0 0 0 0 0 1 1 0 1 0 0 0 0 0 0 0 0 0 0 0 0 0 0 0 0 2 2 3 3 1 2 3 1 1 2 2 3 1 0 0 2 3 3 5 2 0 1 2 0 1 1 1 1 0 0 1 1 1 1 0 1 0 0 0 0 0 0 0 0 0 0 0 0 0 0 1 0 0 0 0 0 0 0 0 0 0 0 0 0 0 0 0 0 0 0 0 0 0 0 0 0 0 0 0 0 0 0 0 1 1 1 4 19 39 58 76 90 100 107 114 120 124 130 131 135 137 138 141 142 143 144 144 146 149 150 152 152 153 155 156 157 159 159 162 162 163 163 164 165 166 167 167 167 169 169 169 171 171 171 170 171 172 171 172 172 172 172 172 171 171 170 171 170 172 174 172 174 174 175 175 174 175 175 174 175 175 174 176 177 177 178 179 178 177 176 176 177 177 176 176 178 180 181 182 182 183 182 182 183 180 180 180 180 182 182 183 182 180 180 179 180 178 179 179 179 179 180 182 182 182 183 180 180 179 179 177 178 176 175 177 177 176 177 177 176 175 176 177 178 179 178 178 179 178 177 178 175 177 176 176 175 177 177 179 179 179 180 180 180 182 182 183 183 184 185 185 185 186 183 185 185 186 185 184 183 183 185 183 184 182 182 182 182 181 180 180 181 180 180 180 180 177 178 175 174 173 173 171 170 168 165 155 114 52 7 0 0 0 0 0 0 0 0 0 0 0 0 0 0 0 0 0 0 0 0 0 0 0 0 0 1 1 0 0 1 0 1 0 0 1 2 3 0 1 1 1 1 2 2 2 3 1 2 1 1 1 1 4 3 4 6 5 4 5 5 6 7 7 6 5 5 6 5 8 5 4 5 5 3 4 3 3 3 4 4 3 4 3 2 5 3 3 3 2 2 0 0 0 0 0 0 0 0 0 0 0 1 0 1 1 3 4 3 2 0 2 0 0 0 0 1 0 1 3 3 2 3 3 3 3 2 4 2 3 3 4 4 4 3 4 5 4 2 1 2 3 3 2 3 2 2 2 2 0 0 0 0 0 0 0 0 0 0 0 0 0 0 0 0 0 0 0 0 0 0 0 0 0 0 0 0 0 0 0 0 0 0 0 0 0 1 1 0 0 0 0 0 0 0 0 0 0 0 0 0 0 0 0 0 0 0 1 0 0 0 0 0 0 0 0 0 0 0 0 0 0 0 0 0 0 0 0 0 0 
2 4 2 0 0 0 1 0 0 0 0 0 0 0 0 0 0 0 0 0 0 0 0 0 0 1 1 1 1 1 2 0 0 0 0 0 0 0 0 2 3 1 3 1 1 3 3 2 4 4 4 5 5 5 5 5 4 5 5 2 3 4 3 3 4 3 3 2 4 6 6 6 6 6 5 6 7 4 4 4 6 7 7 4 5 3 2 0 0 1 3 2 3 3 3 1 0 0 0 0 0 0 0 0 0 0 0 0 0 0 0 0 0 0 0 0 0 0 0 0 0 1 1 1 1 1 1 2 2 1 0 1 2 0 0 0 0 2 2 1 1 1 0 0 2 1 0 0 2 0 0 0 2 3 1 2 0 0 0 0 0 0 0 0 0 0 0 0 0 0 0 0 0 0 0 0 0 0 0 0 0 0 0 0 0 0 0 0 0 0 0 0 0 0 0 0 0 0 0 0 0 0 0 2 1 1 1 0 1 8 26 47 66 82 93 102 110 117 120 125 128 132 133 139 138 139 138 141 142 145 145 148 149 149 152 154 155 156 158 159 161 161 163 164 164 166 165 166 167 167 166 167 168 169 170 170 170 170 169 170 171 170 171 171 170 170 170 170 172 171 171 171 171 173 172 173 173 174 173 173 172 174 173 174 175 177 177 177 177 177 177 177 176 175 176 177 178 180 180 180 182 181 183 181 181 181 180 180 180 180 181 181 179 179 179 178 178 179 179 178 179 179 181 181 181 182 182 180 179 178 178 178 176 176 175 173 177 175 174 175 177 175 175 176 176 175 177 177 178 176 176 178 177 177 176 176 177 177 178 177 179 178 179 180 181 180 181 182 183 183 184 185 185 185 184 183 183 184 185 184 183 182 183 183 182 181 180 182 182 180 180 181 180 179 178 179 178 176 176 173 174 173 172 169 166 165 148 100 37 0 0 0 0 0 1 0 0 0 0 0 0 0 0 0 0 0 0 0 0 0 0 0 0 0 0 0 1 0 0 0 0 0 0 0 1 0 0 1 2 0 1 1 2 3 3 1 1 1 1 2 1 1 3 2 3 5 6 5 6 4 6 7 7 5 5 5 5 5 6 7 6 5 4 5 4 3 3 3 4 4 3 3 4 3 2 4 3 3 3 2 3 1 1 0 0 1 0 0 0 0 0 0 0 0 1 2 3 3 2 0 0 0 0 0 0 0 0 1 2 3 2 2 1 2 3 2 3 2 4 4 2 3 4 2 2 2 2 2 2 1 1 1 3 3 3 2 0 2 1 0 0 0 0 0 0 0 0 0 0 0 0 0 0 0 0 0 0 0 0 0 0 0 0 0 0 0 0 0 0 0 0 0 0 0 0 0 0 0 0 0 0 0 0 0 1 0 0 0 0 0 0 0 0 0 0 0 0 0 0 0 0 0 0 0 0 0 0 1 0 0 0 0 0 0 0 0 0 0 0 0 
3 4 2 1 1 1 1 2 1 1 1 0 0 0 0 0 0 0 0 0 0 1 1 0 1 1 2 1 1 1 1 3 0 0 0 0 0 0 1 2 2 1 2 1 2 2 3 3 4 4 4 5 4 5 5 5 5 6 5 4 3 5 4 5 3 2 3 4 4 5 7 7 7 6 5 5 3 4 2 5 6 7 7 4 3 3 2 1 0 1 0 2 2 1 2 2 1 0 0 0 0 0 0 0 0 0 0 0 0 0 0 0 0 0 0 0 0 0 0 0 1 1 1 3 2 2 1 1 0 1 0 1 1 1 0 0 0 1 3 2 0 1 1 0 0 0 0 0 1 0 0 2 3 3 2 1 1 0 0 1 0 0 0 0 0 0 0 0 0 0 0 0 0 0 0 0 0 0 0 0 0 0 0 0 0 0 0 0 0 0 0 0 0 0 0 0 0 0 0 0 0 0 1 2 1 0 0 0 0 0 2 12 33 54 73 87 98 104 109 115 119 122 127 130 132 135 136 138 140 142 142 144 144 146 148 150 152 155 156 155 156 158 161 163 163 165 165 165 166 166 165 166 166 168 167 168 168 169 169 168 170 170 172 169 169 168 170 172 171 171 169 170 170 171 172 172 172 170 172 171 171 172 172 172 175 176 176 177 177 177 177 176 176 175 176 177 178 178 179 179 180 180 179 179 180 180 180 179 178 178 178 178 177 177 178 179 179 178 177 178 178 178 180 181 181 181 180 178 177 177 178 178 176 175 174 175 174 175 174 174 174 174 174 176 176 176 176 176 178 176 177 177 176 178 178 177 176 178 176 178 178 177 178 178 180 179 181 183 182 182 183 184 185 183 182 181 182 181 182 181 180 183 182 182 181 181 181 180 179 181 179 179 179 178 178 177 176 177 174 173 172 171 168 166 163 139 85 27 0 0 0 0 0 1 0 0 0 0 1 0 0 0 0 0 0 0 0 0 0 1 0 0 0 0 0 0 0 0 0 0 0 0 0 0 0 3 1 1 1 2 0 2 0 1 3 2 1 2 2 3 1 3 3 2 3 4 5 7 8 7 7 7 6 4 6 6 7 4 5 6 6 5 5 5 5 5 3 4 5 4 4 3 3 4 2 3 5 4 3 2 1 1 0 0 0 0 0 0 0 0 0 0 0 0 1 1 1 1 0 1 0 0 1 0 0 0 0 0 1 2 2 2 1 2 1 3 3 3 2 2 1 1 2 1 2 1 3 2 3 1 1 1 2 4 3 2 1 0 0 0 0 0 0 0 0 0 0 0 0 0 0 0 0 0 0 0 0 0 0 0 0 0 0 0 0 0 0 0 0 0 0 0 0 0 0 0 0 0 0 0 0 0 0 0 0 0 0 0 0 0 0 0 0 0 0 0 0 0 0 0 0 0 0 0 0 0 0 1 0 0 0 0 0 0 0 0 1 0 1 1 
3 3 2 1 2 1 4 3 2 1 0 1 0 0 0 0 0 0 0 2 0 1 2 1 0 1 2 0 0 0 0 0 1 1 0 0 0 0 0 2 1 2 2 1 3 2 2 2 4 5 7 6 3 4 4 4 6 4 4 5 5 5 5 5 3 3 3 4 4 4 6 6 6 6 6 6 5 4 3 4 6 5 5 3 4 2 2 0 1 1 1 1 0 0 0 0 0 0 0 0 0 0 0 0 0 0 0 0 0 0 0 0 0 0 0 0 0 0 0 1 1 0 0 1 0 1 0 0 0 0 0 0 0 0 0 0 0 1 0 1 0 2 1 0 0 0 0 0 0 0 0 0 2 1 1 1 2 0 0 0 0 0 0 0 0 0 0 0 0 0 0 0 0 0 0 0 0 0 0 0 0 0 0 0 0 0 0 0 0 0 0 0 0 0 0 0 0 0 0 0 0 0 1 0 0 0 0 0 0 0 0 0 4 20 40 61 77 89 97 102 107 112 117 122 126 127 129 132 133 135 139 141 140 145 145 146 148 151 153 154 154 156 159 160 160 162 162 163 163 165 166 166 167 166 166 166 166 166 167 167 167 168 168 167 168 169 169 170 170 169 169 169 170 169 171 170 171 169 170 170 171 170 171 174 173 174 174 175 178 176 176 176 175 175 174 176 176 178 179 179 178 178 180 178 177 179 179 180 178 178 177 178 179 178 177 177 178 178 176 178 178 177 179 179 179 179 177 176 177 177 176 176 176 173 174 174 175 175 175 174 173 172 174 174 174 175 175 177 176 176 177 177 176 177 177 176 176 176 176 177 178 179 179 180 179 179 180 181 182 183 184 183 183 182 181 180 180 178 180 180 180 180 180 182 180 180 180 179 180 179 180 178 178 177 178 178 176 176 174 171 170 167 165 160 129 67 14 0 0 0 0 0 0 1 1 1 0 0 0 0 0 1 0 0 0 0 0 0 0 0 0 0 0 0 0 0 0 0 0 0 0 0 0 0 0 0 2 0 1 0 1 0 2 2 2 2 1 2 2 1 3 3 2 2 5 5 5 8 6 6 6 6 5 6 7 6 7 6 6 6 6 5 5 4 5 5 3 3 5 3 4 4 3 3 4 1 3 2 0 1 0 0 0 0 0 0 0 0 0 0 0 0 0 0 2 0 3 2 1 2 1 1 0 0 0 0 0 0 0 2 2 1 1 0 2 2 2 2 2 2 2 1 2 1 1 2 3 2 1 1 0 1 2 3 2 1 0 0 0 0 0 0 0 0 0 0 2 1 1 0 0 0 0 0 0 0 0 0 0 0 0 0 0 0 0 0 0 0 0 0 0 0 0 0 0 0 0 0 0 0 0 0 0 0 0 0 0 0 0 0 0 0 0 0 0 0 0 0 0 0 0 0 0 0 0 0 0 0 1 1 0 0 0 0 0 0 2 1 2 3 
3 3 3 1 2 4 4 3 1 1 0 0 2 0 1 1 1 0 1 1 1 3 2 2 1 1 0 0 2 0 0 1 1 0 0 0 0 0 2 1 1 1 3 2 2 2 2 3 1 4 4 4 3 5 4 4 5 4 5 6 6 5 5 6 5 4 4 5 5 4 6 7 7 7 6 6 5 4 6 4 4 5 3 2 4 4 0 0 1 0 0 0 0 0 0 0 0 0 0 0 0 0 0 0 0 0 0 0 0 0 0 0 0 0 0 0 0 0 0 0 0 0 1 0 0 0 0 0 0 0 0 0 0 0 0 0 0 0 0 0 1 2 0 1 2 2 0 0 0 0 0 0 0 1 1 2 2 0 0 0 0 0 0 0 0 0 0 0 0 0 0 0 0 0 0 0 0 0 0 0 0 0 0 0 0 0 0 0 0 0 0 0 0 0 0 0 0 0 0 0 0 0 0 0 0 0 0 0 0 0 0 0 0 1 9 26 47 66 80 88 94 100 106 112 115 120 120 124 125 130 133 138 138 139 141 142 145 148 151 151 152 152 155 157 158 157 159 162 163 163 163 164 163 165 164 165 165 165 167 166 165 166 165 166 167 167 168 167 169 168 169 169 169 169 169 170 170 171 169 171 170 170 171 172 172 173 174 175 174 175 176 175 174 174 174 176 178 176 177 176 177 179 178 177 179 179 178 178 178 177 179 179 178 179 179 178 177 176 175 177 178 177 177 177 179 178 177 175 175 176 175 174 174 174 173 173 174 175 174 173 172 173 173 174 174 175 175 175 176 175 176 175 175 175 176 176 175 175 177 180 177 179 178 178 180 179 179 179 182 183 184 183 181 180 178 178 179 175 177 178 178 179 180 181 181 181 180 178 179 178 176 177 177 176 177 177 175 174 171 168 165 163 155 115 53 8 0 0 0 0 0 0 0 0 1 2 0 0 0 0 0 0 1 0 0 0 0 0 0 1 0 0 0 0 0 0 0 0 0 0 0 0 0 0 0 0 0 1 1 2 1 1 2 2 2 2 3 1 0 1 2 3 3 2 3 7 8 7 6 6 6 6 6 6 7 6 7 9 7 8 7 4 6 4 5 6 3 5 5 3 3 4 3 3 3 1 1 2 0 0 0 0 0 0 0 0 0 0 0 0 1 0 0 0 0 0 0 1 0 0 2 1 1 0 0 0 0 0 0 0 1 0 0 1 1 2 2 2 3 3 1 0 2 2 2 1 2 1 0 2 0 0 0 0 0 1 0 0 0 0 0 0 0 0 0 0 0 1 0 0 0 0 0 0 0 0 0 0 0 0 0 0 0 0 0 0 0 0 0 0 0 0 0 0 0 0 0 0 0 0 0 0 0 0 0 0 0 0 0 0 0 0 0 0 1 2 0 0 0 0 0 0 0 0 0 0 0 0 2 0 0 0 0 0 0 1 2 3 2 4 
3 1 2 2 2 3 4 4 3 2 1 1 2 1 2 2 0 0 2 3 3 5 3 3 2 2 0 3 1 0 0 1 1 0 1 0 0 1 1 3 3 3 2 3 3 2 2 2 1 2 3 3 4 4 3 3 5 5 6 5 4 4 4 6 5 3 5 6 5 5 4 5 7 6 6 4 5 4 6 5 4 5 3 2 2 2 0 0 1 1 0 0 0 0 0 0 0 0 0 0 0 0 0 1 0 0 0 0 0 0 0 0 0 0 0 0 0 0 0 0 0 0 0 0 0 0 0 0 0 0 0 0 0 0 0 0 0 1 0 0 0 1 1 2 0 0 0 0 0 0 0 1 0 0 0 2 0 0 0 0 0 0 0 0 0 0 0 0 0 0 0 0 0 0 0 0 0 0 0 0 0 0 0 0 0 0 0 0 0 0 0 0 0 0 0 0 0 0 0 0 0 0 0 0 0 0 0 0 0 0 0 0 0 0 0 4 14 32 52 66 77 84 93 99 104 109 113 116 117 122 128 132 134 134 136 140 141 143 145 147 149 149 149 152 154 156 158 159 161 163 160 159 159 163 161 161 161 163 163 165 164 165 165 165 166 166 167 168 168 168 168 169 170 169 170 170 169 169 169 168 170 170 171 171 171 172 174 172 173 173 173 174 172 174 173 175 176 177 176 175 175 178 177 178 176 178 177 176 176 176 177 178 178 179 178 177 175 177 177 176 176 177 177 178 177 175 175 173 175 174 173 175 173 173 174 174 175 174 173 173 172 173 175 175 175 174 174 176 176 177 176 176 176 176 177 176 175 176 178 179 179 181 179 179 178 177 179 179 181 182 181 181 180 179 178 178 176 176 178 178 178 180 180 180 181 179 179 178 175 176 175 174 175 174 174 174 174 172 169 166 163 146 100 39 3 0 3 2 0 2 1 1 0 1 0 1 2 0 0 0 0 1 0 0 0 0 0 0 0 0 0 0 0 0 0 0 0 0 0 0 0 0 0 0 0 0 0 0 0 1 3 1 2 2 2 2 1 1 1 2 2 3 2 2 5 5 7 5 6 7 5 6 8 6 5 7 7 7 6 5 7 6 5 5 4 5 5 2 4 5 4 4 3 3 2 2 2 1 0 1 0 1 0 0 0 1 0 0 0 0 0 1 0 0 0 0 0 1 0 0 0 0 0 0 0 0 0 0 0 0 0 0 0 1 0 2 0 1 2 3 1 0 0 1 1 0 0 0 0 0 0 0 0 0 0 0 0 0 0 0 0 0 0 0 0 0 0 0 0 0 0 0 0 0 0 0 0 1 1 2 0 0 0 0 0 0 0 0 0 0 0 0 0 0 0 0 0 0 0 0 0 0 0 0 0 0 0 0 0 0 0 0 1 2 2 1 0 0 0 0 0 1 0 0 0 0 0 0 0 0 0 0 0 2 0 1 4 6 2 3 
4 3 4 2 4 4 3 4 2 3 2 1 2 1 4 0 1 1 2 3 4 4 3 2 3 1 0 1 1 0 0 1 1 0 1 0 0 0 3 3 2 3 3 3 2 0 1 1 1 1 0 1 2 3 3 6 6 5 4 5 4 5 4 3 4 5 6 7 5 5 5 6 7 5 4 3 4 4 3 4 3 3 2 0 0 0 1 0 0 1 1 0 0 0 1 0 0 0 0 0 0 0 1 1 2 0 0 0 0 0 0 0 0 0 0 0 0 0 0 0 0 0 0 0 0 0 1 0 0 0 0 0 0 0 0 0 0 0 0 0 1 1 1 0 0 0 0 0 0 0 0 1 0 1 2 0 0 0 0 0 0 0 0 0 0 0 0 0 1 0 1 0 0 0 0 0 0 0 0 0 0 0 0 0 0 0 0 0 0 0 0 0 0 0 0 0 0 0 0 0 0 0 0 0 0 0 0 0 0 0 0 0 0 0 0 0 0 5 21 38 52 64 74 83 90 95 101 106 110 113 115 122 126 128 130 134 136 138 140 143 144 144 146 148 151 154 156 156 157 158 158 157 157 159 161 160 159 160 162 162 162 163 164 165 164 165 166 165 166 168 168 169 169 169 168 169 166 167 166 168 168 169 170 171 171 170 173 172 171 171 171 170 170 171 172 173 175 175 175 175 176 177 176 176 177 176 177 176 177 177 177 176 177 176 177 176 175 176 176 176 176 176 176 176 176 173 174 173 174 173 173 173 172 171 174 175 175 174 174 173 171 172 173 172 175 174 173 175 174 174 174 174 173 175 175 175 176 177 177 177 178 177 176 176 175 177 179 179 180 181 180 178 179 178 179 177 176 176 176 178 177 178 178 179 178 178 177 176 175 177 176 174 172 174 172 172 170 169 165 161 135 82 27 2 1 3 3 1 3 1 0 2 3 0 0 1 0 0 0 0 0 0 0 0 0 0 0 0 0 1 1 0 0 0 0 0 0 0 0 0 0 0 0 0 0 0 0 0 2 3 2 1 1 4 2 2 1 0 0 2 2 2 3 3 5 6 7 8 4 6 6 7 7 7 5 5 6 6 6 4 4 5 4 4 4 4 4 4 2 3 2 4 3 2 0 2 2 2 2 2 1 0 0 0 1 0 0 0 0 0 0 0 0 0 0 1 0 0 0 0 0 0 0 0 0 0 0 0 0 0 1 0 0 0 0 1 1 1 2 1 0 0 0 0 0 0 0 0 0 0 0 0 0 0 0 0 0 0 0 0 0 0 0 0 0 0 0 0 0 0 0 0 0 0 0 0 0 2 1 1 0 0 0 0 0 0 0 0 0 0 0 0 0 0 0 0 0 0 0 0 0 0 0 0 0 0 0 0 0 0 0 0 0 1 2 1 0 0 0 0 0 0 0 0 0 0 0 1 0 0 1 0 1 2 2 4 4 5 5 3 
5 4 4 3 4 3 3 4 2 3 2 1 1 3 2 1 2 2 4 2 4 2 4 0 2 2 0 0 0 1 0 0 0 0 0 0 0 1 3 2 2 3 3 2 2 1 1 0 1 1 0 1 3 2 4 7 5 6 4 3 4 4 4 4 4 5 5 4 6 5 6 5 5 4 3 3 3 4 3 4 2 1 2 1 0 0 0 0 0 1 1 0 0 1 1 0 1 0 0 0 0 0 0 1 1 0 0 0 0 0 0 0 0 0 0 0 0 0 0 0 0 0 0 0 0 0 0 0 0 0 0 0 0 0 0 0 0 0 0 1 0 1 0 0 0 0 0 0 0 0 0 0 0 0 1 0 0 1 0 0 0 0 0 0 0 0 0 0 0 0 0 0 0 0 0 0 0 0 0 0 0 0 1 0 0 0 0 0 1 0 0 0 0 0 0 0 0 0 0 0 0 0 0 0 0 0 0 0 0 0 0 0 0 0 0 0 0 0 2 10 24 37 50 62 70 78 86 93 97 102 107 112 116 120 122 126 129 131 134 137 139 141 143 145 147 149 150 152 154 155 156 155 156 156 156 158 158 157 159 158 159 160 161 163 163 163 164 163 165 166 166 166 167 167 166 166 165 164 166 166 168 168 168 168 170 168 169 172 171 170 169 170 170 172 171 173 173 174 176 174 174 174 175 176 176 175 174 173 175 172 174 173 173 173 175 175 174 175 175 175 176 175 175 175 173 173 174 171 171 172 172 172 173 172 172 173 172 172 172 172 172 172 173 173 173 174 174 174 174 174 175 174 173 173 174 175 175 176 178 176 178 177 176 176 176 177 178 177 177 179 179 179 178 178 177 175 176 177 176 177 177 177 178 178 176 176 175 175 177 175 175 173 171 171 169 167 164 163 150 115 57 14 0 2 5 3 2 2 3 2 3 3 1 0 0 1 1 1 1 1 1 0 1 0 0 0 1 0 0 0 0 0 0 0 0 0 1 0 0 0 0 0 0 0 0 0 0 0 1 3 4 5 3 5 5 1 2 3 0 2 3 4 5 3 4 6 6 6 6 5 6 7 6 7 6 5 5 6 5 6 3 5 4 3 3 2 4 3 3 3 4 4 3 3 1 0 1 1 0 2 1 1 1 0 0 0 0 0 0 0 0 0 0 0 0 0 0 0 0 0 0 0 0 0 0 0 0 0 1 1 0 0 0 1 0 0 1 2 0 0 0 0 0 0 0 0 0 0 0 0 0 0 0 0 0 0 0 0 0 0 0 0 0 0 0 0 0 0 0 0 0 0 0 0 0 0 0 1 1 1 1 0 0 0 0 0 0 0 0 0 0 0 0 0 0 0 0 0 0 0 0 0 0 0 0 0 0 0 0 0 0 0 0 0 1 0 1 0 0 0 0 0 0 0 1 1 0 1 0 1 1 2 1 2 3 3 4 4 3 3 
3 4 4 3 3 3 3 2 3 3 1 2 1 2 0 2 3 2 2 3 3 4 3 2 1 0 0 0 0 0 0 0 0 0 0 0 0 1 3 2 3 3 3 2 2 2 0 1 0 0 0 2 2 3 5 5 4 5 5 6 6 6 6 5 4 3 4 4 4 3 3 4 4 5 3 3 3 2 3 3 4 4 3 1 1 0 1 1 1 1 1 2 1 1 0 0 1 0 0 0 0 0 0 0 0 0 0 0 0 0 0 0 0 0 0 0 0 0 0 0 0 0 0 0 0 0 0 0 0 0 0 0 0 0 0 0 0 0 0 0 0 0 0 0 0 0 0 0 0 1 0 0 0 1 0 1 0 0 0 0 0 0 1 1 2 2 0 1 1 0 0 0 0 1 2 2 0 0 1 0 0 1 2 0 0 0 0 0 0 0 0 0 0 0 0 0 0 0 0 0 0 0 0 0 0 0 0 1 1 0 0 0 0 0 0 1 0 0 0 0 3 9 20 31 42 56 66 76 82 89 94 99 105 110 112 115 117 123 125 128 130 135 135 140 142 144 146 148 151 152 152 150 153 151 153 154 156 156 157 158 157 157 158 160 160 160 161 161 161 163 163 164 164 164 165 163 164 164 165 166 166 168 167 166 167 169 170 168 169 169 169 169 169 170 169 174 173 173 173 172 172 173 173 174 174 173 171 173 174 172 172 171 171 173 172 172 172 171 174 174 174 174 173 173 172 173 170 171 170 170 170 169 173 170 172 172 173 172 173 171 170 171 172 173 172 173 172 175 175 174 174 173 173 174 175 175 176 177 176 176 175 175 177 176 176 176 178 176 176 176 177 177 177 176 175 175 175 173 176 177 177 176 176 174 174 176 174 175 175 174 172 172 169 168 164 162 154 130 82 32 5 1 2 5 4 3 3 4 3 3 3 2 2 0 0 1 2 2 2 2 0 1 1 0 0 0 0 1 0 0 1 0 0 0 0 0 0 1 0 0 0 0 0 0 0 0 0 0 1 4 3 3 4 4 3 2 3 3 2 1 3 3 4 3 3 4 5 5 6 5 5 7 6 7 6 4 6 5 6 5 4 3 2 2 3 4 4 5 5 4 4 3 3 5 3 3 2 2 3 2 2 1 0 0 0 0 0 0 0 0 0 0 1 1 0 0 0 0 0 0 0 0 0 0 0 0 0 0 0 1 0 0 0 0 0 0 0 1 0 0 0 0 0 0 0 0 0 0 0 0 0 0 0 0 0 0 0 0 0 0 0 0 0 0 0 0 0 0 0 0 0 0 0 0 0 0 0 0 0 0 0 0 0 0 0 0 0 0 0 0 0 0 0 0 0 0 0 0 0 0 0 0 0 0 0 0 0 0 0 0 0 0 0 0 1 1 1 0 1 1 0 0 0 1 0 0 0 1 0 1 2 2 2 1 2 3 5 5 3 4 
5 4 4 4 4 3 3 4 3 4 3 4 2 2 1 2 3 1 3 1 4 5 3 2 1 1 0 0 1 0 1 0 0 0 0 0 0 1 0 2 2 3 2 3 2 3 2 0 0 0 2 1 1 1 4 3 3 5 4 4 2 4 4 4 4 2 1 2 2 2 2 2 2 3 3 3 3 2 2 4 4 3 4 2 2 1 0 1 0 1 1 1 0 0 0 0 0 0 0 0 0 0 0 1 1 1 0 0 0 0 0 0 0 0 0 0 0 0 0 0 0 0 0 0 0 0 0 0 0 0 0 0 0 0 0 0 0 0 0 0 0 0 0 0 0 0 0 0 0 0 0 0 0 0 0 0 0 0 0 0 0 1 1 0 1 1 0 1 0 0 2 1 2 3 2 0 0 0 0 0 1 1 1 0 0 0 0 0 0 0 0 0 0 0 0 0 0 0 0 0 0 0 0 0 0 0 0 1 1 0 0 0 0 0 0 1 1 1 0 2 1 2 3 6 14 26 38 49 61 70 77 84 91 97 100 104 107 109 113 117 122 125 130 132 136 138 139 142 143 146 149 150 149 150 151 151 153 154 155 153 154 155 155 156 157 158 157 158 158 159 159 160 161 162 162 162 163 163 164 165 165 167 166 167 168 167 169 168 168 168 169 168 168 169 169 171 171 170 170 170 170 171 170 172 173 171 170 172 171 172 171 170 169 170 168 170 172 173 171 171 172 171 172 171 173 170 171 170 169 170 170 171 172 171 171 171 170 171 170 171 171 170 171 174 171 173 175 176 176 174 174 174 173 172 174 174 175 175 173 175 174 174 174 172 174 175 175 174 174 174 175 176 175 175 174 172 173 174 178 178 177 175 175 173 174 173 173 172 170 170 169 168 167 163 159 140 103 50 14 2 4 4 3 4 3 4 4 3 3 3 3 4 1 1 2 2 2 2 2 1 2 1 1 2 1 0 0 0 0 0 2 0 0 0 0 0 0 0 0 0 0 0 0 0 0 0 0 0 1 2 3 4 2 2 2 2 3 1 1 2 4 4 5 4 3 5 6 5 6 5 6 6 4 5 6 5 5 4 5 5 2 3 3 1 1 2 3 5 4 4 4 4 3 4 3 3 1 0 2 2 3 0 0 1 0 0 0 0 0 0 1 1 0 2 0 0 0 0 0 0 0 0 0 0 0 0 0 0 0 2 1 0 0 0 0 0 0 0 0 0 0 0 0 0 0 0 0 0 0 0 0 0 0 0 0 0 0 0 0 0 0 0 0 0 0 0 0 0 0 0 0 0 1 1 2 1 1 1 1 1 0 0 0 0 0 0 0 0 0 0 1 0 0 0 0 0 0 0 0 0 0 0 0 0 0 0 0 0 0 0 0 0 0 0 0 0 0 2 0 0 0 0 1 1 1 1 1 1 0 2 3 3 2 1 2 4 5 3 4 2 
4 3 5 5 4 5 3 3 3 5 3 2 2 1 1 2 2 3 2 4 4 3 3 0 0 1 0 0 0 0 0 0 0 0 0 1 0 1 1 2 2 2 1 3 2 3 2 1 1 2 1 1 2 3 3 3 2 3 4 5 4 3 4 3 3 3 2 1 2 3 0 2 3 3 3 3 3 4 3 4 4 5 4 3 2 1 0 0 0 0 0 0 1 0 0 0 1 0 0 0 0 0 0 0 0 0 0 0 0 0 0 0 0 0 0 0 0 0 0 0 0 0 0 0 0 0 0 0 0 0 0 0 0 0 0 0 0 0 0 0 0 0 0 0 0 0 0 0 0 0 0 0 0 0 0 0 0 0 0 0 0 0 1 1 2 2 1 3 1 2 2 2 3 2 2 2 0 2 0 1 0 1 3 1 0 1 0 0 0 0 0 0 0 0 0 0 0 0 0 0 0 0 0 0 0 0 0 0 0 1 0 0 0 0 0 2 2 1 2 3 1 4 3 4 3 5 10 20 30 44 54 65 73 82 85 91 93 97 100 105 111 116 119 124 127 129 133 135 138 140 143 145 145 146 147 150 150 150 150 150 150 151 152 154 154 154 154 156 156 156 157 157 158 158 160 159 160 159 161 162 164 163 164 165 166 166 167 167 164 166 167 167 168 168 168 170 170 169 169 168 167 168 169 170 170 170 168 169 170 169 169 167 168 168 168 171 170 171 171 172 171 171 171 171 171 171 169 168 169 169 169 171 171 170 170 170 170 171 170 170 170 169 170 171 172 172 172 174 173 174 173 172 172 171 172 173 173 173 173 174 173 172 170 170 172 175 173 172 173 173 175 174 175 174 172 172 172 174 176 177 175 173 173 171 173 170 169 169 169 167 166 163 160 146 115 65 24 5 2 3 4 3 2 2 3 5 4 2 3 2 3 3 1 0 1 1 2 3 2 2 2 1 1 1 1 0 0 1 0 0 0 0 0 0 0 0 0 0 0 0 0 0 0 0 0 0 0 1 0 0 3 5 2 2 2 1 3 2 1 1 2 2 2 2 2 5 5 5 5 5 6 5 3 5 4 4 4 4 3 5 3 3 2 2 1 3 3 3 4 4 4 3 2 4 4 2 0 1 2 3 2 1 0 1 0 0 0 0 0 0 0 1 2 2 0 2 1 0 0 0 0 0 0 0 0 0 0 0 1 0 0 0 0 0 0 0 0 0 0 0 0 0 0 0 0 0 0 0 0 0 0 0 0 0 0 0 0 0 0 0 0 1 2 0 0 0 0 0 0 0 0 0 1 1 3 1 0 0 2 0 2 2 0 0 0 0 0 1 0 0 0 0 0 0 0 1 1 0 0 0 0 0 0 0 0 0 0 0 0 0 0 0 0 0 0 0 1 1 0 0 0 2 2 2 2 1 2 3 1 2 3 4 2 3 5 5 3 4 4 4 
4 5 4 3 4 3 3 4 4 4 3 3 1 0 3 3 2 1 0 2 2 2 1 1 0 0 0 0 0 0 0 0 1 1 1 1 1 2 2 2 2 3 2 2 2 1 1 2 2 2 2 2 3 3 3 3 3 3 2 4 5 2 3 2 0 2 1 0 2 2 2 1 1 2 4 3 4 4 4 4 4 4 3 2 1 1 0 2 1 0 0 0 0 0 0 0 0 0 0 0 0 0 0 1 0 0 0 0 0 0 0 0 0 0 0 0 0 0 0 0 0 0 0 0 0 0 0 0 0 0 0 0 0 0 0 0 0 0 0 0 0 0 0 0 0 0 0 0 0 0 0 0 0 0 0 0 0 0 0 0 2 2 2 3 2 3 1 4 3 5 3 4 3 3 3 1 2 0 0 0 2 1 2 1 1 1 1 0 0 0 0 0 0 0 0 0 0 0 0 0 0 0 0 0 0 0 1 0 0 0 0 0 0 0 0 0 1 0 1 2 2 3 3 3 2 3 3 4 7 13 23 37 49 60 69 75 80 82 86 91 96 101 106 111 115 120 122 128 130 133 136 138 141 141 141 143 144 144 145 147 147 147 148 150 149 152 151 152 154 153 154 156 156 157 158 157 156 158 158 160 160 161 161 162 163 165 165 164 162 166 166 166 166 164 165 165 166 166 166 165 166 166 167 168 168 167 167 167 168 166 167 164 164 165 166 166 168 167 167 168 168 169 170 169 169 169 169 168 169 169 170 171 171 170 168 170 171 172 171 171 169 170 169 172 173 173 173 174 173 174 173 172 172 172 171 173 173 173 174 173 173 172 171 171 171 173 172 171 171 171 173 173 173 172 170 172 172 170 173 172 173 172 171 169 168 167 166 166 166 163 162 152 124 76 30 6 2 3 3 4 3 2 1 2 3 4 4 3 2 3 2 2 1 2 1 1 3 3 4 3 2 2 1 1 3 2 1 3 1 0 1 0 0 0 0 0 0 0 0 0 0 0 0 0 0 0 1 2 1 2 3 2 2 3 3 1 1 1 2 1 3 2 2 3 3 4 4 3 4 4 6 6 4 4 4 3 3 4 5 6 4 3 4 3 2 4 4 3 3 4 3 3 3 1 1 1 1 2 2 1 1 1 0 0 0 0 0 0 0 1 1 0 2 1 1 0 1 0 0 0 0 0 0 0 0 0 0 0 0 0 0 0 0 0 0 0 0 0 0 0 0 0 0 0 0 0 0 1 1 0 0 0 0 0 0 0 0 0 0 0 0 1 0 0 1 0 0 1 0 0 0 0 1 1 2 1 0 1 2 1 0 1 0 0 0 0 1 0 0 0 0 0 0 0 0 0 0 0 0 0 0 0 0 0 0 0 0 0 0 0 0 0 0 0 0 0 0 0 0 0 0 1 1 1 1 3 3 4 1 4 4 4 4 4 4 5 4 4 4 4 
5 5 5 4 4 4 5 5 5 4 3 3 0 2 3 2 2 1 3 2 2 1 2 1 1 0 0 0 0 0 0 0 0 0 2 2 2 3 2 2 2 2 2 1 2 1 1 0 1 2 2 1 3 3 1 2 3 3 3 3 3 4 3 3 2 3 1 0 1 1 1 0 2 3 3 4 4 2 4 4 3 3 2 2 2 1 1 0 1 0 1 0 1 0 0 0 0 0 0 0 0 2 1 2 1 0 0 0 0 0 0 0 0 0 0 0 0 0 0 0 0 0 0 0 0 0 0 0 0 0 0 0 0 0 0 0 0 0 0 0 0 0 0 0 0 0 0 0 0 0 0 0 0 0 1 0 0 0 0 1 0 2 2 3 2 2 2 4 4 3 4 3 2 3 3 1 0 0 0 1 1 0 1 2 1 1 0 0 1 1 0 0 0 0 0 0 0 0 0 0 0 0 1 1 2 2 1 2 1 0 0 0 0 0 0 1 2 2 2 1 1 2 2 1 2 2 3 4 3 4 5 10 19 31 43 53 60 64 69 75 79 86 92 99 104 108 110 115 119 123 127 128 133 134 134 136 138 138 140 140 143 143 146 147 148 148 149 150 150 151 152 154 154 156 156 154 154 155 156 158 159 158 159 159 160 160 160 160 160 162 162 162 163 163 163 163 162 163 163 162 163 163 166 166 166 165 166 166 166 166 164 165 164 164 164 165 165 165 166 167 166 168 168 168 167 167 167 166 167 168 168 170 170 169 168 168 170 170 170 170 169 170 171 171 172 173 172 171 173 173 173 173 172 172 173 173 173 172 172 172 171 169 169 168 170 171 171 171 170 172 172 173 171 171 171 170 169 169 169 171 169 169 168 163 163 163 163 163 162 154 130 87 39 9 2 2 3 2 2 3 3 3 3 3 3 5 3 3 1 0 3 4 3 3 2 2 3 2 2 1 2 2 3 2 0 2 2 2 0 0 0 0 0 0 0 0 0 0 0 0 0 0 0 0 1 0 1 0 1 3 3 3 2 2 2 1 0 0 1 1 4 2 2 4 3 3 3 4 4 4 6 6 5 5 2 3 3 2 4 5 3 3 3 4 3 2 3 1 2 4 3 3 2 2 1 2 1 3 3 1 0 0 1 0 0 0 0 0 1 2 1 1 1 0 1 0 1 0 0 0 0 0 0 0 0 0 0 0 0 0 0 0 0 0 0 0 0 0 0 0 0 0 0 0 0 0 0 0 0 0 0 0 0 0 0 0 0 0 0 0 0 0 0 0 1 0 1 1 0 0 0 0 1 2 1 1 2 1 1 1 0 0 0 0 0 0 0 0 0 0 0 0 0 1 0 0 0 1 0 0 0 0 0 0 0 0 0 0 0 0 0 0 0 0 0 0 1 0 0 0 1 1 1 1 2 1 1 2 3 2 4 3 4 5 4 3 4 5 3 3 
4 5 4 3 4 3 4 3 4 3 3 2 2 2 3 3 2 3 2 3 3 1 2 0 0 0 0 1 1 1 1 1 2 3 2 2 2 2 2 3 1 0 1 0 0 1 1 1 1 2 1 2 3 2 2 4 4 2 2 3 3 3 2 2 3 2 2 1 0 0 0 1 2 0 1 2 3 2 2 3 3 1 1 1 1 0 0 0 0 0 0 0 0 0 0 0 0 1 1 0 2 2 2 1 0 1 0 0 0 0 0 0 0 0 0 0 0 0 0 0 0 0 0 0 0 0 0 0 0 0 0 0 0 0 0 0 0 0 0 0 0 0 0 0 0 0 0 0 0 0 0 0 1 0 1 0 1 0 0 0 1 1 0 2 2 0 2 4 4 4 4 3 1 2 2 2 2 0 0 2 1 2 3 2 2 2 2 1 1 0 0 1 0 0 0 0 0 0 0 0 0 0 2 1 4 2 4 4 1 2 0 0 0 0 0 0 2 2 0 2 2 2 2 1 2 3 3 2 3 5 4 4 4 7 14 23 32 41 46 52 58 67 74 81 88 92 99 103 107 110 115 118 124 125 126 129 129 130 133 135 135 138 140 142 143 145 147 148 149 149 149 150 152 152 153 151 152 152 154 156 154 155 155 156 157 157 157 157 159 159 160 161 160 160 159 159 160 160 160 161 162 162 162 163 164 164 164 164 164 163 162 162 163 163 164 162 164 164 165 165 166 164 164 164 164 165 165 167 167 169 169 169 168 168 169 167 168 170 169 168 169 169 169 169 169 171 170 172 171 172 171 170 170 172 172 172 172 171 172 169 169 170 168 170 168 170 171 171 171 169 171 170 171 171 168 168 168 168 166 168 167 164 163 162 162 161 159 156 139 98 47 13 1 1 2 2 3 4 5 4 3 5 4 5 4 3 1 1 2 2 3 4 3 3 2 2 4 2 2 1 1 1 0 0 1 1 1 1 0 1 0 0 1 0 0 0 0 0 0 0 0 0 0 0 0 1 1 0 2 3 2 2 2 0 1 0 0 0 0 2 3 2 1 2 4 2 4 4 3 4 2 4 5 4 3 3 2 3 5 4 3 2 3 4 5 3 2 3 3 3 4 2 1 3 2 2 0 3 3 3 1 1 3 2 1 0 1 0 1 1 1 0 2 0 0 0 0 0 0 0 0 0 0 1 1 0 0 0 0 0 0 0 0 0 0 0 0 0 0 0 0 0 0 0 0 0 0 0 0 0 0 0 0 0 0 0 0 0 0 0 0 0 0 0 0 1 0 1 0 0 1 1 3 3 2 2 1 0 1 0 0 1 1 1 1 1 0 0 0 0 1 0 0 0 0 0 0 0 0 0 0 0 0 0 0 0 0 0 0 0 0 0 0 0 0 1 0 0 0 0 2 1 2 2 2 2 1 4 2 2 4 4 3 4 3 4 5 4 4 4 
4 4 4 2 2 3 3 3 3 2 3 3 1 4 3 2 4 3 2 3 3 3 3 1 2 1 3 1 1 1 1 2 2 3 3 2 2 1 2 1 1 0 1 1 0 0 0 1 0 2 2 1 1 1 2 3 3 3 3 2 2 3 3 2 2 1 3 1 0 0 0 0 2 1 1 2 2 2 2 1 2 1 0 1 0 0 0 0 0 1 1 1 2 1 1 2 2 1 0 3 2 2 1 1 0 0 0 0 0 0 0 0 0 0 0 0 0 0 0 0 0 0 0 0 0 0 0 0 0 0 0 0 0 0 0 0 0 0 0 0 0 0 0 0 0 0 0 0 0 1 0 0 0 0 0 1 1 1 1 1 1 0 1 1 0 1 3 4 3 3 3 1 1 1 2 2 2 1 0 0 1 3 1 3 2 2 4 0 1 0 2 1 0 0 0 0 0 0 0 0 0 1 1 2 2 1 2 2 1 0 0 0 0 0 0 1 0 0 0 0 1 1 4 3 2 3 3 5 4 4 5 4 6 2 3 5 7 13 18 25 33 40 49 57 66 73 80 85 92 96 102 107 111 116 118 120 121 123 125 126 129 131 134 137 138 139 143 145 146 146 146 147 149 148 150 150 150 148 150 151 151 151 151 151 151 153 154 154 154 155 158 158 157 157 157 157 158 157 157 158 159 159 159 160 162 161 162 162 161 162 164 162 161 161 161 162 162 161 162 162 164 163 162 164 165 164 165 165 167 167 168 167 166 165 166 166 168 168 168 167 169 168 168 168 171 171 170 171 171 171 171 169 171 171 171 169 169 171 169 170 170 168 169 166 168 168 170 169 170 169 168 170 169 168 166 166 166 165 164 163 162 160 160 157 156 155 140 108 58 17 2 1 3 3 3 3 3 6 5 5 5 5 5 3 2 2 3 2 2 4 3 4 3 3 3 3 5 3 1 1 0 1 0 0 0 1 0 2 0 2 2 1 1 1 1 0 0 0 0 0 0 0 0 0 0 1 1 2 3 2 0 2 2 0 0 0 0 0 1 3 3 2 2 2 2 2 3 3 2 2 2 2 3 4 3 3 2 3 4 4 2 4 3 2 4 3 2 3 1 2 3 3 3 2 3 3 0 1 2 2 2 3 1 3 0 0 0 0 1 0 2 1 2 2 0 0 0 0 0 0 0 0 0 0 0 0 0 0 0 0 0 0 0 0 0 0 0 0 0 0 0 0 0 0 0 0 0 0 0 0 0 0 0 0 0 0 0 0 0 0 0 0 0 0 1 1 1 2 1 2 2 2 2 3 2 1 1 1 1 0 1 0 2 0 0 0 0 0 0 0 1 0 0 0 0 0 0 0 0 0 0 0 0 0 0 0 0 0 0 0 0 0 0 0 2 2 1 1 0 2 2 2 3 2 1 2 2 0 1 2 3 2 4 5 4 3 5 5 5 4 
3 3 3 4 4 4 2 3 4 3 2 3 2 3 3 3 3 2 3 3 3 3 3 3 3 2 2 1 0 2 1 0 3 1 0 2 2 1 3 2 1 2 1 0 0 1 0 0 0 0 1 3 3 2 2 3 3 2 3 1 1 1 1 0 0 1 0 0 0 0 0 0 0 0 1 2 1 1 2 2 0 1 0 0 0 1 1 0 0 1 1 0 2 1 2 2 2 2 2 2 2 2 1 0 1 1 0 0 0 0 0 0 0 0 0 0 0 0 0 0 0 0 0 0 0 0 0 0 0 0 0 0 0 0 0 0 0 0 0 0 0 0 0 0 0 0 0 0 0 1 1 1 1 1 0 0 0 0 0 2 1 0 1 2 1 1 4 4 2 3 3 1 1 2 2 2 1 1 1 0 2 3 1 3 4 3 3 0 2 2 1 2 1 0 0 0 0 0 0 0 0 1 1 1 2 0 0 0 0 0 0 0 0 0 0 0 1 2 1 1 2 1 1 3 4 4 5 4 4 4 4 5 4 3 1 1 1 3 4 4 6 12 17 28 37 46 56 66 75 80 86 92 99 103 107 109 110 113 115 117 120 123 125 129 132 132 136 138 138 140 139 142 143 144 146 145 146 145 145 147 148 148 147 150 149 150 151 150 150 151 152 153 152 153 153 154 154 154 155 155 156 156 157 157 160 160 159 159 158 157 160 161 158 158 159 160 160 161 160 162 162 161 163 163 163 163 164 163 165 165 165 165 165 165 166 166 168 167 168 168 168 167 168 168 169 168 167 171 171 170 169 168 168 167 168 167 169 169 168 169 168 167 167 166 166 167 169 167 168 166 167 165 165 164 164 164 163 161 161 160 159 157 153 154 148 115 64 23 4 0 0 2 2 2 2 4 4 5 5 6 4 6 6 3 2 2 3 3 4 3 5 4 4 3 3 3 3 3 3 0 0 0 1 1 0 0 0 2 2 2 2 3 3 2 2 0 0 0 0 0 0 0 0 1 0 1 2 2 2 3 2 2 2 0 1 0 0 0 2 2 3 3 2 2 2 1 2 4 3 2 2 3 3 4 3 2 2 2 3 3 3 3 3 3 3 1 2 2 1 2 3 1 3 2 3 3 1 2 3 2 4 3 2 1 1 1 0 0 0 0 1 2 1 4 0 1 1 1 0 0 0 0 0 0 0 0 0 0 0 0 0 0 0 0 0 0 0 0 0 0 0 0 0 0 0 0 0 0 0 0 0 0 0 0 0 0 0 0 0 0 0 0 0 0 0 2 2 1 1 1 0 3 2 3 3 2 1 2 1 2 2 0 0 0 0 0 0 0 0 0 1 1 0 0 0 0 0 0 0 0 0 0 0 0 0 0 0 0 0 0 0 0 2 3 3 3 2 2 2 1 2 3 2 2 1 1 1 2 2 3 3 3 4 4 5 4 4 4 4 4 
1 2 3 3 3 1 3 5 4 3 3 3 2 3 2 3 2 3 3 5 4 3 2 3 3 2 4 3 3 2 2 0 3 3 2 2 2 3 3 2 2 2 2 0 0 1 2 1 0 0 1 2 2 1 2 2 1 2 2 0 1 0 0 0 0 0 0 0 0 0 0 0 0 0 2 1 0 1 0 0 0 0 0 1 2 2 0 1 2 2 2 1 1 2 1 0 0 1 1 2 3 2 2 1 1 1 0 0 0 0 0 0 0 0 0 0 0 0 0 0 0 0 0 0 0 0 0 0 0 0 0 0 0 0 0 0 0 0 0 0 0 0 0 0 0 0 0 0 0 0 0 1 0 0 0 0 0 1 2 1 2 1 3 2 2 2 3 4 1 2 2 0 2 1 1 3 2 0 2 1 2 3 2 3 3 3 3 3 1 1 0 1 1 1 0 0 0 2 0 0 0 1 0 1 1 0 1 1 1 0 0 0 0 0 0 0 3 2 1 1 2 2 2 4 4 3 4 5 3 4 4 4 2 2 1 2 2 1 0 0 1 3 5 7 11 19 28 38 48 58 67 74 81 90 94 95 99 101 104 106 111 114 117 120 122 125 127 129 130 132 134 134 136 138 139 138 139 141 143 144 144 143 144 145 145 147 147 147 148 148 149 149 151 150 149 149 149 151 152 152 152 151 153 154 155 156 155 155 155 156 156 157 157 156 155 158 157 159 160 160 159 159 161 161 161 163 163 163 164 165 165 166 165 164 166 168 168 168 168 167 167 167 167 167 168 169 169 169 170 169 168 167 166 166 165 166 167 166 168 169 168 166 166 163 164 164 166 165 165 164 162 161 163 163 163 161 159 158 156 155 152 150 152 143 105 41 6 0 0 2 3 4 3 2 2 2 3 4 4 4 5 5 5 3 3 3 2 3 3 3 3 4 3 4 4 5 5 2 2 1 0 2 1 0 0 1 0 2 2 1 3 3 4 3 2 1 0 0 0 0 0 0 1 1 1 1 2 2 2 3 3 3 2 3 0 1 0 0 1 3 3 2 2 0 2 1 3 3 1 2 2 2 3 3 3 2 1 1 3 2 3 4 3 3 2 3 1 1 3 2 1 1 3 1 2 3 2 4 5 4 3 3 2 2 2 0 2 0 0 0 0 2 0 2 1 1 0 0 0 0 0 0 0 0 0 0 0 0 0 0 0 0 0 0 0 0 0 0 0 0 0 0 0 0 0 0 0 0 0 0 0 0 0 0 0 0 0 0 0 0 0 0 0 0 0 1 1 1 1 1 1 1 4 4 3 2 1 2 0 0 1 0 0 0 0 0 0 0 0 0 1 0 0 0 0 0 0 0 0 0 0 0 0 0 0 0 0 0 0 0 0 0 1 3 2 1 1 1 3 2 2 2 4 1 1 2 1 1 2 1 3 3 4 3 4 4 4 5 5 4 
3 2 2 3 2 2 3 4 5 4 4 3 3 2 3 4 3 5 5 5 2 1 5 3 2 2 2 3 2 2 1 0 1 3 2 1 3 4 2 3 1 2 3 0 0 0 0 0 0 0 1 1 0 1 0 0 0 1 1 0 0 0 0 0 0 0 0 0 0 0 0 0 0 1 1 2 1 1 0 0 0 0 1 2 1 3 1 3 2 3 4 1 2 1 1 0 0 0 1 2 2 0 3 1 4 1 0 0 0 0 0 0 0 0 0 0 0 0 0 0 0 0 0 0 0 0 0 0 0 0 0 0 0 0 0 0 0 0 0 0 0 0 0 0 0 0 0 0 0 0 0 0 0 1 0 0 0 1 3 2 2 1 2 0 2 1 4 3 2 2 1 2 2 2 3 3 2 1 1 2 3 4 2 3 3 2 4 4 2 1 0 1 2 1 0 0 1 1 1 1 2 0 1 2 1 2 2 1 0 2 0 0 1 1 0 2 2 2 0 2 2 2 2 4 6 5 3 2 2 3 4 2 2 2 1 2 1 1 1 1 2 3 5 4 3 5 9 17 25 34 44 53 63 69 76 80 84 88 91 95 98 102 106 109 111 115 116 119 122 122 125 126 129 130 131 133 132 133 136 137 138 139 140 140 142 141 142 142 143 145 146 148 148 147 146 146 147 148 148 149 148 150 147 148 150 152 152 153 152 151 151 152 154 154 154 156 156 157 158 157 157 159 159 160 161 162 162 162 162 163 163 165 164 165 164 165 167 167 166 166 167 166 165 166 166 165 168 168 169 167 168 165 166 165 164 165 165 165 166 166 165 164 163 161 160 162 163 163 162 162 160 160 159 159 159 156 155 154 151 150 151 154 140 95 33 1 0 1 2 3 1 3 2 4 2 1 0 3 3 3 3 4 5 5 2 3 3 4 3 3 3 4 4 4 4 4 4 3 2 3 2 5 1 0 0 1 0 2 2 2 3 3 2 4 2 1 0 1 0 0 0 0 0 0 0 0 1 2 2 3 3 2 2 5 1 0 0 0 1 1 2 3 3 2 2 2 0 1 1 1 2 3 2 3 3 4 2 1 2 2 3 3 1 2 1 1 2 2 2 3 1 1 2 2 3 4 4 5 4 3 3 3 2 2 2 1 3 1 2 2 1 1 3 3 1 0 0 0 0 0 0 0 0 0 0 0 0 0 0 0 0 0 0 0 0 0 0 0 0 0 0 0 0 0 0 0 0 0 0 0 0 0 0 0 0 0 0 0 0 0 0 1 0 0 0 0 1 0 0 0 0 1 1 3 1 1 0 0 0 1 0 2 0 0 0 0 0 0 0 0 0 0 0 0 0 0 0 0 0 0 0 0 0 0 0 0 0 0 0 0 0 0 1 2 3 3 1 2 3 2 3 3 2 1 3 3 3 1 4 3 5 4 3 2 2 3 5 5 4 4 
3 3 3 1 2 1 4 5 4 3 4 2 3 3 3 4 4 4 3 3 2 2 2 3 3 3 3 2 2 1 1 3 2 3 3 3 4 3 2 2 3 3 2 2 0 1 0 0 0 1 0 0 0 0 0 0 0 0 0 0 0 0 0 0 0 0 0 0 0 0 0 0 1 1 2 2 1 0 0 1 0 1 1 2 2 1 3 1 3 3 2 2 2 0 2 0 0 2 1 1 2 1 1 0 2 1 1 0 0 0 0 0 0 0 0 0 0 0 0 0 0 0 0 0 0 0 0 0 0 0 0 0 0 0 0 0 0 0 0 0 0 0 0 0 0 0 0 0 0 0 0 0 0 1 0 0 2 2 3 2 2 3 3 1 2 2 5 2 2 0 1 1 3 4 2 1 3 3 4 4 3 2 4 3 4 3 4 3 2 2 2 3 1 0 0 0 1 1 0 1 3 3 2 4 4 2 3 3 2 1 0 1 1 1 1 2 2 2 1 2 1 2 2 5 4 4 3 2 1 2 2 0 2 1 0 1 0 2 3 2 3 3 4 4 3 4 5 6 11 17 26 34 43 52 58 63 68 72 75 80 85 88 91 95 100 102 105 108 111 112 115 117 119 122 123 125 126 126 128 130 130 132 134 132 135 136 135 135 137 139 141 142 141 142 141 142 142 144 145 145 145 145 146 147 146 147 149 149 149 149 150 151 150 151 153 154 153 155 156 155 155 156 157 159 161 161 161 161 162 162 163 163 163 162 164 164 165 165 165 164 165 164 163 164 164 164 165 164 166 166 166 164 164 163 164 163 162 162 163 162 163 161 162 159 159 160 159 158 158 158 159 158 156 156 154 151 150 148 151 154 154 130 75 20 0 1 0 0 0 2 3 2 4 4 2 1 3 1 1 2 2 3 1 3 4 4 5 4 3 3 4 4 5 5 4 4 3 3 2 4 4 3 1 1 0 1 0 1 3 4 3 5 4 4 2 1 0 0 1 0 0 0 0 0 1 0 0 2 2 2 4 4 3 2 1 0 2 1 2 2 2 1 1 1 1 0 0 1 0 1 2 2 2 3 1 3 1 1 0 0 1 1 2 1 3 2 3 2 1 3 4 1 1 3 3 5 4 5 4 3 3 4 4 2 3 3 3 2 2 2 2 3 3 2 2 1 0 0 0 0 0 0 0 0 0 0 0 0 0 0 0 0 0 0 0 0 0 0 0 0 0 0 0 0 0 0 0 0 0 0 0 0 0 0 0 0 0 0 1 1 0 0 0 0 0 1 1 0 0 0 0 1 0 3 2 0 2 1 0 0 3 1 0 0 0 0 0 0 0 1 1 1 0 2 0 0 0 0 0 0 0 0 0 0 0 0 0 0 0 0 0 0 1 3 4 3 2 2 3 2 2 3 3 3 4 6 3 4 3 3 2 1 2 2 3 4 5 5 4 3 
2 3 3 2 1 2 3 4 4 3 3 3 2 2 3 2 2 2 4 2 2 3 3 1 3 3 0 1 2 1 0 1 3 4 4 4 4 3 5 4 3 3 3 1 0 0 0 0 0 0 0 1 1 0 0 0 0 0 0 0 0 0 0 0 0 0 0 0 0 0 0 0 0 0 1 2 2 1 1 0 0 2 1 1 2 2 2 2 2 3 3 1 0 0 0 0 1 2 2 0 0 1 1 0 1 2 0 0 0 0 0 0 0 0 0 0 0 0 0 0 0 0 0 0 0 0 0 0 0 0 0 0 0 0 0 0 0 0 0 0 0 0 0 0 0 0 0 0 0 0 0 0 0 0 0 0 2 1 1 1 0 2 2 2 1 3 3 3 2 0 2 2 3 3 3 3 4 3 3 3 1 2 3 2 3 2 2 3 4 2 0 1 0 2 1 0 1 1 2 2 3 3 3 5 4 4 3 2 1 1 4 2 2 1 3 3 2 1 1 2 2 0 2 3 2 4 4 4 0 0 0 1 1 1 0 0 0 1 3 3 3 4 4 4 3 3 3 4 4 8 13 20 28 35 43 51 56 61 62 67 73 77 79 84 87 91 93 96 101 102 104 107 109 112 115 115 117 118 120 121 123 123 126 128 129 128 131 132 131 134 136 136 135 136 138 137 139 141 140 140 142 143 141 141 143 143 143 146 147 147 147 148 149 150 152 151 150 153 153 154 155 155 156 158 159 159 160 159 160 161 161 162 162 161 161 163 164 164 163 163 163 163 163 161 161 162 163 163 164 163 165 165 163 162 163 160 160 161 161 162 160 159 157 155 156 156 157 157 156 156 156 154 152 151 148 146 150 157 157 140 99 45 11 0 0 1 0 0 0 0 0 1 2 3 3 4 1 3 3 2 3 3 1 2 2 3 3 5 3 4 5 4 5 6 3 3 3 6 4 4 3 2 4 3 1 1 0 2 3 4 5 4 4 3 2 3 1 2 1 2 0 1 2 0 1 1 3 1 2 3 4 3 2 2 1 1 2 1 2 0 2 0 0 0 0 0 0 0 1 1 1 2 2 2 0 0 1 0 0 0 0 0 0 0 0 1 1 1 2 0 3 1 1 1 2 3 3 3 4 3 3 3 4 4 1 2 4 3 2 2 2 2 0 2 1 0 0 0 0 0 0 0 0 0 0 0 0 0 0 0 0 0 0 0 0 0 0 0 0 0 0 0 0 0 0 0 0 0 0 0 0 0 0 0 0 0 1 2 1 0 0 0 0 0 0 0 0 1 0 0 0 1 1 1 2 3 2 1 1 2 0 0 0 0 0 0 0 0 0 1 1 1 0 0 0 0 0 1 0 1 0 0 0 0 0 1 0 0 0 0 1 0 1 2 3 4 2 2 2 2 2 3 3 4 4 4 4 4 3 2 2 2 0 3 4 4 4 4 3 3 
2 4 3 2 3 3 2 4 3 4 3 4 3 2 2 3 4 3 3 3 4 2 3 2 1 3 1 1 0 1 0 2 4 5 5 4 3 4 3 4 3 3 1 2 0 0 0 0 0 0 0 0 0 0 0 0 0 0 0 0 0 0 0 0 0 0 0 0 0 0 0 0 0 0 0 0 0 0 2 1 1 2 1 2 0 2 3 1 1 1 1 1 0 0 0 0 0 1 1 0 0 0 0 2 2 1 0 0 0 0 0 0 0 0 0 0 0 0 0 0 0 0 0 0 0 0 0 0 0 0 0 0 0 0 0 0 0 0 0 0 0 0 0 0 0 0 0 0 0 0 0 0 0 0 0 0 0 0 2 2 2 3 4 3 2 2 3 2 2 2 1 0 2 1 2 3 3 4 2 3 2 2 3 3 3 2 1 2 2 2 2 2 0 0 0 0 1 3 3 4 3 4 4 6 3 4 3 3 2 2 2 4 2 3 3 5 4 2 1 2 0 0 1 2 2 2 4 2 1 1 2 0 0 0 0 0 2 1 2 2 3 3 3 3 3 3 1 2 4 4 5 8 14 21 31 38 44 51 55 60 64 68 72 75 79 83 85 89 91 93 97 100 101 104 108 108 110 113 113 115 117 117 120 122 124 125 126 126 129 129 130 130 130 131 132 133 135 136 138 138 139 141 140 138 141 140 142 143 144 145 145 146 147 149 149 150 151 152 153 153 154 153 154 155 156 158 158 159 158 159 160 161 161 162 162 162 162 162 160 160 162 162 162 160 160 162 163 161 164 163 162 162 162 160 160 158 159 159 156 159 159 157 154 154 154 155 156 152 153 150 150 149 147 147 152 158 160 145 107 56 16 2 2 4 2 0 0 0 0 0 1 1 2 3 4 2 1 2 2 3 2 2 1 1 4 4 5 6 4 6 5 4 4 3 3 3 4 4 3 3 3 3 4 3 2 3 2 4 4 3 3 4 7 3 4 2 3 1 2 0 1 0 2 1 1 2 3 2 3 2 4 3 4 2 1 0 1 1 0 1 0 0 0 0 0 0 0 1 1 0 2 3 2 2 1 0 0 0 0 0 0 0 0 0 0 0 1 0 0 1 2 3 2 2 1 2 2 3 3 3 2 3 3 2 3 2 3 5 2 2 2 2 2 0 0 0 0 0 0 0 0 0 0 0 0 0 0 0 0 0 0 0 0 0 0 0 0 0 0 0 0 0 0 0 0 0 0 0 0 0 0 0 0 0 0 0 0 0 1 1 0 0 0 0 0 0 1 0 0 0 1 1 1 3 2 2 1 2 1 1 1 1 1 1 1 0 0 0 0 0 0 0 0 0 0 0 1 3 2 2 1 1 0 0 0 1 0 0 1 0 2 1 1 3 1 2 0 1 1 1 2 3 4 4 4 4 4 3 3 3 2 1 2 2 2 2 3 3 3 4 
2 3 3 2 0 2 3 4 3 4 3 3 1 3 2 2 4 6 4 5 3 3 3 4 3 4 2 1 2 2 2 3 4 5 5 3 3 4 3 2 2 1 2 1 0 0 0 0 0 0 0 0 0 0 1 1 0 1 0 0 0 0 0 0 0 0 0 0 0 0 0 0 0 0 0 0 1 0 1 0 1 3 0 2 1 0 2 3 1 1 1 1 0 0 0 0 0 0 0 0 0 1 1 2 3 2 0 0 0 0 0 0 0 0 0 0 0 0 0 0 0 0 0 0 0 0 0 0 0 0 0 0 0 0 0 0 0 0 0 0 0 0 0 0 0 0 0 0 0 0 0 0 0 0 0 0 0 0 0 0 1 2 4 4 3 4 3 3 2 2 1 1 3 2 3 3 4 3 2 4 5 4 3 3 2 4 3 3 1 3 3 3 2 1 3 3 2 3 4 4 5 5 4 4 3 4 3 4 2 2 3 3 2 2 5 4 4 2 2 1 0 0 1 1 1 2 2 2 2 3 3 2 2 1 1 3 1 0 0 0 2 3 2 3 2 0 1 2 3 4 3 3 4 7 15 23 32 38 46 53 55 62 65 68 72 75 79 83 83 86 89 92 95 98 100 101 104 106 108 109 112 114 116 117 120 122 122 122 124 125 125 126 126 127 127 129 131 134 135 136 137 137 138 138 137 138 140 140 140 141 143 146 144 146 147 149 149 149 151 151 151 151 151 153 154 155 155 157 156 156 157 159 159 161 159 160 159 157 156 158 159 160 159 157 156 158 160 160 160 160 160 159 157 158 157 157 157 157 157 155 155 152 151 152 153 151 150 149 147 146 145 146 150 158 162 151 118 65 20 2 0 3 3 2 1 2 1 0 0 0 1 2 1 3 4 2 2 2 3 3 2 3 3 2 4 3 4 4 5 6 5 4 3 3 4 4 3 4 3 5 4 4 5 4 3 3 2 3 4 5 5 5 5 4 4 3 3 1 2 1 2 2 2 2 3 2 4 4 4 3 2 4 2 0 0 0 1 0 0 0 0 0 0 0 0 0 0 0 0 0 0 1 2 2 1 0 0 0 0 0 0 0 0 0 0 0 0 1 0 2 3 4 3 2 3 2 3 3 3 4 4 3 1 4 4 1 1 2 2 0 2 2 1 1 1 0 0 0 0 0 0 0 0 0 0 0 0 0 0 0 0 0 0 0 0 0 0 0 0 0 0 0 0 0 0 0 0 0 0 0 0 0 0 0 0 0 0 0 1 0 0 0 0 0 0 0 0 0 1 0 0 2 1 1 2 1 0 1 1 2 1 1 2 0 0 0 0 0 0 0 0 0 0 0 0 0 2 2 2 1 3 3 2 0 0 0 0 1 1 2 1 1 2 1 1 2 1 0 0 2 2 2 3 3 5 4 3 2 2 2 0 1 0 2 3 3 3 4 4 4 
2 2 2 3 0 0 1 4 4 4 5 3 1 3 4 3 3 5 3 4 5 4 4 3 4 2 3 3 3 2 2 4 3 4 3 6 3 4 3 3 1 1 1 0 0 0 0 0 0 0 0 0 0 1 1 1 1 0 0 0 0 0 0 0 0 0 0 0 0 0 0 0 0 0 0 0 0 0 1 1 2 2 1 1 2 2 0 0 3 1 0 2 1 0 1 0 0 0 0 1 1 1 0 1 0 0 0 0 0 1 0 0 0 0 0 0 0 0 0 0 0 0 0 0 0 0 0 0 0 0 0 0 0 0 0 0 0 0 0 0 0 0 0 0 0 0 0 0 0 0 0 0 0 0 0 0 0 0 0 0 1 2 3 3 2 2 1 1 1 0 0 0 2 3 4 5 4 3 4 3 5 5 4 4 3 5 5 2 3 3 5 5 5 2 3 2 3 3 4 4 3 4 4 4 3 3 3 4 2 2 1 1 2 1 2 0 1 1 0 1 1 0 1 2 2 1 2 1 1 4 3 2 2 3 0 1 1 0 0 1 2 1 0 3 1 0 1 1 1 1 2 2 1 1 3 9 16 24 31 38 44 50 57 62 65 67 73 76 78 80 83 87 90 92 94 96 98 100 102 106 107 109 112 113 114 117 119 119 119 119 121 123 124 126 126 127 129 132 133 132 133 136 137 138 136 137 137 139 141 141 142 144 145 144 145 147 148 148 148 150 150 149 149 150 152 152 154 154 156 157 156 157 157 156 156 157 155 154 154 155 155 155 155 157 155 155 157 157 158 157 157 157 156 157 156 155 155 154 153 150 150 148 148 148 148 147 143 142 144 148 153 159 163 155 126 75 28 3 0 0 2 1 1 2 2 1 1 2 0 1 1 2 3 2 3 3 2 3 5 5 3 4 3 3 3 2 2 3 3 5 5 2 2 2 3 5 4 3 4 3 3 2 4 4 4 4 5 5 5 6 6 7 7 3 3 2 4 2 3 3 1 3 2 3 4 3 2 2 2 3 3 3 2 0 0 1 0 0 0 0 0 0 0 0 0 0 0 0 0 0 0 0 0 1 0 0 0 1 0 0 0 0 0 1 2 1 1 0 1 1 3 3 2 3 2 2 2 3 2 2 3 3 3 2 2 1 2 1 2 3 1 2 1 0 2 0 0 0 0 0 0 0 0 0 0 0 0 0 0 0 0 0 0 0 0 0 0 0 0 0 0 0 0 0 0 0 0 0 0 0 0 0 0 0 0 0 0 1 0 0 0 0 0 0 0 0 0 0 0 0 0 2 3 3 1 2 0 0 1 0 1 1 1 0 0 0 0 0 0 0 0 0 0 0 0 0 2 3 3 3 4 4 3 1 0 0 0 0 0 1 1 2 1 2 2 2 1 0 0 0 2 1 3 2 2 3 2 2 2 3 1 2 2 1 2 2 4 4 2 3 
0 1 3 2 1 2 2 3 3 3 3 3 3 3 4 3 2 4 4 3 3 4 5 4 5 4 2 3 3 4 4 4 3 5 5 6 4 4 3 2 1 0 0 0 0 0 0 0 0 0 0 0 0 0 0 0 0 0 0 0 0 0 0 0 0 0 0 0 0 0 0 0 0 0 0 0 0 0 0 1 1 1 1 2 2 2 1 1 2 3 1 2 1 2 0 0 1 1 1 1 1 2 2 1 1 0 0 0 0 1 0 0 0 0 0 0 0 0 0 0 0 0 0 0 0 0 0 0 0 0 0 0 0 0 0 0 0 0 0 0 0 0 0 0 0 0 0 0 0 0 0 0 0 0 0 0 0 0 1 0 0 2 0 0 0 2 1 1 1 0 0 1 1 0 2 4 3 3 2 2 3 4 4 5 4 5 6 5 3 5 7 6 5 3 4 5 3 3 1 2 2 4 5 5 4 6 5 4 3 3 3 3 1 1 1 1 1 2 1 1 2 0 2 2 1 1 1 1 0 1 1 2 1 2 1 0 1 1 1 0 3 2 1 1 1 0 1 2 1 0 1 1 2 1 1 2 4 7 16 22 30 37 44 50 52 56 62 67 71 74 76 80 85 87 90 91 93 95 97 100 102 105 107 109 110 111 112 115 115 115 116 117 119 122 122 123 123 126 127 130 130 132 132 134 134 135 136 138 138 138 139 140 141 143 143 143 145 146 146 147 148 147 147 149 151 150 151 152 153 153 155 155 156 156 155 154 153 151 151 152 153 153 153 154 154 153 155 154 154 153 154 154 154 154 153 152 151 150 147 146 146 145 141 142 140 139 143 149 157 162 165 160 135 91 35 5 0 0 0 0 2 1 0 1 1 2 3 2 1 0 0 1 3 5 3 4 4 3 4 4 4 3 3 3 3 4 3 3 2 4 4 3 4 2 2 3 4 3 2 3 3 4 4 6 5 6 7 7 7 6 4 7 7 4 3 3 4 2 3 4 3 2 3 4 3 2 3 2 3 3 2 3 2 0 1 1 2 0 0 0 0 0 0 0 0 0 0 0 0 0 0 0 0 0 0 0 0 1 1 1 0 0 1 0 1 0 0 0 1 2 3 2 2 4 3 3 2 1 2 3 0 0 3 2 3 0 0 1 1 1 1 1 0 0 0 1 1 0 0 0 0 0 0 0 0 0 0 0 0 0 0 0 0 0 0 0 0 0 0 0 0 0 0 0 0 0 0 0 0 0 0 0 0 0 0 0 0 1 0 1 1 0 0 0 0 0 0 0 0 0 1 1 2 2 1 0 0 0 1 0 1 0 0 0 0 0 0 0 0 0 0 0 0 0 1 2 3 3 3 3 4 4 3 1 1 1 1 0 1 1 2 2 3 3 4 4 4 3 1 1 1 0 1 0 2 3 2 3 1 2 1 1 2 0 1 3 3 3 2 0 
0 2 2 3 2 2 2 3 4 4 3 4 2 4 4 4 4 3 3 4 4 4 3 4 5 4 4 2 3 4 4 3 4 4 5 5 5 5 2 1 1 1 0 0 0 0 0 0 0 0 0 0 0 0 0 1 0 0 0 0 0 0 0 0 0 0 0 0 0 0 0 0 0 0 0 0 0 0 0 0 0 1 0 1 0 1 0 0 1 2 1 1 0 0 0 0 2 2 1 1 3 3 0 0 0 0 0 0 0 0 0 0 0 0 0 0 0 0 0 0 0 0 0 0 0 0 0 0 0 0 0 0 0 0 0 0 0 0 0 0 0 0 0 0 0 0 0 0 0 1 2 1 0 0 0 0 0 1 1 2 1 3 1 0 1 2 0 0 0 0 0 1 0 1 2 2 3 3 4 4 4 5 6 6 7 5 6 4 3 3 4 3 4 4 3 4 3 2 5 5 4 4 4 3 4 3 5 5 3 4 4 3 3 1 0 0 1 1 0 1 2 1 0 2 2 1 2 0 0 1 0 0 0 0 0 0 0 0 1 0 1 0 1 1 0 0 1 1 1 2 2 1 2 2 2 1 2 2 4 8 14 21 28 34 39 46 50 55 61 64 68 72 77 81 84 87 87 89 92 94 97 98 101 103 103 105 109 109 109 110 110 112 115 116 118 120 120 120 123 126 127 128 130 130 131 131 133 134 136 135 137 138 139 138 138 141 143 143 143 144 144 146 146 146 148 148 148 148 149 150 151 151 152 151 152 152 149 148 149 149 149 151 150 151 151 150 150 150 151 150 150 150 149 147 149 148 146 145 144 140 140 136 135 137 144 152 159 163 165 158 139 101 48 10 0 0 0 0 0 0 2 0 0 0 1 1 1 1 2 1 2 4 4 4 4 4 4 2 4 2 2 0 1 3 4 4 3 3 4 5 4 4 1 2 4 3 3 2 3 3 3 5 7 6 7 6 6 7 6 7 5 7 6 6 4 4 3 3 2 2 3 2 3 4 2 4 4 4 3 1 0 1 2 1 0 0 0 0 0 0 0 0 0 0 0 0 0 0 0 0 0 0 0 0 0 0 0 0 1 1 0 0 1 0 0 0 0 0 1 1 3 2 2 3 4 2 1 0 2 2 1 1 1 3 3 2 0 1 0 2 0 1 0 0 0 2 0 0 0 0 0 0 0 1 0 0 0 0 0 0 0 0 0 0 0 0 0 0 0 0 0 0 0 0 0 0 0 0 0 0 0 0 0 0 0 0 1 1 0 0 0 0 0 0 0 0 0 0 0 0 0 1 0 1 3 0 1 0 1 1 0 0 0 0 0 0 0 0 0 0 0 0 1 2 4 2 3 4 3 2 4 4 1 1 1 0 2 1 2 2 3 3 3 4 3 4 4 4 2 1 2 2 2 1 3 2 2 3 4 3 1 1 2 0 0 2 1 1 1 1 
1 2 2 3 3 4 3 3 3 4 4 1 3 3 3 4 4 4 5 5 4 4 4 4 4 3 5 4 4 5 4 3 3 3 4 4 3 4 3 2 1 0 0 0 0 0 0 0 0 0 0 0 0 0 0 0 0 0 0 0 0 0 0 0 0 0 0 0 0 0 0 0 0 0 0 0 0 0 0 0 0 0 1 1 2 1 0 0 0 0 0 0 0 0 0 0 1 4 2 2 3 3 2 2 1 0 0 0 0 0 0 0 0 0 0 0 0 0 0 0 0 0 0 0 0 0 0 0 0 0 0 0 0 0 0 0 0 0 0 0 0 0 0 0 0 0 0 0 0 0 0 2 0 0 0 0 0 0 0 0 0 3 1 0 1 2 0 0 0 0 0 0 1 2 1 2 1 2 4 5 5 5 5 7 8 9 8 6 4 1 3 3 3 3 3 3 3 3 5 5 4 4 6 5 4 3 4 4 3 4 4 3 1 1 0 0 0 1 0 2 0 2 2 1 3 2 1 0 1 1 0 0 0 0 0 0 0 0 0 1 0 1 2 0 0 0 0 0 2 2 4 4 3 3 2 2 2 1 0 2 3 4 9 15 23 30 35 43 47 52 59 63 67 71 75 79 81 82 84 89 91 93 95 97 100 101 103 103 104 105 104 106 108 112 114 116 117 118 119 120 122 124 127 128 129 130 129 130 133 132 133 133 136 135 136 137 138 140 139 140 143 142 145 144 144 143 144 145 146 145 146 148 147 148 148 148 147 146 148 146 146 146 146 147 146 147 146 148 145 143 145 143 144 144 144 141 139 138 136 133 133 136 143 152 161 164 161 148 124 84 45 16 2 0 0 0 1 1 1 1 1 1 0 0 1 1 0 0 0 1 2 4 4 2 3 3 3 1 0 0 1 1 2 3 4 4 4 3 3 4 3 4 3 2 4 4 3 3 4 3 4 5 6 5 5 6 7 8 7 7 6 6 7 5 4 5 3 4 4 4 4 4 4 5 3 4 5 4 4 3 2 2 1 2 0 0 1 0 0 0 0 0 0 0 0 0 0 0 0 0 0 0 0 0 0 0 0 0 1 0 0 0 0 0 0 0 0 0 1 2 1 3 3 4 5 3 2 1 3 1 1 1 2 2 2 2 0 0 0 0 0 0 0 0 1 0 0 0 0 0 0 0 0 0 0 0 0 0 0 0 0 0 0 0 0 0 0 0 0 0 0 0 0 0 0 0 0 0 0 1 0 0 0 0 0 0 0 0 0 1 1 1 1 0 0 0 0 0 0 0 0 0 2 2 1 1 0 0 0 0 1 1 2 0 0 0 0 0 0 0 0 2 3 3 4 5 5 3 3 1 3 3 1 1 2 2 3 3 3 3 3 3 2 2 3 4 3 3 4 4 2 2 1 2 2 2 2 2 3 2 2 0 2 1 0 0 1 0 0 0 
2 1 1 2 3 5 4 4 3 2 2 3 3 3 4 3 5 6 5 5 4 3 3 4 4 3 3 5 5 6 5 4 4 3 3 4 2 2 1 2 2 0 0 0 0 0 0 0 0 0 0 0 0 0 0 0 0 0 0 0 0 0 0 0 0 0 0 0 0 0 0 0 0 0 0 0 0 0 0 0 0 0 0 0 0 1 2 0 0 0 0 0 1 0 0 0 1 2 1 1 1 2 3 1 1 0 0 0 0 0 0 0 0 0 0 1 0 0 0 0 0 0 0 0 0 0 0 0 0 0 0 0 0 0 0 0 0 0 0 1 0 0 0 0 0 0 0 0 1 1 1 0 0 0 0 0 0 0 0 0 1 1 2 0 2 2 1 1 1 0 1 0 1 3 1 4 3 3 3 4 7 7 6 7 7 7 6 5 4 2 1 3 3 3 1 2 3 4 7 6 6 5 5 7 5 4 5 5 3 2 3 1 1 0 0 1 0 1 2 1 0 2 1 2 1 0 0 0 1 2 0 0 1 0 0 0 0 0 0 0 0 0 0 0 0 0 0 0 1 2 2 4 2 4 3 4 4 4 3 1 1 1 1 1 4 9 17 24 32 39 45 49 55 61 65 68 73 76 78 80 83 87 87 91 93 95 97 97 99 101 101 103 105 108 108 110 112 114 115 117 119 121 122 126 124 125 125 127 128 128 130 132 132 133 134 134 135 136 134 136 138 138 138 139 138 140 140 140 141 140 143 145 145 145 144 144 143 142 144 144 143 143 142 142 143 143 143 141 139 141 141 139 139 137 135 132 132 134 140 144 149 156 160 163 156 137 105 64 28 8 1 1 1 1 0 0 0 0 1 1 1 2 1 3 1 0 0 0 0 0 0 2 2 1 3 3 1 1 0 1 0 1 2 4 3 2 4 3 3 3 4 4 3 3 5 5 4 3 4 4 4 4 5 4 4 6 7 6 6 6 5 5 6 5 5 4 3 3 3 4 3 4 4 3 3 3 3 3 4 2 2 3 3 1 0 0 0 0 0 0 0 0 0 0 0 0 0 0 0 0 0 0 0 0 0 0 0 0 1 0 0 0 0 0 0 0 0 0 0 0 0 2 2 3 4 3 3 1 2 2 2 1 1 0 0 0 1 2 1 1 0 0 0 0 0 0 0 0 0 0 0 0 0 0 0 0 0 0 0 0 0 0 0 0 0 0 0 0 0 0 0 0 0 0 0 0 0 0 0 0 0 0 0 0 0 0 0 0 0 0 0 1 0 0 0 0 0 0 0 0 0 1 1 1 2 0 1 0 0 1 1 1 0 0 1 0 1 1 0 0 2 2 3 4 3 4 4 5 4 3 3 2 1 1 1 3 2 3 3 3 3 3 4 3 4 3 4 4 4 4 4 4 2 2 2 2 2 1 1 1 0 0 0 1 0 0 0 0 0 1 
1 1 1 2 3 4 6 3 2 4 2 3 4 6 4 4 5 4 5 4 3 3 4 4 4 2 3 4 4 5 5 4 4 5 4 2 2 2 1 1 1 0 0 0 0 0 0 0 0 0 0 0 0 0 0 0 0 0 0 0 0 0 0 0 0 0 0 0 0 0 0 0 0 0 0 0 0 0 0 0 0 0 0 0 0 1 0 0 0 0 0 0 0 0 0 0 0 1 0 1 2 1 0 0 0 0 0 0 0 0 0 0 0 0 0 0 0 0 0 0 0 0 0 0 0 0 0 0 0 0 0 0 0 0 0 0 0 0 2 1 0 0 0 0 0 0 0 0 0 0 0 0 0 0 0 0 0 0 0 0 2 2 3 1 3 1 1 0 1 0 1 0 1 1 1 1 2 2 3 4 5 5 4 5 6 8 7 6 4 3 3 4 3 2 4 3 6 5 6 6 6 6 6 6 6 4 4 4 3 4 4 3 1 0 0 1 1 1 0 1 0 2 2 1 1 0 0 0 0 1 0 1 1 0 1 0 1 0 0 0 0 0 0 0 0 1 1 0 1 2 2 4 2 3 2 4 9 16 19 17 14 10 5 3 2 1 2 6 10 18 24 32 39 46 51 54 59 63 68 71 75 78 80 83 88 87 89 90 92 94 96 98 101 101 103 105 107 110 111 112 113 115 117 120 121 121 121 121 122 124 125 127 127 129 130 131 132 132 133 131 133 133 134 134 136 136 137 136 137 138 139 141 141 139 142 141 139 140 140 140 137 138 137 137 138 137 134 135 134 134 134 133 133 136 137 140 147 153 158 163 164 159 147 121 82 42 15 6 1 1 4 4 3 2 0 0 2 2 1 2 3 2 3 1 0 0 0 1 0 0 2 1 2 1 1 1 1 0 0 0 0 0 1 1 3 5 4 4 2 3 4 4 3 5 5 5 5 4 5 3 3 4 4 5 6 5 6 7 7 6 5 5 5 5 5 4 4 3 3 3 4 3 3 2 2 3 1 1 2 2 1 2 2 3 2 1 0 0 0 0 0 0 0 0 0 0 0 0 0 0 0 0 0 0 0 0 0 0 0 0 1 0 0 0 0 0 0 0 0 0 0 0 0 1 2 1 0 2 2 2 1 1 0 0 0 0 2 1 2 0 0 0 0 0 0 0 0 0 0 0 0 0 0 0 0 0 0 0 0 0 0 0 0 0 0 0 0 0 0 0 0 0 0 0 0 0 0 1 0 0 0 0 0 0 0 0 0 0 0 0 0 0 0 0 0 0 0 0 0 0 0 1 1 0 0 1 0 1 1 2 1 0 1 1 0 1 2 1 0 0 1 2 3 5 4 5 5 4 3 5 3 3 3 2 2 4 3 3 4 3 3 3 4 4 3 3 4 5 4 4 3 4 2 3 1 1 1 1 0 0 1 2 2 2 3 1 0 1 0 1 
0 1 1 1 3 3 4 4 3 4 4 4 4 4 4 4 6 6 4 4 3 2 4 4 2 3 4 4 5 6 5 4 4 4 4 3 2 1 1 2 0 0 0 0 0 0 0 0 0 0 0 0 0 0 0 0 0 0 0 0 0 0 0 0 0 0 0 0 0 0 0 0 0 0 1 0 0 0 0 0 0 0 0 0 0 0 0 0 0 0 0 0 0 0 0 0 0 0 2 1 0 1 0 0 0 0 0 0 0 1 0 0 0 0 0 0 0 0 0 0 0 1 0 0 0 0 0 0 1 0 0 0 0 0 1 1 0 2 1 2 0 0 0 0 0 0 0 0 0 0 0 0 0 0 0 0 0 0 0 0 2 2 2 0 3 1 0 0 0 0 0 1 2 2 3 2 3 3 4 5 6 6 4 7 6 7 6 4 4 3 3 2 2 2 3 4 5 7 7 7 7 8 7 8 7 5 4 3 3 3 4 2 3 1 1 1 0 1 1 1 0 2 0 3 0 0 0 0 0 1 1 0 2 1 0 0 0 0 0 0 0 0 0 0 1 0 0 1 1 1 2 3 2 2 1 0 2 9 17 26 33 39 37 32 25 17 10 5 4 3 4 8 15 23 30 37 43 50 55 59 61 66 69 72 75 77 80 81 83 86 89 93 94 95 95 99 100 102 103 105 108 109 110 112 115 115 117 117 118 118 119 120 121 120 122 125 126 128 128 127 126 127 127 128 132 131 133 133 133 134 135 135 134 134 135 134 133 131 131 129 130 130 130 131 131 129 128 127 127 128 133 139 145 151 156 161 163 165 164 156 136 102 61 27 8 1 1 2 3 4 2 2 2 2 0 2 3 2 3 3 3 2 2 0 2 0 0 1 0 0 0 1 1 1 0 0 0 0 1 0 0 0 2 2 3 3 4 4 2 2 5 5 5 5 6 7 6 6 5 3 3 3 4 4 4 6 7 8 7 6 6 6 4 5 5 4 6 6 5 4 4 3 2 3 2 2 1 2 2 2 3 2 2 2 2 1 0 0 0 0 0 0 0 0 0 0 0 0 0 0 0 0 0 0 0 0 0 0 0 0 0 0 0 0 0 0 0 0 0 0 0 0 0 0 1 1 2 4 2 1 1 0 0 0 0 0 0 0 2 1 0 0 0 0 0 0 0 0 0 0 0 0 0 0 0 0 0 0 0 0 0 0 0 0 0 0 0 0 0 0 0 0 0 0 0 0 0 0 1 1 0 0 0 0 0 0 0 0 0 0 0 0 0 0 0 0 0 0 0 0 1 0 0 1 0 0 2 2 2 2 2 1 0 1 1 0 1 0 0 2 4 3 4 4 6 6 6 6 4 5 3 4 4 4 3 3 4 3 4 4 3 2 4 4 3 2 3 4 3 3 2 2 2 2 2 2 1 1 0 0 1 2 2 3 3 2 1 1 1 0 
0 0 1 2 2 3 4 3 2 5 4 4 4 3 2 5 5 3 4 4 4 3 3 4 2 1 3 2 5 5 5 3 4 2 3 3 1 1 0 2 1 0 0 0 0 0 0 0 0 0 0 0 0 0 0 0 0 0 0 0 0 0 0 0 0 0 0 0 0 0 0 0 0 0 0 0 0 0 0 0 0 0 0 0 0 0 0 0 0 0 0 0 0 0 0 0 0 0 1 0 0 0 0 0 0 0 0 0 0 1 0 1 0 0 0 0 0 0 1 1 0 0 0 2 1 1 1 2 2 2 2 0 0 0 1 2 2 0 2 0 0 0 0 0 0 0 0 0 0 0 0 0 0 0 0 0 0 0 0 1 2 4 1 1 2 1 1 1 2 0 1 1 1 1 0 2 2 4 5 5 5 6 5 5 7 6 4 3 2 1 3 3 2 3 5 5 6 6 7 6 6 7 7 7 4 5 3 3 5 3 3 3 2 4 1 1 1 0 2 2 0 2 1 3 0 0 0 0 0 0 1 2 1 1 0 0 0 0 0 0 0 0 0 0 0 1 1 1 2 1 2 2 0 0 1 1 0 0 3 7 16 29 41 50 53 53 48 39 31 24 16 9 7 7 11 18 25 33 39 44 47 51 56 60 63 66 68 71 74 77 80 85 87 87 89 93 95 95 97 96 100 101 105 106 108 108 108 108 110 111 113 114 114 114 116 119 119 119 120 120 120 119 121 123 126 125 125 127 127 128 128 129 128 128 127 126 124 123 124 122 122 122 123 124 125 127 129 132 140 148 156 160 165 166 166 161 152 140 120 82 45 15 5 1 0 1 3 3 4 2 1 2 4 3 4 5 4 5 3 2 2 3 2 2 0 0 1 1 0 0 0 2 2 2 2 1 0 0 0 0 0 0 1 1 2 2 3 4 3 4 4 4 5 6 6 7 8 6 5 4 3 3 4 4 5 6 7 10 8 7 6 5 4 6 4 2 4 4 4 4 3 2 3 3 3 2 2 1 2 1 3 3 1 1 0 0 0 0 0 0 0 0 0 0 0 0 0 0 0 0 0 0 0 0 0 0 0 0 0 0 0 0 0 0 0 0 0 0 0 0 0 0 0 0 1 0 0 2 2 0 3 2 1 0 0 0 0 1 0 0 0 0 0 0 0 0 0 0 0 0 0 0 0 0 0 0 0 0 0 0 0 0 0 0 0 0 0 0 0 0 0 0 0 0 0 0 0 0 0 0 0 0 0 0 0 0 0 0 0 0 0 0 0 0 0 0 0 0 0 1 0 0 0 0 0 1 1 1 3 2 1 1 0 1 2 1 1 1 0 4 6 5 6 7 6 6 6 6 5 5 5 5 5 4 2 3 2 1 2 2 3 1 2 4 3 2 2 1 1 2 0 1 1 3 2 2 2 1 1 2 1 1 1 2 2 2 2 2 1 0 
2 2 2 3 4 4 3 1 3 3 4 3 3 2 4 5 6 5 5 6 3 4 4 2 2 1 1 2 3 2 3 3 2 3 2 0 2 1 2 0 0 0 0 0 0 0 0 0 0 0 0 0 0 0 0 0 0 0 0 0 0 0 0 0 0 0 0 0 0 0 0 0 0 0 0 0 0 0 0 0 0 0 0 0 0 0 0 0 0 0 0 0 0 0 0 0 0 0 0 0 0 0 0 0 0 0 0 0 0 1 1 1 1 0 0 0 1 2 1 1 2 1 2 3 3 1 1 1 1 2 0 0 1 0 2 1 1 0 0 0 0 0 0 0 0 0 0 0 0 0 1 1 0 0 0 0 0 2 0 2 1 2 1 0 0 0 0 1 1 1 1 2 2 0 1 1 2 2 4 4 5 7 7 6 6 6 4 4 3 4 4 3 4 3 5 4 5 6 7 5 6 6 7 7 5 5 3 2 3 5 4 2 2 1 0 0 1 0 1 1 0 1 2 1 0 2 0 0 0 0 0 0 3 0 0 0 0 0 0 0 0 0 0 0 0 0 0 0 0 1 1 2 1 0 0 0 0 0 0 0 0 0 10 22 39 51 58 64 64 61 59 54 48 43 35 29 25 23 23 27 30 36 40 43 46 50 54 57 62 65 69 73 76 77 81 83 85 87 88 89 90 91 95 96 99 101 102 102 103 105 107 107 108 108 110 112 112 111 111 111 113 113 114 116 118 120 118 120 120 121 121 119 120 120 119 118 117 116 115 118 122 125 131 135 141 147 151 157 160 164 165 163 158 145 129 102 73 44 20 9 4 3 3 3 2 3 1 4 4 1 3 2 2 3 4 5 6 4 1 2 1 1 0 0 1 2 1 0 1 0 2 2 2 2 2 1 0 0 0 0 0 0 0 1 4 3 4 3 4 4 3 3 4 3 6 6 5 5 3 3 2 3 3 4 4 6 8 8 8 7 6 5 5 4 4 3 5 5 3 2 3 3 3 2 4 1 1 1 1 2 2 2 0 0 0 0 0 0 0 0 0 0 0 0 0 0 0 0 0 0 0 0 0 0 0 0 0 0 0 0 0 0 0 0 0 0 0 0 0 0 0 0 0 0 0 0 0 0 1 0 1 2 0 0 0 0 0 0 0 0 0 0 0 0 0 0 0 0 1 0 0 0 0 0 0 0 0 0 0 0 0 0 0 0 0 0 0 0 0 0 0 0 0 0 0 1 0 0 0 0 0 0 0 0 0 0 0 0 0 0 0 0 0 0 0 0 0 0 0 1 0 0 0 0 0 2 2 3 3 2 3 1 3 3 1 2 1 1 3 4 6 5 6 7 8 8 7 7 7 6 6 5 5 4 4 3 2 3 3 4 3 3 3 3 4 3 4 2 0 1 0 0 1 2 1 1 1 0 3 3 2 2 1 0 0 0 1 2 3 2 
1 2 3 2 3 2 1 1 3 5 4 4 3 4 3 5 5 5 5 5 4 4 3 0 0 0 0 1 2 2 1 2 1 1 2 2 0 1 0 0 0 0 0 0 0 0 0 0 0 0 0 0 0 0 0 0 0 0 0 0 0 0 0 0 0 0 0 0 0 0 0 0 0 0 0 0 0 0 0 0 0 0 0 0 0 0 0 0 0 0 0 0 0 0 0 0 0 0 0 0 0 0 0 0 0 0 0 0 0 1 2 2 0 0 0 0 1 1 1 1 3 4 1 2 2 2 2 1 1 0 0 0 1 1 0 1 2 0 0 0 0 0 0 0 0 0 0 0 0 0 0 1 0 0 0 0 0 2 1 2 1 1 0 2 0 0 0 0 0 2 1 1 1 1 3 3 3 3 3 4 4 5 6 6 7 7 5 5 5 3 3 3 4 4 4 5 5 5 6 6 5 7 7 6 6 6 4 3 3 4 3 1 2 0 2 0 1 1 1 1 0 1 0 0 1 1 0 0 0 0 0 0 0 0 1 0 2 0 0 0 0 0 0 0 0 0 0 0 0 0 0 0 0 0 0 0 0 0 0 0 0 0 0 1 3 11 26 40 55 63 69 74 75 77 74 71 68 63 57 52 46 41 39 38 38 40 43 46 48 53 55 57 61 63 67 71 72 75 77 80 81 83 85 86 88 89 89 91 93 95 96 98 98 100 102 103 103 103 102 102 103 105 106 106 107 108 110 109 110 111 113 113 114 115 117 120 125 129 134 139 143 148 154 156 159 160 163 163 159 150 134 112 84 55 30 14 7 2 1 2 4 5 4 5 3 4 4 4 2 3 1 2 1 2 4 3 1 4 3 1 3 0 0 1 1 1 2 1 1 2 1 2 2 3 3 0 1 0 0 0 0 1 1 3 4 4 4 3 3 3 3 2 3 4 4 5 5 4 4 2 2 3 4 5 5 7 9 7 8 7 6 5 6 6 6 4 4 2 2 1 1 2 2 4 3 2 2 0 0 0 1 0 0 0 1 0 0 0 0 0 0 0 0 0 0 0 0 0 0 0 0 0 0 0 0 0 0 0 0 0 0 0 0 0 0 0 0 0 0 0 0 0 0 0 0 0 0 0 0 0 0 0 0 0 0 0 0 0 0 0 0 0 0 0 0 0 0 0 0 0 0 0 0 0 0 0 0 0 1 0 0 0 0 0 2 2 0 0 1 0 0 0 0 0 0 0 0 0 0 0 0 0 0 0 0 0 0 0 0 0 1 0 0 0 0 0 0 0 0 0 0 0 0 1 2 1 2 4 2 2 2 2 2 2 2 2 2 4 3 4 5 7 5 7 7 8 8 6 6 5 5 6 7 5 5 4 5 4 3 3 3 4 3 4 2 3 3 2 1 2 4 2 1 2 1 1 2 1 0 2 1 0 0 0 0 0 1 1 2 1 
1 1 3 3 2 3 1 2 2 2 2 3 3 1 2 3 5 5 4 5 4 3 1 0 1 1 0 1 1 1 1 1 2 1 1 0 0 1 0 0 0 0 0 0 0 0 0 0 0 0 0 0 0 0 0 0 0 0 0 0 0 0 0 0 0 0 0 0 0 0 0 0 0 0 0 0 0 0 0 0 0 0 0 0 0 0 0 0 0 0 0 0 0 0 0 0 0 0 0 0 0 0 0 0 0 0 0 1 0 1 3 2 1 0 0 1 2 2 2 3 2 2 2 3 2 2 3 1 2 1 1 0 1 1 1 2 3 2 1 1 0 0 0 0 0 0 0 0 0 0 0 0 0 0 0 0 1 1 0 1 1 0 0 0 0 0 0 0 0 1 1 1 3 2 3 3 3 5 5 6 5 6 7 6 8 7 5 6 7 5 4 4 4 2 2 5 5 6 6 4 4 5 5 5 5 5 4 4 5 4 3 2 1 1 0 1 1 1 1 2 0 2 2 1 1 1 0 0 0 0 0 0 0 0 0 0 0 0 0 0 0 0 0 0 0 0 0 0 0 0 0 0 1 1 0 0 0 0 0 0 0 1 1 0 0 0 0 3 9 20 33 47 58 68 77 82 86 91 92 89 87 82 77 73 70 67 64 61 61 59 60 59 59 61 61 63 64 65 66 69 71 73 76 78 79 79 83 83 84 86 88 88 88 91 93 95 97 97 97 98 100 100 102 104 107 108 113 115 119 120 123 126 130 133 138 145 146 149 153 156 156 160 161 159 157 151 139 121 93 64 37 16 9 6 3 2 0 3 3 4 4 5 5 5 3 3 4 4 3 2 2 1 0 2 2 3 4 3 2 3 3 1 1 1 2 2 2 2 1 0 1 1 0 0 1 1 0 1 1 1 0 0 2 3 3 2 3 4 3 3 1 2 2 2 3 3 4 2 3 3 5 3 4 3 3 7 6 8 8 6 5 4 6 4 5 4 4 3 3 1 2 1 2 2 3 1 1 0 2 2 0 1 0 0 0 0 0 0 0 0 0 0 0 0 0 0 0 0 0 0 0 0 0 0 0 0 0 0 1 0 0 0 0 0 0 0 0 0 0 0 0 0 0 0 0 0 0 0 0 0 0 0 0 0 0 0 0 0 0 0 0 0 0 0 0 0 0 0 0 1 1 0 0 0 0 0 0 0 1 0 0 0 0 0 2 1 1 0 0 0 0 0 0 1 0 2 0 0 0 0 0 0 1 0 0 0 0 0 0 1 0 0 0 0 0 0 0 0 0 0 0 1 2 1 2 4 1 3 2 4 4 3 2 1 3 2 2 1 2 3 5 6 7 6 6 6 5 7 6 7 6 7 7 6 6 5 6 4 4 5 3 3 3 3 4 3 2 3 2 4 4 4 2 1 1 2 1 1 0 0 0 0 0 0 0 1 1 1 0 0 
1 2 3 2 2 2 2 3 3 3 3 3 3 0 2 1 2 3 4 4 4 1 0 0 1 0 0 0 0 1 0 1 1 2 3 1 2 0 0 0 0 0 0 0 0 0 0 0 0 0 0 0 0 0 0 0 0 0 0 0 0 0 0 0 0 0 0 0 0 0 0 0 0 0 0 0 0 0 0 0 0 0 0 0 0 0 0 0 0 0 0 0 0 0 0 0 0 0 0 0 0 0 0 0 1 1 1 1 1 2 4 2 1 0 1 1 0 2 2 1 2 1 1 2 2 1 2 2 1 2 3 3 3 2 1 3 3 3 2 2 0 1 0 0 0 1 0 0 0 3 1 0 0 2 1 0 1 1 0 0 1 0 0 0 0 0 0 0 1 0 2 2 3 2 3 2 3 3 4 4 5 6 6 7 8 7 7 4 5 4 2 3 3 4 3 5 6 5 5 4 5 6 5 5 5 5 5 3 2 3 1 0 2 1 1 2 2 2 2 3 2 3 3 0 1 0 0 0 2 2 0 0 0 0 0 1 0 0 0 0 0 0 0 0 0 0 0 0 0 0 0 0 0 0 0 0 0 0 0 0 0 1 0 0 0 0 0 0 0 0 0 1 7 18 31 46 58 70 81 90 96 99 101 102 102 103 100 99 97 95 93 92 90 90 87 85 83 82 81 82 83 85 87 90 90 90 91 91 93 94 97 97 97 98 98 99 103 105 110 112 116 120 122 126 131 134 138 140 143 145 146 148 152 153 156 158 157 155 151 146 141 135 126 110 93 72 44 22 11 7 3 2 4 3 3 3 4 3 2 3 5 6 5 5 4 4 4 3 4 4 2 2 1 1 3 4 4 3 3 4 2 2 0 1 3 3 3 1 1 0 0 0 0 0 0 0 0 0 1 3 2 3 3 2 1 1 1 1 0 0 0 2 1 2 4 3 4 2 1 3 3 1 3 4 3 5 6 7 7 6 6 6 5 3 4 3 3 2 3 2 1 1 1 2 1 0 0 1 1 1 2 1 1 0 0 0 0 0 0 0 0 0 0 0 0 0 0 0 0 0 0 0 0 0 0 0 0 0 0 0 0 0 0 0 0 0 0 0 0 0 0 0 0 0 0 0 0 0 0 0 0 0 0 0 0 0 0 0 0 0 0 0 0 0 0 0 0 0 0 2 2 0 2 2 0 0 0 1 2 0 0 0 0 0 1 2 2 1 1 0 0 1 2 1 0 0 0 0 0 1 0 0 1 0 0 0 1 2 0 1 0 0 0 0 0 0 0 0 0 0 0 2 2 1 2 2 1 2 5 3 5 3 2 2 1 2 3 2 2 4 6 6 5 6 6 6 6 5 4 5 7 8 7 7 6 5 5 4 3 4 4 2 3 3 3 2 3 2 3 3 3 4 2 1 2 1 0 1 1 1 1 0 0 0 1 1 1 2 0 1 
2 2 2 2 1 2 3 3 3 2 3 3 4 0 0 0 0 0 1 2 1 0 0 0 0 0 0 0 0 1 1 0 1 3 2 1 1 1 0 0 0 0 0 0 0 0 0 0 0 0 0 0 0 0 0 0 0 0 0 0 0 0 0 0 0 0 0 0 0 0 0 0 0 0 0 0 0 0 0 0 0 0 0 0 0 0 0 0 0 0 0 0 0 0 0 0 0 0 0 0 1 0 0 1 2 3 1 0 1 1 3 2 1 1 0 1 1 2 2 3 2 3 2 2 2 2 3 3 2 4 3 3 4 3 4 3 2 2 2 1 1 2 0 0 0 1 2 1 1 1 0 0 1 1 0 0 1 0 0 2 2 1 1 0 0 0 0 1 0 0 0 3 4 5 4 2 4 4 5 6 7 7 6 7 8 7 7 6 4 4 3 2 2 4 5 6 6 6 4 4 4 3 5 4 3 3 4 2 2 3 2 3 0 1 2 2 3 0 1 3 0 2 2 0 1 1 2 0 0 1 0 0 0 1 0 0 0 0 0 0 0 0 0 0 0 0 0 0 0 0 0 0 0 0 0 0 0 0 0 0 1 0 1 0 0 0 0 0 0 0 0 0 0 0 0 2 5 14 25 39 53 68 78 90 97 103 104 107 108 111 111 113 114 116 116 115 115 115 115 115 116 117 119 121 121 122 122 123 124 125 127 126 126 128 128 127 129 132 133 136 138 140 144 147 150 152 153 155 156 156 153 154 151 145 142 134 124 110 92 72 56 40 27 16 11 9 6 2 4 4 6 6 6 6 5 6 5 4 3 5 5 5 5 5 5 5 4 4 4 3 3 2 3 4 5 5 4 4 2 3 2 1 2 1 1 1 3 1 2 2 0 0 1 0 0 1 0 0 1 2 0 4 4 3 2 2 1 1 0 1 1 2 1 1 2 2 0 1 0 3 2 1 2 3 3 5 6 6 6 5 5 6 5 4 4 3 2 2 2 1 0 0 0 0 0 1 2 2 2 2 1 2 0 0 0 0 0 0 0 0 0 0 0 0 0 0 0 0 0 0 0 0 0 0 0 0 0 0 0 0 0 0 0 0 0 0 0 0 0 0 0 0 0 0 0 0 0 0 0 0 0 0 0 0 0 0 0 0 0 0 0 0 0 0 0 0 0 1 2 1 1 1 1 3 0 0 2 1 3 3 1 0 2 2 2 3 3 4 2 0 1 0 0 2 0 0 1 0 0 0 0 0 1 0 0 1 0 1 0 0 0 0 0 0 0 0 0 0 1 1 1 3 2 4 3 2 4 4 5 3 4 4 5 4 3 3 3 3 3 4 5 7 6 6 7 5 5 4 5 4 6 7 6 6 7 6 5 6 4 4 3 4 2 0 1 1 3 3 2 5 3 4 2 0 1 1 1 0 1 0 0 0 0 0 0 0 0 1 0 1 
2 1 3 1 1 2 1 3 2 2 2 3 1 0 0 0 0 0 1 2 1 0 0 0 0 0 0 0 0 0 1 0 0 2 1 0 0 0 0 0 0 0 0 0 0 0 0 0 0 0 0 0 0 0 0 0 0 0 0 0 0 0 0 0 0 0 0 0 0 0 0 0 0 0 0 0 0 0 0 0 0 0 0 0 0 0 0 0 0 0 0 0 0 0 0 0 0 0 0 0 0 1 1 2 5 3 2 3 2 2 2 2 1 0 0 0 1 1 2 2 4 4 4 4 5 3 2 4 4 4 5 4 3 3 4 3 2 3 1 3 2 2 0 0 1 1 1 0 1 0 0 0 1 1 1 1 2 2 2 3 3 3 3 1 0 0 1 1 0 1 1 1 2 3 3 3 3 3 4 6 8 5 5 6 6 6 4 3 2 1 1 2 4 4 3 4 5 6 5 3 4 3 4 4 3 4 4 3 2 2 2 1 0 0 1 4 3 1 1 2 0 0 0 1 0 0 0 1 1 0 1 0 0 0 0 0 0 0 0 0 0 0 0 0 0 0 0 0 0 0 0 0 0 0 0 0 0 0 0 0 0 0 0 0 0 0 0 0 0 0 0 0 0 0 0 0 0 0 2 2 4 8 14 28 42 52 60 66 74 81 87 93 102 106 113 115 117 122 126 128 130 132 133 134 134 135 136 137 137 139 139 140 140 140 141 141 142 142 142 140 141 139 139 140 140 139 137 135 132 126 120 111 95 77 60 43 27 16 8 4 5 2 1 1 3 4 5 6 6 5 7 6 6 5 5 4 4 5 3 4 5 5 5 5 5 6 5 5 4 4 5 3 4 5 5 4 5 3 3 2 0 0 1 2 1 1 2 2 2 0 0 1 1 0 0 0 0 0 0 2 1 3 3 2 4 3 1 1 1 0 2 1 2 2 3 2 1 2 0 1 1 0 3 2 5 5 5 6 7 6 4 4 2 2 2 2 1 0 1 0 0 0 0 0 0 0 1 1 1 1 1 0 0 0 0 0 0 0 0 0 0 0 0 0 0 0 0 0 0 0 0 0 0 0 0 0 0 0 0 0 0 0 0 0 0 0 0 0 0 0 0 0 0 0 0 0 0 0 0 0 0 0 0 0 0 0 0 0 0 0 0 0 0 0 0 0 0 1 2 1 0 1 2 2 0 1 1 1 2 4 1 2 2 2 2 2 2 3 2 1 1 2 2 2 1 0 0 0 0 1 2 1 1 0 0 0 0 2 2 0 0 0 0 0 0 0 0 0 1 2 2 2 4 3 4 4 5 5 4 4 5 4 3 4 3 4 4 2 3 3 5 6 7 7 6 6 4 5 5 4 4 5 5 5 5 5 4 3 3 4 3 2 1 1 0 1 1 2 2 2 2 2 2 1 1 2 1 0 0 0 0 0 0 0 0 0 0 0 1 2 
1 1 1 0 2 2 1 1 3 2 2 1 0 0 0 0 0 0 0 1 0 0 0 0 0 0 0 0 1 1 0 1 0 1 0 0 0 0 0 0 0 0 0 0 0 0 0 0 0 0 0 0 0 0 0 0 0 0 0 0 0 0 0 0 0 0 0 0 0 0 0 0 0 0 0 0 0 0 0 0 0 0 0 0 0 0 0 0 0 0 0 0 0 0 0 0 0 0 0 0 0 1 3 4 4 2 1 1 2 2 3 3 3 1 1 2 2 2 3 3 4 4 4 4 4 5 4 5 5 4 6 5 4 4 5 4 3 1 2 4 2 0 1 1 0 1 1 0 1 1 1 1 0 2 1 3 2 3 3 3 2 3 2 1 0 0 1 1 0 1 2 2 3 4 2 3 4 5 5 5 4 4 6 4 5 4 5 3 0 0 1 2 2 2 4 4 5 6 4 3 3 4 5 3 4 3 4 3 3 3 3 1 0 1 1 1 1 0 0 1 0 0 0 0 0 0 1 0 0 2 1 0 0 0 0 0 0 0 0 0 0 0 0 0 0 0 0 0 0 0 0 0 0 0 0 0 0 0 0 0 0 0 0 0 0 0 0 0 0 0 0 0 0 0 0 0 1 0 1 3 1 0 0 0 2 3 4 6 9 12 18 28 37 46 54 63 73 81 90 98 100 102 104 108 108 109 110 111 113 114 114 115 118 119 118 117 114 111 106 100 96 90 85 77 70 64 57 49 42 36 26 17 10 6 4 2 0 0 0 0 0 1 1 3 5 5 7 7 7 6 7 7 8 7 5 5 5 5 4 5 4 4 4 4 6 6 5 3 3 3 2 4 4 4 5 4 4 4 3 3 2 2 1 2 1 1 1 0 0 0 0 1 0 0 0 0 0 0 0 1 0 2 2 1 3 2 1 2 2 2 2 1 0 1 1 3 2 2 1 1 0 1 2 4 3 3 5 4 4 4 5 4 3 2 1 0 0 0 0 0 0 0 1 0 0 1 1 2 2 1 1 0 0 0 0 0 0 0 0 0 0 0 0 0 0 0 0 0 0 0 0 0 0 0 0 0 0 0 0 0 0 0 0 0 0 0 0 0 0 0 0 0 0 0 0 0 0 0 0 0 0 0 0 0 0 0 0 0 0 0 0 0 0 0 0 0 0 0 1 1 0 0 1 1 2 3 4 4 5 5 4 3 2 2 1 3 2 3 3 2 2 4 2 2 1 1 0 0 1 0 1 1 0 1 0 0 0 0 0 0 0 0 0 0 0 0 0 0 1 2 2 3 4 5 4 3 5 5 4 4 4 4 4 4 4 3 3 3 4 4 5 6 7 7 9 8 6 6 5 5 5 4 5 4 4 3 3 3 4 3 2 1 2 0 1 1 1 1 1 1 2 2 3 3 2 1 2 2 1 0 0 0 0 0 0 1 0 1 0 1 
0 0 0 1 0 1 1 0 0 0 0 0 0 0 0 0 0 0 0 0 0 0 0 0 0 0 0 1 0 0 1 0 0 0 0 0 0 0 0 0 0 0 0 0 0 0 0 0 0 0 0 0 0 0 0 0 0 0 0 0 0 0 0 0 0 0 0 0 0 0 0 0 0 0 0 0 0 0 0 0 0 0 0 0 0 0 0 0 0 0 0 0 0 0 0 0 0 0 0 0 0 1 2 3 2 2 2 2 2 3 3 3 3 3 2 4 2 4 4 4 4 4 4 5 6 5 5 3 4 5 5 4 4 4 5 4 3 4 4 3 3 1 0 0 1 1 2 1 1 1 1 1 1 2 1 2 2 2 3 4 2 2 1 0 0 0 0 1 1 2 1 2 1 3 2 3 2 3 4 5 3 3 4 5 3 3 5 2 0 0 0 1 1 2 1 2 4 5 4 3 4 4 4 3 4 4 5 3 2 3 2 1 0 0 0 1 0 0 0 0 0 0 0 1 0 0 0 0 1 1 1 1 0 0 0 0 0 0 0 0 0 0 0 0 0 0 0 0 0 0 0 0 0 0 0 0 0 0 0 0 0 0 0 0 0 0 0 0 0 0 0 0 0 0 0 0 0 0 0 1 1 0 0 0 0 0 0 0 0 0 0 0 2 3 5 6 8 10 15 21 24 26 25 28 29 29 29 31 33 33 33 34 37 37 37 37 29 24 20 13 12 9 8 7 6 6 6 4 3 2 0 1 0 0 0 0 1 0 1 0 0 0 1 2 2 4 6 6 5 5 4 5 6 6 5 3 3 3 3 2 4 3 3 4 4 5 4 3 4 3 4 4 6 4 5 4 4 4 2 2 0 0 0 1 1 1 0 1 0 0 0 0 0 0 0 0 0 0 0 0 0 2 4 3 3 3 1 2 2 1 1 0 1 1 1 2 2 3 1 0 0 1 2 2 2 3 3 5 4 4 4 1 2 0 0 0 0 0 0 0 0 0 0 0 0 1 1 2 2 2 2 0 0 0 0 0 0 0 0 0 0 0 0 0 0 0 0 0 0 0 0 0 0 0 0 0 0 0 0 0 0 0 0 0 0 0 0 0 0 0 0 0 0 0 0 0 0 0 0 0 0 0 0 0 0 0 0 0 0 0 0 0 0 0 0 0 0 0 1 0 0 1 1 2 3 3 3 5 4 5 5 4 3 2 2 2 3 3 2 1 3 3 3 2 1 1 1 0 0 1 1 2 1 1 0 0 0 0 0 0 0 0 0 0 0 0 0 0 1 2 1 4 4 5 6 4 4 4 5 4 3 3 4 3 2 2 4 3 4 5 6 6 6 6 6 7 7 7 5 5 4 3 3 2 2 1 1 2 3 2 1 0 1 2 0 1 0 3 1 1 1 2 2 2 1 1 2 2 1 0 0 0 0 0 0 0 0 1 0 1 
0 0 0 0 0 0 0 1 0 0 1 0 0 0 0 0 0 0 0 0 0 0 0 0 0 0 0 0 0 0 0 0 0 0 0 0 0 0 0 0 0 0 0 0 0 0 0 0 0 0 0 0 0 0 0 1 0 0 0 0 0 1 0 0 0 0 0 0 0 0 0 0 0 0 0 0 0 0 0 0 0 0 0 0 0 0 0 0 0 0 0 0 0 0 0 0 0 0 0 0 0 1 1 3 3 3 2 1 2 1 4 3 2 2 2 3 4 3 4 5 6 5 6 4 6 5 4 4 5 5 5 4 5 3 3 4 4 3 3 2 2 0 1 1 1 2 2 0 1 1 1 0 1 0 0 2 1 1 2 1 1 1 0 0 0 1 1 0 1 1 1 1 2 2 2 3 3 3 3 4 3 3 4 3 3 4 3 2 1 1 0 1 1 3 2 1 3 2 2 4 5 4 3 3 3 3 5 3 2 3 3 1 1 0 0 0 0 0 0 0 0 0 0 0 1 1 0 1 2 1 2 0 0 0 0 0 0 0 0 0 0 0 0 0 0 0 0 0 0 0 0 0 0 0 0 0 0 0 0 0 0 0 0 0 0 0 0 0 0 0 0 0 0 0 0 0 0 2 1 0 0 0 0 0 0 1 1 0 0 0 0 1 1 1 0 1 0 0 0 0 1 0 0 0 0 0 0 1 1 0 0 0 0 0 0 0 0 0 0 0 0 0 0 0 0 0 0 1 1 1 0 1 0 0 0 0 0 0 0 0 1 1 4 4 4 5 4 4 5 5 5 5 6 5 5 4 4 5 5 4 5 4 3 4 5 6 5 4 4 4 6 5 5 4 5 3 4 4 1 3 1 1 1 1 0 1 0 0 0 0 0 0 0 0 0 0 0 0 0 0 0 1 1 1 2 3 1 1 3 0 2 1 1 0 0 2 1 2 0 1 3 2 2 2 2 2 2 2 3 2 1 1 1 0 0 0 0 0 0 0 0 0 0 0 0 1 2 3 2 2 2 1 0 0 0 0 1 0 0 0 0 0 0 0 0 0 0 0 0 0 0 0 0 0 0 0 0 0 0 0 0 0 0 0 0 0 0 0 0 0 0 0 0 0 0 0 0 0 0 0 0 0 0 0 0 0 0 0 0 0 0 0 0 0 0 0 0 0 0 0 0 3 3 3 3 2 4 5 4 6 6 4 4 3 4 1 2 3 2 2 3 2 2 3 3 3 2 3 1 2 1 2 1 1 1 0 0 1 0 0 0 0 0 0 0 0 0 0 2 3 3 3 2 4 4 3 5 5 4 3 5 3 3 2 2 1 1 3 3 4 5 5 7 7 6 8 6 6 4 5 5 4 3 1 2 1 1 1 2 2 2 2 2 1 2 2 3 3 2 2 2 2 2 1 1 1 1 1 0 1 1 0 0 0 0 0 0 1 1 1 
2 1 0 0 0 0 0 0 0 0 0 0 0 0 0 0 0 0 0 0 0 0 0 0 0 0 0 0 0 0 0 0 0 0 0 0 0 0 0 0 0 0 0 0 0 0 0 0 0 0 0 0 0 0 0 1 0 0 0 0 0 0 0 0 0 0 0 0 0 0 0 0 0 0 0 0 0 0 0 0 0 0 0 0 0 0 0 0 0 0 0 0 0 0 0 0 0 0 0 0 0 2 2 2 2 2 2 3 2 3 3 3 2 2 3 4 4 5 4 5 3 3 4 4 4 5 5 5 6 5 7 6 5 4 3 3 3 3 3 2 3 1 3 3 4 4 2 4 3 3 1 1 0 0 1 0 1 1 2 2 1 3 1 1 0 1 2 1 1 0 0 0 1 1 1 1 2 3 3 3 4 3 3 3 2 3 2 0 0 0 0 0 0 1 2 1 3 4 3 4 4 2 2 3 3 2 1 2 1 0 0 1 2 1 0 0 0 0 0 0 0 0 0 0 0 0 1 0 3 2 3 1 0 0 0 0 0 0 0 0 0 0 0 0 0 0 0 0 0 0 0 0 0 0 0 0 0 0 0 0 0 0 0 0 0 0 0 0 0 0 0 0 0 0 0 0 0 0 1 1 0 0 0 1 0 2 0 0 0 0 0 0 0 2 2 2 0 0 1 0 0 2 1 1 2 0 0 0 0 0 0 0 0 0 0 0 0 0 0 0 0 0 0 1 1 1 2 2 3 2 0 0 0 0 0 1 1 0 0 0 1 2 2 3 4 5 5 5 5 4 4 4 4 5 6 7 6 4 5 3 3 6 5 5 3 3 4 4 3 3 4 5 6 5 5 4 3 2 2 3 2 3 2 2 0 1 0 2 1 1 1 0 0 0 1 2 0 0 0 0 1 1 2 2 2 2 0 0 0 0 1 0 0 0 1 0 1 1 0 1 1 2 1 0 3 3 2 2 4 2 1 0 0 0 0 0 0 0 0 0 0 0 0 2 0 0 0 1 2 2 1 2 2 0 0 0 0 0 0 0 0 0 0 0 0 0 0 0 0 0 0 0 0 0 0 0 0 0 0 0 0 0 0 0 0 0 0 0 0 0 0 0 0 0 0 0 0 0 0 0 0 0 0 0 0 0 0 0 0 0 0 0 0 0 0 0 0 0 1 1 1 3 4 3 4 5 5 5 4 4 5 3 4 2 3 2 1 1 2 3 3 3 2 3 2 4 2 3 3 1 2 3 2 2 1 0 1 1 0 0 0 1 0 0 0 0 0 0 1 4 4 4 3 3 4 4 4 4 3 4 3 2 1 0 1 0 2 2 3 4 4 5 6 7 8 6 8 5 4 5 4 3 3 2 1 1 1 0 1 3 2 3 2 1 1 2 1 2 2 1 2 3 2 1 1 0 1 1 0 0 0 0 0 0 0 0 0 0 0 0 
0 0 0 0 0 0 0 0 0 0 0 0 0 0 0 0 0 0 0 0 0 0 0 0 0 0 0 0 0 0 0 0 0 0 0 0 0 0 0 0 0 0 0 0 0 0 0 0 0 0 1 1 1 1 2 1 1 0 0 1 0 0 0 0 0 0 0 0 0 0 0 0 0 0 0 0 0 0 0 0 0 1 0 0 0 0 0 0 0 0 0 0 0 0 0 0 0 0 0 0 0 0 3 0 2 4 2 2 1 1 1 2 2 3 4 5 6 4 3 4 5 6 5 5 4 6 5 6 7 7 6 6 7 3 4 4 3 4 3 3 2 3 3 5 3 3 2 0 3 2 1 2 2 2 1 1 3 2 2 1 1 0 0 1 2 2 4 1 0 0 0 0 1 1 1 1 1 3 3 4 3 3 2 3 1 3 2 1 0 0 0 0 0 1 0 0 2 4 3 3 1 2 1 2 3 2 4 2 1 1 1 1 1 2 1 0 0 0 1 1 0 0 0 0 0 1 1 2 3 2 1 2 0 0 0 0 0 0 0 0 0 0 0 0 0 0 0 0 0 0 0 0 0 0 0 0 0 0 0 0 0 0 0 0 0 0 0 0 0 0 0 0 0 0 0 0 0 0 2 0 0 0 1 0 0 0 1 2 0 0 0 0 0 0 1 1 1 2 2 1 2 3 2 1 1 0 0 0 0 0 0 0 0 0 0 0 0 0 0 0 0 0 0 3 1 1 1 1 1 1 0 0 0 0 1 2 2 2 2 0 0 1 1 2 3 4 6 5 4 6 5 5 5 5 5 6 5 4 4 4 4 5 3 4 4 4 3 2 3 3 4 3 5 4 4 4 2 2 2 1 4 4 2 2 2 2 4 1 0 0 0 0 1 1 1 1 2 0 0 0 1 1 2 2 0 2 0 2 0 0 0 0 0 0 0 0 0 0 0 0 0 1 0 2 2 2 2 3 2 1 0 0 0 0 0 0 0 1 0 1 1 1 2 1 0 0 0 1 2 1 1 1 2 0 0 0 0 0 0 0 0 0 0 0 0 0 0 0 0 0 0 0 0 0 0 0 0 0 0 0 0 0 0 0 0 0 0 0 0 0 0 0 0 0 0 0 0 0 0 0 0 0 0 0 0 0 0 0 0 0 1 0 0 1 0 1 0 2 1 1 1 4 3 4 5 4 4 5 4 6 4 4 3 3 4 2 0 1 2 3 2 1 2 2 2 2 2 2 2 2 2 3 3 2 1 2 2 3 1 0 1 0 0 0 0 0 0 1 3 2 5 4 5 5 4 3 3 4 3 4 3 1 1 1 1 1 0 1 3 3 3 4 6 8 7 5 5 5 3 4 3 3 2 2 0 0 0 1 1 2 2 3 3 1 3 3 1 2 2 2 2 2 2 2 3 2 0 0 0 0 0 0 0 0 1 1 0 0 0 0 
0 0 0 0 0 0 0 0 0 0 0 0 0 0 0 0 0 0 0 0 0 0 0 0 0 0 0 0 0 0 0 0 0 0 0 0 0 0 0 0 0 0 1 0 0 1 0 0 0 0 0 2 2 3 2 1 0 0 0 0 1 0 0 0 0 0 0 0 0 0 0 0 0 0 0 0 0 0 0 0 0 0 0 0 0 0 0 0 0 0 0 0 0 0 0 0 0 0 0 0 0 1 2 2 3 4 3 2 1 2 1 3 2 2 3 3 4 4 5 4 5 4 4 6 6 6 4 4 6 8 6 7 6 3 4 3 3 2 2 2 1 1 3 4 4 4 3 4 2 3 4 4 3 2 1 1 2 2 1 2 3 2 1 1 3 3 3 1 1 0 0 0 1 1 2 3 1 2 1 3 2 2 1 2 2 2 1 0 0 0 0 0 0 0 0 0 3 3 3 1 1 2 1 1 3 2 2 2 3 2 1 1 3 2 2 1 2 0 1 1 0 0 1 0 0 3 1 1 2 2 1 0 0 0 0 0 0 0 0 0 0 0 0 0 0 0 0 0 0 0 0 0 0 0 0 0 0 0 0 0 0 0 0 0 0 0 0 0 0 0 0 0 0 0 0 1 0 0 0 1 2 1 0 0 1 1 0 0 0 0 0 0 0 0 0 1 0 3 3 1 1 0 1 1 0 0 0 0 0 0 0 0 0 0 1 0 0 0 0 0 0 0 0 1 0 0 0 2 0 0 0 0 1 0 2 3 2 2 1 1 2 1 1 2 3 5 6 6 6 6 4 5 5 7 5 6 5 4 4 4 4 5 4 4 4 3 3 3 2 3 1 4 3 3 3 4 3 3 2 3 2 3 2 3 2 2 2 0 2 0 1 2 1 1 1 2 1 1 1 0 1 0 0 0 0 0 0 0 0 0 0 0 0 0 0 0 0 0 1 0 0 0 0 0 0 1 3 2 1 0 0 0 0 0 0 0 0 0 0 2 2 2 0 1 1 1 0 1 2 1 1 2 1 0 1 0 0 1 0 0 0 0 0 0 0 0 0 0 0 0 0 0 0 0 0 0 0 0 0 0 0 0 0 0 0 0 0 0 0 0 0 0 0 0 0 0 0 0 0 0 0 0 0 0 0 0 0 0 0 0 1 0 0 2 3 1 1 1 1 2 2 3 5 4 3 3 5 4 5 4 5 4 2 3 3 3 2 2 3 2 2 3 2 2 1 2 3 3 3 4 2 2 4 2 3 3 2 1 0 0 1 1 0 0 0 0 1 2 4 4 4 4 5 4 4 4 2 4 4 3 4 2 1 2 1 1 0 2 3 4 3 5 6 8 5 4 5 5 4 4 3 2 2 0 0 0 0 0 1 2 3 2 3 1 1 2 1 1 2 3 2 3 3 1 0 0 0 0 0 0 0 0 0 0 1 1 0 0 0 0 
0 0 0 0 0 2 0 0 0 0 0 0 0 0 0 0 0 0 0 0 0 0 0 0 0 0 0 0 0 0 0 0 0 0 0 0 0 0 0 0 0 0 1 0 0 0 0 0 0 0 0 2 2 3 3 1 1 1 0 0 0 0 1 0 0 0 0 0 0 0 0 0 0 0 0 0 0 0 0 0 0 0 0 0 0 0 0 0 0 0 0 0 0 0 0 0 0 0 1 3 2 1 2 2 5 3 3 2 3 2 1 2 2 3 3 3 4 4 4 4 3 4 4 5 5 3 4 4 5 6 5 6 4 3 4 2 3 3 4 2 3 3 2 3 3 4 4 3 5 4 3 3 3 2 2 2 2 1 1 1 3 1 0 1 1 2 1 0 1 0 0 0 2 1 2 3 3 2 1 3 1 2 2 3 1 0 0 1 0 0 0 0 0 0 0 1 2 2 2 2 0 2 2 2 1 0 1 1 2 2 4 2 2 2 1 1 1 1 0 1 0 1 0 0 0 1 1 3 2 2 2 0 1 0 0 0 0 0 0 0 0 0 0 0 0 0 0 0 0 0 0 0 0 0 0 0 0 0 0 0 0 0 0 0 0 0 0 0 0 0 2 0 0 0 0 1 1 0 0 1 2 1 0 0 1 0 0 0 0 0 0 0 0 0 0 1 1 1 1 0 1 0 2 2 1 2 0 0 0 0 0 0 0 0 0 0 0 0 0 0 0 0 1 1 2 1 1 3 1 1 1 1 0 1 1 1 3 2 2 1 0 2 2 3 4 5 6 4 4 6 5 7 6 5 5 5 4 3 4 5 6 5 4 5 5 4 3 3 3 3 3 3 3 3 3 4 3 3 4 3 3 3 2 3 2 3 1 0 0 1 1 1 0 1 0 1 0 2 1 1 1 1 1 0 0 0 0 0 0 0 0 0 0 0 0 0 0 0 0 0 0 0 0 0 0 0 1 1 2 1 0 0 0 0 0 0 0 0 0 0 0 0 0 0 1 0 1 0 0 1 2 3 0 0 2 0 0 0 0 0 0 0 0 0 0 0 0 0 0 0 0 0 0 0 0 2 0 0 0 0 0 0 0 0 0 0 0 0 0 0 0 0 0 0 0 0 0 0 0 0 0 0 0 0 0 0 0 0 0 0 1 1 2 1 3 2 2 2 4 3 2 4 4 3 2 4 5 4 6 5 5 4 3 2 2 2 3 3 3 2 3 3 2 3 3 3 2 2 2 1 5 3 4 4 2 3 3 2 1 1 1 2 0 0 0 0 2 0 4 4 4 5 5 3 4 3 2 4 4 3 5 3 2 1 2 1 0 3 4 3 3 4 4 5 5 4 2 5 4 3 3 3 2 1 0 0 0 2 1 3 2 2 2 2 1 1 1 1 2 2 3 1 1 0 0 0 0 0 1 1 0 1 0 0 0 0 0 0 0 0 
0 0 0 0 1 0 0 0 0 0 0 0 0 0 0 0 0 0 0 0 0 0 0 0 0 0 0 0 0 0 0 0 0 0 0 0 0 0 0 0 1 0 0 0 0 0 0 0 0 0 2 2 2 2 3 3 1 0 0 0 0 0 1 0 0 0 0 0 0 0 0 0 0 0 0 0 0 0 0 0 0 0 0 0 0 0 0 0 0 0 0 0 0 0 0 0 0 2 1 2 2 1 3 2 4 4 4 3 3 2 3 2 2 2 3 2 2 4 4 4 4 3 4 6 5 4 4 4 6 7 6 4 4 4 3 2 4 4 3 4 3 3 2 3 3 5 6 5 4 3 2 2 3 4 2 2 2 3 1 3 3 2 1 1 1 2 1 1 1 0 0 0 0 2 2 3 2 2 2 2 2 2 1 2 1 1 0 0 0 0 0 0 0 0 0 0 2 1 1 2 2 1 1 0 1 1 2 0 1 2 2 1 1 0 0 0 0 3 2 1 0 4 3 2 1 0 0 2 2 0 2 1 1 0 0 0 0 0 0 0 0 0 0 0 0 0 0 0 0 0 0 0 0 0 0 0 0 0 0 0 0 0 0 0 0 0 0 0 0 0 0 0 0 0 0 0 0 2 1 1 3 0 0 0 0 0 0 0 0 0 0 0 0 0 0 1 2 2 3 1 1 1 1 2 1 2 0 0 1 1 0 0 0 0 0 0 0 0 0 0 0 0 1 0 1 2 3 2 2 1 0 0 0 0 1 0 3 2 2 2 3 2 2 3 3 4 5 4 5 5 5 6 5 4 5 4 5 4 4 4 4 3 3 5 5 4 4 3 3 4 4 2 3 4 4 4 3 3 3 4 5 4 2 2 2 2 2 0 0 1 0 1 0 1 1 1 1 1 1 2 2 3 3 1 1 1 0 0 0 0 0 0 0 0 0 0 0 0 0 0 0 0 0 0 0 0 0 2 2 0 0 0 0 0 0 0 0 0 0 0 0 0 0 0 1 0 0 0 1 1 0 3 2 2 1 2 1 0 0 0 0 0 0 0 0 0 0 0 0 0 0 1 0 0 0 1 0 1 0 0 0 0 0 0 0 0 0 0 0 0 0 0 0 0 0 0 0 0 0 0 0 0 0 0 0 0 0 0 0 0 0 0 2 1 2 2 2 2 3 3 4 4 3 3 5 4 4 5 6 6 6 3 3 3 2 1 1 1 3 3 4 3 3 3 2 2 3 2 2 3 3 4 3 3 3 2 2 1 1 1 1 1 1 0 0 0 2 2 4 5 4 5 4 4 3 3 3 2 4 3 4 4 3 3 0 1 1 1 2 2 2 3 4 2 4 2 2 2 2 2 2 2 2 2 1 0 0 0 2 1 1 1 2 1 2 1 1 2 1 2 2 1 1 1 0 0 0 1 1 2 1 1 1 2 1 0 0 0 0 0 
0 0 0 0 0 0 0 0 0 0 0 0 0 0 0 0 0 0 0 0 0 0 0 0 0 0 0 0 0 0 0 0 0 0 0 0 0 0 0 1 0 0 0 0 0 0 0 0 0 1 2 2 2 2 4 3 3 2 1 0 0 1 0 0 1 1 0 0 0 0 0 0 0 0 0 0 0 0 0 0 0 0 0 0 0 0 0 0 0 0 0 0 0 0 0 0 1 0 2 1 1 0 1 2 2 4 3 3 3 2 3 3 2 2 1 2 2 2 2 3 4 3 3 4 4 4 6 5 5 6 5 5 5 4 5 3 3 3 3 4 4 4 3 3 4 4 4 4 3 2 2 3 5 4 3 3 3 4 2 3 3 2 3 2 2 2 1 0 0 1 0 2 1 1 1 0 0 2 2 2 2 0 1 0 0 0 0 0 0 0 0 0 0 0 0 1 1 2 1 0 1 0 0 1 2 0 1 0 0 1 0 0 0 0 0 0 0 1 0 2 1 3 3 2 1 0 2 2 3 1 1 0 0 0 0 0 0 0 0 0 0 0 0 0 0 0 0 0 0 0 0 0 0 0 0 0 0 0 0 0 0 0 0 0 0 0 0 0 0 0 0 0 0 0 1 0 0 0 0 1 2 0 0 1 1 0 0 0 1 1 0 0 0 0 1 1 1 1 2 2 2 1 1 1 4 4 4 3 2 1 2 1 1 0 0 0 0 0 0 0 0 0 0 1 1 2 3 3 2 2 1 1 1 1 0 2 2 1 0 2 1 2 4 4 5 4 5 4 5 6 5 5 4 5 5 5 4 3 3 4 4 3 3 4 4 4 4 3 2 3 3 2 4 6 4 3 5 4 3 3 2 3 3 2 0 1 1 0 0 2 1 0 1 1 1 3 2 2 3 3 0 2 2 0 1 0 0 0 0 0 0 0 0 0 0 0 0 0 0 0 0 0 0 0 0 0 0 0 1 0 0 0 0 0 0 0 0 0 0 0 0 0 0 0 0 1 1 1 1 1 1 2 0 1 0 1 0 0 0 0 1 2 0 1 1 0 0 0 0 0 0 0 0 0 0 0 1 1 0 0 0 0 0 0 0 0 0 0 0 0 0 0 0 0 0 0 0 0 0 0 0 0 0 0 0 0 0 0 0 0 1 1 0 1 0 1 3 2 4 5 4 4 5 4 4 3 4 6 5 4 4 4 4 3 3 3 2 1 2 2 2 3 3 3 3 3 3 3 2 2 2 2 4 3 3 3 2 1 2 2 0 1 1 0 1 2 3 5 5 6 6 4 4 4 1 3 4 4 1 2 4 3 3 3 2 2 0 1 1 2 1 1 1 1 2 2 2 1 1 0 1 2 2 2 2 2 2 2 0 1 0 1 1 1 1 1 1 2 2 3 2 2 3 2 2 0 1 0 2 3 0 1 0 0 0 0 0 0 0 1 
0 0 0 0 0 0 0 0 0 0 0 0 0 0 0 0 0 0 0 0 0 0 0 0 0 0 0 0 0 0 0 0 0 0 0 0 0 0 0 1 1 1 0 0 0 0 0 0 0 0 3 2 2 3 3 3 2 2 0 0 0 0 0 2 2 0 0 0 0 0 0 0 0 0 0 0 0 0 0 0 0 0 0 0 0 0 0 0 0 0 0 0 0 0 0 0 2 2 3 3 1 2 2 2 2 3 2 2 2 2 3 2 1 2 1 3 2 2 2 1 4 4 4 4 5 6 4 5 6 4 5 5 5 7 6 5 5 6 6 4 4 2 4 3 2 2 3 5 5 3 3 3 6 5 5 6 4 6 4 5 4 2 3 3 3 2 0 0 0 1 0 0 0 0 1 0 0 1 1 2 0 0 0 0 0 0 0 0 0 0 0 0 0 0 0 0 0 2 0 1 0 0 0 0 2 0 1 0 0 0 0 0 0 0 0 0 0 2 2 2 2 2 1 1 2 1 1 2 2 0 2 0 0 0 0 0 0 0 0 0 0 0 0 0 0 0 0 0 0 0 0 0 0 0 0 0 0 0 0 0 0 0 0 0 0 0 0 0 0 0 0 0 0 0 0 0 0 0 0 0 1 2 0 0 2 1 1 0 1 2 1 0 1 1 2 2 3 2 2 1 0 1 1 1 2 3 4 3 1 1 0 0 0 0 0 0 0 0 0 0 0 0 1 1 2 2 3 3 2 2 2 1 2 1 2 1 2 2 1 1 2 3 3 4 5 4 4 4 4 5 3 5 5 4 4 5 4 4 3 2 5 4 2 2 2 3 4 3 3 4 4 5 5 5 5 4 5 4 4 5 4 3 2 1 1 0 0 2 1 1 2 2 1 3 3 3 1 3 3 2 0 1 1 1 0 0 0 0 0 0 0 0 0 0 0 0 0 0 0 0 0 0 0 0 0 0 0 1 1 0 0 0 0 0 0 0 0 0 0 0 0 0 0 0 0 1 0 0 2 1 0 2 0 1 1 1 0 0 1 1 2 0 0 1 1 0 1 0 0 0 0 0 1 0 0 0 0 0 0 0 0 0 0 0 0 0 0 0 0 0 0 0 0 0 0 0 0 0 0 0 0 0 0 0 0 0 0 0 0 0 0 0 2 1 0 0 1 1 3 3 3 4 5 4 2 3 3 6 6 3 4 4 3 2 5 4 3 1 2 3 4 2 2 3 3 3 3 3 2 3 3 2 4 4 5 3 3 4 3 3 1 2 0 1 2 0 3 4 4 6 5 3 4 2 2 3 2 3 3 3 2 3 3 2 2 3 2 2 1 1 1 2 1 3 1 1 1 0 0 1 1 1 2 2 1 1 2 0 0 0 0 0 0 1 1 0 0 0 1 3 3 3 2 3 3 1 2 2 1 1 0 0 0 0 0 0 0 0 1 0 
0 0 0 0 0 0 0 0 0 0 0 0 0 0 0 0 0 0 0 0 0 0 0 0 0 0 0 0 0 0 0 0 0 0 0 0 0 0 0 0 0 0 0 0 0 0 0 0 0 0 2 2 2 1 3 3 2 1 0 0 0 0 1 2 0 0 0 0 0 0 0 0 0 0 0 0 0 0 0 1 1 2 0 0 0 0 0 0 0 0 0 0 0 0 0 0 2 1 2 2 3 3 1 3 4 2 1 1 0 3 3 3 3 4 4 4 5 3 3 4 3 5 5 4 6 7 6 5 4 5 4 4 5 5 5 6 6 5 4 3 3 2 2 2 2 3 4 6 6 4 3 3 3 5 5 4 5 5 4 5 3 2 2 4 3 1 0 1 1 0 0 0 0 0 0 0 0 1 2 2 1 0 0 0 0 0 0 0 0 0 0 0 0 0 0 0 0 0 1 1 1 0 0 0 0 0 1 0 1 1 1 0 0 0 0 0 0 0 0 1 1 1 0 1 1 0 1 1 0 0 0 1 0 0 0 0 0 0 0 0 0 0 0 0 0 0 0 0 0 0 0 0 0 0 0 0 0 0 0 0 0 0 0 0 0 0 0 0 0 0 0 0 0 0 0 0 0 0 0 0 2 0 0 0 1 2 1 0 2 1 0 1 1 1 0 1 1 3 2 1 1 0 3 2 2 2 3 4 2 2 1 0 1 1 1 0 0 0 0 0 0 1 1 2 3 4 3 3 5 5 5 3 2 0 0 0 2 1 0 1 2 3 2 3 2 4 6 5 6 3 3 3 4 3 4 3 4 3 2 3 4 2 3 4 4 3 4 3 3 4 4 4 4 5 5 5 7 5 6 6 4 4 3 2 2 2 3 2 1 1 0 0 1 2 2 2 2 2 3 1 0 0 0 0 1 0 0 0 0 0 0 0 0 0 0 0 0 0 0 0 0 0 0 0 0 0 0 0 0 0 0 0 0 0 0 0 0 0 0 0 0 0 0 0 3 0 1 1 2 2 2 3 3 4 3 2 1 1 1 1 0 2 1 0 2 0 0 0 0 0 0 0 1 0 0 1 0 0 0 0 0 0 0 0 0 0 0 0 0 0 0 0 0 0 0 0 0 0 0 0 0 0 0 0 0 0 0 0 0 0 0 0 1 1 0 0 1 1 0 1 1 2 5 4 2 2 3 5 6 4 4 4 3 3 4 3 2 3 3 3 4 3 4 6 4 5 4 3 3 4 3 4 4 5 4 5 4 3 3 2 2 2 1 1 2 0 1 1 4 6 3 2 3 5 4 3 3 1 2 1 2 4 1 1 0 1 1 2 1 1 2 3 2 2 1 1 1 1 0 0 1 0 1 3 2 2 2 0 0 0 0 0 0 1 1 1 1 0 1 3 3 3 3 3 2 2 3 3 3 2 0 0 0 0 0 0 0 0 0 0 
0 0 0 0 0 0 0 0 0 0 0 0 0 0 0 0 0 0 0 0 0 0 0 0 0 0 0 0 0 0 0 0 0 0 0 0 0 0 0 1 0 0 0 0 0 0 0 0 1 0 2 2 2 3 2 2 2 1 0 0 0 0 1 2 0 0 0 0 0 0 0 0 0 0 0 2 0 1 1 3 2 1 0 1 0 0 0 0 0 0 0 0 0 0 0 0 0 0 3 2 2 2 2 4 2 2 0 3 2 3 2 2 2 4 4 5 4 3 4 3 2 4 4 3 5 4 4 4 4 3 3 4 4 4 5 7 6 7 7 6 5 5 3 2 3 4 5 7 8 6 5 5 5 6 6 3 3 5 3 3 2 4 2 2 1 1 0 0 0 0 0 0 0 0 0 0 0 0 0 1 0 0 0 0 0 0 0 0 0 0 0 0 0 0 0 0 0 0 0 0 0 0 0 0 0 3 3 2 1 0 0 0 0 0 0 0 0 0 0 0 1 0 0 0 2 1 0 1 1 1 0 0 0 0 0 0 0 0 0 0 0 0 0 0 0 0 0 0 0 0 0 0 0 0 0 0 0 0 0 0 0 0 0 0 0 0 0 0 0 0 0 0 0 0 0 0 0 0 1 1 1 1 1 0 1 2 1 2 1 1 1 0 1 0 0 1 2 2 2 1 1 1 2 2 1 1 3 3 1 2 1 1 0 0 0 0 0 0 0 0 2 3 3 4 3 5 4 5 6 6 5 3 2 2 0 0 0 0 0 3 3 3 2 2 2 4 4 3 4 4 3 4 4 4 1 3 3 3 2 3 4 1 2 4 4 3 4 3 2 3 4 3 5 5 6 7 7 7 6 4 6 4 3 4 4 2 2 1 1 1 0 0 0 0 0 1 1 2 2 3 2 1 0 0 0 0 0 0 0 0 0 0 0 0 0 0 0 0 0 0 0 0 0 0 0 0 0 0 0 0 0 0 0 0 0 0 0 0 0 0 0 0 0 0 1 1 1 3 3 4 4 4 3 3 4 2 0 0 0 0 0 0 1 0 0 0 0 0 0 0 0 0 0 0 0 0 0 0 0 0 0 0 0 0 0 0 0 0 0 0 0 0 0 0 0 0 0 2 0 0 0 0 0 0 1 1 0 0 0 0 0 0 2 1 0 0 0 2 1 2 3 2 5 3 3 2 0 2 3 3 4 4 3 3 3 2 4 4 3 3 2 3 4 4 5 4 6 4 4 5 5 4 3 2 4 4 4 5 5 3 0 3 2 3 2 1 2 2 2 4 3 4 4 4 3 5 3 1 2 2 1 2 2 0 0 0 0 1 1 1 3 2 2 2 1 0 1 1 0 0 0 0 2 2 3 1 0 0 0 0 0 0 0 1 1 1 2 2 1 2 2 3 3 4 1 3 4 3 3 3 1 0 0 0 0 0 0 0 0 0 
0 0 0 0 0 0 0 0 0 0 0 0 0 0 0 0 0 0 0 0 0 0 0 0 0 0 0 0 0 0 0 0 1 1 0 0 0 0 0 0 0 0 0 0 0 0 0 1 0 2 1 1 2 2 4 2 1 1 0 0 0 0 0 1 1 0 0 0 0 0 0 0 0 1 1 0 0 1 1 2 2 1 2 0 0 1 2 0 0 0 0 0 0 0 0 1 0 1 1 2 2 3 3 4 3 4 1 2 2 1 3 2 2 3 4 4 4 3 3 3 2 2 4 5 5 5 4 5 2 4 3 5 4 3 6 3 5 5 5 3 5 4 3 4 3 4 4 4 8 8 6 4 8 6 6 5 5 3 4 4 3 3 2 2 1 2 0 0 0 0 1 1 2 0 0 0 0 0 0 0 0 0 0 0 0 0 0 0 0 0 0 0 0 0 0 0 0 0 0 0 0 0 0 0 0 2 4 2 2 0 0 0 0 0 0 0 0 0 0 0 0 0 0 0 1 0 0 0 1 1 1 0 0 0 0 0 0 0 0 0 0 0 0 0 0 0 0 0 0 0 0 0 0 0 0 0 0 0 0 0 0 0 0 0 0 0 0 0 0 0 0 0 0 1 0 0 0 1 2 1 0 2 0 0 0 0 1 2 1 2 0 1 0 1 3 3 2 3 2 2 2 1 1 2 2 2 3 2 1 1 0 0 0 0 2 1 0 0 1 1 4 5 3 3 4 5 5 5 5 5 5 2 1 1 1 0 0 0 0 2 1 2 3 2 1 2 2 3 4 4 3 2 4 2 3 3 3 2 2 2 1 1 3 3 2 2 2 1 2 3 4 3 4 5 5 6 4 5 5 4 4 3 3 2 3 2 1 1 1 1 0 0 1 0 1 1 1 1 1 1 0 1 0 0 0 0 0 0 0 0 0 0 0 0 0 0 0 0 0 0 0 0 0 0 0 0 0 0 0 0 0 0 0 0 0 0 0 0 0 0 0 0 0 0 0 1 2 2 4 4 3 4 3 3 2 1 0 0 0 0 0 0 0 0 0 0 0 0 0 0 0 2 0 0 0 0 0 0 0 0 0 0 0 0 0 0 0 0 0 0 0 0 0 0 0 1 0 0 0 1 1 0 0 0 1 1 1 0 0 0 0 1 1 0 0 0 0 2 1 2 3 3 4 3 4 3 2 2 2 3 2 3 3 2 4 4 3 4 3 3 2 2 2 3 3 3 5 5 5 6 6 6 5 2 3 3 5 4 2 2 1 3 3 4 2 0 1 3 4 4 6 6 4 4 5 5 4 3 2 2 1 1 1 0 0 0 0 0 0 0 2 2 3 1 0 0 0 0 0 0 0 0 1 1 2 0 0 0 0 0 0 0 0 0 2 2 1 2 3 2 2 4 2 2 2 2 3 3 1 1 0 0 0 0 0 0 0 0 0 0 
0 0 0 0 0 0 0 0 0 0 0 0 0 0 0 0 0 0 0 0 0 0 0 0 0 0 0 0 0 0 0 2 0 0 0 0 0 0 1 0 0 0 0 0 0 1 2 1 0 1 0 1 0 2 2 3 3 3 1 3 2 0 1 0 0 0 0 0 0 0 0 0 0 1 0 0 0 1 1 2 2 4 4 2 1 0 1 0 0 0 0 0 0 0 0 0 1 2 1 2 2 1 3 3 3 4 5 2 2 1 2 3 3 2 3 3 3 3 2 3 2 2 3 3 2 4 3 6 4 4 4 5 3 4 4 5 5 5 6 4 4 6 5 5 6 5 7 8 6 5 5 6 4 3 5 4 5 3 3 3 3 3 2 1 0 0 2 1 0 0 0 1 1 0 0 0 0 0 0 0 0 0 0 0 0 0 0 0 0 0 0 0 0 0 0 0 0 0 0 0 0 0 0 0 0 1 2 2 2 2 1 0 0 0 0 0 0 0 0 0 0 1 0 0 0 0 0 1 2 3 1 0 0 0 0 0 0 0 0 0 0 0 0 0 0 0 0 0 0 0 0 0 0 0 0 0 0 0 0 0 0 0 0 0 0 0 0 0 0 0 0 0 0 1 1 0 1 3 2 2 1 0 0 0 0 2 2 2 1 0 0 0 0 1 1 1 1 2 3 1 2 3 4 3 2 4 3 5 4 3 3 2 2 0 0 0 2 2 3 3 3 3 4 3 5 6 5 3 5 4 4 3 2 1 1 1 0 0 2 2 3 2 2 0 3 3 4 4 3 3 3 4 4 3 2 2 3 4 2 3 2 2 2 3 2 2 3 3 2 3 4 5 5 4 4 6 6 5 4 5 3 3 3 2 2 2 2 2 2 1 0 1 1 1 1 2 2 3 3 3 1 1 0 0 0 0 0 0 0 0 0 0 0 0 0 0 0 0 0 0 0 0 0 0 0 0 0 0 0 0 0 0 0 0 0 0 0 0 0 0 0 0 0 0 0 0 1 2 2 2 3 3 2 0 1 0 0 0 0 0 0 0 0 0 0 0 0 0 0 0 0 1 1 1 0 0 0 0 0 0 0 0 0 0 0 0 0 0 0 0 0 0 0 0 0 1 0 0 0 0 0 0 0 0 0 0 0 0 1 0 0 0 0 0 0 1 1 1 0 2 2 3 4 4 3 2 3 3 3 4 2 1 2 3 2 2 2 4 5 4 2 1 2 3 3 4 4 4 6 7 6 5 4 4 4 3 4 5 3 2 1 2 3 3 3 3 1 3 5 4 5 6 5 6 5 4 3 2 2 2 1 0 0 0 0 0 0 0 0 0 2 2 0 0 0 0 0 0 0 0 0 0 2 1 1 1 0 0 0 0 0 0 0 2 1 3 2 3 3 2 2 1 2 3 2 2 2 0 0 0 0 0 0 0 0 0 0 0 0 0 
0 0 0 0 0 0 0 0 0 0 0 0 0 0 0 0 0 0 0 0 0 0 0 0 0 0 0 0 0 0 0 0 0 0 0 0 0 0 0 0 0 0 0 0 0 0 2 1 3 3 2 1 0 2 3 4 3 1 3 3 2 2 2 0 0 0 1 0 0 0 0 0 1 0 1 0 1 2 3 3 2 3 3 3 1 2 1 2 1 0 0 0 0 0 0 2 0 2 1 2 2 1 0 2 3 3 5 3 1 2 1 2 2 1 0 0 0 1 2 1 2 2 3 3 3 4 4 3 4 6 4 5 4 4 4 4 5 3 4 5 5 4 5 4 6 6 6 6 6 4 4 6 4 5 4 5 3 5 5 4 3 2 1 1 3 0 0 0 0 0 0 0 1 0 0 0 0 0 0 1 0 0 0 0 0 0 0 0 0 0 0 0 0 0 0 0 0 0 0 0 0 0 0 0 0 1 3 2 2 0 1 0 0 0 0 0 0 0 0 1 0 0 0 0 0 0 0 0 2 3 1 2 0 0 0 0 0 0 0 0 0 0 0 0 0 0 0 0 0 0 0 0 0 0 0 0 0 0 0 0 0 0 0 0 0 0 0 0 0 0 0 0 0 1 2 1 3 2 2 1 3 0 0 0 0 0 1 0 0 1 0 2 1 0 1 1 2 3 5 4 4 3 3 3 3 3 1 2 5 3 3 1 1 0 0 2 2 2 2 3 3 4 5 5 5 3 4 4 3 3 3 4 4 2 1 1 0 0 1 1 3 1 2 3 3 4 4 4 5 3 4 3 3 3 1 3 3 2 1 3 3 3 4 3 3 1 1 3 3 3 4 5 6 5 5 4 5 4 3 3 3 2 3 2 1 3 2 3 1 2 1 1 3 2 4 3 3 3 3 3 1 1 0 0 0 0 0 0 0 0 0 0 0 0 0 0 0 0 0 0 0 0 0 0 0 0 0 0 0 0 0 0 0 0 0 0 0 0 0 0 0 0 0 0 0 0 0 1 0 2 2 2 0 1 1 1 0 0 0 0 0 0 0 0 0 0 0 0 0 0 2 1 3 2 2 0 0 0 0 0 0 0 0 0 0 0 0 0 0 0 0 0 0 0 1 0 0 0 0 0 0 0 0 0 0 0 0 0 0 0 0 0 0 0 0 1 1 2 1 2 2 3 3 4 3 4 3 3 2 3 3 2 1 3 3 1 1 3 3 2 4 2 4 3 4 4 5 6 6 6 5 6 5 5 5 4 4 3 4 4 1 2 2 3 4 4 4 4 5 6 6 4 5 5 5 4 3 3 1 2 0 0 0 0 0 0 0 0 0 0 0 1 0 0 0 0 0 0 0 0 0 1 2 3 1 2 1 1 0 0 0 0 1 0 2 4 3 3 3 2 2 1 1 1 1 0 0 0 0 0 0 0 0 0 0 0 0 0 0 0 
0 0 0 0 0 0 0 0 0 0 0 0 0 0 0 0 0 0 0 0 0 0 0 0 0 0 0 0 0 0 0 0 0 0 0 0 0 0 0 0 0 0 0 0 0 0 1 2 2 2 0 1 0 3 3 2 2 2 2 3 3 1 1 0 0 1 1 0 0 0 0 1 1 0 1 1 1 1 2 3 3 2 4 4 3 3 2 0 0 0 0 1 1 0 0 1 0 3 3 3 1 2 1 2 2 3 3 3 2 1 2 2 0 0 0 0 1 1 2 1 2 2 2 4 3 4 3 3 4 6 5 6 6 5 4 4 4 3 3 3 4 5 5 5 6 4 6 5 5 5 5 6 4 3 4 2 3 2 2 2 1 1 2 2 2 0 0 0 0 0 0 0 0 0 0 0 0 0 0 0 0 0 0 0 0 0 0 0 0 0 0 0 0 0 0 0 0 0 0 0 0 0 0 0 0 0 0 2 3 1 0 0 0 0 0 0 0 0 0 0 0 0 0 0 0 1 0 1 2 1 2 0 0 0 0 0 0 0 0 0 0 0 0 0 0 0 0 0 0 0 0 0 0 0 0 0 0 0 0 0 0 0 0 0 0 1 0 0 0 0 0 0 1 2 2 2 3 3 3 4 4 1 0 0 0 0 0 0 0 0 1 2 2 1 2 2 5 5 5 5 4 4 4 4 3 3 2 0 2 3 2 0 1 2 3 3 2 3 3 4 4 6 4 6 5 5 3 3 4 4 4 2 2 1 2 2 2 2 1 2 0 0 1 3 3 4 4 6 6 4 2 3 0 0 0 1 1 1 2 3 4 3 3 2 2 0 1 2 4 4 4 4 4 4 3 1 2 4 2 3 3 3 1 4 2 2 3 4 1 3 1 2 2 3 3 3 3 2 2 2 1 1 0 0 0 0 0 0 0 0 0 0 0 0 0 0 0 0 0 0 0 0 0 0 0 0 0 0 0 0 0 0 0 0 0 0 0 0 0 0 0 0 0 0 0 0 0 0 0 1 0 0 1 2 2 0 0 0 0 0 0 0 0 1 0 0 0 0 0 1 3 3 3 3 0 1 2 0 0 0 0 0 0 0 0 0 0 0 0 0 0 0 0 1 0 2 0 0 0 0 0 0 0 0 0 0 0 1 1 2 1 0 0 0 0 0 1 1 1 2 3 3 3 4 3 4 4 2 2 1 1 2 1 3 3 1 1 2 2 3 3 3 4 3 4 6 6 7 4 6 6 6 7 7 6 5 4 4 3 4 3 1 2 5 5 6 5 4 4 5 5 4 5 3 4 3 3 1 1 0 0 0 0 0 0 0 0 0 0 0 0 0 0 1 0 0 0 1 0 0 0 1 1 1 0 0 0 0 0 0 0 0 1 1 3 3 4 3 2 3 1 1 1 0 0 0 0 0 0 0 0 0 0 0 0 0 0 0 0 0 
0 0 0 0 0 0 0 0 0 0 0 0 0 0 0 0 0 0 0 0 0 0 0 0 0 0 0 0 0 0 0 0 0 0 0 0 0 0 0 1 0 1 0 0 0 0 1 1 1 0 0 0 1 2 3 2 2 2 4 4 2 2 0 2 1 0 0 0 0 0 0 1 1 3 2 1 2 2 3 2 3 4 3 4 3 1 2 2 2 1 0 0 0 1 2 1 2 3 5 2 2 3 3 2 2 1 2 2 1 0 1 0 0 0 0 2 1 0 0 1 1 4 3 2 2 4 3 3 4 5 5 6 5 5 3 3 3 3 5 2 4 5 5 5 4 4 5 5 4 5 5 5 6 4 2 3 4 3 2 2 1 1 1 1 0 1 1 0 0 0 0 0 0 0 0 0 0 0 0 0 0 0 0 0 0 0 0 0 0 0 0 0 0 0 0 0 0 0 0 0 0 0 0 0 0 0 0 0 0 1 0 0 0 0 0 0 0 0 0 0 0 0 0 0 0 0 0 0 1 1 1 0 0 0 0 0 0 0 0 0 0 0 0 0 0 0 0 0 0 0 0 1 0 0 0 0 0 0 0 0 0 0 0 0 0 0 0 1 0 0 0 0 0 2 3 3 2 3 1 2 3 1 0 0 0 0 0 0 0 0 0 1 2 3 3 3 3 4 5 3 3 3 4 3 3 3 2 3 5 5 4 2 2 1 3 3 3 4 4 5 5 3 6 4 6 4 3 3 3 2 4 3 2 3 2 1 2 2 3 1 1 1 0 1 1 2 4 5 4 3 2 3 0 0 0 0 0 1 2 2 1 1 2 1 1 1 2 2 3 4 4 5 5 4 3 1 2 3 4 4 4 3 3 4 2 2 2 3 2 1 1 1 2 3 4 3 3 2 1 1 1 0 0 0 0 0 0 0 0 0 0 0 0 0 0 0 0 0 0 0 0 0 0 0 0 0 0 0 0 0 0 0 0 0 0 0 0 0 0 0 0 0 0 0 0 0 0 0 0 0 0 0 0 0 0 0 1 0 0 0 0 0 0 2 0 0 0 0 0 2 4 4 4 3 1 1 2 1 0 0 0 0 0 0 0 0 0 0 1 0 0 0 1 0 0 1 2 0 0 0 0 0 0 0 0 0 2 1 1 0 0 0 0 0 0 0 0 0 0 0 3 3 2 2 1 4 3 2 3 2 3 1 2 3 2 0 1 2 3 3 4 3 4 5 4 4 6 5 4 5 6 5 6 6 6 4 5 3 3 4 5 3 2 6 5 5 4 3 4 4 3 3 4 3 3 1 2 0 0 0 0 0 0 0 0 0 0 0 0 0 0 0 1 2 1 1 0 0 0 1 0 1 2 0 0 0 1 0 0 0 1 1 0 2 0 2 2 2 3 1 0 0 1 1 0 0 0 0 0 0 0 0 0 0 0 0 0 0 0 0 
0 0 0 0 0 0 0 0 0 0 0 0 0 0 0 0 0 0 0 0 0 0 0 0 0 0 0 0 0 0 0 0 0 0 1 1 0 0 1 1 0 0 0 0 0 1 0 0 0 0 1 1 1 2 1 2 1 2 3 3 3 2 1 1 1 1 0 0 0 0 0 2 2 3 4 5 4 3 4 2 3 3 4 5 4 2 2 3 3 2 1 1 0 0 2 3 3 4 4 4 2 2 3 2 2 1 1 2 0 1 0 0 0 0 0 0 0 0 0 0 0 2 3 3 3 3 1 3 3 4 4 4 2 3 2 3 3 3 3 4 3 4 5 5 5 5 5 6 5 4 5 6 6 5 5 6 5 4 4 2 2 2 0 1 1 0 0 0 0 0 0 0 0 0 0 0 0 0 0 0 0 0 0 0 0 0 0 0 0 0 0 0 0 0 0 0 0 0 0 0 0 0 0 0 0 0 0 0 0 0 0 0 0 0 0 0 0 0 0 0 0 0 0 0 1 0 0 0 0 1 2 0 0 0 0 0 0 0 0 0 0 0 0 0 0 0 0 0 0 0 0 0 0 0 0 0 0 0 0 0 0 0 0 0 0 0 1 2 0 0 0 0 0 0 0 0 1 0 1 2 1 0 0 0 0 0 0 1 1 0 0 1 2 2 2 3 3 3 3 2 5 3 4 5 5 5 4 2 3 4 4 2 3 4 4 2 4 4 4 4 6 4 6 6 5 3 3 3 4 2 2 1 1 2 0 1 2 1 0 0 2 1 0 1 2 1 1 3 2 2 2 2 1 1 1 0 1 0 1 3 2 1 0 0 0 1 1 1 2 2 5 4 4 4 4 2 2 2 2 2 4 4 4 3 3 1 0 1 0 2 1 3 2 1 2 2 2 0 0 0 0 0 0 1 0 0 0 0 0 0 0 0 0 0 0 0 0 0 0 0 0 0 0 0 0 0 0 0 0 0 0 0 0 0 0 0 0 0 0 0 0 0 0 0 0 0 0 0 0 0 0 0 0 0 0 0 1 0 0 0 0 0 0 1 0 0 0 0 0 2 3 3 5 3 1 2 2 1 0 0 0 0 0 0 0 0 0 0 0 0 1 2 2 1 2 2 2 1 0 0 0 0 0 0 1 2 1 1 1 1 0 0 0 0 0 0 1 1 2 1 2 3 1 1 2 3 3 2 2 2 3 1 0 0 1 1 3 3 3 3 5 4 6 5 5 6 5 4 4 5 5 5 6 6 6 5 6 5 5 3 2 5 4 4 4 3 2 2 3 3 3 2 3 3 2 2 1 1 1 0 0 0 0 0 0 0 0 0 0 0 1 1 1 0 0 1 0 0 0 1 0 1 1 0 0 0 0 0 0 0 0 0 1 3 0 2 1 2 1 1 1 0 0 1 0 0 0 0 0 0 0 0 0 0 0 0 0 0 0 0 
0 0 0 0 0 0 0 0 0 0 0 0 0 0 0 0 0 0 0 0 0 0 0 0 0 0 0 0 0 0 0 0 0 0 0 1 0 0 1 0 0 0 0 0 0 0 0 0 0 0 0 1 2 3 1 1 2 3 3 3 3 2 1 4 3 1 1 1 0 0 1 2 3 3 4 6 5 3 3 3 3 3 3 4 4 3 2 3 2 2 1 2 2 1 3 3 2 3 4 2 2 3 3 2 2 1 2 0 0 0 0 0 0 0 0 0 0 0 0 0 1 0 2 1 1 2 2 2 3 5 6 3 3 3 2 2 2 3 2 4 4 4 4 4 5 6 4 5 5 3 6 5 4 5 5 4 3 5 3 2 2 1 1 0 0 0 0 0 0 0 0 0 0 0 0 0 0 0 0 0 0 0 0 0 0 0 0 0 0 0 0 0 0 0 0 0 0 0 0 0 0 0 0 0 0 0 0 0 0 0 0 0 0 0 0 0 0 0 0 0 0 0 1 1 0 0 0 1 1 1 0 0 0 0 0 0 0 0 0 0 0 0 0 1 0 0 1 0 0 0 0 1 0 0 1 0 0 0 0 0 0 0 0 0 0 0 1 1 1 0 0 1 0 0 1 1 0 1 0 1 1 1 0 0 0 0 0 1 1 1 1 2 3 2 3 3 2 1 2 2 3 3 3 5 6 5 3 3 4 4 4 5 4 4 4 4 5 5 6 7 7 4 5 5 5 5 4 5 4 3 2 1 1 0 0 3 1 1 0 0 0 1 0 1 1 0 1 4 3 3 3 1 1 0 1 1 0 0 0 1 0 1 1 0 0 0 1 2 1 3 4 5 5 5 4 4 3 2 1 3 3 3 1 2 2 1 2 2 1 2 1 1 0 0 1 3 2 0 0 0 0 0 0 0 0 0 0 0 0 0 0 0 0 0 0 0 0 0 0 0 0 0 0 0 0 0 0 0 0 0 0 0 0 0 0 0 0 0 0 0 0 0 0 0 0 0 0 0 0 0 0 0 0 0 1 2 0 0 0 0 0 0 0 0 0 0 0 0 0 2 2 3 3 3 3 4 2 2 0 0 0 0 0 0 0 0 0 0 2 2 2 2 3 2 3 3 4 1 2 1 1 0 0 0 0 1 1 0 2 1 0 0 0 0 0 0 0 2 1 1 3 3 3 3 4 4 4 2 1 2 1 2 1 1 2 3 3 3 4 6 4 5 4 5 6 8 6 5 4 6 6 6 7 7 7 6 5 5 5 3 2 2 4 4 4 3 2 2 4 2 4 0 2 3 1 2 1 0 1 0 0 0 0 0 0 0 0 0 0 0 0 0 0 0 0 0 0 0 0 0 0 0 0 0 0 0 0 0 0 0 0 0 2 2 1 1 0 1 2 2 1 2 0 1 1 0 1 0 0 0 0 0 0 0 0 0 0 0 0 0 
0 0 0 0 0 0 0 0 0 0 0 0 0 0 0 0 0 0 0 0 0 0 0 0 0 0 0 0 0 0 1 0 0 1 2 0 1 0 0 0 1 0 0 0 0 0 0 0 0 1 0 2 1 2 2 2 2 2 4 3 4 3 1 2 2 1 1 2 1 1 1 3 3 4 5 5 5 7 5 5 5 4 4 3 4 2 2 2 1 3 2 1 2 2 3 2 2 2 2 4 2 1 2 2 3 2 1 1 0 0 0 0 0 0 0 1 0 0 0 0 0 0 1 0 0 2 1 2 4 4 4 3 3 3 4 2 1 3 2 2 4 6 5 5 6 7 6 6 6 4 5 5 6 4 5 3 3 3 4 3 2 0 0 1 0 0 0 0 0 0 0 0 0 0 0 0 0 0 0 0 0 0 0 0 0 0 0 0 0 0 0 0 0 0 0 0 0 0 0 0 0 0 0 0 0 0 0 0 0 0 0 0 0 0 0 0 0 0 0 0 0 0 0 0 0 0 1 1 1 0 0 0 0 0 0 0 0 0 0 0 0 0 0 0 1 1 0 2 0 0 1 0 1 2 1 0 0 0 0 0 0 0 0 0 0 0 2 3 1 0 0 0 0 0 0 1 1 2 0 2 2 2 0 0 0 0 2 2 2 2 2 2 2 2 0 2 1 3 3 4 3 4 4 5 4 3 4 6 5 5 6 5 5 5 4 5 4 5 5 6 7 5 5 4 5 4 3 4 3 4 3 0 2 1 0 1 0 1 1 1 1 1 0 1 0 0 1 2 2 3 1 0 0 0 1 0 1 1 0 0 0 0 0 1 0 0 0 1 1 2 4 5 6 6 4 3 3 3 2 3 2 1 2 2 1 0 1 0 0 2 0 0 0 0 1 0 1 0 0 0 0 0 0 0 0 0 0 0 0 0 0 0 0 0 0 0 0 0 0 0 0 0 0 0 0 0 0 0 0 0 0 0 0 0 0 0 0 0 0 0 0 0 0 0 0 0 0 0 0 0 0 0 0 0 1 1 1 0 0 0 0 0 0 0 0 0 0 0 0 1 1 3 2 2 3 4 4 2 0 0 0 0 0 1 0 0 1 1 2 4 2 2 3 3 4 4 4 3 3 3 2 0 0 0 1 2 1 1 1 2 0 0 0 0 0 0 0 1 3 1 1 3 3 2 3 2 2 2 1 1 1 0 1 2 3 2 5 5 5 6 5 6 4 6 6 7 5 5 4 6 7 6 7 6 5 5 5 4 4 3 1 1 4 5 4 4 3 3 4 3 2 2 2 1 2 1 2 0 0 0 0 0 0 0 0 0 0 0 0 0 0 0 0 0 0 0 0 0 0 0 0 0 0 0 1 0 0 0 0 0 0 0 1 1 1 2 1 1 1 2 2 3 0 1 0 0 0 1 0 0 0 0 0 0 0 0 0 0 0 0 
0 0 0 0 0 0 0 0 0 0 0 0 0 0 0 0 0 0 0 0 0 0 0 0 0 0 0 0 0 1 0 0 0 0 1 0 0 0 0 0 0 0 0 0 0 0 0 0 0 0 1 0 1 2 2 1 2 2 2 3 2 4 1 0 2 3 2 4 3 2 2 2 3 4 5 6 4 6 5 7 6 5 5 4 3 4 4 2 3 3 3 2 1 2 1 2 2 2 3 3 4 3 3 3 1 1 0 0 0 0 0 0 0 0 0 0 1 1 1 1 0 0 0 1 1 1 2 2 4 3 5 4 4 3 3 2 2 2 2 3 2 5 5 5 6 5 5 5 5 3 3 3 3 4 3 2 1 0 0 1 2 1 1 0 0 1 0 0 0 0 0 0 0 0 0 0 0 0 0 0 0 0 0 0 0 0 0 0 0 0 0 0 0 0 0 0 0 0 0 0 0 0 0 0 0 0 0 0 0 0 0 0 0 0 0 0 0 0 0 0 0 0 0 0 0 0 0 1 1 0 0 0 0 0 0 0 0 0 0 0 1 1 1 1 1 1 1 1 0 1 1 1 3 1 0 0 0 1 1 0 0 0 0 0 0 0 2 3 3 1 0 0 0 0 1 0 0 0 0 0 2 0 1 2 1 0 0 1 2 3 2 2 1 2 1 2 3 3 4 5 5 5 4 3 3 5 5 5 6 6 6 5 3 5 6 5 3 5 5 5 5 6 4 4 4 3 3 4 4 5 4 2 2 1 1 0 0 1 0 0 0 0 1 0 0 0 1 2 1 1 0 0 2 0 0 0 2 1 0 0 0 0 0 1 0 0 0 1 2 3 5 4 5 5 4 4 2 1 1 1 0 2 2 0 1 0 0 0 0 0 0 0 0 0 1 0 0 0 0 0 0 0 0 0 0 0 0 0 0 0 0 0 0 0 0 0 0 0 0 0 0 0 0 0 0 0 0 0 0 0 0 0 0 0 0 0 0 0 0 0 0 0 0 0 0 0 0 0 0 0 0 0 0 0 0 0 0 0 0 0 0 0 1 0 0 0 0 1 0 1 2 2 4 3 2 4 3 2 1 1 0 0 3 1 1 1 1 4 3 2 3 2 2 4 5 3 5 4 5 5 3 2 0 2 3 2 2 0 0 0 0 0 1 0 2 1 1 2 1 0 0 2 3 2 2 2 2 3 2 1 0 0 1 0 2 3 3 4 4 4 4 3 4 5 6 6 7 3 4 6 5 5 6 5 5 6 4 5 3 2 1 2 4 4 4 5 4 4 3 3 2 2 3 3 1 2 1 1 0 0 0 0 0 0 0 0 0 0 0 0 0 0 0 0 0 0 0 0 0 0 0 0 0 0 0 0 0 0 0 0 0 0 1 2 1 1 0 0 2 1 2 1 0 1 0 0 0 1 0 0 0 0 0 0 0 0 0 0 0 0 
0 0 0 0 0 0 0 0 0 0 0 0 0 0 0 0 0 0 0 0 0 0 0 0 0 0 0 0 0 0 1 0 0 0 0 0 0 0 0 0 0 0 0 0 0 0 0 0 0 0 0 0 0 0 1 1 3 1 3 2 2 2 0 1 2 4 4 2 2 1 1 2 3 4 7 6 7 7 6 7 6 7 6 5 4 4 2 1 1 4 3 2 2 3 1 2 2 2 3 3 3 2 2 2 0 1 0 0 0 0 2 0 2 0 0 1 0 1 0 0 0 0 0 0 0 1 2 3 3 6 4 3 3 3 2 3 3 3 2 5 3 5 4 3 4 5 4 5 6 4 4 4 3 3 1 0 1 1 0 2 2 1 0 0 0 0 1 0 0 0 0 0 0 0 0 0 0 0 0 0 0 0 0 0 0 0 0 0 0 0 0 0 0 0 0 0 0 0 0 0 0 0 0 0 0 0 0 0 0 0 0 0 0 0 0 0 0 0 0 0 0 0 0 0 0 1 0 1 1 0 0 0 0 0 0 0 0 0 0 1 2 2 3 3 2 1 1 3 3 3 3 3 1 1 1 1 1 0 0 0 1 0 0 0 1 1 2 2 1 0 0 0 0 0 0 0 0 0 0 1 3 2 3 1 2 0 1 3 3 3 3 2 3 3 2 2 3 4 5 5 5 5 4 4 4 5 5 6 6 4 3 4 5 4 4 3 3 4 5 7 7 4 4 4 4 4 3 3 5 4 6 4 2 2 1 0 0 0 1 0 0 1 1 0 0 0 1 0 2 0 0 2 1 0 0 0 0 0 1 0 0 0 0 0 0 0 0 0 2 2 4 3 4 4 5 3 2 2 3 0 0 1 1 0 0 0 0 0 0 0 0 0 0 0 2 0 0 0 0 0 0 0 0 0 0 0 0 0 0 0 0 0 0 0 0 0 0 0 0 0 0 0 0 0 0 0 0 0 0 0 0 0 0 0 0 0 0 0 0 0 0 0 0 0 0 0 0 0 0 0 0 0 0 0 1 1 1 0 0 0 0 0 0 0 0 2 1 1 0 1 3 2 3 4 4 5 4 2 3 3 2 2 3 3 2 2 3 4 3 3 3 2 2 3 3 3 3 4 5 5 3 3 1 3 3 2 2 1 0 0 0 0 0 1 3 3 1 1 0 0 1 1 1 3 2 2 2 2 0 0 0 0 0 0 3 3 3 4 4 5 4 4 3 4 7 7 6 4 5 5 5 4 4 4 4 4 5 3 3 1 1 2 4 4 4 3 4 3 2 3 2 2 2 3 0 0 0 0 0 0 0 0 0 0 0 0 0 0 0 0 0 0 0 0 0 0 0 0 0 0 0 0 0 0 0 0 0 0 0 0 0 0 0 0 1 0 0 0 0 1 1 1 1 0 0 0 0 0 0 0 0 0 0 0 0 0 0 0 0 0 
0 0 0 0 0 0 0 0 0 0 0 0 0 0 0 0 0 0 0 0 0 0 0 0 0 0 0 0 0 0 0 0 0 0 0 0 0 0 0 0 0 0 0 0 0 0 0 0 0 0 0 0 0 1 1 2 2 1 3 2 2 1 2 2 2 3 2 4 3 1 2 3 4 5 5 7 7 7 9 8 9 8 6 4 4 4 2 2 3 3 3 3 3 3 1 2 3 3 4 2 2 3 2 2 0 0 0 0 0 0 1 0 0 1 0 0 0 0 0 0 0 0 1 1 1 2 3 2 3 4 4 3 3 4 1 2 4 3 3 4 3 4 3 3 5 3 5 5 5 3 3 2 2 1 1 1 1 1 2 2 2 3 1 1 1 0 1 0 0 0 0 0 0 0 0 0 0 0 0 0 0 0 0 0 0 0 0 0 0 0 0 0 0 0 0 0 0 0 0 0 0 0 0 0 0 0 0 0 0 0 0 0 0 0 0 0 0 0 0 0 0 0 0 0 0 0 0 0 1 1 0 0 0 0 0 0 0 0 0 2 4 3 5 3 1 2 2 4 2 2 3 2 2 3 1 2 0 0 1 2 0 0 0 0 0 1 1 0 1 1 1 1 1 0 1 0 0 0 0 0 1 0 1 1 1 1 1 1 4 3 4 4 4 3 3 2 4 4 4 5 5 5 6 3 5 6 7 7 6 5 5 4 3 3 3 3 3 4 5 6 5 4 5 4 3 4 3 4 4 5 4 4 3 3 1 0 1 0 0 0 0 1 1 1 0 0 0 0 0 0 0 0 1 0 0 0 0 1 0 0 0 0 0 0 0 0 0 0 0 0 1 1 1 4 3 4 4 2 1 0 0 0 0 0 0 0 0 0 0 0 0 1 1 2 2 0 0 0 0 0 0 0 0 0 0 0 0 0 0 0 0 0 0 0 0 0 0 0 0 0 0 0 0 0 0 0 0 0 0 0 0 0 0 0 0 0 0 0 0 0 0 0 0 0 0 0 0 0 0 0 0 0 0 0 0 0 0 1 1 0 0 0 0 0 1 2 2 0 0 1 3 3 3 4 6 4 4 4 4 3 1 2 4 3 4 2 4 5 4 3 2 3 2 3 4 4 4 5 5 5 4 3 2 3 4 3 2 1 0 0 0 0 0 1 2 2 0 1 0 1 0 0 0 1 3 3 3 3 1 0 0 0 2 2 2 2 4 4 3 4 4 3 4 5 6 6 6 6 4 5 6 5 4 4 4 3 3 2 4 3 1 3 4 3 3 4 3 3 3 3 3 3 2 2 0 0 0 0 0 0 0 0 0 0 0 0 0 0 0 0 0 0 0 0 0 0 0 0 0 0 0 0 0 0 0 0 0 0 0 0 0 0 0 0 0 0 0 0 0 1 0 0 0 0 0 0 0 0 0 0 0 0 0 0 0 0 0 0 0 0 
0 0 0 0 0 0 0 0 0 1 0 1 0 0 0 0 0 0 0 0 0 0 0 0 0 0 0 0 0 0 0 0 0 0 0 0 0 0 0 0 0 0 0 0 0 0 0 0 1 0 0 0 1 2 2 2 2 2 4 2 4 3 2 3 2 3 3 4 3 2 4 3 5 6 6 7 6 6 7 7 7 7 7 5 4 3 3 5 4 4 4 6 4 1 2 2 1 3 3 4 4 2 2 0 0 0 0 0 0 0 0 0 0 0 0 0 0 0 1 1 0 0 0 2 1 2 3 4 3 3 2 2 2 1 1 1 3 2 1 4 3 3 4 3 1 2 3 4 2 2 1 1 2 2 3 3 0 2 2 1 2 0 0 0 0 0 0 0 0 0 0 0 0 0 0 0 0 0 0 0 0 0 0 0 0 0 0 0 0 0 0 0 0 0 0 0 0 0 0 0 0 0 0 0 0 0 0 0 0 0 0 0 0 0 0 0 0 0 0 0 0 0 0 0 0 0 0 1 1 1 0 0 1 0 0 0 0 0 1 1 2 4 3 3 2 2 2 2 3 2 1 1 2 2 3 2 2 2 2 2 1 1 1 0 0 1 1 2 3 3 2 1 1 0 0 0 1 1 0 0 2 1 0 0 1 2 1 4 4 2 4 4 2 3 3 3 4 4 4 7 6 4 4 5 5 5 6 7 7 5 5 5 3 3 3 2 3 4 5 5 5 4 5 4 4 5 5 5 4 4 2 3 2 2 1 1 0 0 0 0 0 2 2 0 0 0 0 0 0 0 0 1 1 0 0 0 0 0 0 0 0 0 0 0 0 0 0 0 0 0 0 1 1 1 1 1 1 0 0 0 0 0 0 0 0 0 0 0 0 0 1 3 4 4 1 0 1 0 0 0 0 0 0 0 0 0 0 0 0 0 0 0 0 0 0 0 0 0 0 0 0 0 0 0 0 0 0 0 0 0 0 0 0 0 0 0 0 0 0 0 0 0 0 0 0 0 0 0 0 0 0 0 0 0 0 0 1 2 0 0 0 0 0 0 1 2 2 2 1 3 4 3 5 3 6 6 4 4 3 4 2 4 3 2 5 6 6 4 5 4 3 4 3 3 4 5 4 5 5 4 4 3 2 3 2 3 2 0 0 0 0 0 0 2 2 1 2 1 0 1 1 2 1 1 2 2 3 1 1 1 1 1 1 1 3 4 2 3 3 2 4 4 3 4 5 7 6 6 6 7 6 4 5 3 3 3 3 3 3 3 2 3 4 2 3 3 3 3 4 5 3 2 0 1 0 0 0 0 0 0 0 0 0 0 0 0 0 0 0 0 0 0 0 0 0 0 0 0 0 0 0 0 0 0 0 0 0 0 0 0 0 0 0 0 0 0 0 0 0 0 0 0 0 0 0 0 0 0 0 0 0 0 0 0 0 0 0 0 0 0 
1 0 0 0 0 0 0 0 0 0 0 0 1 0 0 0 0 0 0 0 0 0 0 1 1 0 1 0 0 0 0 0 0 0 0 0 0 0 0 0 0 0 0 0 0 0 1 0 1 1 2 2 1 2 3 1 3 2 3 5 5 4 4 3 3 3 5 4 3 4 3 3 5 5 6 7 8 6 8 8 8 9 6 7 5 5 4 5 4 4 5 5 3 3 2 3 3 2 1 2 2 1 2 1 0 0 0 0 0 0 0 0 0 0 0 0 0 0 1 1 0 0 0 1 2 3 2 2 2 2 2 2 2 1 0 0 0 0 1 2 2 3 3 2 0 2 2 3 2 2 1 1 0 2 2 3 1 1 1 0 1 1 0 0 0 0 0 0 0 0 0 0 0 0 0 0 0 0 0 0 0 0 0 0 0 0 0 0 0 0 0 0 0 0 0 0 0 0 0 0 0 0 0 0 0 0 0 0 0 0 0 0 0 0 0 0 0 0 0 0 0 0 0 0 0 0 2 0 1 1 1 0 0 0 0 0 0 0 0 3 2 2 2 2 1 1 1 2 3 3 3 1 2 1 1 3 3 2 2 2 1 0 0 1 1 1 1 3 1 2 2 1 1 1 2 2 1 1 0 0 0 0 0 0 1 0 0 2 3 1 3 4 2 3 3 3 4 4 4 6 6 5 5 4 6 6 5 7 8 6 5 4 4 2 4 3 3 4 2 4 4 6 6 5 5 4 4 4 3 3 1 1 2 1 0 0 0 0 0 0 0 2 1 0 0 0 0 0 0 0 0 0 1 0 0 0 0 0 0 1 1 0 0 0 0 0 0 0 0 0 0 0 1 1 3 1 1 1 0 0 0 0 0 0 0 0 0 0 0 2 0 1 4 3 0 0 0 0 0 0 0 0 0 0 0 0 0 0 0 0 0 0 0 0 0 0 0 0 0 0 0 0 0 0 0 0 0 0 0 0 0 0 0 0 0 0 0 0 0 0 0 0 0 0 0 0 0 0 0 0 0 0 0 0 0 0 0 0 0 0 0 0 0 0 1 3 1 2 2 3 4 5 5 5 6 7 5 5 5 5 5 5 4 4 6 5 5 5 4 3 6 5 4 5 6 5 5 4 4 4 4 3 2 2 2 2 1 1 0 0 0 1 0 1 2 1 3 2 1 2 3 2 2 4 4 2 2 2 1 1 0 1 2 2 2 2 1 3 3 2 3 3 4 4 5 5 6 7 6 5 4 5 4 3 2 4 4 4 3 3 3 2 3 2 3 1 3 3 4 2 1 0 0 0 0 0 0 0 0 0 0 0 0 0 0 0 0 0 0 0 0 0 0 0 0 2 0 0 0 0 0 0 0 0 0 0 0 0 0 0 0 0 0 0 0 0 0 0 0 0 0 0 0 0 0 0 0 0 0 0 0 0 0 0 0 0 0 0 0 0 
0 0 0 0 0 0 0 0 0 0 1 0 0 0 0 0 0 0 0 0 0 0 0 2 0 1 0 0 0 0 0 0 0 1 1 0 0 0 0 0 0 0 0 0 0 0 0 0 0 2 3 2 3 2 2 1 2 3 3 4 5 4 3 2 3 4 5 4 4 4 5 5 6 5 4 7 8 7 8 8 7 9 6 5 5 7 6 5 3 4 3 4 4 3 3 4 3 2 2 4 2 2 0 0 0 0 0 0 0 0 0 1 0 1 0 0 0 0 1 0 0 0 1 2 1 2 1 0 1 1 2 2 1 1 1 1 0 0 0 1 0 1 1 0 0 0 0 1 1 2 0 2 1 1 2 1 1 0 0 0 0 0 0 0 0 0 0 0 0 0 0 0 0 0 0 0 0 0 0 0 0 0 0 0 0 0 0 0 0 0 0 0 0 0 0 0 0 0 0 0 0 0 0 0 0 0 0 0 0 0 0 0 0 0 0 0 0 0 0 0 0 0 0 1 0 0 1 1 1 0 0 1 0 0 0 0 0 0 0 2 3 3 2 1 1 0 0 2 3 2 4 4 4 4 5 3 3 2 3 3 2 2 1 0 0 2 1 0 0 1 1 2 2 2 2 2 1 1 2 1 0 0 0 0 1 0 0 2 2 3 4 4 4 3 3 3 2 4 5 4 4 4 5 4 4 5 4 4 7 7 6 4 4 3 2 3 3 3 2 2 4 4 5 4 7 5 4 5 4 1 2 1 0 0 0 0 0 0 0 0 0 1 1 0 0 0 0 0 0 0 0 1 1 0 0 0 0 0 0 0 0 0 0 0 0 0 0 0 0 0 0 0 1 0 0 0 0 0 0 0 0 0 0 0 0 0 0 0 0 0 0 2 2 1 1 1 0 2 0 0 0 0 0 0 0 0 0 0 0 0 0 0 0 0 0 0 0 0 0 0 0 0 0 0 0 0 0 0 0 0 0 0 0 0 0 0 0 0 0 0 0 0 0 0 0 0 0 0 0 0 0 0 0 0 0 0 0 0 0 0 0 0 0 0 0 1 2 1 4 4 4 5 6 6 6 7 6 4 2 3 4 4 6 6 6 6 5 4 6 5 6 5 4 4 5 4 4 4 3 4 3 2 3 2 2 2 2 3 1 1 1 1 0 0 1 1 3 3 1 3 3 3 2 2 2 3 2 1 1 1 1 0 1 0 2 1 2 2 2 2 3 2 2 5 5 4 6 4 5 5 6 4 3 5 1 4 4 2 3 4 2 2 1 1 2 1 3 2 0 2 1 1 0 0 0 0 0 0 0 0 0 0 0 0 0 0 0 0 0 0 0 0 0 0 0 0 0 1 0 0 0 0 0 0 0 0 0 0 0 0 0 0 0 0 0 0 0 0 0 0 0 0 0 0 0 0 0 0 0 0 0 0 0 0 0 0 0 0 0 0 
2 1 1 0 0 0 0 1 1 2 1 0 0 0 0 0 0 0 0 0 0 0 1 1 0 0 0 0 0 0 1 0 0 0 0 0 0 0 0 0 0 0 0 0 0 0 1 1 1 2 2 1 3 3 2 3 2 3 4 4 3 3 5 3 3 4 4 4 5 6 6 7 5 6 7 8 7 8 9 9 8 7 8 6 5 4 5 6 4 3 4 3 3 5 4 3 3 3 3 4 3 3 0 0 0 2 0 0 0 0 1 1 0 0 0 0 0 0 0 0 0 0 0 0 0 2 0 1 1 3 2 0 1 0 1 1 0 0 0 0 0 0 0 0 0 0 0 0 1 0 1 0 1 1 0 0 1 0 0 0 0 0 0 0 0 0 0 0 0 0 0 0 0 0 1 0 0 0 0 0 0 0 0 0 0 0 0 0 0 0 0 0 0 0 0 0 0 0 0 0 0 0 0 0 0 0 0 0 0 0 0 0 0 0 0 0 0 0 0 0 0 0 0 0 0 0 0 0 0 0 0 0 1 1 0 0 0 0 1 2 3 4 2 1 2 2 1 3 2 4 6 5 5 4 6 5 3 2 0 2 1 1 2 3 3 1 0 1 1 1 0 2 2 1 2 2 1 1 3 3 2 0 0 1 1 0 2 2 0 2 3 3 3 2 2 2 2 3 4 6 6 5 5 5 6 4 5 6 5 5 4 4 2 4 3 2 3 3 1 3 3 2 4 4 3 4 3 2 3 2 3 1 0 0 0 0 0 0 0 0 0 2 1 0 0 0 0 0 0 0 0 1 1 1 0 0 0 0 0 0 0 0 0 0 0 0 0 0 0 0 0 0 0 0 0 0 0 0 0 0 0 0 0 0 0 0 0 0 0 0 0 0 1 1 1 1 0 0 0 0 0 0 0 0 0 0 0 0 0 0 0 0 0 0 0 0 0 0 0 0 0 0 0 0 0 0 0 0 0 0 0 0 0 0 0 0 0 0 0 0 0 0 0 0 0 0 0 0 0 0 0 0 0 0 0 0 0 0 1 0 0 0 0 0 1 2 3 3 5 3 5 5 5 6 6 7 6 6 5 2 3 6 5 5 6 6 5 6 6 6 6 5 5 4 4 6 6 5 5 3 4 4 2 2 1 2 3 2 2 1 1 0 0 0 2 2 3 3 3 3 3 3 3 3 2 4 0 2 1 0 0 0 1 0 0 2 2 2 2 3 3 3 3 4 4 2 4 4 3 5 3 5 3 3 2 1 2 2 3 2 2 1 0 0 3 0 1 0 0 0 1 0 0 0 0 0 0 0 0 0 0 0 0 0 0 0 0 0 0 0 0 0 0 0 0 0 0 0 1 1 0 0 0 0 0 0 0 0 0 0 0 0 0 0 0 0 0 0 0 0 0 0 0 0 0 0 0 0 0 0 0 0 0 0 0 0 0 0 0 2 
2 2 2 1 1 1 0 1 3 1 1 1 0 0 0 0 0 0 0 0 1 0 0 0 0 0 2 0 0 1 1 0 0 0 1 1 0 0 0 0 0 0 0 0 0 0 2 1 3 2 1 1 1 2 2 1 2 2 3 5 3 5 4 2 4 5 6 6 5 5 6 8 7 7 7 7 6 6 6 8 8 6 4 5 3 5 5 5 3 2 3 3 4 3 3 3 3 2 3 3 3 3 1 1 1 2 0 1 1 1 0 1 0 0 0 0 0 0 0 0 0 0 0 1 2 0 1 1 1 0 2 1 0 0 0 0 1 0 0 0 0 0 0 0 0 0 0 0 1 1 2 0 0 1 0 0 0 0 0 0 0 0 0 0 0 0 0 0 0 0 0 0 0 2 3 2 0 0 0 0 0 0 0 0 0 0 0 0 0 0 0 0 0 0 0 0 0 0 0 0 0 0 0 0 0 0 0 0 0 0 0 0 0 0 0 0 0 0 0 0 0 0 0 0 0 0 1 0 0 1 2 0 3 2 1 0 0 0 1 2 3 4 4 3 3 2 2 2 3 4 6 5 6 5 3 4 4 2 2 0 0 0 0 1 1 3 2 1 2 2 2 1 0 1 2 1 2 2 2 2 2 1 1 2 2 2 1 0 1 1 3 2 2 1 3 3 3 3 4 5 6 5 6 5 6 4 4 5 5 6 5 5 4 3 4 2 3 2 3 4 2 1 5 3 3 3 1 2 3 4 2 0 0 0 0 0 0 0 0 0 1 1 1 1 0 0 0 1 2 0 1 1 1 0 0 0 0 0 0 0 0 0 0 0 0 0 0 0 0 0 0 0 0 0 0 0 0 0 0 0 0 0 0 0 0 0 0 0 0 0 0 0 0 0 0 0 0 0 0 0 0 0 0 0 0 0 0 0 0 0 0 0 0 0 0 0 0 0 0 0 0 0 0 0 0 0 0 0 0 0 0 0 0 0 0 0 0 0 0 0 0 0 0 0 0 0 0 0 0 0 0 0 0 0 1 0 0 0 0 0 0 0 0 2 2 2 4 4 5 4 6 6 6 6 6 7 5 6 5 4 4 5 6 6 6 5 6 5 6 4 4 5 6 5 6 7 6 7 5 5 5 2 1 2 1 3 2 4 1 0 0 0 1 1 1 1 3 4 3 1 1 2 3 4 2 1 0 0 0 0 1 0 0 1 3 2 2 3 3 3 3 2 4 2 2 3 4 3 2 3 3 3 1 1 1 0 2 2 1 0 0 0 0 0 1 0 0 0 0 0 0 0 0 0 0 0 0 0 0 0 0 0 0 0 0 0 0 0 0 0 0 0 0 0 0 0 0 0 1 0 0 0 0 0 0 0 0 0 0 0 0 0 0 0 0 0 0 0 0 0 0 0 0 0 0 0 0 0 0 0 0 0 0 0 0 0 0 0 0 1 
1 0 1 0 1 1 0 2 1 2 2 1 2 1 0 0 0 1 1 2 0 0 1 1 1 2 2 0 1 1 1 0 0 0 0 0 0 0 0 0 0 0 0 0 0 1 2 2 1 1 2 1 2 2 2 0 1 2 3 4 4 5 4 4 4 4 5 5 6 5 8 6 7 8 7 7 7 7 7 8 6 5 5 4 3 6 4 2 4 3 1 3 4 3 1 2 1 2 3 2 2 2 1 0 0 1 2 3 2 1 2 2 2 0 0 0 0 0 0 0 0 0 0 0 0 0 1 0 0 0 1 1 0 0 0 0 0 0 0 0 0 0 0 0 0 0 0 0 0 1 1 0 0 0 0 0 0 0 0 1 0 0 0 0 0 0 0 0 0 0 0 0 0 1 2 1 1 0 1 1 0 0 0 0 0 0 0 0 0 0 0 0 0 0 0 0 0 0 0 0 0 0 0 0 0 0 0 0 0 0 0 0 0 0 0 0 0 0 0 0 0 0 0 1 0 2 0 2 2 2 1 1 2 2 1 0 0 3 3 3 3 6 6 5 5 3 2 2 3 5 5 5 4 4 3 3 4 4 1 1 1 1 1 1 0 2 1 2 2 1 1 0 0 1 1 2 2 3 4 4 2 1 2 0 4 1 2 2 2 3 1 2 4 2 3 3 4 3 4 4 5 5 6 4 4 3 3 3 3 4 3 3 2 2 3 3 3 3 1 1 1 3 5 4 3 3 3 3 3 2 2 1 0 0 0 0 0 0 0 0 0 1 1 0 0 0 0 0 0 0 0 0 0 0 0 0 0 0 0 0 0 0 0 0 0 0 0 0 0 0 1 0 0 0 0 0 0 0 0 0 0 0 0 0 0 0 0 0 0 0 0 0 0 0 0 0 0 0 0 0 0 0 0 0 0 0 0 0 0 0 0 0 0 1 0 0 1 1 1 0 0 0 0 0 0 0 0 0 0 0 0 0 0 0 0 0 0 0 0 0 0 0 0 0 0 0 0 0 0 0 0 0 0 1 0 0 0 1 0 0 0 0 0 2 3 3 3 3 4 4 6 6 9 7 7 6 6 5 3 3 2 4 5 5 6 6 6 5 5 4 3 5 6 6 6 8 8 8 7 6 5 3 2 2 3 3 3 3 2 0 1 0 1 0 0 3 2 3 4 2 2 3 2 2 0 0 0 0 0 1 0 0 2 2 3 2 2 2 4 3 3 4 3 2 2 3 3 1 1 1 1 3 1 1 0 1 0 2 1 0 0 0 0 0 0 0 0 0 0 0 0 0 0 0 0 0 0 0 0 0 0 0 0 0 0 0 0 0 0 0 0 0 0 0 0 0 0 0 0 0 0 0 0 0 0 0 0 0 0 0 0 0 0 0 0 0 0 0 0 0 0 0 0 0 0 0 0 0 0 0 0 0 0 0 0 0 0 1 1 2 
3 1 0 0 0 1 1 2 2 4 3 4 2 2 0 0 0 1 1 2 1 2 2 3 2 1 1 1 2 1 1 1 0 0 2 0 0 0 0 0 0 0 0 0 0 0 0 0 1 2 1 1 1 1 1 0 2 4 4 4 4 5 4 3 4 4 5 4 6 7 8 7 8 8 7 8 7 7 7 7 5 3 3 3 6 5 4 2 3 2 3 3 2 2 2 1 1 2 3 2 2 0 0 1 1 2 4 2 3 2 2 2 0 0 0 0 0 0 0 0 0 0 0 0 1 0 1 0 0 0 1 0 0 0 0 0 0 0 0 0 0 1 0 0 0 0 0 0 0 0 0 0 0 1 0 0 0 0 0 0 0 0 0 0 0 0 0 0 0 0 0 0 0 1 2 3 1 0 1 0 0 0 0 0 0 0 0 0 0 0 0 0 0 0 0 0 0 0 0 0 0 0 0 0 0 0 0 0 0 0 0 0 0 0 0 0 0 0 0 0 0 0 0 0 1 1 1 2 3 1 2 1 2 2 2 1 1 2 2 2 4 6 6 6 6 6 6 4 4 4 4 4 4 4 3 2 3 3 2 2 2 2 1 1 2 3 2 0 1 2 2 2 1 1 1 3 3 3 5 5 3 2 1 1 1 1 1 2 1 2 3 3 3 4 4 4 4 3 5 5 5 4 3 4 2 2 2 3 2 3 3 2 3 3 3 3 2 2 1 1 2 2 3 4 4 4 3 4 2 1 0 1 0 0 0 0 0 0 0 0 0 0 1 1 0 0 0 0 0 0 0 0 0 0 0 0 0 0 0 0 0 0 0 0 0 0 0 0 0 0 0 0 0 0 0 0 0 0 0 0 0 0 0 0 0 0 0 0 0 0 0 0 0 0 0 0 0 0 0 0 0 0 0 0 0 1 0 0 0 1 0 0 0 0 0 0 2 2 1 1 0 0 0 0 0 0 0 0 0 0 0 0 0 0 0 0 0 0 0 0 0 0 0 0 0 0 0 0 0 1 1 2 0 0 0 0 0 2 0 0 0 0 0 2 2 1 3 4 5 6 6 7 7 7 6 6 5 5 4 3 3 4 4 5 6 5 7 6 5 5 4 5 7 6 7 8 8 8 7 7 6 4 3 2 2 2 2 2 2 2 1 0 0 0 0 2 3 3 2 2 2 2 2 1 0 0 0 0 0 0 1 1 2 3 2 2 3 1 4 4 3 3 3 3 2 3 1 0 0 0 0 0 0 0 0 0 0 0 0 0 0 0 0 0 0 0 0 0 0 0 0 0 0 0 0 0 0 0 0 0 0 0 0 0 0 0 0 0 0 0 0 0 0 0 0 0 0 0 0 0 0 0 0 0 0 0 0 0 0 0 0 0 0 0 0 0 0 0 0 0 0 0 0 0 0 0 0 0 0 0 0 0 0 0 0 0 0 1 2 3 
4 3 2 3 2 2 1 2 2 3 4 3 2 2 1 1 1 1 2 2 0 2 3 3 3 3 1 2 2 2 1 0 0 0 0 0 0 0 0 0 0 0 0 0 0 0 0 0 2 2 1 2 1 1 2 2 4 4 5 4 6 5 4 5 4 4 4 5 6 6 7 6 7 8 6 6 5 5 5 6 6 5 4 5 4 3 4 3 3 2 1 1 3 3 2 1 2 4 2 2 1 2 0 2 2 3 3 2 2 2 1 1 0 0 0 0 0 0 0 0 0 0 0 0 0 0 0 0 0 0 0 0 0 0 0 0 0 0 0 0 0 0 0 0 0 0 0 0 0 0 0 0 0 1 0 0 0 0 0 0 0 0 0 0 0 0 1 0 0 0 0 0 0 2 2 1 2 1 0 1 0 0 0 0 0 0 0 0 0 0 0 0 0 0 0 0 0 0 0 0 0 0 0 0 0 0 0 0 0 0 0 0 0 0 0 0 0 0 0 0 0 0 0 1 1 1 3 3 2 2 2 2 2 2 1 1 1 3 1 3 4 6 6 8 5 6 5 6 4 3 3 3 4 3 3 2 3 2 1 3 5 3 2 3 3 3 3 2 1 3 0 1 0 3 3 3 5 6 4 2 2 2 1 1 1 0 0 2 4 3 5 5 3 3 3 4 3 4 4 4 3 3 3 2 1 1 1 2 1 3 2 2 4 3 3 3 1 2 2 2 2 2 4 3 4 4 3 2 2 1 1 1 1 0 0 0 0 0 0 0 0 0 0 1 0 0 0 0 0 0 0 0 0 0 0 0 0 0 0 0 0 0 0 0 0 0 0 0 0 0 0 0 0 0 0 0 0 0 0 0 0 0 0 0 0 0 0 0 0 0 0 0 0 0 0 0 1 0 0 0 0 0 0 0 1 3 2 1 1 3 2 0 0 0 0 2 1 2 1 1 1 0 1 1 0 0 0 0 0 0 0 0 0 0 0 0 0 0 0 0 0 0 0 0 0 0 0 0 0 0 0 0 0 1 0 1 1 0 0 0 0 1 1 2 2 2 3 4 4 5 7 7 9 8 5 6 6 4 4 2 4 5 4 5 5 4 4 4 5 6 6 7 7 8 7 8 8 7 6 6 5 4 2 1 1 1 1 1 1 2 1 1 1 0 0 1 1 1 2 1 2 1 0 0 0 0 0 0 0 0 0 0 1 1 1 1 2 1 1 2 3 2 1 1 2 1 1 0 0 0 0 0 0 0 0 0 0 0 0 0 0 0 0 0 0 0 0 0 0 1 0 0 0 0 1 0 0 0 0 0 0 0 0 0 0 0 0 0 0 0 0 0 0 0 0 0 0 0 0 0 0 0 0 0 0 0 0 0 0 0 0 0 0 0 0 0 0 0 0 0 0 0 0 0 0 0 0 0 0 0 0 0 0 0 0 1 1 2 2 4 
4 3 2 2 2 2 3 3 2 2 3 3 3 2 1 2 0 1 2 3 2 2 3 4 2 2 3 2 1 1 0 0 0 0 0 0 0 0 0 0 1 1 2 0 0 1 0 0 2 3 3 3 3 3 2 1 5 5 6 7 5 4 3 4 4 4 3 4 5 4 5 3 5 5 5 4 5 5 5 6 5 5 4 3 3 2 2 3 2 3 2 2 3 4 2 1 0 1 2 1 1 2 2 2 0 1 2 3 3 2 1 0 0 0 0 0 0 0 0 0 0 0 0 0 0 1 1 0 0 0 0 0 0 0 0 0 0 0 0 0 0 0 0 0 0 0 0 0 0 0 0 0 0 0 0 0 0 0 0 0 0 0 0 0 0 0 0 1 0 0 0 3 1 3 3 2 3 1 0 0 0 0 0 0 0 0 0 0 0 0 0 0 0 0 0 0 0 0 0 0 0 0 0 0 0 0 0 0 0 0 0 0 0 0 0 0 0 0 0 0 0 0 1 2 1 1 2 3 1 2 1 1 0 3 2 0 2 3 4 4 4 5 7 6 6 5 3 4 3 3 3 4 3 3 2 2 3 2 3 3 3 3 2 1 2 3 3 2 2 1 0 2 1 1 3 4 3 3 2 3 1 2 2 2 2 1 1 4 4 3 4 4 3 3 3 4 3 3 4 4 3 2 1 1 1 1 0 0 2 1 1 2 4 3 3 1 1 2 2 1 2 2 3 2 1 1 1 1 1 2 0 1 1 0 0 1 2 2 0 0 0 0 0 0 0 0 0 0 0 0 0 0 0 0 0 0 0 0 0 0 0 0 0 0 0 0 0 0 0 0 0 0 0 0 0 0 0 0 0 0 0 0 0 0 0 0 0 0 0 0 0 0 0 0 2 0 0 0 0 0 1 0 0 0 2 2 2 2 2 3 0 2 0 0 0 2 2 2 2 2 1 2 1 0 0 0 0 0 0 0 0 0 0 0 0 0 0 0 0 0 0 0 0 0 0 0 0 0 1 1 0 0 0 0 0 1 0 0 0 0 0 1 2 2 3 3 3 5 4 4 5 7 6 5 6 7 5 4 4 3 3 4 6 4 5 5 4 5 6 5 6 7 8 6 7 6 8 5 3 4 4 2 1 2 2 1 2 3 2 2 1 0 0 0 2 2 3 1 1 2 1 1 1 1 0 0 0 0 0 0 0 0 0 0 0 0 0 0 1 3 2 2 1 1 0 0 0 0 0 0 0 0 0 0 0 0 0 0 0 0 0 0 0 0 0 0 0 0 0 1 0 0 2 1 1 0 2 1 0 0 0 0 0 0 0 0 0 0 0 0 0 0 0 0 0 0 0 0 0 0 0 0 0 0 0 0 0 0 0 0 0 0 0 0 0 0 0 0 0 0 0 0 0 0 0 0 0 0 0 0 0 0 0 0 0 0 2 2 3 3 
4 4 2 2 3 3 3 3 3 2 2 2 1 2 1 2 1 2 4 3 2 3 1 2 2 0 2 2 2 0 0 0 0 0 0 0 0 0 0 0 0 0 0 0 0 1 1 2 1 2 3 3 2 3 3 2 4 5 6 5 5 3 2 3 4 3 2 4 4 3 3 4 4 4 5 4 4 4 4 5 4 4 4 4 4 4 3 3 2 3 3 3 3 1 2 2 1 0 1 2 3 3 4 1 1 2 4 3 3 1 1 0 0 0 0 0 0 0 0 0 0 2 2 1 0 0 0 0 0 0 0 0 0 0 0 0 0 0 0 0 0 0 0 0 0 0 0 0 0 0 0 0 0 0 0 0 0 0 0 0 0 0 0 0 0 1 0 1 2 1 1 1 1 2 4 3 1 1 1 0 1 2 2 0 1 0 0 0 0 0 0 0 0 0 0 0 0 0 0 0 0 0 0 0 0 0 0 0 0 0 0 0 0 0 0 0 0 0 0 0 0 0 0 2 0 1 1 2 2 2 1 2 0 2 1 2 2 2 3 2 3 4 5 3 5 4 3 3 2 2 3 2 3 4 3 4 4 3 4 3 2 3 1 3 2 3 0 0 2 2 2 2 1 1 4 4 3 3 3 1 0 0 1 2 1 1 3 3 4 5 4 3 3 3 2 2 3 3 3 2 3 3 2 3 3 1 1 0 1 1 2 2 3 3 2 2 2 3 0 0 1 0 1 2 2 2 1 0 1 1 0 0 0 0 0 2 2 1 0 1 0 0 0 0 0 0 0 0 0 0 0 0 0 0 0 0 0 0 0 0 0 0 0 0 0 0 0 0 0 0 0 0 0 0 0 0 0 0 0 0 0 0 0 0 0 0 0 0 0 0 0 0 0 1 1 1 1 0 0 0 1 0 1 0 0 3 3 2 2 1 1 2 0 0 0 2 1 2 4 4 3 1 3 1 0 1 0 0 0 0 0 0 0 0 0 0 0 0 0 0 0 0 0 0 0 0 0 0 1 2 0 2 1 1 1 1 2 1 0 0 0 1 1 1 2 3 4 5 5 5 4 4 4 6 7 6 5 6 4 5 4 5 6 5 5 5 4 6 6 5 6 6 6 6 5 4 3 3 3 2 1 2 1 1 3 3 3 3 1 2 1 1 1 1 3 2 3 4 4 2 3 2 2 2 0 0 0 0 0 0 0 0 0 0 0 0 0 0 1 0 0 0 0 0 0 0 0 0 0 0 0 0 0 0 0 0 0 1 0 0 0 0 0 0 0 0 0 0 0 0 0 0 0 0 0 1 0 1 0 0 0 0 0 0 0 0 0 0 0 0 0 0 0 0 0 0 0 0 0 0 0 0 0 0 0 0 0 0 0 0 0 0 0 0 0 0 0 0 0 0 0 0 0 0 0 0 0 0 0 0 0 0 0 0 1 1 2 2 3 3 
5 3 3 2 4 4 3 4 4 3 3 2 4 3 1 1 2 2 3 4 3 3 2 1 0 0 1 1 1 1 0 1 2 0 0 0 0 0 0 0 1 2 0 2 2 2 3 4 2 1 2 1 2 4 4 3 4 4 6 5 4 3 2 1 2 3 4 5 3 2 3 3 3 3 4 4 4 3 3 5 5 4 4 4 4 4 3 3 2 4 3 3 3 2 3 3 2 2 2 3 3 4 2 1 1 1 3 1 3 2 1 1 0 0 0 0 0 0 0 1 0 1 2 0 0 0 0 0 0 0 0 0 0 0 0 0 0 0 0 0 0 0 0 0 0 0 0 0 0 0 0 0 0 0 0 0 0 0 0 0 0 0 0 0 2 0 2 2 0 0 0 0 2 3 3 3 2 2 2 1 2 1 2 1 0 0 0 0 0 0 0 0 0 0 0 0 0 0 0 0 0 0 0 0 0 0 0 0 0 0 0 0 0 0 0 0 0 0 1 0 0 0 0 1 0 1 2 2 1 1 2 1 2 1 2 3 3 2 1 1 2 3 3 3 4 3 3 3 4 4 4 4 3 3 3 3 2 2 3 3 3 4 3 1 3 3 2 2 2 2 1 1 2 3 4 5 3 1 1 2 0 1 2 3 1 1 1 0 1 3 3 3 2 2 2 3 2 2 2 0 2 3 3 1 1 1 1 0 0 2 0 2 2 3 1 1 1 2 2 0 1 0 0 0 0 0 1 0 2 1 0 0 1 0 1 1 1 1 1 0 1 0 0 0 0 0 0 0 0 0 0 0 1 0 0 0 0 0 0 0 0 0 0 0 0 0 0 0 0 0 0 0 0 0 0 0 0 0 0 0 0 0 0 0 0 0 0 0 0 0 0 0 1 1 1 0 0 0 0 0 1 0 0 0 1 2 3 3 3 1 1 0 0 0 0 1 3 3 3 3 4 3 2 1 1 1 1 0 0 0 0 0 0 1 1 2 0 0 0 0 0 0 0 0 0 0 0 1 1 1 1 0 1 0 1 1 1 0 0 0 0 0 0 0 2 3 4 4 5 5 5 5 3 5 4 5 4 4 3 4 5 4 7 6 7 6 5 5 6 5 5 5 5 5 4 2 3 2 3 2 2 1 2 2 2 2 4 3 3 1 1 2 2 1 1 2 2 5 5 5 3 3 1 0 1 1 1 0 0 0 1 0 1 0 0 0 0 0 0 0 0 0 0 0 0 0 0 0 0 0 0 0 0 0 0 0 0 0 0 0 0 0 0 0 0 0 1 0 0 1 1 0 0 0 0 0 0 0 0 0 0 0 0 0 0 0 0 0 0 1 0 0 0 0 0 0 0 0 0 0 0 0 0 0 0 0 0 0 0 0 0 0 0 0 0 0 0 0 0 0 0 0 0 0 0 0 0 0 0 0 0 0 0 1 2 1 3 4 3 5 
4 3 4 2 2 3 2 3 3 5 4 3 2 3 3 1 2 0 2 4 3 1 1 1 0 1 1 1 1 1 2 3 1 0 1 0 0 0 0 1 0 0 1 2 5 3 3 3 2 2 2 0 2 2 2 4 4 4 4 6 5 2 1 1 1 2 3 4 2 2 2 2 2 3 3 2 5 3 3 4 4 6 4 4 3 2 2 2 2 2 3 2 1 3 3 3 3 1 2 2 3 4 1 0 0 1 2 1 3 2 1 0 1 0 0 0 0 0 0 0 0 1 1 1 0 0 0 0 0 0 0 0 0 0 0 0 0 0 0 0 0 0 0 0 0 0 0 0 0 0 0 0 0 0 0 0 0 0 0 0 0 0 0 1 1 2 2 2 1 1 0 2 1 2 3 3 2 1 2 2 3 1 0 1 0 0 0 0 0 1 0 0 0 0 0 0 0 0 0 0 0 0 0 0 0 0 0 0 0 0 0 0 0 0 0 0 0 0 0 0 0 0 0 0 1 0 2 4 3 2 1 2 1 0 2 2 3 3 2 3 2 4 2 2 3 2 4 4 3 5 6 5 4 4 4 2 1 2 2 2 2 2 4 3 2 3 3 3 3 2 2 3 2 5 6 5 3 3 2 3 0 0 2 1 3 2 1 1 2 1 2 2 1 2 2 2 0 1 1 1 2 3 3 1 0 0 1 1 0 0 0 0 1 0 1 2 1 0 0 1 0 0 0 0 1 1 2 1 0 0 0 0 1 0 0 1 1 2 2 1 1 1 0 0 0 0 0 0 0 0 1 1 0 0 0 0 0 0 0 0 0 0 0 0 0 0 0 0 0 0 0 0 0 0 0 0 0 0 0 0 0 0 0 0 0 0 0 0 0 0 1 0 0 0 1 1 0 2 1 0 1 1 0 0 1 2 2 3 2 1 0 0 1 0 0 3 3 3 5 5 4 4 1 1 2 2 2 0 0 0 0 0 1 1 1 0 0 0 0 0 0 0 1 2 0 0 0 0 0 0 0 1 1 1 0 1 0 0 0 1 0 1 0 1 3 3 3 5 5 4 5 3 5 4 3 3 4 4 3 5 5 5 4 4 5 6 5 4 5 5 5 5 4 5 4 3 4 2 2 2 4 3 3 3 4 4 4 2 2 1 2 3 3 1 0 0 3 4 5 6 4 2 2 1 1 0 1 0 0 0 1 1 0 0 0 0 0 0 0 0 0 0 0 0 0 0 0 0 0 0 0 0 0 0 0 0 0 0 0 0 0 0 0 0 0 0 0 0 0 0 0 0 0 0 0 0 0 0 0 0 0 0 0 1 1 0 1 0 0 0 0 0 0 0 0 0 0 0 0 0 0 0 0 0 0 0 0 0 0 0 0 0 0 0 0 0 0 0 0 0 0 0 0 0 0 0 0 0 0 0 0 0 0 0 1 2 3 5 5 5 
4 5 4 2 2 3 2 5 5 5 3 4 3 1 0 0 2 1 1 4 3 2 2 1 2 0 0 2 2 3 3 3 1 1 0 0 0 1 1 1 1 1 2 2 4 4 2 2 2 2 1 0 2 1 3 3 4 5 3 3 4 2 3 2 2 2 4 4 3 3 5 3 2 2 2 3 6 4 4 3 4 4 3 2 3 2 1 2 2 2 3 3 3 2 4 4 3 2 3 2 2 3 3 3 1 2 2 2 2 1 1 3 2 0 0 0 0 0 0 0 0 0 0 0 0 0 0 0 0 0 0 0 0 0 0 0 0 0 0 0 0 0 0 0 0 0 0 0 0 0 0 0 0 0 0 0 0 0 0 0 0 0 1 1 1 1 1 0 0 1 0 0 1 2 1 2 2 1 1 2 1 3 1 1 0 1 1 0 0 0 0 1 0 0 0 0 0 0 0 0 0 0 0 0 0 0 0 0 0 0 0 0 0 0 1 0 0 0 0 0 0 0 0 1 1 2 4 5 2 2 1 2 2 1 3 3 3 1 3 2 2 3 3 2 4 2 4 4 4 4 5 5 4 3 3 4 1 1 2 3 4 3 4 5 3 3 3 3 4 2 3 3 4 5 5 5 4 3 4 3 1 2 1 1 3 3 2 2 1 1 1 1 0 0 0 0 0 0 1 0 1 2 3 2 1 1 1 1 1 0 1 0 0 0 1 1 0 0 0 0 2 0 0 0 1 2 0 0 0 2 1 1 0 2 0 0 0 0 0 0 0 0 0 0 0 0 0 0 0 0 0 0 0 0 0 0 0 0 0 0 0 0 0 0 0 0 0 0 0 0 0 0 0 0 0 0 0 0 0 0 0 0 0 0 0 0 0 0 0 0 0 0 0 0 0 1 2 1 0 1 1 0 0 0 0 1 2 3 2 3 1 2 1 1 1 2 2 3 5 4 4 3 1 0 0 0 1 2 1 1 1 2 2 1 1 0 0 0 0 0 0 0 1 1 0 0 0 0 0 0 0 0 2 0 0 0 0 0 0 0 1 0 0 1 2 2 4 4 3 3 4 2 2 3 2 3 2 6 6 5 5 4 4 3 4 4 3 4 5 4 4 4 3 3 4 4 3 1 2 2 3 3 4 3 4 3 3 3 2 0 1 1 2 2 2 0 2 4 4 3 4 2 2 1 0 1 0 0 0 0 0 0 0 0 0 0 0 0 0 0 0 0 0 0 0 0 0 0 0 0 0 0 0 0 0 0 0 0 0 0 0 0 0 0 0 0 0 0 0 0 0 0 0 0 0 0 0 2 1 0 0 0 1 0 1 0 1 0 0 0 0 0 0 1 0 0 0 0 0 0 0 0 0 0 0 0 0 0 0 0 0 0 0 0 0 0 0 0 0 0 0 0 0 0 0 0 0 0 0 0 0 0 0 1 2 1 3 4 4 4 
3 3 3 2 1 3 5 4 5 6 4 5 3 2 0 0 1 1 2 3 2 4 4 2 2 1 3 0 3 4 3 3 1 3 1 1 0 0 1 0 2 3 2 3 3 3 3 2 2 1 1 2 2 2 2 3 4 4 3 4 3 3 3 2 2 2 3 3 2 3 3 1 2 2 3 3 3 2 4 3 3 3 4 1 1 2 0 0 1 0 1 2 3 3 4 3 3 3 5 4 3 4 4 4 3 2 1 2 2 3 2 0 2 1 0 0 0 0 0 0 0 0 0 0 0 0 0 0 0 0 0 0 0 0 0 0 0 0 0 0 0 0 0 0 0 0 0 0 0 0 0 0 0 0 0 0 0 0 0 0 0 1 1 1 1 1 2 0 1 1 0 1 0 0 1 0 1 2 2 2 2 0 0 0 1 1 0 0 0 0 0 0 0 0 0 0 0 0 0 0 0 0 0 1 0 0 0 0 0 0 0 0 0 0 0 0 0 0 1 0 0 0 1 1 3 5 4 3 2 3 2 3 2 2 4 4 3 2 3 0 0 2 2 3 2 2 1 4 4 4 3 3 4 3 3 3 1 1 3 3 4 3 4 4 4 3 2 2 3 3 3 5 5 5 6 5 4 3 4 3 1 0 1 0 3 2 2 1 3 2 1 0 0 0 0 0 0 0 0 0 0 1 0 0 0 1 0 2 1 0 0 0 0 0 0 0 0 0 1 0 2 1 0 0 1 1 0 0 0 0 2 1 2 0 0 0 1 0 0 0 0 0 0 1 0 0 0 0 0 0 0 0 0 0 0 0 0 0 0 0 0 0 0 0 0 0 0 0 0 0 0 0 0 0 0 0 0 0 0 0 0 0 0 0 0 0 0 0 0 0 0 0 0 0 2 1 0 0 0 0 0 1 1 1 3 3 3 3 3 3 4 4 4 1 2 2 3 3 3 5 3 3 1 0 0 1 2 3 2 0 1 1 1 2 1 0 0 1 0 1 0 1 2 2 1 0 0 0 0 0 0 1 0 0 1 0 0 1 1 0 1 0 0 1 2 3 3 2 4 3 3 2 1 1 1 2 3 5 5 5 5 4 3 2 2 3 2 4 3 4 4 4 4 5 3 4 2 1 3 3 3 3 3 3 3 3 4 3 3 1 3 1 2 3 2 1 1 3 4 1 2 1 1 0 0 2 0 0 0 0 0 0 0 0 0 0 0 0 0 0 0 0 0 0 0 0 0 0 0 0 0 0 0 0 0 0 0 0 0 0 0 0 0 0 0 0 0 0 0 0 0 0 0 0 0 0 3 1 0 1 0 0 2 0 0 0 0 1 0 0 0 0 0 0 1 0 0 0 0 0 0 0 0 0 0 0 0 0 0 0 0 0 0 0 0 0 1 0 0 0 0 0 0 0 0 0 0 1 0 1 1 1 0 2 2 2 3 4 2 4 
3 4 4 3 2 3 3 3 4 4 5 4 3 1 0 1 1 2 3 3 4 4 3 3 3 4 2 1 3 3 4 4 3 1 3 3 2 0 0 1 2 1 2 2 2 3 3 1 2 1 1 2 3 3 3 3 3 3 2 2 1 2 2 3 1 1 1 0 1 2 2 1 3 3 2 3 1 1 2 2 3 1 1 1 0 0 1 2 1 1 3 3 3 2 2 3 3 2 2 3 3 4 6 6 5 4 2 2 1 2 1 3 2 2 0 0 0 0 0 0 0 0 0 0 0 0 0 0 0 0 0 0 0 0 0 0 0 0 0 0 0 0 0 0 0 0 0 0 0 0 0 0 0 0 0 0 0 0 0 0 0 2 2 2 1 1 1 0 0 0 1 0 0 1 1 0 1 1 1 1 0 0 0 0 1 1 0 0 0 0 0 0 0 0 0 0 0 0 0 0 0 0 0 1 1 0 0 0 0 0 0 0 0 0 0 0 0 0 0 1 0 1 2 2 1 4 2 3 1 2 1 2 3 4 3 2 3 3 1 1 2 2 1 1 1 3 2 2 2 3 3 5 4 3 4 4 3 2 4 3 3 4 4 5 5 4 3 3 3 4 3 4 5 5 6 6 5 4 3 0 0 1 0 0 2 2 3 2 3 4 3 1 0 0 0 1 1 0 0 0 1 1 0 0 0 1 1 1 0 0 0 0 0 0 0 0 0 1 0 1 2 1 1 1 0 0 0 1 1 2 2 1 2 0 0 0 2 1 0 1 0 0 1 1 0 0 0 1 2 0 0 0 0 0 0 0 0 0 0 0 0 0 0 0 0 0 0 0 0 0 0 0 0 0 0 0 0 0 0 0 0 0 0 0 0 0 0 0 0 0 0 0 0 0 2 3 0 0 0 1 1 1 3 0 1 2 3 2 3 3 4 4 3 2 1 1 2 3 3 3 3 2 1 1 0 1 2 3 2 1 2 2 2 0 0 0 1 0 2 1 1 2 3 3 2 0 0 0 0 0 0 1 1 0 1 1 1 2 2 1 1 0 1 1 2 2 2 2 3 3 3 2 0 0 0 2 3 5 5 5 2 2 4 3 3 3 0 2 2 2 4 4 4 4 5 5 3 3 4 4 5 3 3 2 4 2 3 2 2 1 3 3 1 0 1 3 2 3 2 2 1 0 0 0 1 0 0 0 0 0 0 0 0 0 0 0 0 0 0 0 0 0 0 0 0 0 0 0 0 0 0 0 0 0 0 0 0 0 0 0 0 0 0 0 0 0 1 0 0 0 0 0 0 1 0 1 1 2 1 1 0 1 0 1 0 1 0 0 0 0 0 0 0 0 0 0 0 0 0 0 0 0 0 0 0 0 0 0 0 0 0 0 0 0 0 0 0 0 1 0 0 0 0 0 0 0 0 1 1 3 2 2 1 2 2 1 2 1 2 2 
2 3 4 3 2 2 2 2 2 4 4 4 2 1 0 0 1 3 3 3 4 5 4 3 3 4 2 2 3 3 4 3 3 3 1 1 1 0 1 2 2 3 3 3 3 4 3 2 2 2 2 1 3 2 3 4 3 2 2 2 2 1 1 1 1 1 2 1 1 2 3 2 2 2 0 1 0 1 2 2 2 1 1 2 2 1 3 1 2 2 3 2 2 3 1 1 0 3 3 2 3 5 5 6 4 4 3 0 2 0 1 0 0 1 1 0 0 0 0 0 0 0 0 0 0 0 0 0 0 0 0 0 0 0 0 0 0 0 0 0 0 0 0 0 0 0 0 0 0 0 0 0 0 0 0 0 0 0 0 0 1 2 2 0 2 0 0 0 0 0 0 0 0 1 1 1 0 1 0 1 1 0 0 1 2 2 1 0 1 0 0 0 0 0 0 0 0 0 0 0 0 1 1 1 0 0 0 0 0 0 0 0 0 0 0 0 0 0 0 1 1 3 2 3 3 3 2 3 1 1 3 1 1 2 2 3 2 3 1 2 1 1 0 1 0 1 1 2 3 4 3 4 4 4 4 4 3 3 2 3 3 4 2 3 5 4 3 4 2 4 4 5 6 3 4 5 4 4 2 3 0 0 0 0 2 1 2 2 2 3 3 1 0 0 1 0 1 0 0 0 0 0 0 0 1 1 0 0 0 0 0 0 0 0 0 0 0 1 0 1 2 3 1 1 2 1 0 0 0 1 0 1 3 0 0 2 2 3 0 0 0 0 0 0 0 0 0 1 1 0 0 0 0 0 0 0 0 0 0 0 0 0 0 0 0 0 0 0 0 0 0 0 0 0 0 0 0 0 0 0 0 0 0 0 0 0 0 0 0 0 0 0 0 0 0 1 0 0 1 1 2 2 2 0 2 1 3 3 3 2 1 1 1 2 1 1 2 3 3 3 1 2 1 0 1 2 2 2 3 2 1 1 0 0 0 0 0 2 2 2 2 2 2 1 1 1 0 0 0 0 3 3 1 0 1 1 2 2 2 2 2 2 0 1 1 1 1 1 2 2 4 2 0 0 0 1 3 2 2 3 1 2 3 2 2 1 1 0 3 3 4 2 3 3 5 4 4 5 7 5 6 4 3 3 3 3 2 2 1 1 2 3 2 3 3 3 3 1 2 3 1 0 0 1 0 0 0 1 1 0 0 0 0 0 0 0 0 0 0 0 0 0 0 0 0 0 0 0 0 0 0 0 0 0 0 0 0 0 0 0 0 0 0 0 0 0 0 0 0 1 1 0 0 0 1 1 1 2 1 0 0 0 1 1 0 0 0 0 0 0 0 0 0 0 0 0 0 0 0 0 0 0 0 0 0 0 0 0 0 0 0 0 0 0 0 0 0 1 2 0 0 0 0 0 0 0 1 2 2 2 2 2 2 3 4 4 2 1 1 1 
2 0 3 4 2 1 2 3 2 4 5 3 2 1 1 3 2 3 2 4 5 5 5 5 3 3 3 4 4 4 4 4 4 2 3 2 1 1 0 2 4 3 3 2 4 4 4 4 2 3 1 2 3 2 1 3 3 3 2 2 2 2 2 2 1 2 1 2 0 2 1 1 2 0 1 0 0 0 1 1 0 0 0 0 1 2 2 2 1 1 2 1 2 2 2 1 2 2 3 3 3 5 4 7 4 4 2 2 1 1 0 1 0 0 0 0 0 0 0 0 0 0 0 0 0 0 0 0 0 0 0 0 0 0 0 0 0 0 0 0 0 0 0 0 0 0 0 0 0 0 0 0 0 0 0 0 0 0 0 0 0 0 1 1 0 0 0 1 0 1 0 1 0 1 1 0 0 0 0 0 2 0 1 2 1 3 0 1 0 0 0 0 0 0 0 2 0 0 0 0 0 0 1 0 1 0 0 1 0 0 0 0 0 0 0 0 0 0 1 2 2 2 3 3 4 3 2 0 0 0 2 2 2 2 1 2 2 1 2 0 1 1 3 2 2 2 1 2 1 2 3 3 4 5 4 4 4 2 2 2 2 2 2 4 2 3 3 3 3 3 3 4 4 4 4 5 5 5 4 3 1 1 3 2 2 4 5 3 2 3 3 1 1 2 1 0 1 0 0 0 0 0 0 0 0 0 0 0 0 0 0 0 0 0 0 0 0 0 0 0 1 2 0 2 3 2 1 0 1 1 1 1 2 2 2 2 2 1 0 0 0 0 0 0 0 1 0 0 0 1 0 0 0 0 0 0 0 0 0 0 0 0 0 0 0 0 0 0 0 0 0 0 0 0 0 0 0 0 0 0 0 0 0 0 0 0 0 0 0 0 0 1 0 0 1 0 0 0 0 0 2 2 1 1 1 1 1 3 3 3 1 2 3 2 3 3 3 4 3 3 0 2 0 1 2 3 2 3 2 3 2 1 1 0 0 0 1 2 2 2 1 1 1 2 1 1 1 0 1 1 3 4 3 4 4 1 1 1 1 1 1 2 0 1 1 1 0 1 0 2 2 2 1 2 1 1 2 2 2 2 1 2 0 0 0 0 2 3 2 4 3 3 2 3 4 4 4 5 4 5 5 5 3 3 4 5 4 3 3 1 2 2 2 1 3 3 4 2 1 1 1 1 1 1 0 0 0 1 0 0 0 0 0 0 0 0 0 0 0 0 0 0 0 0 0 0 0 0 0 0 0 0 0 0 0 0 0 0 0 0 0 0 0 0 0 0 0 1 0 0 1 0 0 0 2 3 2 2 1 0 0 0 0 0 0 0 0 0 0 0 0 0 0 0 0 0 0 0 0 0 0 0 0 0 0 0 0 0 0 0 0 0 0 0 0 0 1 3 2 1 0 1 1 0 0 1 0 1 4 2 3 2 2 2 3 2 4 3 1 1 
2 2 3 3 3 4 3 5 3 3 3 3 1 4 3 3 3 4 3 4 4 4 4 4 4 4 2 3 3 4 4 2 2 2 3 4 2 2 2 3 3 4 3 3 4 4 5 4 4 3 1 3 2 2 2 1 2 2 1 2 2 3 2 1 1 1 0 0 0 0 0 1 1 0 1 0 0 0 1 1 1 1 2 2 3 2 1 2 0 1 2 2 3 1 2 1 2 2 1 1 3 3 5 5 4 3 2 2 3 2 0 1 1 0 0 0 0 0 0 0 0 0 0 0 0 0 0 0 0 0 0 0 0 0 0 0 0 0 0 0 0 0 0 0 0 0 0 0 0 0 0 0 0 0 0 0 0 0 0 0 0 0 0 0 0 0 0 0 0 0 1 2 1 2 0 0 1 1 0 1 0 0 0 1 2 1 1 2 2 0 0 0 0 0 1 2 2 1 1 0 1 1 0 0 0 1 1 2 0 1 0 0 0 0 0 0 0 0 1 1 2 2 1 3 2 2 3 1 2 1 0 1 2 2 2 1 1 1 0 0 1 2 3 2 1 0 0 1 2 1 2 3 5 6 7 4 3 3 2 2 2 2 3 3 4 4 3 1 3 4 4 4 5 5 5 4 5 5 4 3 1 1 0 0 2 2 3 3 2 3 2 1 0 2 0 0 0 0 0 2 0 0 0 0 0 0 0 0 0 0 0 0 0 0 0 0 0 0 1 1 0 0 0 1 1 1 1 0 1 3 1 1 2 0 1 2 1 0 0 0 0 0 0 0 0 0 1 1 0 1 0 0 0 0 0 0 0 0 0 0 0 0 0 0 0 0 0 0 0 0 0 0 0 0 0 0 0 0 0 0 0 0 0 0 0 0 0 0 0 0 0 0 0 0 0 0 0 0 0 0 0 2 1 1 1 1 1 1 2 2 1 2 2 3 4 3 3 3 4 3 2 2 3 2 2 2 2 3 3 2 2 1 2 0 0 0 0 2 1 3 2 2 1 1 1 0 1 1 2 3 3 5 4 4 2 3 1 0 1 0 0 0 0 1 1 0 0 2 2 2 2 3 1 2 1 2 3 3 2 1 1 1 0 1 0 0 3 2 2 4 4 2 2 4 5 3 2 3 2 4 4 4 3 4 3 4 4 4 3 3 1 3 2 3 3 4 5 4 3 3 2 3 1 0 0 0 0 0 0 0 0 0 0 0 0 0 0 0 0 0 0 0 0 0 0 0 0 0 0 0 0 0 0 0 0 0 0 0 0 0 0 0 0 0 0 0 0 0 0 0 0 0 0 0 2 2 2 1 0 0 0 0 0 1 0 0 0 0 0 0 0 0 0 0 0 0 0 0 1 0 0 0 0 0 0 0 0 0 0 0 0 0 0 0 0 0 1 2 2 4 3 3 3 0 0 0 0 0 1 1 2 1 2 3 2 2 3 4 3 1 
2 4 4 3 4 5 6 5 5 5 1 1 1 2 3 3 4 4 3 4 5 4 5 3 2 2 4 3 3 4 3 1 3 5 4 4 3 4 4 3 4 4 4 4 4 5 4 3 3 2 2 3 2 2 1 0 1 0 1 1 2 2 0 0 0 0 0 0 0 0 0 0 0 0 0 0 0 0 0 0 0 1 0 4 3 3 2 2 0 2 2 3 2 2 2 1 1 1 0 0 2 2 4 4 2 3 3 2 1 1 1 0 0 0 0 0 0 0 0 0 0 0 0 0 0 0 0 0 0 0 0 0 0 0 0 0 0 0 0 0 0 0 0 0 0 0 0 0 0 0 0 0 0 0 0 0 0 0 0 0 0 0 0 0 0 0 0 1 0 1 0 1 2 2 2 2 2 2 1 1 0 0 0 1 2 1 1 0 2 0 0 0 0 0 0 0 2 2 2 3 2 2 1 1 0 1 2 2 3 2 1 2 1 0 1 1 1 1 2 2 1 2 3 3 2 2 2 0 1 2 1 1 0 1 1 1 3 3 0 0 0 2 1 2 1 1 3 3 2 2 2 3 4 4 5 3 2 3 3 3 3 3 4 2 2 3 4 5 4 5 4 4 5 6 4 5 4 4 3 2 1 1 1 0 2 1 1 2 1 1 2 2 1 0 0 0 0 0 1 0 1 0 0 0 0 0 0 0 0 0 0 0 0 0 0 0 0 0 0 0 0 0 0 0 0 0 0 0 0 0 1 0 1 0 0 2 1 1 0 0 0 0 0 0 0 1 1 1 0 0 0 0 0 0 0 0 0 0 0 0 0 0 0 0 0 0 0 0 0 0 0 0 0 0 0 0 0 0 0 0 0 0 0 0 0 0 0 0 0 0 0 0 0 0 0 0 0 0 1 1 0 0 0 2 2 2 1 1 2 2 1 2 2 3 4 4 5 3 3 3 1 2 2 0 1 0 3 5 5 5 4 3 2 2 0 0 0 2 2 4 4 2 3 2 2 1 2 1 3 4 4 5 5 5 4 2 0 0 0 0 0 0 0 1 0 0 0 1 2 1 1 2 2 1 1 0 0 1 1 1 1 0 2 0 0 1 2 2 1 2 1 2 2 3 4 2 2 3 3 4 3 5 4 3 1 2 3 4 2 2 0 0 1 2 2 4 5 5 3 4 2 2 1 0 0 0 0 0 0 0 0 0 0 0 0 0 0 0 0 0 0 0 0 0 0 0 0 0 0 0 0 0 0 0 0 0 0 0 0 0 0 0 0 0 0 0 0 0 0 0 0 0 0 1 1 1 2 0 1 0 0 0 1 0 0 0 0 0 0 0 0 0 0 0 0 0 0 0 0 0 0 0 0 0 0 0 0 0 0 0 0 0 0 0 0 0 0 3 4 2 2 3 3 0 0 0 0 0 0 0 1 2 2 1 3 3 5 3 1 2 
4 4 4 3 5 4 6 3 3 3 2 2 2 3 2 1 3 4 3 4 4 5 4 3 3 3 4 3 4 2 3 2 3 4 4 3 4 4 3 3 4 6 5 5 5 5 4 2 2 2 2 2 0 0 1 1 2 0 0 0 0 0 0 0 0 0 0 0 0 0 0 0 0 0 0 0 0 0 1 0 0 2 0 1 1 2 2 2 1 2 0 2 1 1 1 2 2 2 2 2 2 2 2 4 2 3 3 2 0 0 0 0 1 0 0 0 0 0 0 0 0 0 0 0 0 0 0 0 0 0 0 0 0 0 0 0 0 0 0 0 0 0 0 0 0 0 0 0 0 0 0 0 0 0 0 0 0 0 0 0 0 0 0 0 0 0 0 0 0 1 3 1 3 5 5 3 2 3 1 1 0 0 0 1 0 3 4 3 2 2 0 0 0 0 1 1 1 2 2 1 2 3 2 1 2 1 3 4 5 3 3 3 2 1 2 0 1 2 3 1 3 4 3 3 2 1 2 0 1 1 0 0 1 2 1 0 0 1 1 1 0 2 2 2 3 2 4 1 2 2 2 4 5 5 4 3 4 4 4 2 5 3 4 3 2 4 3 5 5 5 4 4 4 6 5 4 3 2 2 2 2 1 0 0 0 2 1 2 1 2 0 0 0 0 1 0 0 0 0 0 1 1 0 0 0 0 0 0 0 0 0 0 0 0 0 0 0 0 0 0 1 0 0 0 0 0 0 1 0 0 0 0 1 0 0 0 0 1 0 0 0 0 0 0 0 1 0 1 0 0 0 0 0 0 0 0 0 0 0 0 0 0 0 0 0 0 0 0 0 0 0 0 0 0 0 0 0 0 0 0 0 0 0 0 0 0 0 0 0 0 0 0 0 0 0 0 0 0 0 0 2 0 1 2 2 1 0 0 0 1 2 1 3 3 3 3 3 4 2 3 3 2 1 1 1 2 4 5 6 6 6 4 4 4 2 1 2 2 4 4 4 2 3 2 2 1 2 2 1 3 3 4 6 3 2 1 0 1 0 0 0 0 1 0 0 1 0 2 0 1 2 2 2 1 1 0 1 2 2 1 0 1 0 0 1 1 1 2 1 0 1 3 1 2 4 2 4 4 4 5 4 4 5 2 1 0 2 3 1 1 1 1 3 4 3 4 5 3 4 3 2 2 0 0 0 0 0 0 0 0 0 0 0 0 0 0 0 0 0 0 0 0 0 0 0 0 0 0 0 0 0 0 0 0 0 0 0 0 0 0 0 0 0 0 0 0 0 0 0 0 0 0 0 0 0 0 1 1 0 0 0 0 0 0 0 0 0 0 0 0 0 0 0 0 0 0 0 0 1 0 1 0 0 0 0 0 0 0 0 0 1 1 0 0 1 0 0 1 1 1 2 3 3 1 2 0 0 0 0 0 0 1 3 2 3 4 4 3 3 2 
2 2 2 4 5 4 3 3 3 2 1 2 3 2 2 2 2 3 2 3 4 6 5 3 4 4 3 3 3 2 3 1 3 5 3 4 3 4 4 2 6 5 6 5 4 4 4 2 1 1 0 0 1 1 0 0 0 0 0 0 0 0 0 0 0 0 0 0 0 0 0 0 0 0 0 0 0 0 0 1 0 1 0 2 0 1 2 2 1 1 2 1 2 0 2 2 2 2 1 2 2 1 2 2 2 3 1 2 2 2 0 0 0 0 0 0 0 0 0 0 0 0 0 0 0 0 0 0 0 0 0 0 0 0 0 0 0 0 0 0 0 0 0 0 0 0 0 0 0 0 0 0 0 0 0 0 0 0 0 0 0 0 0 0 0 0 0 0 0 1 1 1 1 3 3 3 3 2 1 0 0 0 0 0 3 2 4 2 0 2 0 2 2 1 2 1 2 1 2 2 4 3 3 1 2 1 3 4 5 4 4 4 3 2 1 0 2 2 2 2 4 3 3 3 3 2 1 0 0 0 1 0 1 1 0 1 0 0 0 1 0 1 2 3 3 3 2 1 3 3 3 3 3 4 4 3 5 3 4 3 4 4 3 4 3 3 4 5 5 7 5 5 4 6 4 4 5 4 3 2 2 2 2 1 2 0 0 1 0 1 0 0 0 1 0 0 0 0 0 0 0 0 0 0 0 0 0 0 0 0 0 0 0 0 0 0 0 0 0 0 0 0 0 0 0 0 1 1 0 0 0 0 0 0 0 1 2 1 0 0 0 0 0 0 0 0 0 0 0 0 0 0 0 0 0 0 0 0 0 0 0 0 0 0 0 0 0 0 0 0 0 0 0 0 0 0 0 0 0 0 0 0 0 0 0 0 0 0 0 1 0 0 0 0 0 0 0 0 0 0 0 3 3 2 1 0 0 1 2 0 2 2 1 1 0 2 4 4 4 3 2 1 3 2 2 5 5 7 6 6 5 5 4 4 3 2 3 4 5 5 5 4 5 4 2 1 1 2 3 3 4 4 4 2 1 2 1 0 1 1 1 0 1 0 0 0 0 1 0 0 0 1 1 1 1 0 0 0 0 1 0 0 1 1 1 2 1 1 1 1 1 1 1 1 2 3 3 5 4 5 4 4 4 1 1 2 1 3 1 2 3 3 5 4 3 3 4 3 3 4 2 0 0 0 0 0 0 0 0 0 0 0 0 0 0 0 0 0 0 0 0 0 0 0 0 0 0 0 0 0 0 0 0 0 0 0 0 0 0 0 0 0 0 0 0 0 0 0 0 0 0 0 0 0 0 0 0 1 0 0 0 0 0 1 0 0 0 0 0 0 0 0 0 0 0 1 0 0 0 2 2 0 0 0 0 2 0 0 1 0 2 2 1 1 0 0 0 1 1 1 0 3 1 1 0 0 0 0 0 0 0 0 1 1 2 3 4 3 4 3 
2 2 1 2 2 3 3 2 2 0 1 3 1 2 1 2 2 1 4 4 4 4 5 3 4 3 4 4 5 5 4 4 4 5 4 5 4 5 3 4 4 2 5 5 5 4 2 2 0 0 0 0 0 0 1 0 0 0 0 0 0 0 0 0 0 0 0 0 0 0 0 0 0 0 0 0 0 0 0 1 0 0 0 0 0 1 1 1 3 2 0 1 1 2 2 1 0 2 2 1 1 1 2 2 3 2 2 2 3 1 1 0 0 0 0 0 0 0 0 0 0 0 0 0 0 0 0 0 0 0 0 0 0 0 0 0 0 0 0 0 0 0 0 0 0 0 0 0 0 0 0 0 0 0 0 0 0 0 0 0 0 0 0 0 0 0 0 0 0 1 1 1 1 3 2 2 1 1 2 0 0 0 0 0 2 2 2 3 2 3 2 1 4 3 3 3 3 2 3 4 3 5 3 3 4 4 5 5 5 4 3 5 6 3 3 1 1 0 2 3 3 3 3 3 3 3 2 2 0 1 0 0 0 0 1 1 1 0 0 0 1 1 2 3 3 3 4 2 2 3 2 3 4 5 4 4 4 4 5 3 4 4 3 4 3 4 4 4 5 6 6 5 3 3 4 5 4 3 2 3 1 0 1 0 0 0 0 0 0 0 0 0 0 0 0 0 0 0 0 0 0 0 0 0 0 0 0 0 0 0 0 0 0 0 0 0 0 0 0 0 0 0 0 0 0 0 0 1 1 0 1 1 0 0 0 1 1 0 0 1 0 0 0 0 0 0 0 0 0 1 0 0 0 0 0 0 0 0 0 0 0 0 0 0 0 0 0 0 0 0 0 0 0 0 0 0 0 0 0 0 0 0 0 0 0 0 0 0 0 0 0 0 0 0 0 0 0 0 0 1 2 2 1 1 0 0 0 0 0 1 0 1 0 0 0 3 3 2 4 3 3 4 4 3 3 3 5 5 5 4 5 6 4 5 4 2 4 5 5 3 5 4 5 4 4 2 2 0 4 3 3 4 4 2 2 0 0 1 0 0 0 1 0 0 1 0 0 0 0 0 0 1 1 2 1 0 0 1 0 0 0 0 0 1 2 3 1 2 2 0 1 0 1 1 3 2 3 4 5 4 5 5 3 3 2 2 2 3 2 3 3 5 5 4 2 2 3 3 3 2 3 0 0 0 0 0 0 0 0 0 0 0 0 0 0 0 0 0 0 0 0 0 0 0 0 0 0 0 0 0 0 0 0 0 0 0 0 0 0 0 0 0 0 0 0 0 0 0 0 0 1 0 0 0 0 0 0 1 0 0 0 0 0 0 0 0 0 0 0 0 0 1 0 0 0 0 0 0 2 2 3 2 0 0 0 1 1 2 1 0 0 0 2 1 0 1 1 1 3 1 2 2 0 1 0 1 1 2 0 0 0 0 2 2 1 1 3 3 4 4 
1 2 1 2 2 2 2 3 2 1 3 3 1 1 3 4 2 3 4 3 3 5 5 5 5 3 3 3 4 5 4 4 3 6 5 4 4 6 4 4 4 3 5 5 4 4 3 1 1 0 1 0 0 2 0 0 0 0 0 0 0 0 0 0 1 0 0 0 0 0 0 0 0 0 0 0 0 0 0 0 0 0 0 0 0 1 1 1 0 0 0 0 0 0 1 1 1 2 1 2 2 3 1 3 4 2 1 2 0 0 0 0 0 0 0 0 0 0 0 0 0 0 0 0 0 0 0 0 0 0 0 0 0 0 0 0 0 0 0 0 0 0 0 0 0 0 0 0 0 0 0 0 0 0 0 0 0 0 1 0 0 0 0 0 0 0 0 0 0 1 1 0 0 0 0 0 0 0 0 0 0 1 0 1 1 3 3 2 3 3 3 4 3 4 5 3 2 3 3 3 3 2 3 4 4 4 5 4 3 5 4 3 3 4 3 3 4 2 2 2 2 3 4 4 4 4 3 3 3 2 1 0 0 0 0 1 1 1 0 0 1 2 1 3 2 1 1 0 2 4 2 2 4 5 4 4 3 3 4 1 3 4 3 3 3 4 3 5 5 6 7 5 3 3 4 5 4 4 2 2 1 1 1 1 1 1 0 0 0 1 0 0 0 0 0 0 0 0 0 0 0 0 0 0 0 0 0 0 0 0 0 0 0 0 0 0 0 0 0 0 0 0 0 0 0 0 0 0 0 0 0 0 0 0 0 0 1 1 0 0 0 0 0 0 0 0 1 0 1 0 1 0 0 0 0 0 0 0 0 0 0 0 0 0 0 0 0 0 0 0 0 0 0 0 0 0 0 0 1 0 0 0 0 0 0 0 0 0 0 0 0 0 0 0 0 0 0 2 1 2 0 1 2 1 0 0 0 0 0 1 0 1 2 0 1 2 1 2 3 5 4 5 4 3 2 4 3 4 5 4 5 6 4 4 6 5 6 5 5 4 4 5 4 4 5 4 3 3 4 4 4 3 4 2 3 1 0 1 1 1 1 0 0 2 0 1 0 0 0 0 0 0 0 0 1 0 0 1 1 0 0 0 1 1 0 1 1 1 1 0 0 0 1 1 1 1 3 3 4 6 5 4 5 3 2 2 2 1 2 2 3 4 3 3 2 3 2 1 1 2 1 1 0 0 0 0 0 0 0 0 0 0 0 0 0 0 0 0 0 0 0 0 0 0 0 0 0 0 0 0 0 0 0 0 0 0 1 0 0 0 0 0 0 0 0 0 0 0 0 0 0 0 0 0 0 0 0 0 0 0 0 1 0 0 0 0 0 0 0 0 0 0 0 1 1 2 0 0 0 1 1 1 0 0 0 1 0 0 0 0 0 1 1 3 3 2 1 0 1 1 2 2 0 0 1 2 2 3 2 1 2 1 1 1 0 2 2 3 4 4 
0 1 1 0 2 1 2 2 1 2 3 2 1 1 3 4 3 4 4 3 3 5 6 6 5 4 5 4 5 5 5 5 6 7 6 5 5 4 3 4 4 2 3 5 5 5 3 2 0 0 0 0 0 1 0 1 0 0 0 0 0 0 0 0 0 0 0 0 0 0 0 0 0 0 0 0 0 0 0 0 0 0 0 0 0 0 1 0 0 0 0 1 0 0 2 1 1 1 1 2 2 4 4 3 3 3 2 3 0 0 0 0 0 0 0 0 0 0 0 0 0 0 0 0 0 0 0 0 0 0 0 0 0 0 0 0 0 0 0 0 0 0 0 0 0 0 0 0 0 0 0 0 0 0 0 0 0 0 0 0 0 0 0 0 0 0 0 0 1 0 0 0 0 0 0 0 0 0 0 0 1 0 1 2 3 3 3 3 3 4 4 4 3 5 3 3 3 3 2 1 3 5 5 4 5 5 6 5 5 4 5 3 3 5 5 4 4 3 2 4 3 3 2 4 2 3 2 3 2 3 3 1 1 0 0 1 1 1 0 1 0 1 1 2 2 2 2 2 1 2 2 3 4 3 2 2 2 3 2 4 3 3 3 3 3 4 5 4 3 3 4 3 5 4 3 4 3 3 3 1 0 2 1 0 2 1 1 0 0 0 0 0 0 0 0 0 0 0 0 0 0 0 0 0 0 0 0 0 0 0 0 0 0 0 0 0 0 0 0 0 0 0 0 0 0 0 0 0 0 0 0 0 0 0 0 1 0 0 0 0 0 0 0 0 0 0 0 0 0 0 0 0 0 0 0 0 0 0 0 0 0 0 0 0 0 0 0 0 0 0 0 0 0 0 0 0 0 0 0 0 0 0 0 0 0 0 0 0 0 0 0 0 0 0 0 0 2 0 2 0 1 1 1 0 0 0 1 1 0 0 0 3 2 2 1 1 1 2 4 5 5 4 3 2 3 3 3 3 4 3 5 7 6 6 6 5 6 5 5 5 5 4 4 4 3 3 3 3 3 5 5 5 4 3 2 1 2 1 2 1 1 1 0 0 1 1 1 0 0 0 0 0 0 0 0 0 0 0 0 0 0 0 0 0 1 1 1 2 2 1 1 1 1 1 0 2 3 3 4 5 6 5 4 3 1 1 3 1 0 3 2 4 2 2 1 0 1 1 1 2 0 1 0 0 0 0 0 0 0 0 0 0 0 0 0 0 0 0 0 0 0 0 0 0 0 0 0 0 0 0 0 0 0 0 0 0 0 0 0 0 0 0 0 0 0 0 0 0 0 0 0 0 0 0 0 0 0 0 1 0 0 0 0 1 0 0 0 0 0 0 0 1 0 1 2 1 0 1 1 0 2 1 1 0 0 1 0 0 0 0 2 2 2 1 2 2 2 1 1 2 3 1 0 0 2 2 3 4 5 2 2 0 1 0 0 1 2 3 2 1 
0 0 0 1 1 2 4 3 1 2 2 3 3 2 4 4 4 3 4 4 4 6 6 5 5 5 3 5 5 4 4 5 4 4 6 5 3 4 5 3 2 3 3 3 4 4 0 0 0 0 0 0 1 2 1 1 1 1 0 0 0 0 0 0 0 1 0 0 0 0 0 0 0 0 0 0 0 0 0 0 0 0 0 0 0 0 0 0 0 0 0 1 0 0 0 0 0 0 0 0 2 2 3 2 2 2 1 1 0 0 0 0 0 0 0 0 0 0 0 1 1 0 0 0 0 0 0 0 0 0 0 0 0 0 0 0 0 0 0 0 0 0 0 0 0 0 0 0 0 0 0 0 0 0 0 0 0 0 0 0 0 0 0 0 0 0 0 0 0 0 0 0 0 0 0 0 0 0 0 0 1 1 2 4 3 2 2 3 5 5 5 4 4 5 5 4 3 3 2 2 3 4 5 6 5 5 5 5 4 5 5 3 3 4 3 4 2 2 3 3 2 1 2 2 1 3 3 2 3 3 3 4 3 1 0 0 0 0 0 0 0 1 0 2 1 1 1 1 0 3 3 4 3 3 2 4 3 3 1 2 1 3 1 2 1 3 4 4 4 4 4 4 3 3 2 1 3 2 0 0 0 1 1 1 2 1 2 0 1 0 0 0 0 0 0 0 0 0 0 0 0 0 0 0 0 0 0 0 0 0 0 0 0 0 0 0 0 0 0 0 0 0 0 0 0 0 0 0 0 0 0 0 0 0 0 0 0 0 0 0 0 0 0 0 0 0 0 0 0 0 0 1 0 0 1 0 0 0 0 0 0 0 0 0 0 0 0 0 0 0 0 0 0 0 0 0 0 0 0 0 0 0 0 0 0 0 0 0 0 0 0 0 0 0 0 0 1 1 0 0 0 2 0 0 0 0 1 0 0 1 2 3 2 2 2 1 1 3 5 5 6 5 4 4 2 3 3 5 5 6 5 6 6 4 5 6 5 4 5 6 4 5 4 5 2 2 3 3 3 4 4 4 3 3 3 2 2 1 2 2 1 0 0 0 1 0 0 0 1 0 0 0 0 0 0 0 0 0 0 0 0 0 0 0 0 0 0 1 2 0 2 1 1 1 0 1 2 1 1 3 4 4 3 3 1 1 1 1 1 1 1 1 2 2 1 1 0 0 0 0 0 0 1 1 1 0 0 1 0 0 0 0 1 1 0 0 0 0 0 0 0 0 0 0 0 0 0 0 0 0 0 0 0 0 0 0 0 0 0 0 0 0 0 0 0 0 0 0 0 0 0 0 0 0 0 0 0 0 0 1 0 0 0 0 0 0 0 0 0 0 0 0 1 1 3 3 2 2 3 1 1 3 1 1 1 0 0 0 0 0 1 2 2 2 2 2 1 2 3 4 3 1 1 0 2 3 3 4 3 2 1 1 2 0 1 1 2 1 0 0 
0 1 0 2 2 0 2 2 2 2 4 5 4 5 5 4 4 4 4 3 5 6 8 7 6 5 4 4 3 3 4 2 4 5 5 4 3 3 5 3 3 4 3 3 4 2 2 0 0 0 0 0 0 0 2 2 2 0 0 0 0 0 0 0 0 0 0 0 0 0 0 0 0 0 0 0 0 0 0 1 1 0 0 0 0 0 0 0 0 0 0 1 0 0 0 0 0 0 0 0 0 1 1 4 4 3 1 2 1 0 0 0 0 0 0 0 0 0 0 0 0 0 1 0 0 0 0 0 0 0 0 0 0 0 0 0 0 0 0 0 0 0 0 0 0 0 0 0 0 0 0 0 0 0 0 0 0 0 0 0 0 0 0 0 0 0 0 0 0 0 0 0 0 0 0 0 0 0 0 0 1 3 2 5 3 3 1 3 4 4 5 4 3 4 5 5 3 2 3 2 3 4 5 7 6 6 6 6 6 6 5 3 4 2 3 3 2 1 1 1 2 2 3 1 0 0 1 1 2 3 3 3 3 1 0 0 0 0 0 0 0 0 0 0 0 1 1 1 2 3 2 3 1 3 4 4 2 3 2 2 1 0 1 0 2 3 3 4 3 3 4 3 2 2 1 1 1 1 0 0 0 1 0 0 0 2 0 0 0 0 0 0 0 0 0 0 0 0 0 0 0 0 0 0 0 0 0 0 0 0 0 0 0 0 0 0 0 0 0 0 0 0 0 0 0 0 0 0 0 0 0 0 0 0 0 0 0 0 0 0 0 0 0 0 0 0 0 0 0 0 1 1 2 1 0 0 0 0 0 0 0 0 0 0 0 0 0 0 0 0 0 1 0 1 1 0 0 0 0 0 0 0 0 0 0 0 0 0 0 0 0 0 0 0 0 0 0 1 0 1 0 0 0 0 1 0 0 0 0 1 1 4 4 3 2 1 1 3 5 5 5 6 4 4 4 6 6 6 5 5 4 5 7 5 4 5 4 6 7 7 6 5 5 5 4 3 4 3 3 3 6 4 3 4 2 3 2 2 1 2 0 0 0 0 0 0 0 0 0 0 0 0 0 0 1 1 0 0 0 0 0 0 1 0 0 0 0 0 0 3 0 1 2 1 2 3 1 0 1 3 3 2 2 3 2 1 2 1 1 0 1 1 3 2 0 0 0 0 1 0 1 0 1 0 0 0 0 0 0 0 0 0 0 0 0 0 0 0 0 0 0 0 0 0 0 0 0 0 0 0 0 0 0 0 0 0 0 0 0 0 0 0 0 0 0 0 0 0 0 0 0 0 0 0 0 0 0 0 1 1 0 0 0 0 0 0 1 0 0 0 0 0 1 2 3 2 3 1 3 1 2 2 1 1 1 1 0 0 0 0 0 2 3 3 3 3 2 3 4 3 3 2 0 1 3 1 3 1 3 2 0 1 1 0 0 1 1 0 0 0 
0 0 1 3 1 3 2 1 2 3 2 4 4 4 5 4 2 3 3 4 5 6 7 7 7 6 5 4 4 3 2 3 4 3 3 3 3 4 5 4 4 4 3 4 4 4 3 1 0 0 0 0 0 1 1 2 1 1 0 0 0 0 0 0 0 0 0 0 0 0 0 0 0 0 0 0 0 0 0 1 0 1 0 0 0 0 0 0 0 0 0 0 0 1 0 0 0 0 0 0 0 2 1 2 2 2 1 2 2 0 0 0 0 0 0 0 0 0 0 0 0 0 0 0 0 0 0 0 0 0 0 0 0 0 0 0 0 0 0 1 0 1 1 0 0 1 0 0 0 0 0 0 0 0 0 0 0 0 0 0 0 0 0 0 0 0 0 0 0 0 1 0 0 0 0 0 0 0 0 2 3 4 2 2 3 3 3 5 3 4 3 4 4 3 5 5 4 4 5 3 4 4 5 7 6 6 7 7 6 6 6 5 4 4 3 3 2 0 2 2 1 2 2 2 0 0 0 1 2 3 3 2 1 1 0 0 0 0 0 0 0 0 0 1 1 0 1 0 2 2 4 3 4 2 3 4 3 4 2 2 1 1 1 1 3 3 4 3 3 3 3 3 3 3 2 2 1 0 0 0 0 0 0 0 0 1 1 0 0 0 0 0 0 0 0 0 0 0 0 0 0 0 0 0 0 0 0 0 0 0 0 0 0 0 0 0 0 0 0 0 0 0 0 0 0 0 0 0 0 0 0 0 0 0 0 0 0 0 0 0 0 0 0 0 0 0 0 0 0 0 0 1 1 0 0 0 0 0 0 0 0 0 0 0 0 0 0 0 0 1 0 1 1 1 1 0 1 0 0 0 0 0 0 0 0 0 0 0 0 0 0 0 0 0 0 0 0 0 0 0 0 0 0 0 1 1 0 0 1 1 1 2 2 4 4 2 3 4 4 6 6 5 5 4 5 5 6 5 5 4 5 7 6 6 5 6 6 5 7 7 6 5 5 6 4 3 4 5 4 4 4 4 3 2 3 2 2 1 1 0 0 0 0 0 0 0 0 0 0 0 0 0 0 0 0 1 0 0 0 0 0 1 1 0 0 0 0 1 1 0 1 1 1 2 1 2 0 0 1 2 3 1 2 2 2 0 1 0 0 0 1 1 2 1 1 0 0 0 0 0 0 0 0 0 0 0 0 1 1 0 0 0 0 0 0 0 0 0 0 0 0 0 0 0 0 0 0 0 0 0 0 0 0 0 0 0 0 0 0 0 0 0 0 0 0 0 0 0 0 0 0 0 0 0 0 0 0 1 0 1 1 0 0 0 0 0 0 0 0 0 0 0 1 0 3 1 1 2 1 1 1 2 3 2 3 2 1 1 0 0 2 1 4 2 4 3 3 3 3 3 2 1 0 2 3 2 2 3 2 3 3 1 0 0 1 0 0 1 0 0 
1 1 1 2 0 1 1 2 3 2 3 3 4 3 3 4 2 3 2 3 3 3 5 6 6 5 4 6 4 4 3 3 4 3 5 4 4 4 5 4 5 6 4 3 3 2 2 0 1 0 0 0 0 0 1 2 2 1 0 0 0 0 0 0 0 0 0 0 0 0 0 0 0 0 0 0 0 0 0 0 1 0 0 0 0 0 0 0 0 0 0 0 0 0 0 0 0 0 0 0 0 1 0 0 1 0 0 2 2 0 0 0 0 0 0 0 0 0 0 0 0 0 0 0 0 0 0 0 0 0 0 1 0 0 0 0 0 1 0 1 2 0 0 2 0 0 0 0 0 0 0 0 0 0 0 0 0 0 0 0 0 0 0 0 0 0 0 0 0 0 0 0 0 0 0 0 0 3 2 2 2 3 2 4 1 2 2 3 5 3 3 4 5 3 4 4 5 6 5 5 4 5 5 6 7 7 6 7 6 6 7 4 5 4 3 3 3 2 0 1 1 0 0 2 0 0 1 1 2 3 2 2 3 2 0 0 1 0 0 0 0 0 0 0 0 1 0 1 3 2 2 3 4 3 2 3 3 1 1 0 0 0 0 1 2 3 4 3 2 2 3 3 4 3 0 0 2 0 0 0 0 0 0 0 0 2 0 0 0 0 0 0 0 0 0 0 0 0 0 0 0 0 0 0 0 0 0 0 0 0 0 0 0 0 0 0 0 0 0 0 0 0 0 0 0 0 0 0 0 0 0 0 0 0 0 0 0 0 0 0 0 0 0 0 0 0 0 0 0 0 0 1 1 1 0 0 0 0 0 0 0 0 0 0 0 1 0 0 1 2 3 2 1 1 0 0 1 0 0 0 0 0 0 0 0 0 0 0 0 0 0 0 0 0 0 0 0 0 0 0 0 0 0 0 0 1 0 1 0 0 1 1 0 2 3 2 2 3 3 6 6 5 4 4 5 5 7 6 5 5 6 7 7 6 6 5 6 6 7 6 6 5 6 5 6 3 4 3 3 5 5 6 2 2 2 3 2 1 1 3 0 1 0 0 1 0 0 0 0 0 0 0 1 0 0 0 0 1 1 1 3 1 0 0 0 0 0 0 0 0 0 0 0 2 2 0 0 0 1 1 2 1 1 1 0 0 0 1 1 0 0 1 2 1 1 0 0 0 0 0 0 0 0 0 0 2 0 0 0 0 0 0 0 0 0 0 0 0 0 0 0 0 0 0 0 0 0 0 0 0 0 0 0 0 0 0 0 0 0 0 0 0 0 0 0 0 0 0 0 0 0 0 0 0 0 0 0 0 0 1 1 0 0 0 0 0 0 0 0 0 0 0 0 1 3 2 2 2 2 2 3 3 3 2 1 2 1 2 3 3 1 2 3 3 3 2 3 2 4 3 2 1 1 1 0 1 1 2 1 1 1 1 1 1 1 1 1 1 0 1 
1 1 2 1 2 2 2 1 1 2 2 2 2 2 2 3 2 4 2 2 3 4 4 4 5 4 5 3 3 4 4 4 4 4 4 5 4 4 5 4 6 4 3 3 2 1 2 0 0 0 0 0 0 0 0 1 1 1 0 0 0 0 0 0 0 0 0 0 0 0 0 0 0 0 0 0 0 0 0 0 0 0 0 0 0 0 0 0 0 0 0 0 0 0 0 0 0 0 0 0 0 0 0 0 0 0 0 0 0 0 0 0 0 0 0 0 0 0 0 0 0 0 0 0 0 0 1 0 2 1 3 1 0 0 0 0 0 0 0 1 0 0 0 0 0 0 0 0 0 0 0 0 0 0 0 0 0 0 0 0 0 0 0 0 0 0 0 0 0 0 0 0 0 0 0 0 1 3 3 2 2 2 3 2 2 3 3 4 3 3 3 4 3 3 4 4 4 5 6 7 5 6 6 7 8 7 7 8 7 5 6 5 4 4 3 3 2 3 1 1 2 0 0 2 0 1 2 2 2 1 2 2 1 2 0 0 1 0 0 1 0 0 0 1 1 2 1 2 3 2 3 4 5 3 3 3 1 1 1 0 0 0 1 2 2 1 1 3 2 2 3 3 3 3 2 0 0 0 0 0 0 0 0 0 0 0 1 1 0 0 0 0 0 0 0 0 0 0 0 0 0 0 0 0 0 0 0 0 0 0 0 0 0 0 0 0 0 0 0 0 0 0 0 0 0 0 0 0 0 0 0 0 0 0 0 0 1 0 0 0 0 0 0 0 0 0 0 0 2 0 0 0 1 0 1 0 0 0 0 0 0 0 0 0 0 1 1 1 2 3 2 2 1 2 0 0 0 0 1 1 2 0 0 0 0 0 0 0 0 0 0 0 0 0 0 0 0 0 0 0 0 0 0 0 0 0 1 0 0 1 1 0 1 1 2 2 3 3 5 5 6 5 4 4 4 5 5 6 5 6 6 7 7 5 6 5 5 5 7 5 5 4 4 4 4 2 1 3 4 5 5 4 4 4 4 3 3 1 2 0 1 1 0 0 0 0 0 0 0 0 0 0 0 0 0 0 2 3 3 2 0 0 0 0 0 0 0 0 0 0 0 0 0 0 0 0 0 0 1 1 0 1 2 0 0 0 1 0 0 0 0 0 0 1 0 2 0 0 0 2 0 0 0 0 0 0 0 0 0 0 0 0 0 0 0 0 0 0 0 0 0 0 0 0 0 0 0 0 0 0 0 0 0 0 0 0 0 0 0 0 0 0 0 0 0 0 0 0 0 0 0 0 0 0 0 0 0 0 0 0 0 0 0 0 0 0 0 0 0 0 0 0 1 2 3 1 2 2 3 4 5 4 4 4 4 3 4 3 3 3 1 3 5 4 3 3 2 4 4 2 2 2 2 1 1 1 2 2 0 0 1 1 2 2 0 1 1 2 1 1 
0 1 4 3 2 2 3 3 2 3 3 1 2 2 2 2 3 4 4 4 2 3 3 3 4 4 6 6 4 5 3 3 4 3 4 5 5 5 4 4 5 5 2 2 2 0 1 1 0 0 0 0 0 0 0 0 1 0 0 0 0 0 0 0 0 0 0 0 0 0 0 0 0 0 0 0 0 0 0 0 0 0 0 0 0 0 0 0 0 0 0 0 0 0 0 0 0 0 0 0 0 0 0 0 0 0 0 0 0 0 0 0 0 0 0 0 0 0 0 0 0 0 0 1 1 1 1 2 3 2 3 1 1 0 0 0 0 1 1 0 0 0 0 0 0 0 0 0 0 0 0 0 0 0 0 0 0 0 0 0 0 0 0 0 0 0 0 0 0 0 0 0 0 0 0 0 0 1 3 1 1 1 3 3 4 2 3 3 5 3 4 3 4 2 2 3 4 5 6 7 8 8 7 7 6 5 6 7 6 6 6 6 4 3 3 3 3 2 2 3 2 4 2 2 1 1 2 1 0 1 1 0 0 2 0 0 0 0 0 1 1 0 0 0 2 1 1 1 2 3 3 3 5 2 2 1 3 2 0 0 0 0 1 2 2 2 1 3 3 2 3 2 1 1 0 0 0 0 0 0 0 0 0 0 0 0 1 0 0 0 0 0 0 0 0 0 0 0 0 0 0 0 0 0 0 0 0 0 0 0 0 0 0 0 0 0 0 0 0 0 0 0 0 0 0 0 0 0 0 0 0 0 0 0 1 0 0 0 0 0 0 0 0 0 0 0 1 0 1 1 0 1 1 0 2 0 0 0 0 0 1 0 0 0 0 0 1 1 1 4 4 4 3 2 0 0 1 1 1 2 2 1 0 0 0 0 0 0 0 0 0 0 1 0 0 0 0 0 0 0 0 0 0 1 0 1 0 1 0 1 2 1 3 3 2 4 3 4 4 6 4 4 5 5 7 6 6 6 6 6 7 7 7 6 6 6 5 5 6 5 4 4 4 5 4 4 3 3 4 4 4 5 4 4 4 3 2 1 1 0 0 0 0 0 0 0 0 0 0 0 0 0 1 0 0 0 2 1 0 0 0 0 0 0 0 0 0 0 0 0 0 0 0 0 0 1 0 0 0 1 0 1 0 0 0 0 0 0 0 0 0 0 0 0 0 1 0 0 0 1 1 2 0 0 0 0 0 0 0 0 0 0 0 0 0 0 0 0 0 0 0 0 0 0 0 0 0 0 0 0 0 0 0 0 0 0 0 0 0 0 0 0 0 0 0 0 0 0 0 0 0 0 0 0 0 0 0 0 0 0 0 0 0 0 0 0 0 1 1 1 1 1 1 1 3 4 4 4 5 4 3 4 4 3 4 4 4 4 4 5 3 3 3 4 4 3 3 4 3 2 2 3 3 2 2 4 2 1 1 1 1 2 2 1 0 2 0 0 1 0 
1 0 1 3 3 4 2 3 2 2 2 1 1 2 3 4 2 2 2 3 4 2 3 3 4 4 7 5 5 5 4 3 4 2 4 4 3 5 4 4 4 2 1 3 2 1 2 2 1 1 0 0 0 0 0 0 0 0 0 0 0 0 0 0 0 0 0 0 0 0 0 0 0 0 0 0 0 0 0 0 0 0 0 0 0 0 0 0 0 0 0 0 0 0 0 0 0 0 0 0 0 0 0 0 0 0 0 0 0 0 0 0 0 0 0 0 0 0 0 0 1 1 1 2 1 0 2 2 2 2 0 1 1 0 0 0 0 2 1 1 0 0 0 0 0 0 0 0 0 0 0 0 0 0 0 0 0 0 0 0 0 0 0 0 0 0 0 0 0 0 0 0 0 1 0 0 1 0 2 1 2 1 2 2 4 3 3 5 5 3 3 4 3 3 2 2 3 4 5 6 5 7 8 8 7 6 7 6 7 6 5 4 2 2 2 0 1 2 3 3 3 3 2 3 4 2 2 1 0 1 0 0 0 0 0 0 0 0 0 0 0 0 1 1 1 0 1 1 1 2 2 3 2 2 1 2 3 1 0 0 0 0 2 2 2 2 2 2 0 3 1 1 0 0 0 0 0 0 0 0 0 0 0 0 0 0 0 0 0 1 0 0 0 0 0 0 0 0 0 0 0 0 0 0 0 0 0 0 0 0 0 0 0 0 0 0 0 0 0 0 0 0 0 0 0 0 0 0 0 0 0 0 0 0 0 0 0 0 0 0 0 0 0 0 0 0 1 1 0 0 1 1 1 1 2 2 2 0 0 1 1 2 1 1 1 1 3 1 2 3 5 4 4 3 1 2 1 2 2 2 1 2 1 1 1 0 0 0 0 0 0 0 0 0 2 2 0 1 0 0 0 0 0 1 0 1 1 1 0 1 2 1 1 4 5 4 3 3 3 5 4 4 4 6 5 4 5 4 5 7 7 8 7 7 6 7 7 7 6 5 3 4 4 5 4 4 3 2 4 4 3 5 4 5 4 3 2 0 1 0 1 0 0 0 0 0 0 0 0 0 0 0 0 1 0 0 3 1 1 0 0 0 0 0 0 0 0 0 0 0 0 0 0 0 0 0 0 1 1 1 1 1 0 0 0 0 0 0 0 0 0 0 0 0 0 0 0 0 0 0 1 1 0 0 0 0 0 0 0 0 0 0 0 0 0 0 0 0 0 0 0 0 0 0 0 0 0 0 0 0 0 0 0 0 0 0 0 0 0 0 0 0 0 0 0 0 0 0 0 0 0 0 0 0 0 0 0 0 0 0 1 0 0 0 2 1 0 0 1 1 1 1 0 3 3 6 5 4 3 4 3 5 3 5 4 4 5 5 4 1 4 3 4 3 4 4 3 3 3 3 2 1 1 2 2 3 2 2 2 1 1 1 2 2 1 1 2 1 0 1 
2 1 0 2 3 4 1 2 3 3 2 2 1 2 2 1 1 2 2 3 3 3 3 3 3 3 4 4 5 4 4 3 3 2 3 3 4 4 3 5 5 3 1 1 1 0 0 1 1 0 1 0 0 0 0 0 0 0 0 0 0 0 0 0 0 0 0 0 0 0 0 0 0 0 0 0 0 0 0 0 0 0 0 0 0 0 0 0 0 0 0 0 0 0 0 0 0 0 0 0 0 0 0 0 0 0 0 0 0 0 0 0 0 0 0 1 0 1 1 1 0 2 0 0 1 0 1 2 3 1 2 0 0 0 0 0 1 1 2 2 1 0 0 0 0 0 0 0 0 0 1 0 0 0 1 0 0 0 0 0 0 0 0 0 0 0 0 0 0 0 0 0 0 1 1 0 0 0 0 1 3 2 3 2 3 3 3 6 6 5 4 5 4 1 3 3 3 4 5 6 6 6 6 6 6 6 7 5 5 3 4 2 3 3 1 2 1 0 2 3 4 3 4 4 3 3 1 1 2 0 1 1 1 0 0 0 0 0 0 0 0 0 0 1 1 1 2 1 1 1 2 1 1 0 0 1 0 0 0 0 0 0 1 1 1 0 0 0 0 2 1 1 1 0 0 0 0 0 0 0 0 0 0 0 0 0 0 0 0 0 0 0 0 0 0 0 0 0 0 0 0 0 0 0 0 0 0 0 0 0 0 0 0 0 0 0 0 0 0 0 0 0 0 0 0 0 0 0 0 0 0 0 0 0 0 0 0 0 0 0 0 0 0 0 0 0 0 0 1 1 2 2 2 2 2 1 3 3 1 1 1 1 1 0 2 1 2 2 2 3 5 5 4 3 2 1 0 1 1 0 1 2 2 1 0 0 0 0 0 0 0 0 0 0 1 1 1 1 0 0 1 2 0 1 1 0 0 1 1 2 2 1 2 2 4 5 3 4 3 4 4 4 4 4 5 4 4 5 5 6 6 6 6 6 7 6 6 6 5 4 4 4 4 3 4 2 2 2 4 3 3 4 4 4 5 4 2 0 2 0 1 1 1 2 0 0 0 0 0 0 0 1 1 1 1 0 1 1 0 0 0 0 0 0 0 0 0 0 0 0 0 0 0 0 0 0 1 0 0 1 0 0 0 0 0 0 0 0 0 0 0 0 0 0 0 0 0 0 0 0 1 0 0 1 0 0 0 0 0 0 0 0 0 0 0 0 0 0 0 0 0 0 0 0 0 0 0 0 0 0 0 1 0 0 0 0 0 0 0 0 0 0 0 0 0 0 0 0 0 0 0 0 0 0 0 0 0 0 0 0 0 0 0 2 2 2 1 0 1 2 2 0 1 4 4 5 5 4 5 5 6 6 5 5 4 5 2 3 3 3 3 3 3 3 4 4 3 3 1 1 2 3 4 2 3 2 2 3 3 3 2 3 1 0 0 0 0 1 0 2 
1 1 2 3 3 3 3 2 3 3 3 2 3 3 2 2 1 3 4 3 2 3 3 3 2 4 3 5 4 3 2 3 1 1 2 2 4 3 4 4 2 1 0 1 0 0 0 0 0 0 0 0 0 0 0 0 0 0 0 0 0 0 0 1 0 0 0 0 0 0 0 0 0 0 0 0 0 0 0 0 0 0 0 0 0 0 0 0 0 0 0 0 0 0 0 0 0 0 0 0 0 0 0 0 0 0 0 0 0 0 0 0 0 0 1 1 1 1 1 2 1 0 0 0 2 3 2 2 2 3 3 1 1 0 1 0 1 1 2 4 3 1 0 0 1 0 0 0 0 0 2 0 0 0 0 0 0 0 0 0 0 0 0 0 0 0 0 0 0 0 0 0 0 0 0 0 0 1 2 3 2 2 2 2 2 4 6 4 5 6 6 6 5 3 4 3 3 4 4 5 5 5 5 4 6 6 6 6 4 5 4 2 1 1 1 2 3 3 2 4 3 2 3 3 3 3 1 2 1 2 1 1 1 1 0 0 0 0 0 0 0 0 1 1 1 1 1 0 0 0 0 1 0 1 1 0 0 1 0 0 0 0 0 0 0 0 0 0 0 2 0 0 0 0 0 0 0 0 0 0 0 0 0 0 1 0 0 0 1 1 0 0 0 0 0 0 0 0 0 0 0 0 0 0 0 0 0 0 0 0 0 0 0 0 0 0 0 0 0 0 0 0 0 0 0 0 0 0 0 0 0 0 0 0 0 0 0 0 0 0 0 0 0 0 0 0 2 2 0 2 2 3 2 3 1 1 1 4 2 4 3 2 3 3 1 3 3 3 4 5 5 4 4 3 3 2 2 3 1 1 0 1 1 0 0 0 0 0 0 0 0 1 0 0 0 2 1 2 1 0 1 0 0 0 1 2 1 2 2 2 2 1 1 3 5 4 3 3 3 4 4 4 5 4 3 3 4 4 6 5 6 6 5 5 6 7 5 3 5 3 3 2 1 2 2 1 2 3 4 3 4 4 3 5 5 4 1 1 0 1 3 3 2 1 0 0 0 0 0 0 0 0 1 0 0 1 0 1 0 0 0 0 0 0 0 0 0 0 0 0 0 0 0 0 0 0 0 0 0 0 0 0 0 0 0 0 0 0 0 0 0 0 0 0 0 0 0 0 0 1 3 2 1 0 0 0 0 0 0 0 1 1 1 1 0 1 0 1 0 0 0 0 0 0 0 0 1 2 0 0 0 1 0 0 0 0 0 0 0 0 0 0 0 0 0 0 0 0 0 0 0 0 0 0 0 0 0 1 0 0 0 0 0 2 2 3 3 1 2 2 1 2 2 4 3 5 3 4 3 4 4 4 4 5 4 4 4 4 5 4 2 3 2 4 4 3 3 2 1 1 3 4 5 3 4 4 4 3 2 1 1 3 0 0 0 0 0 0 1 1 
1 0 2 2 1 2 3 2 1 3 2 2 3 3 3 3 4 4 3 2 2 4 2 2 2 2 3 3 3 2 2 2 0 2 2 2 3 2 3 3 1 0 0 1 0 0 0 0 0 0 0 0 0 0 0 0 0 0 0 0 0 0 0 1 0 0 0 0 0 0 0 0 0 0 0 0 0 0 0 0 0 0 0 0 0 0 0 0 0 0 0 0 0 0 0 0 0 0 0 0 0 0 0 0 0 0 0 0 0 0 0 0 0 2 0 1 0 1 0 1 2 2 2 2 2 1 2 3 1 1 3 0 1 0 0 1 2 2 3 4 3 2 2 2 1 0 0 0 0 1 1 1 0 0 0 0 0 0 0 0 0 0 0 0 0 0 0 0 0 0 0 0 0 0 0 0 1 1 2 2 3 4 2 3 3 4 6 7 7 7 6 5 4 3 3 4 5 4 6 5 6 6 5 6 5 5 7 5 4 3 1 2 3 3 2 1 0 2 3 2 3 3 3 3 3 2 2 2 1 1 1 2 3 3 1 3 2 2 0 1 0 0 0 0 0 1 1 1 1 1 0 0 0 1 0 0 0 0 1 0 0 0 0 0 0 0 0 0 0 0 0 0 0 0 0 0 0 0 0 0 0 0 0 0 0 0 0 0 0 0 0 0 0 0 0 0 0 0 0 0 0 0 0 0 0 0 0 0 1 0 0 0 0 0 0 0 0 0 0 0 0 0 0 0 0 0 0 0 0 0 0 0 0 0 0 0 0 0 0 0 0 0 0 0 1 1 1 1 1 2 2 3 2 3 3 3 3 4 5 4 4 3 4 3 3 2 4 4 5 5 4 4 3 4 3 2 1 2 3 2 2 2 1 1 0 0 0 0 0 0 0 0 2 1 4 3 1 2 0 0 0 0 0 0 1 1 0 1 1 1 2 3 2 3 4 5 3 3 1 3 3 3 3 4 3 4 5 4 4 6 5 5 3 5 4 4 6 5 4 6 3 2 2 2 2 2 2 3 2 3 3 4 4 4 3 2 2 0 0 0 1 1 1 1 1 0 0 0 0 0 0 0 1 0 0 1 0 0 0 0 0 0 0 0 0 0 0 0 0 0 0 0 0 0 0 0 0 0 0 0 0 0 0 0 0 0 0 0 0 0 0 0 0 0 0 0 0 0 0 0 1 0 0 0 0 0 0 1 1 0 2 1 1 1 2 2 2 1 2 1 0 0 0 0 0 0 0 0 0 0 0 0 0 0 0 0 0 0 0 0 0 0 0 0 0 0 0 0 0 0 0 0 0 0 0 2 1 1 1 1 1 0 2 1 2 2 2 3 2 3 2 2 2 3 4 4 4 5 4 5 6 5 4 3 5 4 5 3 3 4 2 3 3 5 4 3 2 2 2 2 4 3 3 3 3 3 3 3 3 4 1 0 0 0 0 0 0 0 0 0 
1 3 3 2 2 2 2 3 1 1 1 1 3 2 2 3 3 3 2 2 2 2 2 3 1 1 2 4 2 2 1 2 2 1 2 2 2 1 1 3 1 0 0 0 1 0 0 0 0 0 0 0 0 0 0 2 0 1 0 0 0 0 0 1 1 0 1 0 0 0 0 0 0 0 0 0 0 0 0 0 0 0 0 0 0 0 0 0 0 0 0 0 0 0 0 0 0 0 0 0 0 0 0 0 0 0 0 0 0 0 0 0 0 0 0 0 0 0 0 1 2 2 3 2 3 2 3 3 1 2 2 2 1 2 2 2 4 4 5 5 2 3 3 2 0 0 0 0 1 0 1 1 0 0 0 0 0 0 0 0 0 0 0 0 0 0 0 0 0 0 0 0 0 1 0 1 1 2 0 0 1 2 2 5 5 5 4 6 7 5 4 4 4 2 3 5 5 5 5 5 4 3 4 4 4 4 5 4 5 3 4 2 2 3 3 1 1 1 3 4 3 3 3 4 2 1 1 1 1 3 2 3 2 3 1 2 1 0 0 0 0 0 0 0 0 2 1 0 0 1 1 0 0 0 0 0 0 0 0 1 0 0 0 0 0 0 0 0 0 0 0 0 0 0 0 0 0 0 0 0 0 0 0 0 0 0 0 0 0 0 0 0 0 0 0 0 0 0 0 0 0 0 0 0 0 0 0 0 1 0 0 0 0 0 0 0 0 0 0 0 0 0 0 0 0 0 0 0 0 0 0 0 0 0 0 0 0 0 0 0 0 0 0 0 0 1 1 1 2 2 2 2 4 3 3 4 3 3 4 3 4 4 3 3 3 3 3 3 3 2 4 4 5 5 4 3 2 2 1 1 3 3 2 2 1 1 1 0 0 0 0 0 2 2 3 3 2 1 0 0 0 0 0 0 2 1 1 1 1 1 3 2 3 3 4 5 2 3 3 4 3 4 2 3 3 3 2 4 3 4 5 4 2 4 4 3 5 5 6 5 2 2 3 2 2 2 4 3 3 4 4 4 3 2 2 0 0 0 0 0 0 1 1 2 1 0 0 0 0 0 0 0 0 0 0 0 1 0 0 0 0 0 0 0 0 0 0 0 0 0 0 0 0 0 0 0 0 0 0 0 0 0 0 0 0 0 0 0 0 0 0 0 0 0 0 0 0 0 0 0 1 0 0 0 0 0 0 0 0 2 2 1 1 2 1 2 2 1 1 1 1 0 0 0 0 1 1 2 0 0 0 0 0 0 0 0 0 0 0 0 0 0 0 0 0 0 0 0 0 0 0 0 0 0 0 0 0 1 2 2 2 1 1 1 1 1 2 2 1 2 1 1 2 3 3 3 4 4 6 5 5 6 5 4 3 4 4 1 2 2 3 2 4 5 5 3 3 3 2 3 5 4 3 4 3 2 2 2 3 3 2 0 0 0 0 0 0 0 1 1 
1 3 2 2 2 3 4 3 2 3 0 1 1 0 2 3 3 2 1 1 1 1 1 1 2 1 1 2 1 1 1 1 0 1 2 2 1 1 0 2 1 0 2 1 0 0 0 0 0 0 0 0 0 0 1 1 1 0 0 0 0 0 1 0 0 0 0 0 0 0 0 0 0 0 0 0 0 0 0 0 0 0 0 0 0 0 0 0 0 0 0 0 0 0 0 0 0 0 0 0 0 0 0 0 0 0 0 0 0 0 0 0 0 0 0 0 0 0 0 0 2 2 3 4 3 2 3 2 2 2 4 3 2 2 4 3 5 5 5 4 3 2 1 3 1 3 1 2 2 3 2 0 0 0 0 0 0 0 0 0 0 0 0 0 0 0 0 0 0 0 0 1 1 0 0 0 0 0 0 2 3 2 3 3 4 3 5 5 4 5 5 4 3 3 3 4 3 4 3 5 4 4 4 4 4 5 5 4 4 5 4 4 3 4 2 0 3 1 1 3 2 2 2 2 0 0 0 1 0 1 1 2 4 4 3 3 2 0 0 0 0 0 0 0 0 0 0 0 0 0 0 0 0 0 0 0 0 0 0 0 0 0 0 0 0 0 0 0 0 0 0 0 0 0 0 0 0 0 0 0 0 0 0 0 0 0 0 0 0 0 0 0 0 0 0 0 0 0 0 0 0 0 0 0 1 0 0 0 0 0 0 0 0 0 0 0 0 0 0 0 0 0 0 0 0 0 0 0 0 0 0 0 0 0 0 0 0 0 0 0 0 0 0 0 1 1 1 2 2 2 2 3 2 4 4 4 4 5 2 3 3 4 3 4 5 4 4 3 3 3 3 5 5 6 3 3 3 2 1 3 3 3 2 2 2 1 1 2 1 0 0 0 0 1 1 3 3 1 0 0 1 0 0 0 2 3 2 1 1 2 1 2 3 4 3 3 4 2 2 3 2 1 1 0 2 2 3 1 2 3 4 4 4 4 1 1 3 3 3 2 3 1 2 1 2 2 3 4 3 4 4 4 4 3 3 1 0 0 0 0 0 0 0 0 0 1 0 0 0 0 0 0 0 0 0 0 0 1 0 0 0 0 0 0 0 0 0 0 0 0 0 0 0 0 0 0 0 0 0 0 0 0 0 0 0 0 0 0 0 0 0 0 0 0 0 0 0 0 0 0 0 0 0 0 0 0 0 1 0 1 2 1 2 2 2 1 3 1 2 2 1 0 0 0 0 2 0 1 0 0 0 0 0 0 0 0 0 0 0 0 0 0 0 0 0 0 0 0 0 0 0 0 0 0 0 0 1 3 4 4 2 1 2 2 1 1 2 0 1 0 0 1 2 3 3 4 4 6 5 6 5 6 5 4 5 5 3 2 2 2 4 3 2 4 4 4 5 3 3 4 3 4 2 3 1 1 1 1 1 1 1 1 1 1 0 0 1 1 2 3 
1 4 3 2 1 2 2 3 1 2 1 1 1 0 1 1 3 1 0 0 2 2 2 0 0 0 0 1 1 1 1 0 0 1 1 1 1 1 2 1 2 1 0 0 0 0 0 0 0 0 0 0 0 0 0 1 1 1 1 0 0 0 0 0 0 0 0 1 0 0 0 0 0 0 0 0 0 0 0 0 0 0 0 0 0 0 0 0 0 0 0 0 0 0 0 0 0 0 0 0 0 0 0 0 0 0 0 0 0 0 0 0 0 1 0 0 0 0 0 0 0 3 3 4 5 4 3 3 2 3 3 3 5 4 4 4 5 6 5 3 3 3 2 1 1 1 1 1 2 3 2 1 0 0 0 0 0 1 0 0 0 0 0 0 0 0 2 0 0 2 1 2 2 0 0 1 1 1 1 2 2 2 2 2 3 2 4 4 3 3 3 4 1 0 3 2 3 2 3 2 1 3 3 4 4 5 5 4 6 5 4 2 4 3 1 0 1 0 1 1 2 2 1 1 0 0 0 0 1 1 3 3 2 3 3 3 3 1 0 0 0 0 0 0 0 0 0 0 0 0 0 0 0 0 0 0 0 0 0 0 0 0 0 0 0 0 0 0 0 0 0 0 0 0 0 0 0 0 0 0 0 0 0 0 0 1 0 0 0 0 0 0 0 0 0 0 0 0 0 0 0 0 1 1 1 1 1 0 0 0 0 0 0 0 0 0 0 0 0 0 0 0 0 0 0 0 0 0 0 0 0 1 1 0 0 0 0 0 0 0 0 0 1 1 2 2 3 1 3 3 3 3 5 5 4 4 5 4 4 4 3 5 4 5 4 4 4 3 3 3 3 5 4 4 4 5 4 3 3 3 4 3 4 1 2 2 2 3 1 1 0 0 0 1 1 2 2 0 1 0 0 1 0 0 1 2 2 1 1 0 2 2 3 4 3 2 2 2 2 2 1 1 0 2 1 3 3 1 2 2 3 5 5 3 2 2 2 1 2 2 1 0 0 1 3 2 2 2 2 3 5 3 4 5 3 1 0 0 0 0 0 0 0 1 2 1 1 2 0 1 0 1 0 0 0 0 0 0 0 0 0 0 0 0 0 0 0 0 0 0 0 0 0 0 0 0 0 0 0 0 0 0 0 0 0 0 0 0 0 0 0 0 0 0 0 0 0 0 0 1 1 0 0 0 0 0 1 0 1 1 2 3 4 3 4 3 2 2 0 0 0 0 0 1 2 2 3 2 2 0 0 0 0 0 0 0 0 0 0 0 0 0 0 0 0 0 0 0 0 0 0 0 0 2 1 0 0 2 4 3 2 1 2 1 1 1 0 0 1 0 2 2 3 4 3 3 3 4 5 6 5 5 5 6 6 5 5 3 1 2 3 4 3 4 3 3 3 2 3 4 4 4 2 1 2 1 2 3 3 1 1 2 0 0 0 0 1 1 1 2 
0 3 3 1 0 2 2 3 2 1 0 0 0 0 0 1 1 1 0 0 1 0 1 0 1 0 0 0 1 0 0 1 1 0 0 1 1 1 2 1 2 0 1 1 0 0 0 0 0 0 0 0 0 0 0 2 2 3 3 2 1 0 1 0 0 0 0 0 0 0 0 0 0 0 0 0 0 0 0 0 0 0 0 0 0 0 0 0 0 0 0 0 0 0 0 0 0 0 0 0 0 0 0 0 0 0 0 0 0 0 0 0 2 1 1 0 1 0 0 0 1 2 4 6 5 3 3 4 4 4 5 4 4 3 5 4 6 6 5 4 3 3 2 1 1 0 0 1 3 3 1 0 0 0 0 0 0 2 0 1 0 0 0 0 0 1 2 1 2 2 1 1 0 0 0 1 1 1 1 1 2 4 2 3 3 2 3 4 4 3 3 2 1 1 1 2 1 1 1 1 2 1 2 4 3 4 5 5 6 5 3 3 4 1 2 1 1 0 1 2 0 1 0 1 1 1 1 1 3 3 2 3 4 1 2 1 1 0 0 0 0 0 0 0 0 0 0 0 0 0 0 0 0 0 0 0 0 0 0 0 0 0 0 0 0 0 0 0 0 0 0 0 0 0 0 0 0 0 0 0 0 0 1 0 0 0 0 0 1 1 1 0 1 0 0 1 0 1 0 0 1 1 1 1 2 0 0 0 0 0 0 0 0 0 0 0 0 0 0 0 0 0 0 0 0 0 0 0 0 0 2 1 0 0 0 0 0 0 0 0 0 0 0 2 2 3 4 3 3 3 2 1 2 4 5 4 4 4 4 5 2 2 5 4 5 5 4 3 3 2 3 3 5 4 5 4 4 2 2 2 2 3 2 2 3 4 2 1 2 0 0 1 0 0 1 1 2 0 1 0 1 1 0 1 2 1 2 0 0 0 0 0 1 1 1 0 2 1 2 3 3 2 1 2 1 3 1 1 2 1 2 2 5 3 3 1 1 1 1 0 1 0 0 0 2 2 4 1 2 3 2 3 3 4 4 4 3 2 2 1 2 0 1 1 2 2 2 2 1 1 1 2 0 1 0 0 0 0 0 0 0 0 0 0 0 0 0 0 0 0 0 0 0 0 0 0 0 0 0 0 0 0 0 0 0 0 0 0 0 0 0 0 0 0 0 0 0 0 0 1 0 0 0 0 0 1 1 1 2 0 1 4 2 3 3 3 2 0 0 0 0 0 0 0 2 1 1 2 2 1 0 0 0 0 0 0 0 0 0 2 0 0 0 0 0 0 0 0 0 0 0 1 2 3 2 2 0 2 3 5 3 1 1 0 0 0 1 0 0 0 2 3 3 2 3 2 4 5 6 7 7 5 5 5 6 6 4 3 2 3 3 1 3 2 2 2 2 2 3 4 3 2 2 1 4 2 2 2 2 2 0 1 0 0 1 2 1 3 1 2 
2 1 2 1 1 2 1 3 2 0 0 0 0 0 0 0 0 1 0 0 1 0 0 1 0 0 0 0 0 0 1 0 0 0 0 1 1 1 0 1 0 1 0 0 0 0 0 1 0 0 0 0 0 0 2 3 3 2 3 1 1 0 0 0 1 0 0 0 0 0 0 0 0 0 0 0 0 0 0 0 0 0 0 0 0 0 0 0 0 0 0 0 0 0 0 0 0 0 0 0 0 0 0 0 0 0 0 0 0 0 0 0 0 0 1 0 0 0 1 0 1 3 4 5 5 4 4 4 4 4 4 3 2 3 3 3 4 6 4 2 3 1 2 1 1 0 1 1 1 1 1 1 0 0 0 0 2 2 2 1 0 0 0 0 0 1 0 1 1 2 2 0 0 0 0 0 0 0 1 0 2 3 3 2 2 3 3 3 3 2 1 0 2 2 2 1 0 2 1 1 2 3 2 3 2 3 3 3 5 4 4 2 3 5 2 1 1 2 1 2 1 1 1 2 0 1 3 2 3 3 3 4 2 3 1 1 0 0 0 0 0 0 0 1 0 0 0 0 0 0 0 0 0 0 0 0 0 0 0 0 0 0 0 0 0 0 0 0 0 0 0 0 0 0 0 0 0 0 0 0 1 3 2 0 0 0 0 0 0 1 2 2 2 0 0 1 1 2 1 0 1 0 1 2 2 1 2 0 0 0 0 0 0 0 0 0 0 0 0 0 0 0 0 0 0 0 0 0 0 0 2 1 1 1 0 0 0 0 0 0 0 0 2 4 4 2 2 0 1 2 3 3 4 4 4 3 5 5 3 3 2 2 4 4 4 3 4 4 4 1 2 3 4 3 3 4 3 2 2 3 3 2 2 3 3 2 1 2 1 0 2 2 1 1 1 1 0 1 2 0 1 1 2 2 1 2 2 1 0 0 0 0 2 1 0 0 0 1 0 1 1 0 0 0 3 2 2 0 1 1 3 3 3 2 3 2 0 0 0 0 0 0 0 2 1 1 1 0 1 1 2 3 4 3 4 5 4 4 1 1 3 1 0 0 0 2 1 0 1 2 1 1 1 0 1 0 0 0 0 0 0 0 0 0 0 0 0 0 0 0 0 0 0 0 0 0 0 0 0 0 0 0 0 0 0 0 0 0 0 0 0 0 0 0 0 0 0 0 0 0 0 1 1 0 1 2 3 2 2 1 1 2 2 2 3 3 1 0 0 0 0 1 1 0 1 0 1 2 3 2 2 1 0 0 0 1 0 1 0 2 1 1 0 0 0 0 0 0 0 0 1 1 1 2 3 2 1 1 3 3 2 1 0 0 0 0 0 0 2 2 3 3 3 2 3 4 5 5 4 7 7 6 5 5 4 4 4 4 2 2 1 1 2 2 2 2 2 3 3 5 3 4 3 5 4 4 3 3 2 1 1 2 1 0 0 2 0 2 3 2 
2 2 3 1 1 0 2 0 2 1 0 1 0 0 0 0 0 0 0 0 0 0 0 0 0 0 0 0 0 0 0 0 0 0 0 0 2 2 2 1 1 1 0 0 0 1 0 0 0 0 0 0 0 0 0 2 3 2 2 2 0 1 2 1 0 0 0 0 0 0 0 0 0 0 0 0 0 0 0 0 0 0 0 0 0 0 0 0 0 0 0 0 0 0 0 0 0 0 0 0 0 0 0 0 0 0 0 0 0 0 0 0 0 1 0 0 0 0 1 2 2 1 3 4 6 6 6 4 4 4 4 4 3 4 4 3 3 5 5 3 3 3 1 1 0 1 1 1 0 0 0 1 1 0 1 1 4 2 1 1 1 0 0 0 0 1 1 0 1 2 1 0 1 1 2 1 1 0 0 2 3 3 3 3 3 4 3 3 1 1 1 0 0 0 0 0 0 1 1 0 1 1 2 3 2 1 4 3 3 3 3 1 0 1 2 2 2 0 1 2 2 0 1 1 1 1 0 2 3 3 5 5 4 2 1 0 0 0 0 0 0 0 0 1 0 0 0 1 0 0 0 0 0 0 0 0 0 0 0 0 0 0 0 0 0 0 0 0 0 0 0 0 0 0 0 0 0 0 0 1 3 2 2 2 3 0 0 0 0 0 1 1 1 0 0 0 1 0 0 1 0 1 2 1 1 2 1 1 0 0 0 0 0 0 0 0 0 0 0 0 0 0 0 0 0 0 0 0 0 0 0 1 1 2 0 0 0 0 0 0 0 0 1 4 3 2 1 2 3 4 3 3 5 5 5 5 5 5 3 3 1 2 2 4 3 5 4 3 3 3 3 3 2 3 3 3 3 2 1 2 4 3 4 3 2 2 1 0 1 1 1 2 1 2 2 2 3 1 1 1 2 2 4 3 3 1 2 1 0 0 0 1 1 0 0 1 0 0 0 1 1 1 0 0 0 1 1 1 0 2 1 3 1 2 2 1 0 0 0 0 0 0 0 1 0 1 0 0 1 3 3 4 4 4 5 5 4 2 3 1 2 1 0 0 0 0 0 0 0 1 0 0 0 0 0 0 1 0 0 0 0 0 0 0 0 0 0 0 0 0 0 0 0 0 0 0 0 0 0 0 0 0 0 0 0 0 0 0 0 0 0 0 0 0 0 0 0 0 0 0 1 2 2 1 1 2 1 0 1 0 1 1 2 2 2 1 1 0 0 0 1 0 1 1 1 3 2 2 3 2 2 1 0 1 1 1 1 0 0 0 0 1 1 0 0 0 0 0 0 0 0 0 1 3 2 2 2 2 1 2 2 1 0 0 0 2 1 1 2 1 2 2 3 6 5 4 5 5 5 5 4 6 5 4 3 3 3 4 3 3 0 2 2 2 2 2 3 3 4 3 3 3 4 3 4 3 3 2 2 1 3 2 1 0 0 0 1 1 3 2 
2 1 3 2 2 2 1 0 1 1 1 2 0 0 0 0 0 0 0 0 0 0 0 0 0 0 0 0 0 0 0 0 0 0 1 1 1 0 0 1 0 0 0 1 0 0 0 0 0 0 1 0 0 0 1 0 3 0 2 2 2 2 1 0 0 0 0 0 0 0 0 0 0 0 0 0 0 0 0 0 0 0 0 0 0 0 0 0 0 0 0 0 0 0 0 0 0 0 0 0 0 0 0 0 0 0 0 0 0 0 0 0 0 1 0 0 1 0 2 3 1 2 3 4 5 5 5 4 6 4 3 3 3 4 5 4 3 4 5 3 3 2 0 1 1 1 2 1 1 1 2 2 1 1 0 3 4 3 3 2 1 2 1 1 0 0 0 1 0 1 2 1 2 0 1 1 1 1 0 2 3 3 2 4 3 4 2 1 1 0 0 0 0 0 0 0 0 0 1 1 1 2 2 2 3 2 3 3 3 2 1 0 0 0 0 2 2 0 2 2 1 2 1 2 3 2 2 4 3 4 4 3 3 2 2 1 0 0 0 1 0 0 1 1 2 0 0 0 0 0 0 0 0 0 0 0 0 0 0 0 0 0 0 0 0 0 0 0 0 0 0 0 0 0 0 0 0 0 1 0 3 2 2 2 2 0 1 0 1 0 0 1 2 0 0 0 1 1 1 0 1 1 1 1 1 0 1 0 0 0 0 0 0 0 0 0 0 0 0 0 0 0 0 0 0 0 0 0 0 0 0 1 2 1 2 0 0 0 0 0 0 0 0 1 4 1 2 0 3 3 3 4 5 3 4 6 6 5 2 0 1 1 1 2 2 3 2 1 2 3 4 3 3 3 3 1 2 1 2 3 2 3 4 4 3 2 4 3 2 2 3 3 1 1 1 0 2 3 2 2 4 2 2 2 4 2 1 0 1 0 0 0 0 0 1 0 0 0 1 0 0 0 0 0 0 0 0 0 1 2 1 2 1 1 2 1 2 0 0 0 0 0 0 0 0 1 1 2 3 3 4 4 3 4 4 5 4 4 3 3 0 0 0 0 0 0 0 0 2 0 0 1 2 0 0 0 1 0 0 0 0 0 0 0 0 0 0 0 0 0 0 0 0 0 0 0 0 0 0 0 0 0 0 0 0 0 0 0 0 0 0 0 0 0 0 0 0 0 0 0 0 2 1 1 2 2 1 1 1 1 1 0 1 0 0 0 0 0 0 0 0 2 0 2 2 2 2 2 3 3 3 2 1 0 2 2 2 2 1 0 1 2 1 1 0 0 0 0 0 0 0 0 1 3 3 2 2 1 2 2 3 3 2 1 2 2 0 0 0 2 4 3 4 5 5 5 5 5 4 4 3 3 3 3 4 2 3 4 2 4 2 1 2 3 2 2 3 4 3 3 3 3 3 4 3 2 3 3 4 2 2 2 1 0 1 1 1 0 1 1 
0 3 3 2 2 2 0 1 1 2 1 1 0 0 1 0 0 0 0 0 0 1 0 0 0 0 0 0 0 0 0 0 0 0 1 0 0 0 0 1 0 0 1 0 0 0 0 0 0 1 0 1 0 0 0 1 3 3 3 3 4 2 2 0 0 0 0 0 0 0 0 0 0 0 0 0 0 0 0 0 0 0 0 0 0 0 0 0 0 0 0 0 0 0 0 0 0 0 0 0 0 0 0 0 0 0 0 0 0 0 0 0 0 1 0 1 2 2 2 1 0 2 2 3 4 5 5 6 3 1 3 5 4 3 3 3 2 4 5 3 2 2 2 0 1 0 3 3 2 1 2 2 2 2 2 3 4 3 3 2 1 2 2 1 0 0 1 2 0 2 1 1 0 0 0 0 1 1 2 3 2 3 3 2 3 2 2 1 0 0 0 0 0 0 0 0 0 1 1 0 0 1 1 0 3 3 3 2 2 1 2 0 1 1 2 2 1 1 1 2 2 2 1 3 3 3 3 3 6 5 5 5 5 3 1 0 0 0 0 1 0 0 1 0 2 0 0 0 0 1 0 0 0 0 0 0 0 0 0 0 0 0 0 0 0 0 0 0 0 0 0 0 0 0 0 0 0 0 1 1 1 3 1 0 0 1 0 1 0 0 1 2 3 0 0 0 0 0 0 1 1 0 1 1 2 2 1 0 0 0 0 0 0 0 0 0 0 0 0 0 0 0 0 0 0 0 0 0 0 0 0 0 2 1 1 0 0 0 0 0 0 0 0 1 2 3 1 2 2 3 3 3 4 5 4 5 5 3 2 0 1 0 0 0 2 3 2 3 2 3 4 4 3 4 3 4 3 3 2 5 2 2 4 4 2 4 3 3 3 3 2 1 2 3 2 2 1 1 1 3 3 4 1 2 2 1 0 1 0 0 0 0 0 1 1 1 1 1 0 0 0 0 0 0 0 0 0 0 0 0 0 0 1 3 1 1 1 1 0 0 0 0 0 0 0 2 2 4 4 5 4 4 3 3 4 4 4 3 3 0 1 0 0 0 0 0 0 0 0 0 2 2 2 2 0 1 1 0 0 0 0 0 0 0 0 0 0 0 0 0 0 0 0 0 0 0 0 0 0 0 0 0 0 0 0 0 0 0 0 0 0 0 0 0 0 0 0 0 0 0 2 1 0 1 0 2 2 2 1 0 0 0 0 0 0 0 0 0 1 1 1 2 2 1 1 1 2 2 3 3 3 3 2 1 2 0 2 2 0 0 0 2 2 1 0 0 0 0 0 0 0 1 0 0 1 4 3 3 3 3 2 3 3 0 1 0 0 1 1 2 4 3 5 3 4 3 4 5 3 3 2 1 4 3 3 2 1 3 3 2 3 0 2 3 1 2 4 3 3 3 3 4 4 3 2 3 3 3 3 3 2 2 1 1 1 0 1 2 1 2 
1 2 2 0 0 1 0 1 1 2 1 1 0 0 0 0 0 0 0 0 0 0 0 0 0 1 0 0 0 0 0 0 0 0 0 0 0 0 0 1 0 0 0 0 0 0 0 0 0 0 0 1 2 0 0 2 2 3 3 4 4 3 2 1 0 0 0 0 0 0 0 0 0 0 0 0 0 0 0 0 0 0 0 0 0 0 0 0 0 0 0 0 0 0 0 0 0 0 0 0 0 0 0 0 0 0 0 0 1 2 0 0 0 1 1 1 1 2 2 3 0 2 1 1 2 3 4 5 4 3 3 5 4 2 3 4 3 3 4 3 2 3 2 2 2 2 1 3 4 2 3 2 3 3 4 3 4 3 3 3 3 4 3 3 1 1 1 0 1 2 1 0 1 1 1 1 1 3 3 3 2 3 2 3 1 1 2 0 0 0 0 0 0 0 0 0 0 0 1 1 2 2 2 3 3 3 2 2 2 1 2 0 1 1 1 1 0 3 1 2 2 2 2 2 2 2 4 4 5 6 6 7 4 2 2 1 0 0 0 0 0 0 0 1 0 0 0 0 0 0 0 0 0 0 0 0 0 0 0 0 0 0 0 0 0 0 0 0 0 0 0 0 0 0 0 0 0 0 0 0 1 1 0 1 0 1 0 0 0 1 1 1 1 0 0 0 0 0 1 0 1 1 0 0 1 1 0 0 0 0 0 0 0 0 0 0 0 0 0 0 0 0 0 0 0 0 0 0 0 0 0 1 2 2 2 0 0 0 0 0 0 0 0 2 3 3 1 1 1 1 2 4 4 5 5 4 4 3 2 0 1 1 0 0 2 2 2 2 1 3 4 3 4 3 2 3 3 4 2 2 2 3 3 1 3 4 2 2 2 2 1 2 3 3 3 2 4 3 2 3 4 3 3 2 1 1 1 1 1 0 0 0 0 0 0 0 1 0 0 0 0 0 0 0 0 0 0 0 0 0 0 0 1 1 0 0 0 0 0 0 0 0 0 0 0 1 3 4 4 5 3 4 3 3 4 3 2 4 3 0 1 0 0 0 0 0 0 1 1 1 1 0 3 1 2 1 1 0 0 0 0 0 0 0 0 0 0 0 0 0 0 0 0 0 0 0 0 0 0 0 0 0 0 0 0 0 0 0 0 0 0 0 0 0 0 0 0 0 0 0 0 1 1 2 2 2 3 2 1 2 2 1 0 0 0 0 0 2 1 3 3 3 2 2 1 0 1 3 2 4 4 2 1 2 1 2 2 2 0 0 0 1 1 0 0 0 1 1 1 2 1 1 1 2 1 1 2 3 4 4 3 1 1 2 1 1 1 2 2 2 3 3 4 2 1 4 5 4 3 3 2 1 2 3 3 1 1 3 3 2 1 1 0 1 3 3 3 4 4 4 3 4 4 5 3 3 4 3 2 3 2 0 0 0 0 0 2 2 1 0 
2 2 1 0 0 0 0 0 1 0 0 0 0 0 0 0 0 0 0 0 0 0 0 0 1 0 0 0 0 0 0 0 0 0 0 0 0 0 1 1 0 0 0 0 0 0 0 0 0 0 0 0 2 0 1 3 4 5 4 3 3 4 3 2 0 0 0 0 0 0 0 0 0 0 0 0 0 0 0 0 0 0 0 0 0 0 0 0 0 0 0 0 0 0 0 0 0 0 0 0 0 0 0 0 0 1 1 0 2 1 1 1 0 0 0 0 0 0 0 1 2 1 1 1 2 0 2 3 3 3 4 3 5 3 3 3 2 3 4 3 3 2 2 1 1 3 1 2 4 3 2 3 4 3 3 3 2 4 3 3 2 2 2 4 3 3 3 0 1 2 1 0 1 0 1 2 1 1 2 3 3 2 1 2 2 1 1 0 0 0 0 0 0 0 0 0 0 0 0 2 2 2 2 2 1 2 2 0 1 1 2 1 1 1 1 1 1 1 2 2 4 3 3 3 5 5 5 5 6 5 5 7 5 4 2 0 0 1 0 0 0 0 0 0 0 0 0 0 0 0 0 0 0 0 0 0 0 0 0 0 0 0 0 0 0 0 0 0 0 0 0 0 0 0 0 0 0 1 1 0 0 1 1 0 0 0 0 0 1 0 1 2 0 0 0 0 0 0 0 0 1 1 0 0 0 0 0 1 0 0 0 0 0 0 0 0 0 0 0 0 0 0 0 0 0 1 1 0 0 0 0 1 1 1 1 1 1 0 0 0 0 0 0 0 2 3 2 2 1 3 4 3 3 3 4 5 3 2 1 0 1 0 0 0 1 3 2 2 2 3 3 3 5 5 4 5 4 4 3 4 4 2 2 2 2 4 2 2 2 1 2 3 5 5 4 2 4 2 2 2 3 4 2 2 1 2 1 1 0 0 0 0 0 1 0 0 0 0 0 0 0 0 0 0 0 0 0 1 1 0 0 0 1 0 0 0 0 0 0 0 0 0 1 0 0 2 2 3 4 2 2 2 1 2 1 2 2 1 1 1 2 0 1 0 0 0 0 1 2 1 0 2 2 2 1 1 0 0 0 0 0 0 0 0 0 0 0 0 0 0 0 0 0 0 0 0 0 0 0 0 0 0 0 0 0 0 0 0 0 0 0 0 0 0 0 0 0 0 0 0 0 1 2 2 2 2 2 3 2 2 1 1 2 1 1 0 1 1 2 3 2 3 2 3 4 2 2 2 3 3 3 2 1 2 2 2 2 1 0 0 0 1 2 0 1 1 3 3 2 2 2 1 2 2 2 3 3 3 3 3 3 3 3 2 1 0 0 1 0 2 1 0 1 2 1 2 2 4 2 3 3 3 2 2 1 0 0 2 3 3 2 3 1 2 3 3 2 3 3 5 4 5 5 4 3 4 4 3 2 1 2 0 0 0 1 0 0 1 1 1 
1 1 1 1 1 1 1 0 0 0 0 0 0 0 0 0 0 0 0 0 0 0 0 0 0 0 0 0 0 0 0 0 0 0 0 0 0 0 0 0 0 0 0 0 0 0 0 0 0 0 1 1 2 1 2 2 3 4 4 2 2 2 2 0 0 0 0 0 0 0 0 0 0 0 0 0 0 0 0 0 0 0 0 0 0 0 0 0 0 0 0 0 0 0 0 0 0 0 0 0 0 0 0 0 0 1 1 0 0 0 0 0 0 0 0 1 0 0 0 0 0 0 0 0 1 1 1 2 3 3 4 4 5 4 3 5 4 3 2 2 1 2 2 3 3 3 2 3 4 5 5 4 5 4 5 4 3 4 3 2 2 1 3 4 3 3 4 3 3 2 2 1 1 0 1 0 1 2 2 2 2 1 1 1 1 1 1 0 0 0 1 0 0 0 0 0 0 1 1 2 2 1 1 1 1 0 1 1 2 1 1 1 2 2 0 1 1 1 0 1 2 3 5 5 5 6 7 5 5 4 5 5 4 4 2 0 0 0 0 0 0 0 0 0 0 0 0 0 0 0 0 0 0 0 0 0 0 0 0 0 0 0 0 0 0 0 0 0 0 0 0 0 0 0 0 0 0 0 0 1 1 1 1 0 0 0 0 0 0 0 0 0 0 0 0 0 0 0 0 1 2 3 0 0 0 0 0 0 1 0 0 0 0 0 0 0 0 0 0 0 0 0 0 0 1 1 2 0 0 0 0 0 0 0 0 0 0 1 0 0 0 0 0 0 0 0 1 2 2 2 3 3 3 3 4 3 2 1 0 0 0 1 2 1 2 2 2 3 2 4 3 5 5 4 4 4 4 3 4 5 5 5 2 2 4 3 2 2 2 2 4 3 5 6 5 4 3 2 2 3 3 3 1 1 2 2 2 2 1 0 0 0 0 0 0 0 0 0 0 0 0 0 0 0 0 0 0 0 1 0 0 0 0 0 0 0 0 0 0 0 0 0 1 1 2 2 1 2 3 2 1 1 1 2 2 3 3 2 1 0 0 1 1 2 0 1 1 0 0 0 0 0 0 2 3 1 0 0 1 0 0 0 0 0 0 0 0 0 0 0 0 0 0 0 0 0 0 0 0 0 0 0 0 0 0 0 0 0 0 0 0 0 0 0 0 0 0 0 0 0 0 2 3 1 1 2 2 2 2 1 3 2 2 0 0 0 1 2 2 3 3 4 3 3 2 2 2 2 3 2 1 1 2 1 1 1 1 2 1 1 1 2 0 2 2 2 1 3 3 3 1 1 4 5 4 4 3 3 3 4 4 2 2 2 1 1 1 0 2 2 0 1 0 0 2 2 2 2 4 4 5 4 1 0 0 0 1 2 2 3 2 1 1 2 3 2 2 2 3 4 4 4 6 4 4 4 3 2 1 2 2 2 1 1 2 1 0 1 1 1 
0 1 1 2 1 2 2 0 0 1 0 0 0 0 0 0 0 0 0 0 0 0 0 0 0 0 0 0 0 0 0 0 0 0 0 0 0 0 0 0 0 0 0 0 0 0 0 0 0 1 3 4 3 3 2 2 2 4 2 2 2 0 1 0 0 0 0 0 0 0 0 0 0 0 0 0 0 0 0 0 0 0 0 0 0 0 0 0 0 0 0 0 0 0 0 0 0 0 0 0 0 2 0 0 0 0 0 0 0 0 0 0 0 0 0 0 0 1 0 0 1 1 1 0 0 1 3 3 2 2 3 4 4 4 4 4 4 3 2 1 1 1 1 3 3 5 4 3 3 4 5 6 4 5 4 4 4 4 4 3 2 3 4 4 5 5 4 2 3 3 2 2 1 3 3 3 0 2 2 1 1 1 1 1 1 1 0 1 1 0 0 0 0 0 0 0 0 0 0 1 1 1 1 1 1 2 1 2 2 1 2 2 2 1 2 2 2 1 1 2 1 3 4 4 4 5 7 7 4 3 3 3 2 2 0 0 0 0 0 0 0 0 0 0 0 0 0 0 0 0 0 0 0 0 0 0 0 0 0 0 0 0 0 0 0 0 0 0 0 0 0 0 0 0 0 0 0 0 0 0 0 0 0 0 0 0 0 0 0 0 0 1 0 0 0 0 0 0 0 1 2 1 1 0 0 2 1 0 0 0 0 0 0 0 0 0 0 0 0 0 0 0 1 2 2 1 1 0 0 1 0 0 2 0 0 1 1 1 0 0 0 0 1 0 0 0 0 0 1 2 2 2 2 2 2 3 1 2 0 0 0 2 2 3 1 3 3 3 3 2 2 4 2 3 4 4 3 4 5 4 4 4 3 3 2 4 2 2 2 3 3 6 6 5 4 4 3 4 4 3 4 3 0 2 1 1 1 1 1 0 0 0 0 0 0 0 0 0 0 0 0 0 0 0 0 0 0 0 0 0 0 0 0 0 0 0 0 0 0 0 0 0 0 0 0 2 2 3 3 1 1 2 1 1 2 2 1 1 1 1 1 1 0 0 1 0 0 1 1 0 1 1 2 1 2 2 1 0 1 0 0 0 0 0 0 0 0 0 0 0 0 0 0 0 0 0 0 0 0 0 0 0 0 0 0 0 0 0 0 0 0 0 0 0 0 0 0 0 0 0 0 1 0 0 0 0 0 1 0 0 2 1 1 0 0 0 0 1 1 2 2 3 3 3 3 2 3 3 2 2 0 1 2 0 1 2 3 4 2 3 3 4 3 2 3 2 3 4 2 2 3 3 3 5 4 4 4 3 4 2 4 2 2 1 1 0 0 0 0 0 1 1 0 0 1 3 4 4 5 4 4 3 2 2 1 0 1 0 2 2 2 2 1 2 3 2 2 3 2 4 4 4 4 3 5 4 3 3 2 2 2 1 1 3 2 1 0 0 1 1 
2 1 1 0 0 1 2 2 2 1 0 0 0 0 0 0 0 0 0 0 0 0 0 0 0 0 0 0 0 0 0 0 0 0 0 0 0 0 0 0 0 0 0 0 0 0 0 0 0 2 2 3 2 2 1 2 2 3 1 0 1 0 0 0 0 0 0 0 0 0 0 0 0 0 0 0 0 0 0 0 0 0 0 1 0 0 0 0 0 0 0 0 0 0 0 0 0 0 0 0 0 0 0 0 0 0 0 0 0 0 0 0 0 0 0 0 0 0 1 1 0 1 1 3 2 2 1 3 2 2 2 4 3 3 4 4 3 2 1 1 0 0 2 4 3 4 3 4 4 6 6 6 4 5 5 4 5 5 4 4 4 2 5 4 3 6 4 2 4 3 3 2 2 3 3 2 1 0 2 1 0 0 0 1 0 0 1 1 0 0 0 0 0 0 0 0 0 0 0 1 1 3 2 1 0 1 1 2 1 2 3 1 3 4 4 3 3 2 2 1 2 2 2 4 2 3 4 3 3 2 1 2 2 1 0 1 0 0 0 0 0 0 0 0 0 0 0 0 0 0 0 0 0 0 0 0 0 0 0 0 0 0 0 0 0 0 0 0 0 0 0 0 0 0 0 0 0 0 0 0 2 0 0 1 1 0 0 0 0 0 0 0 0 0 0 0 0 0 1 0 1 2 1 3 3 2 1 0 0 0 0 0 0 0 0 0 0 0 0 0 0 0 0 1 1 2 2 1 2 1 0 0 2 1 0 1 1 1 1 0 0 0 1 0 0 0 2 0 2 1 1 2 2 3 3 2 2 1 0 0 0 0 0 1 1 1 2 2 4 2 2 1 1 2 4 5 4 5 6 5 5 4 3 3 3 3 3 3 4 4 4 4 4 5 5 4 4 5 4 2 2 2 0 0 0 2 0 0 1 0 0 0 0 0 0 0 0 0 0 0 0 0 0 0 0 0 0 0 0 0 0 0 0 0 0 0 0 0 0 0 0 0 0 0 0 0 2 1 3 3 2 2 2 1 2 1 1 1 2 0 0 0 1 1 2 1 1 2 0 0 0 0 0 2 1 3 2 1 0 0 0 0 0 0 0 0 0 0 0 0 0 0 0 0 0 0 0 0 0 0 0 0 0 0 0 0 0 0 0 0 0 0 0 0 0 0 0 0 0 0 0 0 1 0 0 0 0 0 0 0 1 2 3 2 1 0 0 1 1 1 2 3 2 2 2 2 2 3 3 2 2 1 2 3 1 2 3 3 3 4 4 4 3 1 2 3 3 4 3 3 1 2 3 2 3 4 2 3 5 2 1 1 1 2 1 1 0 0 0 1 1 2 0 1 1 2 4 4 4 4 5 4 3 1 0 1 1 0 0 0 0 1 1 2 1 3 3 2 4 3 4 4 5 5 5 2 1 2 2 2 3 2 2 3 4 2 2 2 2 2 
4 1 0 0 1 0 1 1 1 2 0 0 0 0 0 0 0 0 0 0 0 0 0 0 0 0 0 0 0 0 0 0 0 0 0 0 0 0 0 0 0 0 1 0 0 0 0 0 0 2 3 2 1 1 1 0 2 4 1 0 1 0 0 0 0 0 0 0 0 0 0 0 0 0 0 0 0 0 0 0 1 0 1 0 0 0 0 0 0 0 0 0 0 0 0 0 0 0 0 0 0 0 1 0 0 0 0 0 0 0 0 0 0 0 0 0 0 0 0 1 1 0 2 4 4 3 4 3 2 1 2 3 3 5 5 3 3 2 1 1 0 1 1 2 3 4 4 5 6 8 8 7 7 4 3 4 4 4 4 4 4 4 4 5 6 5 4 3 4 2 3 2 1 1 2 2 1 1 0 2 1 0 1 1 0 0 0 0 0 0 0 0 0 0 0 0 0 0 0 0 1 2 1 2 0 0 2 1 0 0 1 2 1 2 2 4 2 1 1 1 1 1 2 1 2 3 2 0 1 1 1 0 1 1 1 1 0 0 0 0 0 0 0 0 0 0 0 0 0 0 0 0 0 0 0 0 0 0 0 0 0 0 0 0 0 0 0 0 0 0 0 0 0 0 0 0 0 0 0 0 1 0 1 0 0 0 1 1 0 0 0 0 0 0 0 0 0 0 0 0 2 1 2 2 1 2 1 0 0 0 0 0 0 0 0 0 0 0 0 0 0 0 0 1 3 3 3 3 3 2 2 1 2 1 0 0 1 1 1 0 0 2 2 1 0 0 0 0 1 2 1 2 2 1 3 1 1 1 2 1 0 1 0 2 2 2 3 3 4 2 2 2 2 3 5 5 4 6 5 4 4 4 4 5 5 4 3 4 4 4 4 4 5 6 5 5 5 4 4 3 3 1 1 1 1 0 2 2 1 0 0 0 0 0 0 0 0 0 0 0 0 0 0 0 0 0 0 0 0 0 0 0 0 0 0 0 0 0 0 0 0 0 0 0 0 0 0 1 2 1 2 2 2 1 3 3 1 1 1 1 1 0 0 1 2 3 1 1 1 1 0 0 0 1 1 1 1 0 0 0 0 0 0 0 0 0 0 0 0 0 0 0 0 0 0 0 0 0 0 0 0 0 0 0 0 0 0 0 0 0 0 0 0 0 0 0 0 0 0 0 0 1 1 0 0 0 0 0 0 0 0 1 2 3 2 0 1 0 1 1 1 0 1 1 2 2 2 2 3 3 3 3 5 4 3 4 3 4 5 4 3 3 2 1 0 1 2 2 5 3 2 2 2 3 4 4 3 4 4 4 2 2 2 3 1 0 0 1 0 0 0 1 1 0 1 0 2 3 4 5 5 4 3 2 1 1 0 0 0 0 1 1 2 2 3 3 1 2 2 5 4 4 5 7 4 3 3 3 2 2 2 1 1 1 1 3 3 3 3 2 
3 1 1 0 0 0 0 0 0 1 0 0 0 0 0 0 0 0 0 0 0 0 0 0 0 0 0 0 0 0 0 0 0 0 0 0 0 0 0 0 0 1 0 0 0 0 0 0 0 1 4 1 0 0 0 1 1 2 0 1 0 0 0 0 0 0 0 0 0 0 0 0 0 0 0 0 0 0 0 1 2 1 1 0 0 0 0 0 0 0 0 0 0 0 0 0 0 0 0 0 0 0 2 0 0 0 0 0 0 1 0 2 0 1 0 0 0 0 0 0 0 1 1 2 3 3 3 2 2 1 2 1 3 4 4 4 3 3 1 0 1 0 1 3 5 5 5 5 7 9 8 8 7 7 6 5 5 4 3 4 5 3 4 4 5 4 5 5 4 1 1 0 2 2 3 2 2 1 1 1 1 0 0 1 0 0 0 0 0 0 0 0 0 0 0 0 0 0 0 0 0 1 1 1 1 1 1 0 1 1 2 2 1 2 2 3 2 1 0 1 0 2 1 2 2 3 2 2 1 0 1 2 2 2 0 0 0 0 0 0 0 0 0 0 0 0 0 0 0 0 0 0 0 0 0 0 0 0 0 0 0 0 0 0 0 0 0 0 0 0 0 0 0 0 0 0 0 0 0 0 0 0 0 1 1 1 0 0 0 0 0 0 0 0 0 0 0 0 0 0 1 2 1 1 0 1 1 0 0 0 0 0 0 1 0 0 0 0 0 0 0 0 0 0 1 3 5 4 3 2 1 2 2 2 2 1 1 0 0 0 0 0 1 2 0 0 0 1 0 0 1 0 0 1 1 1 0 1 1 0 0 0 0 1 1 3 3 3 3 4 1 3 4 4 4 5 7 6 4 4 6 6 5 5 5 5 5 4 4 3 2 4 5 6 6 5 5 4 3 3 2 3 2 0 0 1 2 1 2 1 0 0 0 0 0 0 0 0 0 0 0 0 0 0 0 0 0 0 0 0 0 0 0 0 0 0 0 0 0 0 0 0 0 0 0 1 0 0 2 2 3 2 2 1 2 3 2 1 1 1 0 0 0 0 2 2 2 0 0 0 1 0 1 1 2 2 1 2 0 0 0 0 0 0 0 0 0 0 0 0 0 0 0 0 0 0 0 1 0 1 0 0 0 0 0 0 0 0 0 0 0 0 0 0 0 0 0 0 0 0 0 0 0 1 0 0 0 0 0 0 0 1 2 1 0 0 0 1 1 2 0 1 2 3 1 3 4 3 4 4 2 4 3 4 3 4 5 5 5 5 3 4 1 0 0 2 1 3 4 3 2 4 2 4 4 2 3 2 2 2 2 3 3 2 1 0 0 0 0 0 0 0 0 0 0 0 2 3 3 3 3 2 2 2 0 0 0 1 0 1 1 1 2 2 2 1 0 2 3 4 4 5 5 5 3 3 3 3 1 1 0 0 0 0 0 2 2 3 3 3 
3 2 2 1 1 1 0 0 0 0 0 0 0 0 0 0 0 0 0 0 0 0 0 0 0 0 0 0 0 0 0 0 0 0 0 0 0 0 0 0 0 0 0 0 0 0 0 0 0 0 3 1 1 0 0 1 0 1 0 0 0 0 0 2 0 0 1 0 1 0 1 0 0 0 0 0 0 0 0 0 1 2 1 0 0 0 0 0 1 0 0 0 0 0 0 0 0 0 0 1 1 0 2 1 2 1 1 1 0 2 2 0 0 2 1 0 0 0 0 0 0 0 0 2 2 3 2 2 2 3 0 1 3 4 5 3 3 3 2 2 1 2 2 2 3 5 5 6 7 7 9 9 7 6 5 4 6 6 5 5 6 5 4 5 5 5 5 5 4 3 2 1 2 3 2 1 2 0 1 2 0 1 1 1 0 0 0 0 0 0 0 0 0 0 0 0 0 0 0 0 0 0 2 1 2 3 2 0 2 2 3 1 0 1 2 1 1 0 0 1 2 1 0 2 2 2 3 1 1 1 1 1 1 2 1 0 0 0 0 0 0 0 0 0 0 0 0 0 0 0 0 0 0 0 0 0 0 0 0 0 0 0 0 0 0 0 0 0 0 0 0 0 0 0 0 1 0 0 0 0 0 0 0 0 1 0 0 0 0 0 0 0 0 0 0 0 0 0 0 0 0 1 1 0 1 0 1 0 0 0 0 0 0 1 0 0 0 1 1 2 0 0 1 2 2 3 3 4 1 0 2 2 2 3 2 2 1 0 0 0 0 0 0 1 1 0 0 1 1 2 2 1 0 1 1 1 0 0 0 0 0 0 0 0 2 0 2 2 1 2 1 1 4 4 3 4 5 6 4 6 4 4 4 4 3 3 4 3 3 4 3 3 3 5 4 4 4 4 3 3 2 2 1 2 1 1 1 3 1 0 0 1 0 0 0 0 0 0 0 0 0 0 0 0 0 0 0 0 0 0 0 1 0 0 0 0 0 0 0 0 0 0 0 0 0 0 1 1 2 2 0 2 0 1 1 1 2 0 1 0 0 0 0 0 1 1 2 0 0 0 0 1 0 1 1 3 4 2 0 0 0 0 0 0 0 0 0 0 0 0 0 0 0 0 0 0 0 0 0 0 0 0 0 0 0 0 0 0 0 0 1 0 0 0 0 0 0 0 0 0 0 0 0 0 0 0 0 0 0 0 0 0 1 1 0 0 1 0 0 0 0 1 1 1 3 3 4 4 5 5 4 4 3 2 5 4 4 5 5 4 3 3 3 1 1 2 2 2 3 2 3 2 4 4 4 3 3 3 3 2 3 3 2 0 1 0 0 0 0 0 0 0 0 0 0 0 2 3 2 2 2 0 0 2 1 0 0 1 0 0 1 0 2 1 2 2 1 3 3 4 4 4 6 4 4 3 2 1 2 2 0 0 0 0 0 0 1 1 3 3 
3 3 2 0 1 1 0 0 0 0 0 0 0 0 0 0 0 0 0 0 0 0 0 0 0 0 0 0 0 0 0 0 0 0 0 0 0 0 0 0 0 0 0 0 0 0 0 0 0 0 1 1 0 0 1 0 0 0 1 0 0 0 0 0 3 0 2 0 1 1 0 0 0 0 0 0 1 0 0 1 0 2 2 1 0 0 0 0 0 0 0 0 0 0 0 0 0 0 0 1 1 2 3 1 1 1 0 0 1 2 2 1 0 1 1 0 0 0 0 0 0 0 0 0 1 2 2 2 2 2 2 1 2 4 4 2 3 4 5 5 3 2 4 3 3 3 3 5 6 7 6 6 7 5 5 5 6 6 7 5 4 5 4 5 5 4 3 3 3 3 3 2 2 2 3 1 0 0 0 0 0 0 1 0 2 1 0 0 0 0 0 0 0 0 0 0 0 0 0 0 0 1 0 2 1 2 1 1 0 1 1 0 0 0 0 0 0 1 0 1 0 2 1 1 1 3 2 2 3 1 2 1 2 0 1 0 0 0 0 0 0 0 0 0 0 0 0 0 0 0 0 0 0 0 0 0 0 0 0 0 0 0 0 0 0 0 0 0 0 0 0 0 0 0 0 1 0 0 0 2 0 0 0 0 0 0 0 0 0 0 0 0 0 0 0 0 0 0 0 0 0 1 1 0 0 0 1 2 1 2 1 1 1 1 0 1 0 1 2 2 1 1 1 1 2 3 4 4 3 2 3 2 3 1 2 0 0 0 0 0 1 0 2 1 1 1 0 1 1 2 3 1 1 2 1 0 1 0 0 0 0 0 0 0 1 1 2 3 2 3 1 2 2 3 3 4 5 5 4 5 5 4 5 4 4 3 2 4 5 3 4 5 4 3 5 4 5 6 4 4 4 3 1 2 0 0 2 2 2 0 0 0 0 0 0 0 0 0 0 0 0 0 0 0 0 0 0 0 0 0 0 0 0 0 0 0 0 0 0 0 0 0 0 0 0 1 1 0 0 1 2 1 0 0 0 0 0 0 0 0 0 0 0 0 0 1 0 0 0 0 0 0 1 1 2 2 3 1 0 1 0 0 0 0 0 0 0 0 0 0 1 0 0 0 0 0 0 1 0 1 0 0 0 0 0 0 0 0 0 0 0 0 0 0 0 0 0 0 0 0 0 0 0 1 0 0 0 1 0 0 1 2 1 0 0 0 0 0 0 0 0 0 1 2 3 4 3 5 5 5 5 4 3 3 3 4 4 4 5 5 5 4 3 2 2 1 2 3 2 4 5 5 4 4 5 5 4 2 3 3 2 1 0 1 1 1 0 0 0 0 0 0 0 1 1 1 2 3 3 3 1 0 0 1 0 0 1 0 0 1 0 1 1 1 0 0 3 2 3 5 4 5 5 4 3 3 3 1 1 2 1 0 0 0 0 0 0 0 2 3 
2 3 4 1 0 0 0 0 0 0 0 0 0 0 0 0 0 0 0 0 0 0 0 0 0 0 0 0 0 0 0 0 0 0 0 0 0 0 0 0 0 0 0 0 0 0 0 0 0 0 1 0 0 1 0 0 0 1 3 0 0 0 1 0 0 0 0 0 1 0 2 0 0 0 1 0 0 1 0 1 1 2 3 2 1 0 2 1 0 0 0 0 0 0 0 0 0 0 0 1 2 2 2 2 3 0 0 0 0 1 1 0 1 1 0 0 0 0 0 0 0 0 0 0 1 2 2 3 1 3 2 3 3 3 5 4 4 5 4 3 3 4 2 3 3 2 4 5 7 6 6 5 6 4 5 7 7 8 7 6 5 5 5 4 4 3 2 3 2 3 3 3 2 1 1 0 0 0 0 1 0 0 1 1 0 1 0 0 0 0 0 0 0 0 0 0 0 0 0 0 0 0 0 0 1 2 1 1 2 1 0 0 0 0 0 0 0 0 0 0 1 0 0 0 1 2 2 2 1 1 0 1 2 0 0 0 0 0 0 0 0 0 0 0 0 0 0 0 0 0 0 0 0 0 0 0 0 0 0 0 0 0 0 0 0 0 0 0 0 0 0 0 0 0 1 3 2 2 1 1 0 0 0 0 0 0 0 0 0 0 0 0 0 0 0 0 0 0 0 0 2 2 1 1 1 0 1 1 1 1 2 2 2 3 2 2 1 3 4 2 2 1 0 0 3 3 3 2 2 3 4 3 3 1 0 0 0 0 0 0 0 0 1 1 0 0 1 2 2 2 2 3 2 1 0 0 1 0 0 0 1 0 2 2 2 2 3 2 1 1 1 1 2 2 2 5 6 6 5 5 5 5 4 4 3 3 3 5 6 4 4 3 3 4 4 4 5 3 5 5 4 5 2 1 2 3 0 0 0 0 0 0 0 0 0 0 0 0 0 0 0 0 0 0 0 0 0 0 0 0 0 0 1 0 0 0 0 0 0 0 0 0 0 0 0 0 0 0 1 2 2 2 1 0 0 0 0 0 0 0 0 0 0 0 0 0 0 0 0 0 0 1 1 2 3 2 1 1 0 0 0 0 0 0 0 0 0 0 0 1 0 0 0 0 1 1 0 0 1 0 0 0 0 0 0 0 0 0 0 0 0 0 0 0 0 0 0 0 0 0 0 0 1 0 1 0 1 1 0 0 0 0 0 2 1 0 0 1 0 0 0 0 1 2 3 3 2 5 5 4 4 3 2 5 3 3 6 5 4 5 4 3 3 2 2 1 2 3 3 5 4 4 5 5 4 4 3 3 2 3 3 1 0 0 1 1 0 0 0 0 1 0 1 2 2 2 3 3 2 1 1 0 0 0 0 0 0 0 0 1 0 1 1 0 0 1 2 3 4 5 4 4 3 2 2 2 2 1 2 2 1 0 0 0 0 0 0 0 0 1 
2 2 3 2 0 0 0 0 0 0 0 0 0 0 0 0 0 0 0 0 0 0 0 0 0 0 0 0 0 0 0 0 0 0 0 0 0 0 0 0 0 0 0 0 0 0 0 0 0 0 0 0 0 0 1 0 1 1 1 0 0 1 0 0 0 0 1 1 0 0 0 0 0 0 0 1 0 0 0 1 2 2 2 2 2 2 1 1 0 0 0 0 0 0 1 1 1 0 0 1 2 2 2 3 2 1 1 1 2 0 0 0 0 0 0 0 0 0 0 0 0 0 0 0 1 3 0 0 1 2 2 3 3 1 3 4 4 4 3 1 3 3 2 3 4 4 5 7 6 5 5 6 7 6 5 6 7 6 7 6 6 6 3 4 3 2 2 1 1 1 2 2 1 0 1 2 2 2 1 1 0 1 0 0 0 1 0 0 0 0 0 0 0 0 0 0 0 0 0 0 0 0 0 0 0 1 2 2 2 0 0 0 0 0 0 0 0 0 0 0 0 0 0 0 2 1 1 2 1 2 1 2 1 1 0 0 0 0 0 0 0 0 0 0 0 0 0 0 0 0 0 0 0 0 0 0 0 0 0 0 0 0 0 0 0 0 0 0 0 0 0 0 0 0 0 1 2 1 0 0 0 0 0 0 0 0 0 0 0 0 0 0 0 0 0 0 0 0 2 3 3 1 1 0 0 0 0 0 0 0 3 4 2 4 2 2 2 2 4 4 2 2 1 3 5 5 3 3 4 5 4 4 4 2 1 0 0 0 0 0 0 0 0 0 0 0 1 1 1 2 2 1 2 1 0 0 1 1 1 0 0 0 0 0 2 3 2 2 1 1 2 2 2 2 2 4 6 6 5 5 5 4 5 4 3 2 4 5 6 4 5 3 4 4 3 3 3 3 5 5 4 3 2 2 2 2 3 2 0 0 0 0 0 0 0 0 0 0 0 0 0 0 0 0 0 0 0 0 0 0 0 0 0 0 0 0 0 0 0 0 0 0 0 0 0 0 0 0 2 3 2 0 0 0 1 0 0 0 0 0 0 0 0 0 0 0 0 0 0 0 0 1 1 2 2 3 0 1 0 0 0 0 0 0 0 0 0 0 0 0 0 1 1 1 1 0 2 2 0 0 0 1 1 1 0 0 0 0 0 0 0 0 0 0 0 0 0 0 0 0 0 0 0 0 1 2 0 0 0 0 0 1 0 1 1 0 0 1 0 0 1 1 2 2 3 3 3 3 3 5 4 3 3 3 4 5 5 4 4 4 3 4 4 2 2 2 3 2 3 4 5 5 4 4 5 2 3 2 2 2 2 0 0 0 0 0 0 0 0 0 1 2 1 2 2 2 3 2 2 1 2 0 1 1 1 0 0 0 1 1 0 0 0 0 1 3 3 4 4 3 4 4 3 4 3 1 2 2 4 2 1 0 0 0 1 0 0 0 0 1 
2 3 2 0 0 0 0 0 0 0 0 0 0 0 0 0 0 0 0 0 0 0 0 0 0 0 0 0 0 0 0 0 0 0 1 0 0 0 0 0 0 0 0 0 0 0 0 0 0 0 0 0 0 0 0 0 2 0 1 2 0 0 1 0 0 0 1 0 0 0 0 0 0 0 0 0 1 1 1 2 3 2 3 3 5 5 2 2 0 1 0 0 0 0 1 2 2 0 1 1 2 2 2 4 2 1 1 1 2 0 0 0 0 0 0 0 0 0 0 0 0 0 0 0 1 1 1 1 0 2 2 3 3 3 2 2 1 1 1 0 2 3 3 4 5 6 5 6 7 6 6 4 6 6 5 4 6 5 6 6 6 6 6 4 4 3 1 1 1 2 2 1 0 0 2 2 1 3 1 0 1 0 0 0 0 0 0 0 0 0 0 0 0 0 0 0 0 0 0 0 0 0 0 0 0 1 1 1 2 2 0 0 0 0 0 0 0 0 0 0 0 0 0 0 2 2 1 0 1 1 1 2 1 1 0 0 0 0 0 0 0 0 0 0 0 0 0 0 1 1 1 0 0 0 0 0 0 0 0 0 0 0 0 0 0 0 0 0 0 0 0 0 0 0 0 0 0 0 0 0 0 0 0 0 0 0 0 0 0 0 0 0 0 0 0 0 0 0 1 2 2 2 1 1 0 0 0 1 1 0 2 1 3 2 3 4 4 4 3 4 3 2 2 3 4 6 5 5 5 6 4 3 2 3 2 0 0 0 0 0 0 0 0 0 0 0 0 2 2 3 1 1 2 1 1 2 2 3 1 1 0 0 0 0 1 1 2 1 2 3 3 1 3 2 2 5 5 7 6 6 5 6 6 6 4 3 3 3 4 4 3 3 4 3 3 3 3 3 4 3 1 1 3 2 2 0 1 0 0 0 0 0 0 0 0 0 0 0 0 0 0 0 0 0 0 1 0 0 0 0 0 0 0 0 0 0 0 0 0 0 0 0 0 0 0 0 0 0 0 1 0 0 1 1 0 1 0 0 0 0 0 0 0 0 0 0 0 0 0 0 0 0 1 1 2 1 0 1 0 1 1 0 0 0 0 0 0 0 0 0 0 0 1 0 0 1 3 2 1 0 1 0 0 0 0 0 0 0 0 0 0 0 0 0 0 0 0 0 0 0 0 0 0 0 0 0 0 0 0 0 0 0 0 0 0 0 0 0 0 0 0 1 4 4 3 4 4 3 4 3 3 3 5 5 6 7 6 5 4 4 4 4 3 3 3 4 3 3 5 5 5 6 5 5 4 4 2 3 2 3 1 0 0 0 0 0 0 0 0 0 0 1 1 2 3 3 3 2 2 3 2 1 2 0 0 0 0 0 1 1 0 0 0 0 3 2 2 3 3 3 4 4 3 3 2 0 1 0 2 1 0 1 0 0 0 0 0 0 0 0 
2 1 1 0 0 0 0 0 0 0 0 0 0 0 0 0 0 0 0 0 0 0 0 0 0 0 0 0 0 0 0 0 0 0 0 0 0 0 0 0 0 0 0 0 0 0 0 0 0 0 0 0 1 0 0 1 2 2 1 0 0 0 0 0 0 0 0 0 0 0 0 1 0 0 1 2 1 3 2 2 4 4 5 6 4 3 3 1 2 1 1 0 0 0 0 2 1 2 1 1 2 4 3 2 3 2 2 1 0 0 0 0 0 0 0 0 0 0 0 0 0 0 0 1 2 3 1 2 0 1 1 2 3 3 3 1 3 2 2 0 1 2 2 3 4 5 7 8 6 6 6 7 6 5 4 6 4 5 4 4 6 5 6 6 4 3 3 1 1 2 2 1 0 0 2 1 1 1 1 1 0 0 0 1 0 0 0 0 0 0 0 0 0 0 0 0 0 0 0 0 0 0 0 0 0 1 2 2 1 1 1 0 0 0 0 0 0 0 0 0 0 0 0 0 0 0 0 1 0 1 0 1 0 0 0 0 0 0 0 0 0 0 0 0 0 0 0 0 0 1 0 0 0 0 0 0 0 0 0 0 0 0 0 0 0 0 0 0 0 0 0 0 0 0 0 0 0 1 0 1 0 0 0 0 0 0 0 0 0 0 0 0 0 0 0 0 0 0 0 1 2 2 2 0 0 0 0 1 1 1 3 1 2 3 3 4 4 4 3 5 4 4 2 3 4 3 5 5 5 4 5 4 3 3 1 1 2 0 1 1 0 0 0 0 0 2 1 2 1 0 2 2 2 0 0 1 0 1 1 0 0 0 0 0 0 0 1 2 3 1 2 2 3 3 4 4 5 6 6 8 6 6 6 5 4 3 3 3 3 3 2 5 4 4 3 2 2 3 4 4 3 3 1 2 1 1 0 0 0 0 0 0 0 0 0 0 0 0 0 0 0 0 0 0 0 0 0 1 0 0 0 0 0 0 0 0 0 0 0 0 0 0 0 0 0 0 0 0 0 0 0 0 0 0 0 0 0 0 0 0 0 0 0 0 0 0 0 0 0 0 0 0 0 1 1 0 2 0 2 2 0 0 0 1 2 1 0 0 0 0 0 1 1 2 2 1 1 2 3 1 1 1 0 0 0 0 0 0 1 0 0 0 0 0 0 0 0 0 0 0 0 0 0 0 0 0 0 0 1 0 0 0 1 0 0 1 0 0 1 0 0 2 3 3 4 4 5 3 4 4 5 4 4 4 4 5 6 7 6 4 5 3 3 2 4 4 3 4 5 5 5 5 6 6 5 4 3 2 1 3 3 1 1 0 0 0 0 0 0 0 1 1 2 2 2 3 1 2 2 1 1 0 0 0 0 0 0 0 0 0 1 1 1 1 0 1 2 2 4 2 3 3 2 2 2 1 1 1 1 1 3 2 0 1 0 0 0 0 0 0 
1 0 1 1 0 0 0 0 0 0 0 0 0 0 0 0 0 0 0 0 0 0 0 0 0 0 0 0 0 0 0 0 0 0 0 0 0 0 0 0 0 0 0 0 0 0 0 0 0 0 0 0 1 1 0 0 1 0 2 1 0 1 0 0 1 0 0 0 0 1 1 0 0 1 1 2 2 3 5 4 3 6 6 6 6 3 4 4 3 0 0 1 1 0 0 1 1 1 0 2 4 4 3 2 3 3 2 2 0 0 0 0 0 0 0 0 0 0 0 0 0 0 1 2 0 1 1 1 0 1 0 1 1 3 2 1 2 2 1 2 2 1 1 1 6 5 7 6 6 5 4 6 5 5 5 4 3 5 4 5 3 5 5 4 4 2 1 2 3 4 3 1 1 0 1 4 2 3 1 0 0 0 1 0 0 0 0 0 0 0 0 0 0 0 0 0 0 0 1 0 0 0 0 0 0 2 3 3 0 2 0 0 0 0 0 0 0 0 0 0 0 0 0 0 0 1 0 1 0 0 0 0 0 0 0 0 0 0 0 0 0 0 0 0 0 0 0 0 0 0 1 1 0 0 0 0 0 0 1 0 0 1 0 0 0 0 0 0 0 0 0 0 0 0 0 0 1 0 1 0 0 0 0 0 0 0 0 0 0 0 0 0 0 0 0 0 0 1 2 3 3 3 2 0 0 1 1 1 1 2 1 2 3 3 3 4 3 4 5 2 3 2 2 2 3 4 4 5 7 5 5 4 2 3 2 1 1 1 1 0 0 0 0 0 0 1 2 2 1 2 2 2 2 2 0 0 0 0 1 0 0 0 0 1 0 0 0 2 3 4 3 2 2 4 4 6 5 7 6 5 6 5 5 4 3 3 2 2 2 2 3 5 4 3 2 3 3 2 3 4 3 3 3 2 1 2 1 0 0 0 0 1 0 0 0 2 0 0 0 0 0 0 0 0 0 0 1 0 0 0 0 0 0 0 0 0 0 0 0 0 0 0 0 0 0 0 0 0 0 0 0 0 0 0 0 0 0 0 0 0 0 0 0 0 0 0 0 0 0 0 0 0 0 0 0 1 0 1 2 1 0 0 2 1 1 2 0 0 1 0 1 1 1 3 3 2 3 1 2 1 2 0 0 0 0 0 0 1 0 0 0 0 0 0 0 0 0 0 0 0 1 1 0 1 0 0 0 0 0 0 0 0 0 0 0 0 0 0 1 1 1 4 4 3 3 4 5 5 5 4 4 3 3 2 5 4 6 6 6 7 5 4 3 2 3 3 3 3 4 5 5 6 5 6 6 4 3 2 1 3 4 2 2 2 0 0 0 0 0 0 0 1 2 2 2 4 1 0 0 1 1 0 0 0 0 0 0 0 0 1 1 1 1 0 0 1 1 2 2 2 3 3 3 2 0 0 0 0 1 1 1 2 1 1 0 0 0 0 0 0 
1 1 0 0 1 0 0 0 0 0 0 0 0 0 0 0 0 0 0 0 0 0 0 0 0 0 0 0 0 0 0 0 0 0 0 0 0 0 0 0 0 0 0 0 0 0 0 0 0 0 0 1 1 0 1 0 0 1 0 0 1 0 0 0 0 0 0 0 0 0 2 2 1 1 1 4 4 4 4 4 4 4 4 6 6 4 3 3 2 0 1 1 1 1 1 0 0 1 1 2 2 4 3 3 2 2 1 0 0 1 0 0 0 0 0 0 0 0 0 0 0 0 0 1 2 4 1 2 1 0 0 1 1 2 1 1 0 3 3 2 0 2 2 4 5 6 6 6 5 5 5 4 4 3 5 5 4 5 3 5 3 4 4 4 4 2 2 1 3 4 4 2 2 2 0 1 1 2 0 0 0 2 2 0 0 0 0 0 0 0 0 0 0 0 0 0 0 0 0 0 0 0 0 0 1 1 1 1 1 0 0 0 0 0 0 0 0 0 0 0 0 0 0 0 0 0 0 0 0 0 1 0 0 0 0 0 0 0 0 0 0 0 0 1 2 1 0 0 1 1 1 1 1 0 2 0 1 0 0 0 0 0 0 0 0 0 0 0 1 0 0 0 0 0 0 0 0 1 0 1 0 0 0 0 0 0 0 0 0 0 0 0 0 0 0 0 0 1 2 3 3 3 3 3 2 3 1 1 2 3 3 3 3 4 4 4 3 3 2 3 1 3 3 2 4 5 4 4 6 5 4 5 3 2 3 2 1 1 0 1 1 0 0 0 0 0 1 2 2 2 1 0 1 2 0 1 1 0 0 0 0 0 0 2 0 0 1 1 3 3 3 4 4 5 5 5 5 5 5 5 4 4 3 2 2 1 2 2 1 2 3 4 3 2 1 3 1 2 3 4 4 3 1 1 0 1 0 0 0 0 0 0 0 0 0 0 0 0 0 0 0 0 0 0 0 1 0 0 0 0 0 0 0 0 0 0 0 0 0 0 0 0 0 0 0 0 0 0 0 0 0 0 0 0 0 0 0 0 0 0 0 0 0 0 0 0 0 0 0 0 0 1 3 1 1 3 1 1 1 0 0 1 1 0 1 1 0 0 1 1 0 0 1 3 3 4 2 1 1 1 1 1 0 0 0 1 0 0 0 0 0 0 0 0 0 0 0 0 0 0 1 0 0 0 0 0 0 0 0 0 0 0 0 1 0 0 0 0 0 1 2 5 5 5 5 6 5 5 4 3 3 2 2 6 5 4 5 6 5 3 4 4 1 2 2 3 3 4 4 5 5 6 4 6 5 3 2 2 4 3 2 1 1 0 0 0 0 0 0 0 0 1 2 3 2 2 0 1 1 1 1 1 0 0 0 0 0 0 0 0 0 0 0 0 0 0 2 1 3 2 2 2 1 1 0 0 0 1 2 1 2 0 0 0 0 0 0 0 0 1 
1 2 1 2 0 0 0 0 0 0 0 1 0 0 0 0 0 0 0 0 0 0 0 0 0 0 0 0 0 0 0 0 0 0 0 0 0 0 0 0 0 0 0 0 0 0 0 0 0 0 0 0 0 0 0 0 0 0 0 0 0 0 0 0 0 0 0 0 0 0 1 2 2 2 3 4 4 2 4 5 4 5 4 4 5 5 4 4 3 0 0 0 1 2 2 0 0 2 2 3 2 4 3 3 2 2 0 1 0 0 0 0 0 0 0 0 0 0 0 0 1 2 3 1 2 3 2 2 2 2 3 2 2 3 1 3 2 3 2 2 3 3 2 3 5 6 5 5 6 6 5 5 5 3 3 3 4 5 4 5 3 3 4 4 2 3 3 3 3 2 1 0 1 2 1 1 1 3 3 2 2 2 1 0 0 0 0 0 0 0 0 0 0 0 0 0 0 0 1 0 0 0 0 1 0 0 0 0 0 0 0 0 0 0 0 0 0 0 0 0 0 0 0 0 0 0 0 0 0 0 0 0 0 0 0 0 0 0 0 0 0 0 0 0 2 1 2 1 1 0 2 2 1 0 0 0 0 0 0 0 0 0 0 0 0 0 0 0 0 0 0 0 0 0 0 0 0 0 0 0 0 0 0 0 0 0 0 0 0 0 0 0 0 0 0 0 0 0 2 1 2 2 5 4 4 2 3 3 3 4 2 3 4 3 3 2 2 3 3 2 2 2 4 4 6 4 6 5 6 6 4 3 4 3 3 2 3 3 3 2 1 0 0 0 0 1 2 1 0 2 1 0 1 2 2 1 1 0 2 0 0 0 0 1 0 0 1 1 2 2 3 3 3 4 4 6 5 6 4 3 5 2 1 1 1 0 1 1 0 0 2 3 2 3 3 2 1 2 2 2 3 1 1 0 1 0 0 0 0 0 0 0 0 1 1 0 0 0 0 0 0 0 0 0 0 0 0 0 0 0 0 0 0 0 0 0 0 0 0 0 0 0 0 0 0 0 0 0 0 0 0 0 0 0 0 0 0 0 0 0 0 0 0 0 0 0 0 0 0 0 0 0 1 1 2 3 2 1 2 1 3 2 1 1 1 1 2 1 1 1 1 1 2 4 3 2 3 3 2 2 1 1 0 0 0 1 1 1 1 0 0 0 0 0 0 0 0 0 0 0 2 0 0 0 0 0 0 0 2 0 1 0 0 1 0 0 0 0 0 1 2 3 5 5 5 6 6 4 3 4 4 3 2 4 4 5 5 5 4 2 3 3 4 3 3 5 4 4 4 4 3 2 4 4 3 2 2 2 4 2 1 0 1 1 0 0 0 0 0 1 2 2 3 3 2 2 1 0 0 1 1 1 2 1 1 0 1 0 0 0 1 0 0 0 0 0 2 2 3 0 1 0 2 0 0 0 0 0 0 0 1 0 0 0 0 0 0 0 0 0 
0 1 1 1 0 0 0 0 0 0 1 1 0 0 0 0 0 0 0 0 0 0 0 0 0 0 0 0 1 0 0 0 0 0 0 0 0 0 0 0 0 0 0 0 0 0 0 0 0 0 0 0 0 0 0 0 0 0 0 0 0 0 0 0 0 0 0 0 1 2 3 1 1 2 3 4 5 4 4 5 5 4 4 4 7 4 4 4 2 1 0 2 2 3 1 2 3 3 4 4 2 3 4 3 3 2 0 0 0 0 0 0 0 0 0 0 0 0 1 0 1 1 2 2 3 2 2 3 3 3 2 2 1 3 2 2 2 3 1 2 0 1 3 3 5 7 4 4 4 4 4 4 3 4 3 5 5 5 5 3 2 4 4 3 2 3 2 4 2 1 0 1 1 0 1 1 1 2 2 2 1 2 1 0 1 0 0 0 0 0 0 0 0 0 0 0 1 0 0 1 1 0 0 0 0 0 0 0 0 0 0 0 0 0 0 0 0 0 0 0 0 0 0 0 0 0 0 0 0 0 0 0 0 0 0 0 0 0 0 0 0 0 0 0 1 2 0 2 3 3 2 2 1 0 1 0 0 0 0 0 0 0 0 0 0 0 0 0 1 0 0 0 0 0 0 0 0 0 0 0 0 0 0 0 0 0 0 0 0 0 0 1 0 0 0 0 0 0 3 3 3 4 2 2 2 3 2 3 4 4 4 3 4 4 4 1 2 4 4 4 3 2 2 3 5 7 6 7 6 5 6 5 3 2 1 4 4 3 2 1 0 0 0 0 0 2 0 1 2 2 1 3 2 0 0 0 0 1 1 1 0 0 0 0 0 0 1 1 2 4 4 3 4 4 6 4 4 4 3 2 3 1 0 0 1 0 1 1 2 0 0 0 1 1 2 1 2 2 3 4 2 3 1 3 0 1 1 0 0 0 1 0 0 1 0 0 0 0 0 0 0 0 0 0 0 0 0 0 0 0 0 0 0 0 0 0 0 0 0 0 0 0 0 0 0 0 0 0 0 0 0 0 0 0 0 0 0 0 0 0 0 0 0 0 0 0 0 0 1 0 0 0 1 2 3 2 3 2 3 2 2 1 1 2 1 2 2 2 2 1 2 2 3 3 3 4 3 3 2 2 2 0 1 0 0 1 0 0 0 0 0 0 0 0 0 1 0 0 0 0 0 1 0 0 0 0 0 0 0 0 1 1 0 0 0 2 0 0 0 0 3 4 7 5 5 5 5 3 4 2 3 3 5 5 3 4 4 4 4 2 3 3 4 4 3 2 2 4 5 3 2 2 2 3 3 3 3 3 3 3 2 1 1 2 0 0 0 0 1 2 2 3 3 2 1 2 1 1 0 0 0 0 3 1 0 0 0 0 0 0 0 0 0 0 0 1 1 0 0 1 0 0 0 1 0 0 0 0 0 0 0 0 0 0 0 0 0 0 0 0 
0 0 0 0 0 0 0 0 0 0 2 1 0 0 0 0 0 0 0 0 0 0 0 0 0 0 0 0 0 0 0 0 1 0 0 0 0 0 0 0 0 0 0 0 0 0 0 0 0 0 0 0 0 0 0 0 0 0 0 0 0 0 0 1 1 0 2 0 0 0 2 3 2 2 2 4 5 4 4 5 6 5 5 7 5 4 3 3 2 2 1 2 3 2 3 3 3 4 4 3 3 2 3 3 3 1 1 1 1 0 0 0 0 0 0 0 0 1 0 0 0 0 1 2 2 2 2 2 3 3 1 1 2 3 2 1 1 2 1 2 0 0 2 3 4 6 5 5 4 5 5 3 3 3 3 3 5 6 4 2 1 4 3 3 3 2 2 3 3 2 0 0 0 0 0 2 1 1 2 3 0 2 2 1 1 0 1 0 0 0 0 0 0 0 0 1 0 0 0 0 0 1 0 0 0 0 0 0 0 0 0 0 0 0 0 0 0 0 0 0 0 0 0 0 0 0 0 0 0 0 0 0 0 0 0 0 0 0 0 0 0 0 0 0 0 1 1 2 3 1 3 2 2 1 0 0 0 1 1 0 0 0 0 0 0 0 0 0 0 1 1 0 0 0 0 1 0 0 0 0 0 0 0 0 0 0 0 0 0 0 0 0 0 0 0 1 1 2 2 2 4 3 3 3 3 2 3 4 4 3 5 5 3 5 4 3 3 5 4 4 5 4 4 4 5 6 6 7 6 4 3 3 1 3 2 4 3 2 0 0 0 0 0 0 1 1 2 1 3 3 3 3 3 1 0 0 0 0 0 1 0 0 0 0 0 0 0 1 2 3 5 4 5 4 5 4 4 3 3 0 1 2 0 0 1 1 0 1 2 2 0 0 1 2 3 2 2 2 3 3 3 3 2 2 1 1 1 0 0 1 1 1 0 0 0 0 0 0 0 0 0 0 0 0 0 1 0 0 0 0 0 0 0 0 0 0 0 0 0 0 0 0 0 0 0 0 0 0 0 0 0 0 0 0 0 0 0 0 0 0 0 0 0 0 0 0 0 0 0 0 0 0 0 2 2 4 3 4 2 1 2 1 0 1 3 3 2 2 3 2 1 4 3 3 4 3 2 3 3 3 3 2 2 2 1 0 2 1 1 0 0 0 0 0 0 0 0 0 0 0 0 2 1 0 0 0 1 1 0 1 1 1 0 0 0 0 0 1 0 1 3 3 4 5 5 5 5 2 3 5 4 4 5 3 5 4 3 3 5 5 3 4 5 2 3 3 3 3 5 4 3 2 2 2 1 3 4 2 4 3 3 2 1 1 0 0 0 0 0 0 2 3 3 1 1 1 0 0 1 1 1 2 0 2 0 0 0 0 0 0 0 0 0 0 0 0 0 3 0 0 1 0 0 0 0 0 0 0 0 0 0 0 0 0 0 0 0 0 0 0 
0 0 0 0 0 1 0 0 0 0 0 0 0 0 0 0 0 0 0 0 0 0 0 0 0 0 0 0 1 0 0 0 0 0 0 0 0 0 0 0 0 0 0 0 0 0 0 0 0 0 0 0 0 0 0 0 2 0 0 0 0 0 0 2 2 1 0 1 2 3 2 3 4 3 4 4 4 5 4 6 6 6 7 7 5 4 3 4 3 2 2 2 4 3 2 3 4 4 4 4 3 2 3 2 2 2 1 3 2 2 0 1 0 0 0 0 0 0 0 0 0 0 1 0 1 1 1 2 1 3 1 2 2 3 2 1 0 0 2 1 0 1 1 3 3 5 4 5 5 4 5 3 2 3 3 4 3 3 2 2 2 1 1 2 2 1 2 1 3 2 1 1 0 0 0 0 2 1 0 2 2 3 3 2 3 1 0 0 0 0 0 0 0 0 0 0 0 0 0 0 1 0 0 0 0 0 0 0 0 0 0 0 0 0 0 0 0 0 0 0 0 0 0 0 0 0 0 0 0 0 0 0 0 0 0 0 0 0 0 0 0 0 0 0 0 0 0 2 2 3 3 3 3 1 1 0 1 0 0 0 1 1 0 0 0 0 0 1 1 1 1 0 0 0 0 0 0 0 0 0 0 0 0 0 0 0 0 0 0 0 0 0 0 0 1 0 1 2 1 1 3 4 3 3 2 2 3 2 3 4 4 6 6 5 6 5 5 5 4 5 5 5 5 5 5 4 5 5 5 6 4 3 3 1 1 1 2 1 0 0 0 0 0 0 1 1 1 1 2 2 2 3 2 1 1 1 0 0 1 2 0 0 0 0 0 0 0 2 1 2 1 2 3 3 3 3 2 1 1 1 0 0 0 0 0 1 0 1 0 0 0 0 3 2 2 2 2 1 2 1 2 2 3 1 0 1 0 0 1 1 1 0 0 0 0 0 0 0 0 0 0 0 0 0 0 0 0 0 0 0 0 0 0 0 0 0 0 0 0 0 0 0 0 0 0 0 0 0 0 0 0 0 0 0 0 0 0 0 0 0 0 0 0 0 0 0 0 0 0 0 0 0 0 0 1 3 3 3 3 3 2 1 1 3 1 2 2 3 3 2 3 4 4 3 4 4 3 3 3 4 3 3 1 2 2 0 0 0 0 0 0 0 0 0 0 0 0 0 0 1 0 2 0 1 1 1 0 0 0 1 1 1 1 0 1 0 1 0 2 2 2 3 3 4 5 4 4 3 3 4 3 4 4 5 5 6 4 3 4 3 2 3 4 4 4 2 3 4 4 5 3 2 2 2 2 4 4 3 4 3 1 1 3 0 0 0 0 0 0 0 2 2 1 1 1 2 1 1 1 0 1 2 1 0 0 0 0 0 0 0 0 0 0 0 1 1 0 1 1 1 0 0 0 0 0 1 0 0 0 0 0 0 0 0 0 0 0 0 0 0 
0 0 0 0 0 1 0 0 1 1 0 0 1 0 0 0 0 0 0 2 2 0 0 0 0 0 0 0 0 1 0 0 0 0 0 0 0 0 0 0 0 0 0 0 0 0 0 0 0 0 0 0 0 0 0 0 1 2 0 0 0 1 0 1 0 0 0 0 1 2 2 2 3 3 4 4 4 5 4 5 6 5 6 4 4 4 4 6 5 3 2 3 3 4 3 4 4 3 3 4 4 2 3 3 3 3 2 1 2 2 2 2 2 1 0 0 0 0 0 0 1 0 0 1 1 0 1 1 2 2 3 2 1 2 0 0 0 0 0 0 0 0 2 4 4 3 2 3 3 4 4 4 2 3 0 1 3 3 3 3 1 1 0 0 0 1 1 1 0 2 1 1 0 0 0 0 0 1 0 1 1 3 3 1 2 2 1 0 0 0 0 0 0 0 0 0 0 0 0 0 0 0 0 0 0 0 0 0 0 0 0 0 0 0 0 0 0 0 0 0 0 0 0 0 0 0 0 0 0 0 0 0 0 0 0 0 0 0 0 0 0 0 0 0 0 0 0 1 2 2 3 3 2 1 1 1 2 1 1 2 2 1 1 0 0 0 2 2 1 1 2 0 0 0 0 0 0 1 0 0 0 0 0 0 0 0 0 0 0 0 0 0 0 1 0 0 0 2 3 2 2 2 3 2 3 5 2 3 4 4 5 6 5 4 5 5 4 4 4 4 5 5 5 6 5 6 6 6 6 5 3 3 2 1 0 1 0 0 0 0 0 0 0 1 1 1 2 4 2 4 3 2 2 0 0 0 0 0 0 0 2 1 0 0 0 0 0 0 1 0 2 0 1 2 2 2 1 1 0 0 0 0 0 0 0 0 1 1 1 0 1 1 3 2 0 1 2 1 2 1 1 1 1 1 0 0 0 0 2 1 0 0 0 0 0 0 0 0 0 0 0 0 0 0 1 0 1 0 0 0 0 0 0 0 0 0 0 0 0 0 0 0 0 0 0 0 0 0 0 0 0 0 0 0 0 0 0 0 0 0 0 0 0 0 0 0 0 0 0 0 0 0 0 0 2 3 4 5 5 4 3 2 2 2 2 2 2 3 2 3 3 2 4 4 5 4 3 2 3 3 2 2 2 3 2 0 0 0 0 0 0 0 0 0 1 0 1 0 1 0 3 3 3 1 1 1 1 2 2 0 1 1 1 1 1 0 2 2 0 1 1 2 2 3 5 5 3 2 2 2 4 4 5 5 5 3 4 5 3 2 2 2 3 4 3 4 6 5 6 4 1 2 4 2 2 3 5 4 3 3 2 1 0 0 0 0 0 0 0 2 2 3 4 2 3 1 0 1 3 2 1 0 0 1 0 0 0 0 0 0 0 0 0 0 0 0 2 0 0 0 0 0 0 0 0 0 0 0 0 0 0 0 0 0 0 0 0 0 0 0 
0 0 0 0 1 1 0 1 1 0 0 0 1 1 0 1 0 0 0 0 1 1 0 0 0 0 0 0 0 0 0 0 0 0 0 0 0 0 0 0 0 0 0 0 0 0 0 0 0 0 0 0 0 0 0 0 0 1 1 0 0 0 0 1 1 1 1 1 0 2 2 4 3 3 3 4 4 4 6 5 6 5 6 5 5 6 4 5 5 4 5 2 3 4 2 3 4 4 5 5 4 2 3 4 3 2 2 1 1 1 0 2 2 2 2 0 0 0 0 1 0 0 0 0 0 0 1 1 2 3 3 2 3 1 0 1 1 1 0 1 0 1 1 2 3 3 3 3 3 1 2 2 2 1 0 1 3 2 2 2 1 1 0 0 0 0 0 0 0 0 0 0 0 1 0 0 0 0 2 1 0 1 3 2 0 2 1 1 0 0 0 0 0 0 0 0 0 0 0 0 0 0 0 0 0 0 0 0 0 0 0 0 0 0 0 0 0 0 0 0 0 0 0 0 0 0 0 0 0 0 0 0 0 0 0 0 0 0 0 0 0 0 0 0 0 0 0 0 2 3 4 3 3 1 3 2 2 1 2 2 3 1 0 0 0 0 0 0 0 0 1 1 0 0 0 1 1 0 0 0 0 0 0 0 0 0 0 1 0 0 0 0 0 1 1 1 1 3 4 2 2 3 3 3 2 3 3 2 3 3 4 4 5 4 4 3 4 4 5 5 6 6 6 5 5 6 6 5 7 4 2 1 0 1 0 0 0 0 0 0 1 0 2 2 1 2 3 4 4 4 4 4 3 1 1 0 1 0 1 0 0 0 0 0 0 0 0 0 0 0 0 1 1 2 3 0 1 0 0 0 0 0 0 0 0 0 0 0 0 0 0 0 2 1 2 2 1 1 0 0 0 0 0 1 0 0 0 0 1 1 1 0 0 0 0 0 0 0 0 0 0 0 0 0 0 1 1 0 2 0 0 0 0 0 0 0 0 0 0 0 0 0 0 0 0 0 0 0 0 0 0 0 0 0 0 0 0 0 0 0 0 0 0 0 0 0 0 0 0 0 0 0 0 2 3 3 5 4 5 4 3 3 3 2 2 1 0 0 0 2 3 4 3 5 6 4 6 4 4 4 1 1 3 2 1 1 1 0 0 0 0 1 1 0 1 0 0 0 1 2 0 4 2 1 1 1 3 2 0 0 0 0 1 1 1 1 0 1 0 1 1 2 2 4 4 3 2 2 2 1 3 4 4 5 4 3 3 2 2 2 1 3 2 2 2 3 4 5 5 3 3 2 4 2 2 3 3 5 4 3 1 0 0 1 1 0 0 0 0 1 3 4 4 4 2 1 1 0 1 2 1 0 1 0 0 0 0 0 0 0 0 0 0 0 0 0 0 0 0 0 0 0 0 1 0 0 0 0 0 0 0 0 0 0 0 0 0 0 0 0 
0 1 0 1 1 2 2 0 0 0 1 1 1 1 0 2 1 1 0 0 0 0 1 0 0 0 0 0 0 0 0 0 0 0 0 0 0 0 0 0 0 0 0 0 0 0 0 0 0 0 0 0 0 0 0 0 1 0 0 0 0 0 0 0 1 1 1 3 3 4 4 4 4 2 2 2 3 4 6 6 7 7 5 5 5 5 5 5 4 4 3 3 3 2 4 3 3 3 3 3 3 4 3 4 4 2 2 2 0 1 1 2 2 3 2 0 1 0 2 2 0 1 1 0 0 0 1 0 1 2 3 1 1 1 1 0 1 0 0 1 0 0 1 3 2 2 2 1 2 2 1 0 0 1 1 1 3 2 2 2 1 1 0 0 0 0 1 1 0 2 1 2 2 1 2 2 2 3 1 3 3 2 1 1 2 1 2 0 0 0 0 0 0 0 0 0 0 0 0 0 0 0 0 0 0 0 0 0 0 0 0 0 0 0 0 0 0 0 0 0 0 0 0 0 0 0 0 0 0 0 0 0 0 0 0 0 0 0 0 0 0 0 0 0 0 1 1 1 4 4 5 4 3 2 1 2 1 0 3 3 2 2 1 0 0 0 0 0 0 0 1 2 1 0 0 1 0 0 1 0 0 0 0 0 0 0 1 0 0 0 1 0 1 0 1 2 3 2 4 3 4 5 4 1 2 3 3 2 3 5 5 4 3 2 2 2 2 3 4 5 5 4 5 5 4 4 5 3 4 3 2 3 2 2 3 1 1 2 1 1 1 2 2 1 2 2 4 4 3 4 4 4 1 2 1 1 1 1 1 0 0 0 0 0 0 0 0 0 0 0 0 0 2 2 1 1 0 0 0 0 0 0 0 0 0 0 1 0 0 0 0 0 1 0 1 0 0 0 0 1 0 0 0 0 0 0 0 0 0 2 0 0 0 0 0 1 0 0 0 0 0 0 0 0 1 1 0 1 0 0 0 0 0 0 0 0 0 0 0 0 0 0 0 0 0 0 0 0 0 0 0 0 0 0 0 0 0 0 0 0 0 0 0 0 0 0 0 0 0 0 1 2 0 1 3 4 4 4 5 3 1 3 2 2 2 2 1 1 0 0 2 2 4 6 6 5 4 4 3 3 3 3 3 4 2 2 1 1 1 0 1 1 1 0 0 2 1 2 2 1 1 1 0 2 2 3 3 2 1 0 0 0 0 0 2 2 3 1 0 2 4 2 2 2 4 4 1 1 1 2 4 4 4 4 2 3 3 1 1 2 2 2 1 1 2 2 5 4 4 3 3 4 3 3 4 3 2 3 4 2 2 0 0 0 0 0 0 1 2 2 4 3 3 2 2 2 1 1 1 1 0 0 1 0 0 0 0 0 0 0 0 0 0 0 0 0 0 0 0 0 0 0 0 0 0 0 0 0 0 0 0 0 0 0 0 1 0 0 0 0 
1 1 0 2 1 2 2 1 0 0 1 1 2 0 0 0 0 0 0 0 0 0 0 0 0 0 0 0 0 0 0 0 0 0 0 0 0 0 0 0 0 0 0 0 0 0 0 0 0 0 0 0 0 0 0 0 1 0 0 0 0 0 0 2 2 2 2 4 3 4 3 2 3 3 2 3 3 4 6 7 7 6 7 6 5 4 4 6 3 4 3 2 3 2 4 3 1 2 3 3 5 4 3 3 3 3 2 3 1 3 2 3 3 2 0 0 0 0 2 2 0 0 0 1 0 0 1 2 3 2 1 1 0 0 0 1 0 0 0 0 0 0 0 0 0 0 1 1 0 0 1 1 1 0 0 0 0 1 1 1 0 1 0 0 0 0 1 2 2 1 2 1 2 1 3 2 3 3 1 4 5 3 2 0 1 1 2 0 0 0 0 0 0 0 0 0 0 0 0 0 0 0 0 0 0 0 0 0 0 0 0 0 0 0 0 0 0 0 0 0 0 0 0 0 0 0 0 0 0 0 0 0 0 0 0 0 0 1 0 0 0 0 0 0 0 0 2 1 3 4 4 4 3 2 2 1 1 2 2 2 1 1 1 0 0 0 0 0 1 0 0 0 0 0 0 0 0 0 1 0 0 0 0 0 0 0 0 1 1 0 1 2 2 2 2 2 4 5 3 5 5 3 3 1 1 2 4 3 4 4 3 5 3 2 1 1 1 2 2 3 3 4 3 3 4 5 5 5 4 3 2 3 4 2 3 3 2 1 1 1 2 1 2 3 3 3 4 3 2 2 3 2 1 0 0 1 0 1 0 1 1 0 1 0 0 0 0 0 0 0 0 0 0 0 0 0 0 1 0 0 0 0 0 0 0 0 0 0 0 0 0 0 0 1 0 0 0 0 0 0 0 0 0 0 0 0 0 0 0 1 1 1 0 1 2 1 0 1 3 2 1 0 0 0 0 0 0 0 0 0 0 0 0 0 0 0 0 0 0 0 0 0 0 0 0 0 0 0 0 0 0 0 0 0 0 0 0 0 0 0 0 0 0 0 0 0 0 0 0 0 1 1 2 2 4 4 3 4 4 2 0 1 1 1 1 2 2 1 1 1 1 2 2 3 3 5 4 3 4 4 5 6 5 4 2 5 2 1 2 1 1 1 1 2 1 1 2 1 1 2 2 2 2 4 4 2 2 2 1 0 0 0 0 0 2 3 2 2 2 2 3 3 3 3 3 3 3 2 1 4 4 3 4 1 4 3 2 1 0 1 0 1 1 0 0 1 2 2 3 5 3 3 4 3 3 3 3 2 3 3 2 1 1 0 0 0 0 0 1 0 2 2 2 3 3 3 0 1 2 0 0 0 0 0 0 0 0 0 0 0 0 0 0 0 0 0 0 0 0 0 0 0 0 0 0 0 0 0 0 0 0 0 0 0 0 1 0 0 0 0 
2 1 1 1 2 1 2 1 0 0 0 0 1 1 0 0 0 0 0 0 0 0 0 1 0 0 0 0 0 0 1 0 0 0 0 0 0 0 0 0 0 0 0 0 0 0 0 0 0 0 0 0 0 0 0 0 0 0 1 1 1 1 2 1 2 2 2 3 4 3 3 3 2 1 3 4 4 4 6 6 7 7 7 6 5 3 4 3 2 3 3 2 3 2 2 2 1 1 3 4 5 5 5 4 4 3 2 2 1 2 3 1 2 1 0 2 1 2 2 2 2 0 0 1 1 1 2 1 2 2 0 1 0 1 0 1 0 0 0 0 0 0 0 0 0 0 0 0 0 0 0 0 0 1 0 0 0 0 0 0 0 0 0 0 0 0 0 1 2 1 2 2 2 1 1 2 3 3 1 4 3 1 4 0 1 1 1 0 0 0 0 0 0 0 0 1 0 0 0 0 0 0 0 0 0 0 0 0 0 0 0 0 0 0 0 0 0 0 0 0 0 0 0 0 0 0 0 0 0 0 0 0 0 0 0 0 0 0 0 0 1 0 0 0 0 2 1 3 3 4 4 4 5 4 3 3 1 1 1 0 1 0 0 0 0 1 0 0 0 1 1 1 0 1 0 1 2 1 1 2 0 0 0 0 0 0 0 1 0 0 0 2 2 2 3 3 5 5 5 3 3 2 1 2 2 3 5 5 5 4 3 3 3 1 1 0 2 2 1 4 5 3 3 2 4 3 3 4 4 4 3 3 4 3 4 2 1 1 0 1 1 1 1 2 2 3 3 3 2 2 3 2 1 1 0 0 0 0 0 0 1 0 1 0 0 0 0 0 0 0 0 0 0 0 0 0 0 0 0 0 0 0 0 0 0 0 0 0 0 0 0 0 0 0 0 0 0 1 0 1 2 1 1 1 2 0 0 0 2 0 1 1 2 2 1 0 1 1 2 2 2 2 1 1 0 2 2 1 0 0 0 0 0 0 0 0 0 0 0 0 0 0 0 0 0 0 0 0 0 0 0 0 0 0 0 0 0 0 0 0 0 0 0 0 0 0 0 1 0 1 2 2 3 2 2 3 2 3 3 3 1 2 1 2 2 1 1 2 2 1 2 4 4 4 3 4 4 5 5 4 6 5 4 4 2 2 1 0 1 1 2 3 3 2 1 1 3 3 3 1 2 3 4 5 5 3 3 2 2 0 1 0 2 1 3 4 2 4 5 3 4 4 3 2 1 2 2 1 1 4 3 1 2 0 1 2 2 1 0 0 0 0 0 1 0 1 0 1 2 4 5 5 4 2 4 5 4 3 3 1 0 1 1 1 2 2 1 0 1 0 2 1 2 3 3 2 1 2 2 0 0 0 0 0 0 0 0 0 0 0 0 0 0 0 0 0 0 0 0 0 0 0 0 0 0 0 0 0 0 0 0 0 0 0 0 0 0 0 0 0 
2 2 1 1 2 1 1 0 0 0 0 1 1 1 0 0 0 0 0 0 0 0 1 1 2 1 0 1 0 0 0 0 0 0 0 0 0 0 0 0 0 0 0 0 0 0 0 0 0 0 0 0 1 0 0 0 0 0 1 0 1 1 2 2 1 2 0 2 3 3 3 2 1 2 0 2 4 4 6 7 7 7 6 4 4 5 5 3 2 2 1 2 3 3 1 1 2 3 3 4 5 6 4 4 4 4 2 2 2 1 0 0 1 2 1 2 1 2 2 2 0 0 1 1 2 2 2 2 2 1 1 0 0 1 0 0 0 0 0 0 0 0 0 0 0 0 0 0 0 0 0 0 0 0 0 0 0 0 0 0 0 1 0 0 0 0 0 0 2 0 2 3 3 1 1 2 1 2 2 3 4 2 2 3 2 2 0 0 0 0 0 0 0 1 1 0 0 0 0 0 0 0 0 0 0 0 0 0 0 0 0 0 0 0 0 0 0 0 0 0 0 0 0 0 0 0 0 0 0 0 0 0 0 0 0 0 0 0 0 0 0 0 1 3 2 2 2 2 2 2 1 2 3 3 5 4 3 1 1 1 0 0 0 0 0 0 1 0 1 3 1 2 1 1 0 0 2 2 3 2 1 0 0 0 0 0 0 0 0 0 1 3 2 2 3 4 4 5 5 4 2 0 1 2 1 3 3 3 4 5 1 3 3 3 1 1 2 2 2 3 4 4 4 4 5 4 3 2 3 3 4 3 3 4 2 2 2 1 0 0 0 1 1 0 1 2 2 3 3 4 2 2 2 0 1 0 0 0 0 1 0 0 1 0 0 0 0 1 0 0 0 0 0 0 0 0 0 0 0 0 0 0 0 0 0 0 0 0 0 0 0 0 0 0 0 0 0 1 1 2 1 3 2 1 2 0 0 0 1 0 0 1 1 2 2 2 1 0 2 1 1 0 1 3 2 2 1 1 0 0 0 0 0 0 0 0 0 0 0 0 0 0 0 0 0 0 0 0 0 0 0 0 0 0 0 0 0 0 0 0 0 0 0 0 0 0 1 0 2 0 2 2 2 1 1 1 4 2 1 0 1 2 2 3 3 2 2 1 3 2 3 4 4 3 3 4 4 4 6 5 5 5 6 5 3 1 1 0 1 1 1 1 2 2 2 2 3 5 3 3 3 3 2 4 3 4 2 2 1 1 1 1 1 2 3 3 2 2 3 2 3 2 2 1 2 1 1 1 2 3 2 2 2 2 0 1 1 0 0 0 0 0 1 0 2 3 0 0 2 3 4 4 4 3 4 3 4 3 2 2 0 0 0 1 1 1 3 2 3 1 2 1 1 0 2 3 2 2 0 0 0 0 0 0 0 0 0 0 0 0 0 0 0 0 0 0 0 0 0 0 0 0 0 0 0 0 0 0 0 0 0 0 0 0 0 0 0 0 0 0 
3 3 1 1 1 0 0 0 0 0 1 0 0 0 0 0 1 0 0 0 0 0 1 0 0 0 0 0 1 1 0 0 0 0 0 0 0 0 0 0 0 0 0 0 0 0 0 0 0 0 0 0 0 0 0 0 0 2 2 0 1 2 1 0 0 1 0 1 1 3 2 2 0 1 1 3 3 2 5 7 6 5 5 5 4 5 3 2 2 0 2 4 3 3 4 3 4 3 3 3 4 6 6 4 4 4 4 3 2 1 0 0 0 0 0 0 2 0 0 1 2 1 0 1 1 3 2 2 1 2 0 1 0 0 0 0 0 0 0 0 0 0 1 0 0 0 0 0 0 0 0 0 0 0 0 0 0 0 0 1 0 0 0 0 0 0 0 0 0 1 1 3 2 2 2 3 2 2 3 1 2 2 2 2 2 0 0 0 0 0 0 0 0 1 2 1 1 0 1 0 0 0 0 0 0 0 0 0 0 0 0 0 0 0 0 0 0 0 0 0 0 0 0 0 0 0 0 0 0 0 0 0 0 0 0 0 0 0 0 0 1 2 1 1 5 4 5 2 2 1 1 3 3 3 4 3 3 2 1 0 0 0 0 0 0 0 0 1 3 2 1 0 2 1 2 0 1 3 4 2 3 0 0 0 0 0 0 0 0 0 0 0 2 2 3 3 4 3 4 4 3 1 0 2 2 1 3 3 2 3 4 4 3 2 1 0 1 1 0 1 2 3 3 3 4 4 4 3 4 2 4 3 2 1 2 2 1 2 0 0 0 1 2 0 2 2 1 3 4 2 2 0 3 2 1 1 1 0 1 0 0 0 0 0 0 0 0 0 0 1 0 0 0 0 0 0 0 0 0 0 0 0 0 0 0 0 0 0 0 0 0 0 0 0 0 0 0 0 0 2 1 2 0 2 0 0 0 0 1 0 0 1 0 2 2 0 1 1 1 1 0 1 2 3 3 2 1 1 0 0 0 0 0 0 0 0 0 0 0 0 0 0 0 0 0 0 0 0 0 0 0 0 0 0 0 0 0 0 0 0 0 0 0 0 0 0 0 0 0 1 2 2 2 2 2 2 2 3 3 0 0 3 3 3 3 2 2 2 3 4 2 4 4 4 3 5 5 4 5 5 5 5 4 5 3 1 0 0 1 1 2 2 2 1 3 3 4 5 3 5 4 4 5 5 3 3 3 4 4 2 1 1 2 1 1 0 0 2 2 2 3 2 1 2 2 1 1 0 0 2 2 0 1 2 1 0 1 0 0 0 0 1 1 2 2 2 1 1 1 2 2 3 3 2 3 4 4 3 3 1 1 1 0 1 0 2 2 2 1 0 2 1 0 1 3 3 0 0 0 0 0 0 0 0 0 0 0 0 0 0 0 0 0 0 0 0 0 0 0 0 0 0 0 0 0 0 0 0 0 0 0 0 0 0 0 0 0 0 0 1 
2 4 0 0 0 0 0 0 0 0 1 1 0 0 1 2 0 0 0 0 0 0 0 0 0 0 1 0 1 0 0 0 0 1 0 0 0 0 0 0 0 0 0 0 0 0 0 0 0 0 0 0 0 0 0 0 0 0 1 0 0 2 1 1 0 0 0 0 1 2 1 0 0 1 2 2 3 4 5 5 4 3 5 4 3 4 2 0 2 1 2 3 4 3 4 3 5 3 2 4 3 6 6 5 6 6 5 5 3 1 0 0 0 0 0 1 1 1 1 2 3 4 2 2 2 1 2 3 2 1 1 0 0 0 0 0 0 0 0 0 0 0 0 0 0 0 0 0 0 0 0 0 0 0 0 0 0 1 0 0 0 0 1 0 0 0 0 0 2 2 3 3 1 2 3 3 1 2 1 3 2 2 1 2 2 1 0 1 0 0 0 2 1 1 0 0 0 1 1 0 0 0 0 0 0 0 0 0 0 0 0 0 0 0 0 0 0 0 0 0 0 0 0 0 0 0 0 0 0 1 1 0 0 0 0 0 0 0 0 0 0 1 3 3 5 4 1 2 2 2 2 1 2 2 3 3 2 2 1 1 0 0 0 0 0 0 0 2 3 3 2 1 2 2 1 2 2 2 2 2 1 0 0 0 0 0 0 0 0 0 0 3 2 3 1 2 2 3 2 2 3 1 0 1 2 2 2 1 2 4 4 3 3 3 0 0 0 0 0 1 2 1 4 2 3 3 3 4 3 4 2 2 3 2 1 1 0 0 1 0 1 2 2 2 3 3 3 4 3 5 3 2 2 3 2 1 1 1 1 1 0 0 0 0 0 0 0 0 0 0 0 0 0 0 0 0 0 0 0 0 0 0 0 0 0 0 0 0 0 0 0 0 0 0 0 0 0 0 0 1 1 2 1 1 0 0 0 0 0 0 0 0 0 0 0 2 1 2 1 1 1 3 2 4 2 2 0 1 0 0 0 0 0 0 0 0 0 0 0 0 0 0 0 0 0 0 0 0 0 0 0 0 0 0 0 0 0 0 0 0 0 0 0 0 0 0 0 0 0 1 3 3 1 2 3 2 2 3 1 0 1 1 2 2 3 1 2 3 3 3 2 3 5 4 5 5 3 5 4 5 3 5 3 4 4 2 1 2 2 3 3 2 3 2 2 5 6 5 4 4 4 4 5 4 4 4 3 4 5 4 2 1 0 0 1 0 0 0 0 1 1 2 2 2 0 1 2 0 0 0 0 1 1 0 0 1 1 0 2 0 0 0 1 2 2 1 3 2 2 2 2 2 3 2 3 4 3 2 2 1 2 1 1 0 0 1 4 0 1 2 2 1 1 2 1 1 1 0 0 0 0 0 0 0 0 0 0 0 0 0 0 0 0 0 0 0 0 0 0 0 0 0 0 0 0 0 0 0 0 0 0 0 0 0 0 0 0 0 0 1 
2 0 1 1 2 1 0 0 1 1 0 2 0 0 2 2 0 0 0 0 0 0 0 0 0 0 0 1 1 1 0 0 0 0 1 0 0 0 0 0 0 0 0 0 0 0 0 0 0 0 0 0 1 1 0 0 0 0 0 0 1 1 1 1 1 1 0 1 1 1 1 2 1 2 1 2 4 4 4 5 4 4 3 3 3 2 1 1 2 2 3 4 4 4 3 3 3 4 4 5 5 4 5 6 7 5 5 5 4 4 2 2 0 0 0 2 1 0 2 3 3 3 3 2 0 1 1 1 1 0 0 1 1 0 0 0 0 0 0 0 0 0 0 0 0 0 0 0 0 0 0 0 0 0 0 0 0 0 0 0 0 0 0 0 0 0 0 0 0 1 3 3 0 1 2 1 2 3 2 4 2 2 2 2 3 1 1 0 1 1 0 0 1 0 0 1 0 0 0 0 0 0 0 0 0 0 0 0 0 0 0 0 0 0 0 0 0 0 0 0 0 0 0 0 0 0 0 0 0 1 0 0 0 0 0 0 0 0 0 0 0 0 1 2 3 3 3 2 2 1 0 0 2 1 2 1 0 1 0 0 0 0 0 2 0 0 0 1 2 4 2 1 2 1 2 2 2 2 2 3 2 1 1 0 1 0 0 1 1 2 1 2 2 2 2 2 1 1 3 4 3 3 0 1 1 1 2 2 1 3 2 3 2 0 1 1 0 1 0 0 0 2 3 3 1 3 4 4 4 2 2 2 2 2 1 1 0 1 2 1 2 2 3 4 3 4 4 5 5 4 4 3 3 4 2 0 1 0 0 0 1 1 0 0 0 0 0 0 0 0 0 0 0 0 0 0 0 0 0 0 0 0 0 0 0 0 0 0 0 0 0 0 0 0 0 0 0 0 1 1 2 0 2 2 0 1 0 0 0 0 0 1 0 0 0 2 1 2 0 1 2 3 2 2 2 2 1 0 0 0 0 0 0 0 0 0 0 0 0 0 0 0 0 0 0 0 0 0 0 0 0 0 0 0 0 0 0 0 0 0 0 0 0 0 0 0 0 0 0 0 0 1 3 3 2 3 2 3 2 0 0 1 1 0 1 1 2 3 3 3 4 4 4 3 4 3 2 4 5 5 4 4 3 3 4 2 2 3 4 2 3 3 3 4 5 5 5 5 5 6 5 6 6 5 5 4 2 4 3 3 0 0 1 0 0 0 0 0 0 1 1 1 2 1 1 1 0 0 0 0 0 0 0 1 0 0 1 1 1 0 0 1 1 0 1 2 2 4 2 2 2 2 2 1 3 3 4 4 2 3 4 1 1 0 0 1 1 2 0 1 1 3 3 2 2 1 2 1 0 0 0 0 0 0 0 0 0 0 0 0 0 0 0 0 0 0 0 0 0 0 0 0 0 0 0 0 0 0 0 0 0 0 0 0 0 0 0 0 0 0 
2 0 0 1 0 0 0 1 1 1 0 0 0 0 0 2 1 0 2 0 0 0 0 0 0 0 0 1 2 2 2 0 0 0 0 0 0 0 0 0 0 0 0 0 0 0 0 0 0 0 2 1 1 1 1 0 0 0 0 0 0 2 2 0 1 2 1 1 2 1 2 0 1 1 2 1 4 5 5 4 5 4 2 3 3 3 2 1 2 2 3 4 3 4 6 3 3 4 5 5 4 5 5 5 6 5 7 6 5 3 4 4 2 4 2 1 1 2 3 3 3 4 3 2 2 1 1 1 1 1 0 0 0 0 0 0 0 0 0 0 0 0 0 0 0 0 0 0 0 0 0 0 0 1 0 0 0 0 0 0 0 0 0 0 0 0 0 1 1 2 3 3 2 1 0 2 3 4 4 4 2 3 2 2 2 1 0 1 1 1 0 0 0 2 1 0 0 0 0 0 0 0 0 0 0 0 0 0 0 0 0 0 0 0 0 0 0 0 0 0 0 0 0 0 0 0 0 0 0 1 0 0 0 0 0 0 0 0 0 0 0 0 0 0 2 4 2 1 2 2 1 0 0 0 0 1 1 0 0 0 0 0 0 0 1 0 1 1 2 1 1 3 3 2 2 1 3 2 3 4 1 1 0 0 1 0 1 1 2 1 3 4 4 3 2 1 1 1 2 3 3 2 1 1 1 1 1 2 1 1 1 3 3 2 1 1 1 0 1 0 1 2 2 4 2 3 2 3 3 2 2 0 0 1 2 0 2 1 2 2 2 3 4 5 4 5 5 5 5 4 4 4 3 4 2 1 0 1 0 0 0 0 0 0 0 0 0 0 0 0 0 0 0 0 0 0 0 0 0 0 0 0 0 0 0 0 0 0 0 0 0 0 0 1 0 0 0 1 0 0 0 0 2 2 2 2 1 0 0 0 0 0 1 0 0 1 1 1 1 5 3 2 2 1 0 0 0 0 0 0 0 0 0 0 0 0 0 0 0 0 0 0 0 0 0 0 0 0 0 0 0 0 0 0 0 0 0 0 0 0 0 0 0 0 0 0 0 0 0 0 0 2 3 3 2 3 3 3 1 0 0 0 0 0 1 1 2 1 2 2 1 2 4 3 3 4 3 4 4 5 4 4 4 2 4 5 1 3 3 3 3 3 3 3 4 5 5 6 6 5 6 5 5 7 4 2 2 2 3 2 1 0 1 2 1 0 0 0 0 0 0 0 1 1 0 0 0 0 0 0 0 0 0 0 0 0 1 1 2 0 0 0 0 0 0 2 2 3 2 2 1 3 2 3 2 2 2 2 1 3 1 1 1 1 1 1 0 1 1 1 1 2 1 2 2 0 0 0 0 0 0 0 0 0 0 0 0 0 0 0 0 0 0 0 0 0 0 0 0 0 0 0 0 0 0 0 0 0 0 0 0 0 0 0 0 0 0 0 0 0 
0 1 0 0 1 1 1 0 1 1 1 0 1 1 1 0 0 0 0 0 0 0 0 0 0 1 1 1 3 3 2 2 0 0 0 0 0 0 0 0 0 0 0 0 0 1 0 0 2 1 1 1 1 0 0 1 0 1 0 0 1 1 0 2 1 1 1 1 2 1 2 0 1 0 1 3 3 4 4 4 4 4 3 4 2 3 2 3 3 2 3 3 4 4 4 5 5 5 5 6 7 5 5 6 6 5 6 5 5 4 4 5 6 5 3 1 3 2 2 3 4 2 3 3 4 2 2 1 0 1 0 0 1 0 0 0 0 0 0 0 0 0 0 0 0 0 0 0 0 0 0 0 0 0 0 0 0 0 0 1 0 0 0 0 1 0 0 0 1 2 2 3 2 2 1 3 3 3 3 3 1 3 1 1 0 0 0 0 1 1 0 0 0 0 0 0 0 0 0 0 0 0 0 0 0 0 0 0 0 0 0 0 0 0 0 0 0 0 0 0 0 0 0 0 0 0 0 0 1 1 0 1 1 0 0 0 0 0 0 0 0 0 0 0 2 3 3 3 1 1 1 1 1 1 0 0 1 0 0 0 0 1 0 2 1 2 3 3 3 2 2 2 1 1 3 1 2 2 2 1 1 1 1 1 2 0 1 3 2 2 3 4 3 3 2 3 1 1 2 2 2 1 2 2 3 1 0 0 0 1 1 2 2 1 1 2 1 0 0 0 1 2 3 3 2 1 1 2 2 2 1 1 1 0 0 0 1 2 2 3 3 3 3 3 4 3 5 6 5 5 5 3 3 3 2 1 0 0 0 0 0 0 0 0 0 0 0 0 0 0 0 0 0 0 0 0 0 0 0 0 0 0 0 0 0 0 0 0 0 0 0 0 0 0 0 0 0 1 0 0 0 0 1 1 0 2 2 0 0 0 0 0 1 0 1 1 2 1 2 2 3 4 4 1 0 0 0 0 0 0 0 0 0 0 0 0 0 1 0 1 0 0 0 0 0 0 0 0 0 0 0 0 0 0 0 0 0 0 0 0 0 0 0 0 0 0 0 0 0 0 1 1 2 3 2 3 2 2 1 0 0 0 0 0 2 2 2 2 4 3 3 2 2 2 4 4 4 5 3 4 6 4 3 4 4 4 3 3 2 2 3 4 4 4 5 5 5 4 5 7 6 7 5 5 4 4 3 2 3 2 0 0 1 1 1 0 0 0 0 0 0 1 0 0 1 0 1 0 0 0 0 0 0 1 0 0 1 0 0 0 0 0 0 0 0 2 2 2 1 0 1 2 2 2 1 2 2 1 1 1 0 1 0 0 1 1 1 2 1 0 1 1 1 1 1 1 0 0 0 0 0 0 0 0 0 0 0 0 0 0 0 0 0 0 0 0 0 0 0 0 0 0 0 0 0 0 0 0 0 0 0 0 0 0 0 0 0 0 0 1 
0 0 0 0 1 1 2 1 1 1 1 1 1 1 0 0 0 0 0 1 0 0 0 0 0 1 4 2 3 2 2 1 0 0 0 0 0 0 0 0 0 0 0 1 1 1 2 1 1 1 4 2 1 0 0 0 2 2 0 0 0 0 0 0 0 2 1 0 1 0 0 1 2 0 0 2 2 2 3 4 3 3 2 3 2 2 2 1 2 3 4 3 3 4 3 3 4 5 5 6 5 5 4 5 4 5 6 4 3 4 5 6 6 5 6 2 2 3 1 4 2 2 3 3 3 4 2 0 0 1 2 1 1 0 0 0 0 0 0 0 0 0 0 0 0 0 0 0 0 0 0 0 0 0 0 0 0 0 0 0 0 0 0 0 0 0 0 0 0 1 1 1 0 1 2 2 3 4 4 3 2 3 3 1 0 0 0 0 1 0 0 1 0 1 0 0 0 0 0 0 0 1 0 0 0 0 0 0 0 0 0 0 0 0 0 0 0 0 0 0 0 0 0 0 0 0 0 0 1 1 2 1 0 0 0 0 0 0 0 0 0 0 0 0 0 1 1 2 3 0 0 0 1 1 0 0 0 1 0 0 1 0 0 0 1 2 2 2 3 3 3 2 0 1 3 1 2 3 3 3 3 3 4 2 1 0 1 3 2 3 3 4 4 3 2 3 3 3 3 4 3 0 2 2 3 3 1 0 0 0 1 0 2 1 1 1 0 1 0 1 2 2 2 1 0 1 1 2 4 3 2 1 0 0 1 1 3 3 3 3 2 2 3 2 3 4 3 3 3 5 4 4 4 3 1 1 0 0 0 0 0 0 0 0 0 0 0 0 0 0 0 0 0 0 0 0 0 0 0 0 0 0 0 0 0 0 0 0 0 0 0 0 0 0 0 0 0 0 0 0 0 0 0 0 0 0 0 0 0 0 1 1 1 1 0 1 1 1 1 3 2 3 2 1 0 0 0 0 0 0 0 0 0 0 0 0 0 0 1 0 0 0 0 0 0 0 0 0 0 0 0 0 0 0 0 0 0 0 0 0 0 0 0 0 0 0 0 0 0 0 0 1 2 2 3 2 2 2 1 1 0 0 0 0 0 1 0 1 2 2 1 3 1 3 3 4 5 5 4 6 5 4 4 4 6 4 5 4 1 2 5 5 4 5 6 5 4 5 5 6 5 7 5 5 4 2 2 1 1 1 0 0 0 0 0 1 1 0 0 0 1 0 1 0 0 1 2 0 0 0 0 0 0 0 0 0 1 0 0 0 0 0 0 0 0 0 2 2 2 2 2 1 2 3 2 2 2 1 2 1 0 1 0 0 0 0 0 1 2 1 2 3 0 0 0 0 0 0 0 0 0 0 0 0 0 0 0 0 0 0 0 0 0 0 0 0 0 0 0 0 0 0 0 0 0 0 0 0 0 0 0 0 0 0 0 0 0 0 0 0 
0 0 0 0 0 0 1 0 0 0 0 0 0 0 0 0 0 0 0 0 0 0 0 1 2 2 3 3 3 2 2 2 0 0 0 0 0 0 0 0 0 0 0 0 0 2 3 2 2 1 3 3 1 0 0 0 2 1 1 1 0 0 0 1 1 2 0 0 0 0 1 2 0 1 1 1 2 3 2 4 3 3 3 1 2 4 2 3 3 3 4 4 4 4 3 4 5 5 6 7 6 5 5 6 6 5 5 4 4 4 4 6 6 6 3 4 2 2 2 1 2 2 3 3 3 3 2 3 3 3 1 1 0 0 0 0 0 0 0 0 0 0 0 0 0 0 0 0 0 0 0 0 0 0 0 0 0 0 0 0 0 0 0 0 0 1 0 1 0 0 0 0 0 0 0 1 1 3 3 4 3 3 1 0 0 0 0 0 0 0 0 0 0 0 0 1 0 0 0 0 0 0 0 0 0 0 0 0 0 0 0 0 0 0 0 0 0 0 0 0 0 0 0 0 0 0 0 0 1 1 0 0 0 0 0 0 0 0 0 0 0 0 0 0 0 2 0 2 0 0 0 0 0 0 0 0 0 2 1 0 2 1 1 3 2 2 1 2 2 2 2 2 1 2 2 2 3 3 4 4 5 4 3 0 0 1 2 2 3 4 4 5 5 4 2 3 3 3 3 3 3 2 2 3 3 0 0 0 0 0 0 0 1 0 2 1 0 1 0 0 1 0 1 2 2 2 1 3 4 4 2 2 2 1 2 2 2 4 3 4 4 3 3 2 3 4 4 4 4 5 4 3 4 3 1 1 0 0 0 0 0 0 0 0 0 0 0 0 0 0 0 0 0 0 0 0 0 0 0 0 0 0 0 0 0 0 0 0 0 0 0 0 0 0 0 0 0 0 0 0 0 0 0 1 0 1 2 0 0 1 2 2 2 1 0 0 0 0 2 3 3 4 3 1 2 0 0 0 0 0 0 0 0 0 0 0 1 0 0 0 0 0 0 0 0 0 0 0 0 0 0 0 0 0 1 0 0 0 0 1 1 0 0 0 0 0 0 0 0 0 0 1 1 1 2 2 3 2 1 1 0 0 0 0 0 0 0 2 2 1 3 3 3 3 4 4 4 5 4 4 3 2 4 5 6 5 5 5 3 4 6 5 6 5 6 5 7 5 6 6 6 5 5 5 3 2 1 3 1 1 1 1 0 1 1 0 0 1 1 1 0 0 1 0 1 2 2 0 0 0 0 0 0 0 0 0 0 0 0 0 0 0 0 0 0 1 2 2 1 3 2 2 2 1 1 2 2 1 2 0 0 0 0 0 0 0 1 2 2 3 1 0 0 0 0 0 0 0 0 0 0 1 1 0 0 0 0 0 0 0 0 0 0 0 0 0 0 0 0 0 0 0 0 0 0 0 0 0 0 0 0 0 0 0 0 0 0 0 0 0 
1 0 0 0 0 1 1 0 1 0 0 0 0 0 0 0 0 0 1 0 0 0 2 3 4 3 3 3 2 3 2 1 1 0 1 0 0 0 0 0 1 3 1 1 3 1 4 3 2 2 2 2 2 1 0 0 2 2 3 1 0 0 0 1 0 0 0 0 0 0 0 1 2 2 2 1 1 0 1 1 2 2 1 2 2 2 2 3 3 3 5 6 5 6 6 5 3 4 5 5 5 6 4 6 6 4 4 3 4 5 5 7 6 6 5 4 3 3 1 3 3 1 2 2 3 1 1 1 1 2 2 1 1 0 0 0 0 0 0 0 0 0 0 0 0 0 0 0 0 0 0 0 0 0 0 0 0 0 0 0 0 0 0 0 0 0 0 0 0 0 0 0 0 0 0 0 0 1 3 3 3 2 0 0 0 0 0 0 0 0 0 0 0 0 0 0 0 0 0 0 0 0 0 0 0 0 0 0 0 0 0 0 0 0 0 0 0 0 0 0 0 0 0 0 0 0 0 0 0 0 0 0 0 0 0 0 0 0 0 0 0 0 0 0 0 2 0 0 1 1 0 1 1 0 0 0 2 3 1 0 1 2 2 3 1 3 1 2 1 2 3 2 3 3 4 3 3 3 1 2 3 3 4 1 2 2 1 3 4 4 2 3 4 4 4 3 3 3 4 2 2 3 4 2 1 0 0 0 0 1 0 0 0 0 0 0 0 0 0 0 0 0 0 1 2 2 3 3 5 5 3 3 3 3 2 4 2 2 2 3 3 3 2 3 4 4 4 4 3 4 2 3 2 2 1 1 0 0 0 0 0 0 0 0 0 0 0 0 0 0 0 0 0 0 0 0 0 0 0 0 0 0 0 0 0 0 0 0 0 0 0 0 0 0 0 0 0 0 0 0 0 0 0 0 0 0 0 0 0 1 2 1 2 2 0 0 1 0 2 0 2 3 1 1 1 0 0 0 0 0 0 0 0 0 1 1 1 0 0 0 0 0 0 0 0 0 0 0 0 0 0 0 0 0 0 0 1 1 0 1 0 0 0 0 0 0 0 0 0 0 0 0 0 0 1 1 0 1 0 0 0 0 0 0 0 0 0 0 2 2 2 2 3 3 3 3 5 4 6 4 3 3 4 4 5 6 5 6 6 5 5 6 6 5 5 5 6 5 5 6 5 5 4 6 5 3 4 4 3 2 1 0 0 0 1 1 0 1 0 0 1 0 0 1 1 2 1 0 0 0 0 0 0 0 0 0 0 0 0 0 0 0 0 0 0 2 2 2 2 1 2 2 2 2 1 2 2 2 2 1 0 0 0 0 0 0 0 0 0 1 1 0 0 0 0 0 0 0 0 0 0 0 0 1 0 0 0 0 0 0 0 0 0 0 0 0 0 0 0 0 0 0 0 0 0 0 0 0 0 0 0 0 0 0 0 0 0 0 0 1 
0 0 0 1 1 0 0 1 0 0 0 0 0 0 0 0 0 0 0 0 1 2 4 4 4 4 4 3 3 2 2 3 2 2 2 1 1 2 3 4 3 1 2 3 3 1 3 3 2 2 3 2 2 0 0 1 4 3 1 2 1 0 0 0 0 1 2 0 0 0 2 1 2 1 0 1 2 1 1 1 2 3 3 3 1 0 1 2 3 4 4 5 5 5 6 3 3 4 4 4 4 5 5 5 4 5 4 4 3 3 3 6 5 6 5 5 4 2 2 2 1 1 0 2 3 2 2 1 2 1 2 1 0 0 0 0 0 0 0 0 0 0 0 0 0 0 0 0 0 0 0 0 0 0 0 0 0 0 0 0 0 0 0 0 0 0 0 0 0 0 0 0 0 0 0 0 0 1 0 1 1 1 1 0 0 0 0 0 0 0 0 0 0 0 0 0 0 0 0 0 0 0 0 0 0 0 0 0 0 0 0 0 0 0 0 0 0 0 0 0 0 0 0 0 0 0 0 0 0 1 1 0 1 0 0 0 0 0 0 0 0 1 0 0 0 0 1 0 1 0 1 1 0 0 2 1 1 1 1 0 1 2 3 2 5 3 3 2 2 2 4 3 4 4 6 5 4 2 0 2 3 4 3 0 2 3 3 2 3 4 4 2 2 3 4 4 2 1 2 1 2 3 3 2 1 1 0 0 0 0 0 0 0 0 0 0 0 0 0 0 0 1 2 3 4 4 4 5 4 3 3 3 3 2 3 4 3 2 2 3 4 3 3 3 3 3 4 2 2 3 1 2 0 0 0 1 1 1 0 0 0 0 0 0 0 0 0 0 0 0 0 0 0 0 0 0 0 0 0 0 0 0 0 0 0 0 0 0 0 0 0 0 0 0 0 0 3 0 0 0 0 0 0 0 0 0 0 0 0 0 1 2 1 0 1 1 1 1 0 1 0 2 1 2 1 0 0 0 0 0 0 0 1 2 2 1 1 0 0 0 0 1 0 0 0 0 0 2 1 1 0 0 0 0 1 3 2 3 2 1 1 1 0 0 0 0 0 0 0 0 0 0 0 0 0 1 0 0 0 0 0 0 0 0 0 0 0 0 1 2 1 2 4 3 5 5 7 7 6 5 5 4 4 5 5 6 5 4 5 4 6 6 5 3 5 6 6 5 6 5 4 5 7 6 5 4 4 2 1 1 0 1 0 0 0 2 2 2 1 1 0 1 0 0 1 2 2 0 0 0 0 0 0 0 0 0 0 0 0 0 0 0 0 0 1 0 0 0 0 1 1 1 1 0 1 3 2 2 0 0 0 0 0 0 0 0 0 1 1 1 1 0 0 0 0 0 0 0 0 0 0 0 0 0 0 0 0 0 0 0 0 0 0 0 0 0 0 0 0 0 0 0 0 0 0 0 0 0 0 0 0 0 0 0 0 0 0 0 0 1 
1 0 0 0 0 0 0 0 0 0 0 0 0 0 0 0 0 0 0 0 0 2 2 3 3 3 3 3 5 3 4 3 1 1 3 1 3 3 4 3 4 2 2 2 2 3 3 2 2 4 2 2 2 1 0 2 2 3 1 1 1 1 0 1 0 1 1 1 0 1 1 1 1 1 1 2 1 0 1 2 2 3 3 2 4 0 2 2 2 4 4 5 4 3 4 4 5 4 4 4 5 4 4 6 5 4 5 4 3 3 2 4 4 4 5 6 5 4 3 3 2 2 2 1 2 2 1 1 2 1 1 0 0 0 0 0 0 0 0 0 0 0 0 0 0 0 0 0 0 0 0 0 0 0 0 0 0 0 0 0 0 0 0 0 0 0 0 0 0 0 0 0 0 0 0 0 0 0 0 0 2 1 1 0 0 0 0 0 0 0 0 0 0 0 1 0 0 0 0 0 0 0 0 0 0 1 0 0 0 0 0 0 0 0 0 1 0 0 0 0 0 0 0 0 0 0 0 1 0 1 0 0 0 0 0 0 0 0 0 0 0 0 0 0 1 0 0 0 1 0 0 1 1 1 2 2 0 0 0 0 1 1 2 3 1 3 4 3 3 2 1 3 6 6 6 5 3 4 4 4 4 4 0 2 1 3 5 5 5 5 3 2 3 2 3 2 0 0 2 1 0 2 2 2 1 2 0 0 0 0 0 0 0 0 0 0 0 0 0 1 0 2 3 5 4 5 4 3 2 2 3 4 3 3 4 5 3 2 4 2 2 2 1 1 3 3 4 3 3 2 1 0 1 1 1 0 0 0 0 0 0 0 0 0 0 0 0 0 0 0 0 0 0 0 0 0 0 0 0 0 0 0 0 0 0 0 0 0 0 0 0 0 0 0 0 0 0 0 0 0 0 0 0 0 0 0 0 0 0 1 0 0 0 0 0 1 0 0 0 0 0 0 1 1 1 0 0 0 0 0 0 0 1 2 1 0 1 1 0 0 0 0 1 1 0 0 1 1 2 2 1 0 1 2 2 2 3 2 3 1 1 1 0 0 1 0 0 0 0 0 0 0 0 1 0 0 0 0 1 0 0 0 1 0 0 0 0 0 1 2 1 3 3 4 5 6 7 7 7 6 5 5 5 4 5 4 5 4 4 5 6 5 4 5 6 6 5 5 5 5 5 5 7 6 4 4 3 2 2 2 1 0 0 0 0 0 2 2 1 0 1 2 0 1 2 1 0 0 0 0 0 0 0 0 0 0 1 0 0 0 0 0 0 1 0 0 0 0 1 0 1 3 0 0 0 1 2 1 1 0 0 0 0 0 0 0 0 1 1 0 0 0 0 0 0 0 0 0 0 0 0 0 0 0 0 0 0 0 0 0 0 0 0 0 0 0 0 0 0 0 0 0 0 0 0 0 0 0 0 0 0 0 0 0 0 0 0 0 0 0 
0 0 0 0 0 0 1 0 1 0 1 0 0 0 0 0 1 0 0 0 1 2 4 2 1 2 3 3 4 4 4 3 3 4 2 2 2 4 4 3 5 3 2 4 3 4 4 3 2 3 1 3 2 2 1 2 2 3 4 2 2 1 4 2 0 0 0 0 0 1 0 0 1 1 3 1 1 0 1 3 3 2 4 1 1 0 2 2 1 2 2 3 3 2 3 3 4 3 3 6 4 5 5 7 5 7 7 6 4 3 3 3 4 7 5 4 3 2 3 3 3 3 2 1 0 0 2 3 2 0 0 0 0 0 0 0 0 0 0 0 0 0 0 0 0 0 0 0 0 0 0 0 0 0 0 0 0 0 0 0 0 0 0 0 0 0 0 0 0 0 0 0 0 0 0 0 0 0 0 1 0 0 0 0 0 0 0 0 0 0 0 0 1 1 1 2 0 0 0 0 0 0 0 0 0 0 0 0 0 0 0 0 0 0 0 0 0 0 0 0 0 0 0 0 0 0 0 1 0 0 0 1 0 0 0 0 0 0 0 0 0 0 0 0 0 0 0 0 2 2 0 2 1 2 0 1 1 0 0 0 1 2 2 3 2 2 3 3 2 3 4 4 6 7 5 6 5 5 5 6 4 4 4 3 4 3 5 5 5 6 4 3 2 2 1 0 0 0 0 1 1 3 2 1 1 0 0 0 0 0 1 1 0 0 1 0 0 0 1 2 2 2 3 3 5 4 2 1 1 1 2 1 3 3 3 4 2 3 2 2 2 2 1 1 1 2 3 4 2 1 0 0 1 0 1 1 1 0 1 0 0 0 0 0 0 0 0 0 0 0 0 0 0 0 0 0 0 0 0 0 0 0 0 0 0 0 0 0 0 0 0 0 0 0 0 0 0 0 0 0 0 0 0 0 0 0 0 0 0 0 0 0 0 0 0 0 0 0 0 0 0 0 1 1 0 0 0 0 0 0 0 0 0 1 0 1 0 2 2 1 1 1 2 1 1 2 2 3 3 3 2 1 1 2 1 2 2 2 1 0 1 0 1 0 1 0 0 0 1 1 0 1 0 0 0 0 0 1 0 0 0 0 0 0 0 0 0 1 2 3 1 2 2 3 5 6 5 6 6 6 5 4 6 5 5 4 4 5 4 4 6 5 3 5 7 6 6 5 5 6 5 6 6 4 3 4 4 0 0 1 0 0 0 0 0 1 1 0 0 0 1 1 0 1 0 0 0 0 0 0 0 0 0 0 0 0 0 0 0 0 0 0 0 1 0 0 0 0 0 0 0 1 1 0 1 0 0 1 0 0 0 0 0 0 0 0 0 0 0 0 0 0 0 0 0 0 0 0 0 0 0 0 0 0 0 0 0 0 0 0 0 0 0 0 0 0 0 0 0 0 0 0 0 0 0 0 0 0 0 0 0 0 0 0 0 0 0 0 1 1 
1 0 0 0 0 1 1 0 1 0 1 2 1 0 0 2 1 0 0 0 1 3 2 2 2 3 2 3 4 4 5 4 5 4 3 2 3 4 4 2 2 2 3 5 5 6 6 5 4 3 2 3 1 1 1 1 1 1 1 1 2 2 2 1 0 0 0 0 1 0 0 0 0 1 2 0 1 0 1 2 3 4 4 2 0 2 2 1 1 1 2 1 1 1 2 2 1 2 4 4 4 5 6 7 6 7 6 6 5 3 4 5 5 5 4 2 2 1 2 2 3 1 0 1 1 1 1 1 1 1 1 1 0 0 0 0 0 0 0 0 0 0 0 0 0 0 0 0 0 0 0 0 0 0 0 0 0 0 0 0 0 0 0 0 0 0 0 0 0 0 0 0 0 0 0 0 0 0 0 0 0 0 0 0 0 0 0 0 0 0 0 0 0 1 1 0 0 0 0 0 0 0 0 0 0 0 0 0 1 0 0 0 0 0 1 0 0 0 0 0 0 0 0 1 1 1 1 1 0 0 0 1 0 0 0 0 0 0 0 0 0 0 0 0 0 0 0 0 0 0 0 1 1 1 0 0 0 0 0 1 0 2 2 4 3 2 1 2 4 4 5 5 5 6 6 5 5 6 5 5 4 2 2 3 3 4 3 4 5 6 5 4 2 2 2 1 1 1 0 0 1 0 1 0 0 0 0 1 0 0 2 0 1 0 0 0 0 0 0 1 2 2 3 2 3 2 2 2 0 1 0 2 2 2 2 2 2 1 1 3 2 3 3 3 3 4 3 5 4 1 0 0 0 0 1 1 1 0 0 0 0 0 0 0 0 0 0 0 0 0 0 0 0 0 0 0 0 0 0 0 0 0 0 0 0 0 0 0 0 0 0 0 0 0 0 0 0 0 1 0 0 0 0 0 0 0 0 0 0 0 0 0 0 0 0 0 0 0 0 0 0 0 0 0 0 0 0 0 0 0 1 0 0 1 0 2 1 1 3 3 4 3 3 3 2 2 3 5 4 3 2 2 2 2 1 0 3 2 1 1 1 0 0 0 0 0 0 0 0 0 3 3 0 0 0 0 0 1 0 0 0 1 0 0 0 0 0 0 2 1 1 1 3 4 4 4 5 5 6 5 3 4 5 5 5 4 4 4 3 4 4 4 3 4 5 5 7 7 8 6 5 5 5 5 3 1 3 3 1 1 0 1 0 0 0 2 1 1 1 1 0 0 0 0 0 0 0 0 0 0 0 0 0 0 0 0 0 0 0 0 0 0 1 0 0 1 0 0 0 0 0 0 0 1 0 0 0 0 0 0 0 0 0 0 0 0 0 0 0 0 0 0 0 0 0 0 0 0 0 0 1 0 0 0 0 0 0 0 0 0 0 0 0 0 0 0 0 1 0 0 1 0 0 0 0 0 0 0 0 0 0 0 0 0 0 0 0 0 0 0 
0 0 0 0 0 1 1 1 0 0 0 1 1 1 0 1 0 1 1 1 1 2 4 1 2 2 2 3 3 3 5 4 5 4 3 4 3 3 3 3 3 3 3 5 6 6 5 5 5 3 3 2 2 1 1 1 1 0 1 3 2 0 1 1 1 1 1 0 0 0 0 0 0 2 0 0 0 0 1 3 3 3 3 3 3 2 1 1 0 0 2 1 0 2 3 1 2 3 3 5 5 7 6 5 4 6 6 5 3 3 3 4 4 5 3 3 2 1 0 0 1 0 0 0 2 1 2 2 1 3 1 1 0 0 0 0 0 0 0 0 0 0 0 0 0 0 0 0 0 0 0 0 0 0 0 0 0 0 0 0 0 0 0 0 0 0 0 0 0 0 0 0 0 0 0 0 0 0 0 0 0 0 0 0 0 0 0 0 0 0 0 0 0 1 0 0 0 0 0 0 0 0 0 0 0 0 0 0 0 0 0 0 0 2 2 2 0 0 0 0 0 1 0 2 2 3 0 3 1 0 0 0 0 0 0 0 0 0 0 0 0 0 1 0 0 0 0 0 0 0 0 1 0 1 1 1 2 1 0 1 1 2 2 3 4 2 1 2 2 4 4 5 6 6 6 7 7 6 5 4 4 3 3 3 3 3 2 3 3 4 3 4 3 1 1 1 1 2 2 0 0 0 0 0 0 1 2 1 0 2 2 1 0 1 0 0 1 0 0 1 2 1 3 2 2 2 2 1 1 0 0 0 3 2 2 2 2 2 3 2 2 3 2 2 4 6 5 5 2 1 0 0 0 0 1 1 0 0 0 0 0 0 0 0 0 0 0 0 0 0 0 0 0 0 0 0 0 0 0 0 0 0 0 0 0 0 0 0 0 0 0 0 0 0 0 0 0 0 1 0 0 0 0 0 0 0 0 0 0 0 0 0 0 0 0 0 0 0 0 0 0 0 0 0 0 0 1 0 0 1 1 1 0 0 2 1 2 2 3 3 5 5 4 4 4 3 4 5 4 2 2 3 2 1 1 1 1 2 2 1 0 0 0 0 0 0 0 0 1 1 3 2 1 0 0 0 0 1 0 0 0 0 0 0 0 0 0 0 2 3 2 1 3 3 3 4 4 4 4 4 4 3 3 4 4 4 4 4 4 5 4 4 5 4 5 6 8 7 7 6 4 4 4 5 2 2 1 2 2 0 0 0 1 1 1 2 2 1 1 0 0 0 0 0 0 0 0 0 0 0 0 0 0 0 0 0 0 0 0 0 0 0 0 0 0 0 0 0 0 1 1 0 0 1 0 0 0 0 0 0 0 0 0 0 0 0 0 0 0 0 0 0 0 0 0 0 0 0 0 0 1 2 1 0 0 0 0 0 0 0 0 0 0 0 0 0 0 1 0 0 0 0 0 0 0 0 0 0 0 0 0 0 0 0 0 0 0 0 0 0 
0 0 0 0 0 0 1 1 1 0 0 0 0 0 1 0 0 2 1 2 3 3 3 4 4 3 3 2 4 3 3 4 5 4 4 4 4 3 3 5 5 5 3 4 4 5 6 5 5 3 2 3 4 2 2 3 2 2 0 2 3 1 1 1 0 1 1 0 1 0 1 1 1 1 1 1 0 2 3 3 3 3 4 2 2 0 1 1 1 1 1 1 0 1 2 1 1 2 4 4 6 6 5 5 4 5 4 3 3 3 4 3 3 5 3 1 1 0 0 0 0 0 0 2 1 1 2 3 3 2 1 0 0 0 0 0 0 0 0 0 0 0 0 0 0 0 0 0 0 0 0 0 0 0 0 0 0 0 0 0 0 0 0 0 0 0 0 0 0 0 0 0 0 0 0 0 0 0 0 0 0 0 0 0 0 0 0 0 0 0 0 0 0 0 0 0 0 0 0 0 0 0 0 0 1 1 0 1 0 0 0 0 2 1 1 1 0 0 0 0 1 0 1 1 0 1 2 1 0 0 0 0 0 0 0 0 0 0 0 0 0 0 0 0 0 0 0 0 1 0 0 0 1 3 3 4 2 1 1 3 2 2 3 2 2 1 3 3 4 3 4 5 5 6 8 7 8 6 5 4 3 3 4 3 3 2 3 2 2 3 4 3 3 3 2 1 2 1 1 1 0 0 1 2 1 2 1 1 0 0 1 0 0 0 0 0 1 0 0 0 1 1 1 2 3 1 2 1 1 0 0 0 2 2 2 1 2 1 2 1 2 2 2 3 5 5 2 2 1 0 0 0 0 0 0 0 1 1 0 0 0 0 0 0 0 0 0 0 0 0 0 0 0 0 0 0 0 0 0 0 0 0 0 0 0 0 0 0 0 0 0 0 0 0 0 0 1 0 0 0 0 0 0 0 0 0 0 0 0 0 0 0 0 0 0 0 0 0 0 1 0 0 0 0 0 1 2 1 3 3 3 2 2 2 1 0 1 3 4 4 4 5 3 5 5 5 6 4 5 3 2 3 2 3 2 2 1 2 1 0 0 0 0 0 0 1 1 1 0 1 3 3 0 0 0 0 0 0 0 0 0 0 0 0 0 0 2 0 0 1 1 3 3 4 4 3 3 4 5 3 4 4 3 2 3 3 4 4 6 6 5 5 4 4 4 4 6 5 4 6 4 5 4 3 1 1 0 1 1 0 0 0 1 2 1 2 1 1 0 1 0 0 0 0 0 0 0 0 0 0 0 0 0 0 0 0 0 0 0 0 0 0 0 0 0 0 0 0 0 0 0 0 0 0 0 0 0 0 0 0 0 0 0 0 0 0 0 0 0 0 0 0 0 0 0 0 0 0 0 0 0 0 1 0 0 0 0 0 0 0 0 0 0 0 0 0 0 0 0 0 0 1 0 0 0 0 0 0 0 0 0 0 0 0 0 0 0 0 0 0 
0 0 0 0 0 0 1 1 0 0 0 0 0 0 0 0 0 1 2 3 2 2 3 5 5 5 5 3 3 3 3 4 5 4 5 4 5 4 4 4 3 5 4 5 4 3 4 6 6 5 2 1 2 3 3 2 1 0 1 2 3 2 2 2 1 0 1 0 1 1 0 1 1 0 2 0 0 0 1 2 3 3 2 2 1 1 2 1 0 1 2 1 2 3 2 1 1 2 2 3 6 4 4 4 4 3 3 4 4 3 2 2 3 4 1 0 0 0 0 1 0 2 2 1 3 3 2 3 3 1 2 1 0 0 0 0 0 0 0 0 0 0 0 0 0 0 0 0 0 0 0 0 0 0 0 0 0 0 0 0 0 0 0 0 0 0 0 0 0 0 0 0 0 0 0 0 0 0 0 0 0 0 0 0 0 0 0 0 0 0 0 1 0 0 1 0 0 0 0 0 0 0 0 2 1 1 2 1 0 1 2 2 3 2 3 2 1 0 0 0 0 1 1 2 1 1 2 0 1 0 0 0 0 0 0 0 0 0 0 0 0 0 0 0 0 0 0 0 0 0 1 1 2 2 4 3 2 2 3 3 3 2 3 4 4 3 3 3 4 3 4 4 7 6 6 7 5 4 4 4 5 4 4 3 4 3 2 2 3 3 3 3 3 4 3 3 2 2 2 0 0 1 1 1 0 0 0 1 0 0 0 0 1 0 0 0 0 0 0 0 0 1 2 2 1 2 1 0 0 0 0 0 1 0 1 0 1 0 0 0 0 2 0 2 2 2 3 2 1 0 0 0 0 0 0 0 2 2 0 0 0 0 0 0 0 0 0 0 0 0 0 0 0 0 0 0 0 0 0 0 0 0 0 0 0 0 0 0 0 0 0 0 0 0 0 0 0 0 0 0 0 0 0 0 0 0 0 0 0 0 0 0 0 0 0 0 0 0 0 0 1 1 1 0 0 0 1 2 3 4 4 4 1 2 0 1 3 5 2 4 4 4 5 5 5 4 5 3 5 5 3 2 3 2 2 3 1 2 1 0 0 1 0 0 0 0 2 2 2 1 2 2 0 0 0 0 0 0 0 0 0 0 0 0 0 0 1 0 1 2 3 3 3 4 3 4 3 5 4 5 3 4 4 3 3 5 4 4 5 6 5 5 4 5 5 3 5 5 3 4 3 3 4 2 2 0 1 0 0 0 0 0 1 1 1 0 2 2 2 1 0 0 0 0 0 0 1 0 1 0 0 1 0 0 0 0 0 0 0 0 0 0 0 0 0 0 0 0 0 0 0 0 0 0 0 0 0 0 0 0 0 0 0 0 0 0 0 0 0 1 0 0 0 0 0 0 0 1 2 0 1 0 0 0 0 0 0 0 0 0 0 0 0 0 0 0 0 0 0 0 0 2 1 0 0 0 0 0 0 0 0 0 0 0 0 0 0 0 0 1 
0 0 0 0 0 0 2 0 0 0 0 0 0 0 0 0 0 3 3 2 3 2 4 5 5 5 6 3 4 4 5 5 5 4 4 4 5 5 4 4 4 4 5 5 5 4 4 4 5 3 4 4 4 3 3 2 2 0 1 2 2 2 1 2 1 0 0 0 0 0 0 0 0 0 0 0 0 0 2 1 2 1 1 1 1 1 1 1 1 2 1 0 0 2 2 1 1 2 2 3 5 5 3 2 2 3 3 4 3 2 3 1 2 1 2 0 0 0 0 1 1 1 1 2 3 2 1 1 1 2 0 0 0 0 0 0 0 0 0 0 0 0 0 0 0 0 0 0 0 0 0 0 0 0 0 0 0 0 0 0 0 0 0 0 0 0 0 0 0 0 0 0 0 0 0 0 0 0 0 0 0 0 0 0 0 0 0 0 0 0 0 2 1 0 0 0 0 0 1 0 0 0 2 0 3 3 4 2 2 2 2 3 2 3 2 1 2 0 0 0 1 2 2 2 2 1 2 0 1 1 1 1 0 0 0 0 0 0 0 0 0 0 0 0 0 0 0 0 0 0 1 1 2 3 4 2 3 3 3 2 3 2 4 3 3 3 3 3 5 4 5 5 6 6 6 5 5 6 5 4 4 5 4 4 4 3 2 3 2 3 4 4 4 4 4 3 3 2 2 0 0 0 0 1 1 0 0 0 0 0 0 0 0 0 0 0 1 0 0 0 0 1 1 1 0 0 1 1 0 0 1 0 1 0 0 1 1 1 0 0 1 0 0 0 1 1 1 1 0 0 0 0 0 0 0 0 0 0 0 0 0 0 0 0 0 0 0 0 0 0 0 0 0 0 0 0 0 0 0 0 0 0 0 0 0 0 0 0 0 0 0 0 0 0 0 0 0 0 0 0 0 0 0 0 0 0 0 0 0 0 0 0 0 0 0 0 0 0 0 2 2 0 2 0 0 0 2 2 4 3 3 4 3 3 3 2 2 3 4 3 5 6 5 5 4 4 4 4 5 4 3 4 3 3 4 4 3 3 3 1 1 1 1 0 1 0 1 0 2 1 1 1 1 0 0 0 0 0 0 0 0 0 0 0 0 0 0 1 2 4 3 4 4 4 3 3 4 5 6 4 4 2 3 3 4 5 5 4 4 5 4 3 2 3 4 5 4 3 2 4 5 4 3 4 2 0 0 0 1 0 1 1 1 2 2 1 1 1 3 1 1 1 0 0 1 1 1 1 0 0 0 0 0 0 0 0 0 0 0 0 0 0 0 0 0 1 0 0 0 0 0 0 0 0 0 0 0 0 0 0 0 0 0 0 0 0 0 0 0 0 1 0 0 0 0 0 0 1 1 1 1 1 0 0 0 0 0 0 0 0 0 0 0 0 0 0 0 0 1 0 0 2 2 0 0 0 0 0 0 0 0 0 0 0 0 0 0 0 0 1 
0 0 0 0 0 0 1 0 0 0 0 0 0 0 0 0 0 2 3 3 3 4 5 5 5 6 5 5 4 4 5 4 5 4 3 3 2 2 4 4 5 2 4 5 5 5 5 4 5 5 4 4 3 1 3 3 3 2 4 3 2 2 2 1 0 1 0 1 0 0 0 0 0 0 0 0 0 0 1 2 1 2 1 1 1 1 0 1 0 1 0 1 0 0 1 1 2 1 2 2 4 3 3 2 2 2 2 3 2 1 2 2 1 2 2 0 0 0 1 2 0 0 0 2 2 1 0 0 2 1 0 0 0 0 0 0 0 0 0 0 0 0 0 0 0 0 0 0 0 0 0 0 0 0 0 0 0 0 0 0 0 0 0 0 0 0 0 0 0 0 0 0 0 0 0 0 0 0 0 0 0 0 0 0 0 0 0 0 0 0 0 1 0 1 0 0 0 0 0 0 0 1 1 1 2 2 3 3 2 2 3 4 4 3 4 1 0 0 0 0 1 3 3 3 2 1 1 3 2 1 2 1 1 0 0 0 0 0 0 0 0 0 0 0 0 0 0 0 0 0 1 1 3 3 3 3 2 3 4 4 2 2 3 3 3 3 1 5 7 6 7 6 5 5 6 5 5 5 6 4 4 3 3 3 5 3 2 3 2 1 2 5 3 4 4 2 2 2 0 0 0 1 1 1 0 1 0 0 0 0 0 0 0 0 0 0 0 0 0 0 1 0 0 0 1 0 2 1 2 2 1 2 0 0 1 0 1 0 0 0 0 0 0 0 1 0 0 0 0 0 0 0 0 0 0 0 0 0 0 0 0 0 0 0 0 0 0 0 0 0 0 0 0 0 0 0 0 0 0 0 0 0 0 0 0 0 0 0 0 0 0 0 0 0 0 0 0 0 0 0 0 0 0 0 0 0 0 0 0 0 0 0 0 0 0 0 0 0 1 1 0 1 0 0 0 0 0 1 2 5 3 4 2 4 3 5 4 4 4 5 6 6 6 4 3 4 5 4 5 4 3 3 3 3 5 4 4 5 3 3 3 1 0 0 0 1 1 0 2 1 1 1 0 0 0 0 0 0 0 0 0 0 0 1 0 0 0 1 3 4 4 3 3 3 2 3 3 4 4 2 2 3 4 4 3 5 3 4 4 4 2 2 3 3 3 1 3 1 2 2 4 4 3 3 2 0 0 0 0 1 0 1 1 1 2 2 2 1 2 1 1 0 0 2 1 1 0 0 0 1 0 1 0 0 0 0 0 0 0 0 0 0 0 0 0 0 0 0 0 0 0 0 0 0 0 0 0 0 0 0 0 0 0 0 0 0 0 0 0 1 1 0 0 0 0 0 0 0 1 0 1 0 0 0 0 0 0 0 0 0 0 0 0 0 0 0 1 0 0 0 1 1 1 1 1 1 0 0 0 0 0 0 0 0 0 0 0 0 0 0 
0 0 0 0 1 0 2 1 0 0 0 0 0 0 0 0 0 1 3 4 4 5 4 5 6 6 6 4 4 4 4 4 5 5 4 3 3 3 3 3 4 4 5 5 5 6 5 5 3 4 6 6 4 3 2 3 2 2 2 3 1 1 2 1 1 2 0 0 1 0 1 1 0 0 0 0 0 1 2 0 0 2 1 1 0 0 0 0 0 1 1 2 1 1 2 2 1 2 1 2 2 2 1 1 0 1 0 0 0 1 2 2 2 2 2 1 0 0 1 0 0 0 0 1 0 2 1 1 2 1 1 0 0 0 0 0 0 0 0 0 0 0 0 0 0 0 0 0 0 0 0 0 0 0 0 0 0 0 0 0 0 0 0 0 0 0 0 0 0 0 0 0 0 0 0 0 0 0 0 0 0 0 0 0 0 0 0 0 0 0 0 2 2 0 0 0 0 1 0 0 2 3 2 2 3 2 3 4 4 4 4 4 3 3 3 3 0 0 0 0 1 1 2 3 3 2 3 1 0 1 1 1 0 0 0 1 2 0 0 0 0 0 0 0 0 0 0 1 2 1 2 2 3 3 3 3 4 2 3 1 2 2 2 3 3 4 3 4 6 5 5 4 5 7 5 5 4 5 5 5 5 3 4 5 4 3 3 2 1 1 3 2 3 5 3 2 2 0 0 0 0 0 0 0 1 1 1 0 0 0 0 0 0 0 1 0 0 0 0 0 0 0 2 2 0 0 0 1 0 2 1 0 0 0 0 1 1 0 0 0 0 0 0 0 0 0 0 0 0 0 0 0 0 0 0 0 0 0 0 0 0 0 0 0 0 0 0 1 1 1 0 0 1 0 0 0 0 0 0 0 0 0 0 0 0 0 0 0 0 0 0 0 0 0 0 0 0 0 0 0 0 0 0 0 0 0 0 0 0 0 0 0 0 0 0 0 0 1 0 1 2 1 2 1 1 0 0 2 3 2 3 2 2 3 3 3 4 5 5 7 6 5 6 5 2 4 5 3 3 3 3 3 5 4 5 4 5 5 4 2 3 0 0 0 0 0 0 1 0 1 1 0 0 0 0 0 0 0 0 0 0 0 0 0 1 1 1 2 5 4 2 2 2 3 2 3 2 3 3 3 4 3 2 2 4 3 3 3 4 2 3 3 3 3 0 0 1 1 2 3 3 5 5 4 1 1 0 0 0 1 1 0 0 1 2 2 2 1 2 2 3 1 0 1 3 0 1 0 0 0 0 0 0 1 0 0 0 0 0 0 0 0 0 0 0 0 0 0 0 0 0 0 0 0 0 0 0 0 0 0 0 0 0 0 0 0 0 0 0 0 1 0 0 0 0 0 0 0 0 0 0 0 0 0 1 1 1 0 0 0 0 0 0 1 1 2 1 2 0 0 0 1 1 3 1 1 0 0 0 0 0 0 0 0 1 0 0 0 0 0 
1 0 1 0 0 0 1 2 1 0 0 0 0 1 2 1 2 2 3 5 4 3 5 4 5 5 6 6 6 5 6 5 5 5 5 5 4 4 3 4 5 5 7 5 6 6 6 6 5 5 6 7 5 4 3 3 3 3 4 2 0 1 3 1 1 1 0 0 1 0 0 1 0 0 0 0 1 1 1 0 0 0 0 0 0 0 0 0 0 3 2 1 0 1 2 0 2 1 1 0 2 2 0 1 0 1 1 0 0 1 1 1 1 1 1 1 2 2 0 0 0 0 0 1 0 1 1 1 1 2 0 0 0 0 0 0 0 0 0 0 0 0 1 0 0 0 0 0 0 0 0 0 0 0 0 0 0 0 0 0 0 0 0 0 0 0 0 0 0 0 0 0 0 0 0 0 0 0 0 0 0 0 0 0 0 0 0 0 0 0 1 2 2 1 1 1 0 0 1 1 1 2 2 3 3 3 4 3 4 5 4 4 4 4 3 2 1 1 0 0 1 1 2 3 3 2 1 2 1 1 1 0 0 0 0 1 0 0 0 0 0 0 2 0 1 0 0 1 2 3 3 2 2 3 2 4 2 2 2 2 2 3 2 3 3 3 4 5 4 5 5 5 5 4 3 5 5 5 4 4 3 1 2 3 3 2 1 1 2 1 1 0 3 2 3 2 1 1 1 0 0 0 0 0 0 0 1 1 0 0 0 0 0 1 2 0 0 2 1 1 0 0 0 0 0 0 0 0 0 0 0 0 0 0 1 1 0 0 0 0 0 0 0 0 0 0 0 0 0 0 0 0 0 0 0 0 0 0 0 0 0 0 0 0 0 1 0 0 2 2 1 1 1 0 0 0 0 0 0 0 0 0 0 0 0 0 0 0 0 0 0 0 0 0 0 0 0 0 0 0 0 0 0 0 0 0 0 0 0 0 0 0 0 0 0 0 0 0 1 1 1 0 2 1 1 1 1 3 3 4 1 3 2 2 4 3 4 5 7 5 6 6 7 4 3 5 4 4 3 3 2 5 4 5 3 3 3 4 3 3 3 1 1 1 2 0 2 0 0 0 0 0 0 1 0 0 0 1 0 2 3 1 0 2 2 1 3 3 3 4 2 1 1 1 1 2 1 3 3 2 4 2 2 1 3 2 2 1 2 1 2 4 3 2 0 0 1 3 2 2 3 3 4 4 2 1 0 0 0 0 1 0 0 1 0 1 0 1 2 2 2 1 1 1 1 0 1 0 0 0 0 0 0 0 0 0 0 0 0 0 0 0 0 0 0 0 0 0 0 0 0 0 0 0 0 0 0 0 0 0 0 0 0 0 0 0 0 0 0 0 0 0 0 0 0 0 0 0 0 0 1 0 0 0 0 1 2 1 1 0 0 1 1 1 1 2 0 0 0 0 1 0 3 2 0 0 0 0 0 0 0 0 0 0 0 0 0 0 0 0 
0 0 0 0 0 0 2 1 0 1 0 0 0 1 3 2 1 3 2 3 3 3 5 4 5 5 5 5 4 5 4 4 5 6 5 5 5 4 4 6 6 5 7 5 6 5 4 5 6 5 6 6 6 4 2 3 4 4 2 1 1 1 2 3 3 1 0 1 1 0 1 1 1 0 0 1 1 1 0 0 0 0 0 0 0 0 0 0 0 1 1 1 0 1 2 1 1 1 2 1 0 0 0 0 0 0 1 0 1 0 0 0 0 0 0 1 1 0 0 0 0 0 0 1 1 1 1 1 0 1 0 0 0 0 0 0 0 0 0 0 0 0 0 0 0 0 0 0 0 0 0 0 0 0 0 0 0 0 0 0 0 0 0 0 0 0 0 0 0 0 0 0 0 0 0 0 0 0 0 0 0 0 0 0 0 0 0 0 0 0 1 1 2 3 3 1 0 1 1 1 2 2 1 3 4 4 5 4 5 6 5 6 5 5 2 2 2 2 0 0 0 2 3 3 3 4 4 1 1 2 2 1 0 0 1 1 0 0 0 0 1 1 2 2 1 0 2 2 3 2 3 4 2 2 4 3 2 2 3 1 0 1 3 3 4 4 5 5 6 5 4 5 4 3 3 5 5 6 5 3 2 2 3 3 3 3 1 1 0 2 2 3 3 3 0 1 0 0 0 1 1 0 1 1 1 1 1 1 0 0 0 0 0 2 2 2 1 0 0 0 0 0 0 0 0 0 0 0 0 0 0 0 0 0 0 0 0 0 0 0 0 0 0 0 0 0 0 0 0 0 0 0 0 0 0 0 0 0 0 0 0 0 0 0 0 0 1 0 0 1 1 0 0 0 0 1 0 0 1 0 0 0 0 0 0 0 0 0 0 0 0 0 0 0 0 0 0 0 0 0 0 0 0 0 0 0 0 0 0 0 0 0 0 0 0 0 0 1 1 1 0 1 2 0 0 0 1 2 3 3 2 2 2 2 4 3 6 6 6 7 6 7 6 4 4 2 3 3 3 4 5 4 4 6 5 3 3 3 2 4 4 2 0 0 1 2 1 1 1 1 1 1 0 1 0 1 0 2 2 0 2 2 2 2 1 2 3 3 3 2 1 1 2 0 0 2 2 3 3 3 2 3 2 3 1 2 0 0 1 2 2 3 2 1 0 0 1 1 2 3 2 3 2 3 1 2 1 1 0 0 0 0 0 2 1 1 1 1 1 2 0 1 1 2 0 1 0 0 0 0 0 0 0 0 0 0 0 0 0 0 0 0 0 0 0 0 0 0 0 0 0 0 0 0 0 0 0 0 0 0 0 0 0 0 0 0 0 0 0 0 0 0 0 0 0 0 0 1 0 0 0 0 0 0 0 1 1 0 1 1 1 1 1 1 2 2 0 0 0 0 0 2 1 0 0 0 0 0 0 0 0 0 0 0 0 0 0 0 1 0 
0 1 0 0 0 1 2 4 2 0 2 2 2 1 2 2 2 2 3 3 4 3 3 3 4 4 5 4 5 5 6 5 6 6 7 6 5 4 4 6 6 5 5 6 7 6 3 3 5 5 5 3 2 3 3 3 4 3 4 3 3 2 2 3 3 3 2 1 0 0 2 2 2 1 2 1 1 0 0 0 0 0 0 0 0 0 0 0 0 1 0 0 0 0 2 1 0 0 1 1 0 0 0 0 1 0 0 0 0 0 0 0 0 0 0 0 0 0 0 0 0 0 0 0 1 2 2 1 0 0 0 0 1 0 2 0 0 0 0 0 0 0 0 0 0 0 0 0 0 0 0 0 0 0 0 0 0 0 0 0 0 0 0 0 0 0 0 0 0 0 0 0 0 0 0 0 0 0 0 0 0 0 0 0 0 0 0 0 0 0 0 3 3 3 2 1 0 2 1 2 2 2 4 2 4 5 4 5 6 6 7 5 2 4 2 2 2 1 0 2 0 2 3 3 3 4 2 3 3 1 2 1 1 1 1 1 0 0 0 1 2 2 3 2 1 1 3 3 4 2 2 4 4 3 3 4 2 3 3 3 1 2 2 3 3 5 6 6 4 3 3 4 3 5 4 3 5 5 5 3 3 3 1 2 2 0 0 1 0 1 2 2 2 2 1 0 1 1 0 0 1 1 1 1 0 1 1 0 1 0 0 0 0 0 1 2 1 0 0 0 0 0 0 0 0 0 0 0 0 0 0 0 0 0 0 0 0 0 0 0 0 0 0 0 0 0 0 0 0 0 0 0 0 0 0 0 0 0 0 0 0 0 0 0 0 0 0 0 0 0 1 1 0 0 0 0 2 1 1 0 0 0 0 0 0 0 0 0 0 0 0 0 0 0 0 0 0 0 0 0 0 0 0 0 0 0 0 0 0 0 0 0 0 0 0 0 0 0 0 1 1 0 0 1 0 0 1 1 3 3 4 4 4 4 5 5 6 7 7 7 7 7 7 6 4 3 3 4 3 3 5 5 6 5 4 3 4 4 5 4 2 1 1 1 0 1 1 2 2 4 3 2 2 1 2 2 2 1 0 1 1 2 2 0 2 2 2 2 2 0 2 2 1 1 1 0 1 2 2 3 4 2 2 1 2 1 1 0 0 1 0 1 2 0 0 0 1 0 2 2 3 2 1 2 2 1 1 0 1 1 0 1 1 2 0 0 0 1 1 2 2 1 1 0 0 0 1 0 0 0 0 0 0 0 0 0 0 0 0 0 0 0 0 0 0 0 0 0 0 0 0 0 0 0 0 0 0 0 0 0 0 0 0 0 0 0 0 0 0 0 0 0 0 0 0 0 0 0 0 0 2 2 1 0 0 1 0 0 0 1 1 1 2 2 1 1 2 1 2 0 1 1 0 0 0 0 0 0 0 0 0 0 0 0 0 0 0 0 0 0 
0 0 1 0 0 1 2 3 2 2 3 4 3 2 2 1 0 1 2 2 3 4 4 3 4 5 4 5 5 4 5 5 6 6 7 5 4 4 4 4 4 6 7 6 5 4 4 4 5 3 4 3 2 2 2 3 3 3 3 2 2 2 2 1 3 3 0 0 1 0 0 0 1 1 1 1 2 1 0 0 1 0 0 0 0 0 0 0 0 0 0 0 0 0 0 0 0 0 0 0 0 0 0 0 0 0 0 0 1 0 0 0 0 0 0 0 0 0 0 0 0 0 0 1 3 3 1 1 0 0 0 0 0 0 0 1 0 0 0 0 0 0 0 0 0 0 0 0 0 0 0 0 0 0 0 0 0 0 0 0 0 0 0 0 0 0 0 0 0 0 0 0 0 0 0 0 0 0 0 0 0 0 0 0 0 0 0 0 0 0 1 2 2 2 3 2 2 1 2 1 2 3 3 4 3 4 4 4 4 5 5 3 3 4 4 3 2 2 2 1 2 0 2 4 4 5 6 4 4 4 2 2 2 2 2 1 1 1 1 1 2 3 3 1 0 0 2 3 2 2 2 3 3 3 3 2 2 4 2 2 2 2 2 4 4 5 6 6 6 2 2 2 3 2 4 2 4 3 4 2 3 2 2 2 1 1 0 1 2 2 2 2 1 2 2 2 0 0 0 0 0 1 1 0 0 0 0 0 0 0 1 1 0 0 1 2 1 0 0 0 0 0 0 0 0 0 0 0 0 0 0 0 0 0 0 0 0 0 0 0 0 0 0 0 0 0 0 0 0 0 0 0 0 0 0 0 0 0 1 0 0 0 0 0 0 0 0 0 0 0 2 1 0 0 0 0 2 1 0 0 0 0 0 0 0 0 0 0 0 0 0 0 0 0 0 0 0 0 0 0 0 0 0 0 0 0 0 0 0 0 0 0 0 0 0 0 0 1 1 1 0 0 1 1 0 2 1 1 2 3 4 4 4 5 4 6 8 6 7 7 6 7 8 5 4 4 4 4 3 4 6 5 4 4 4 3 3 5 6 5 2 0 1 0 0 3 2 2 4 5 5 4 2 3 2 3 3 2 1 1 1 2 3 2 0 1 1 0 1 1 1 2 3 0 1 0 1 1 1 3 3 1 1 1 2 2 1 0 0 1 0 0 0 0 1 2 1 1 2 3 3 1 2 2 1 0 1 0 0 1 0 0 1 2 1 0 0 0 0 1 1 1 0 0 0 1 0 0 0 0 0 0 0 0 0 0 0 0 0 0 0 0 0 0 0 0 0 0 0 0 0 0 0 0 0 0 0 0 0 0 0 0 0 0 0 0 0 0 0 0 0 0 0 0 0 0 0 0 0 0 1 2 1 2 2 1 1 1 1 1 2 2 0 0 2 3 1 0 1 1 1 0 2 1 1 1 0 0 0 0 0 0 0 1 1 1 1 1 0 0 
0 3 1 1 0 1 1 4 3 3 4 3 3 3 3 2 2 2 3 3 5 4 5 5 6 5 3 4 3 2 3 4 5 6 6 6 5 4 3 2 4 5 6 6 4 4 6 6 4 3 2 3 1 1 2 3 2 3 3 3 2 3 3 2 2 1 1 2 1 0 0 0 0 0 0 0 1 1 1 0 0 0 0 0 0 0 0 0 0 0 0 0 0 0 0 0 0 0 0 0 0 0 0 0 0 0 0 0 0 0 0 0 0 0 0 0 0 0 0 0 0 0 0 1 2 2 2 1 2 0 0 0 0 0 0 1 1 1 1 0 0 0 0 0 0 0 1 0 0 0 0 0 0 0 0 0 0 0 0 0 0 0 0 0 0 0 0 0 0 0 0 0 0 0 0 0 0 0 0 0 0 0 0 0 0 1 1 0 1 0 0 1 2 1 2 3 2 3 3 2 3 3 4 4 3 4 3 4 3 4 5 4 3 3 5 4 3 3 3 1 2 1 2 4 4 4 5 6 4 3 3 3 2 3 2 1 4 2 0 1 2 2 2 2 0 0 1 2 3 3 2 4 4 4 4 3 3 2 2 3 2 2 2 3 3 3 5 5 2 1 1 3 2 3 3 3 3 2 2 1 2 1 1 0 0 0 0 3 3 2 3 2 0 1 2 1 0 0 1 1 2 1 0 0 0 0 1 1 0 1 0 1 0 0 0 0 0 0 0 0 0 0 0 0 0 0 0 0 0 0 0 0 0 0 0 0 0 0 0 0 0 0 0 0 0 0 0 0 0 0 0 0 0 0 0 0 1 2 0 0 0 0 0 0 0 0 0 0 0 0 0 1 0 1 2 1 0 0 2 1 1 0 0 0 0 0 0 0 0 0 0 0 0 0 0 0 0 0 0 0 0 0 0 0 0 0 0 0 0 0 0 0 0 0 0 0 0 0 1 1 0 1 1 2 1 1 2 3 2 3 4 5 5 5 4 6 6 7 5 5 5 5 5 5 5 3 5 5 4 5 5 5 4 4 4 5 4 4 5 5 1 1 1 1 2 2 2 4 5 5 5 5 5 3 3 2 4 2 1 3 2 2 4 2 1 0 0 0 1 1 0 3 2 1 0 1 0 1 1 1 0 0 2 2 1 1 0 0 0 0 0 0 0 0 0 1 1 1 1 1 2 1 1 1 2 0 0 0 0 0 0 0 0 1 1 0 1 2 0 1 2 1 0 0 0 0 1 0 0 0 0 0 0 0 0 0 0 0 0 0 0 0 0 0 0 0 0 0 0 0 0 0 0 0 0 0 0 0 0 0 0 0 0 0 0 0 0 0 0 0 0 0 0 0 0 0 0 0 1 0 1 0 2 3 2 1 2 2 3 1 0 1 1 2 1 1 1 2 1 0 1 0 1 1 0 1 0 0 0 0 0 0 1 0 0 0 0 1 0 1 
2 3 2 0 0 3 1 3 2 3 3 3 2 3 4 3 4 4 3 3 3 5 6 5 6 4 3 3 3 3 4 4 4 5 6 5 5 3 4 3 3 4 4 5 3 5 5 6 4 4 3 1 1 2 2 2 2 2 2 4 4 4 3 3 2 1 0 1 0 0 0 0 1 1 0 0 0 1 1 1 1 0 0 0 0 0 0 0 0 0 0 0 0 0 0 0 0 0 0 0 0 0 0 0 0 0 0 0 0 0 0 0 0 0 0 0 0 0 0 0 0 0 0 1 1 2 2 1 0 2 0 0 0 0 0 1 0 0 0 0 0 0 1 0 0 1 0 0 0 0 0 0 0 0 0 0 0 0 0 0 0 0 0 0 0 0 0 0 0 0 0 0 0 0 0 0 0 0 0 0 0 0 0 0 0 1 2 0 0 0 0 0 2 1 3 2 3 3 4 3 4 3 4 5 4 4 3 3 5 4 5 4 4 5 5 5 5 4 3 3 2 1 2 5 4 4 6 4 4 5 4 4 3 1 1 1 2 1 2 2 3 3 2 2 1 0 2 2 3 3 3 3 4 4 4 4 3 3 3 2 2 2 2 2 4 3 4 4 0 1 1 2 2 2 4 3 3 1 0 0 1 1 0 0 0 1 3 2 2 2 2 0 1 1 0 1 1 2 3 1 1 2 1 1 2 0 0 1 0 0 1 0 0 0 0 0 0 0 0 0 0 0 0 0 0 0 0 0 0 0 0 0 0 0 0 0 0 0 0 0 0 0 0 0 0 0 0 0 0 0 0 0 0 0 0 2 0 1 0 0 0 0 0 0 0 0 0 0 0 0 0 0 0 1 2 0 2 2 1 2 2 0 0 0 0 0 0 0 0 0 0 0 0 0 0 0 0 0 0 0 0 0 0 0 0 0 0 0 0 0 0 0 0 0 0 0 2 0 2 1 0 1 2 3 4 4 3 4 3 2 4 4 6 6 5 4 3 3 6 5 5 5 5 4 5 4 5 4 4 3 4 4 4 4 3 4 4 5 5 3 3 3 3 4 3 3 2 3 2 3 6 5 5 3 3 4 3 4 3 3 2 2 2 3 2 1 0 0 1 1 2 2 1 0 0 0 0 0 1 0 0 0 0 1 0 0 0 0 0 0 1 0 0 0 0 0 0 1 0 0 0 1 2 1 0 0 0 0 0 0 0 0 0 1 1 0 1 1 0 1 1 1 1 0 0 0 0 0 0 0 0 0 0 0 0 0 0 0 0 0 0 0 0 0 0 0 0 0 0 0 0 0 0 0 0 0 0 0 0 0 0 0 0 0 0 0 0 0 0 0 0 0 0 0 0 0 1 1 2 3 2 2 2 2 3 2 2 2 1 0 0 0 2 0 1 3 1 1 2 1 2 2 1 3 2 1 0 0 0 0 1 0 0 0 1 1 1 0 1 2 
3 2 2 0 1 2 1 2 1 2 3 3 2 2 3 1 2 4 3 3 3 5 4 5 5 4 4 3 3 3 2 2 3 4 5 4 3 4 4 4 3 2 3 2 3 5 6 6 4 3 3 3 1 2 2 2 2 3 3 3 3 3 2 1 1 2 0 1 0 0 0 1 1 0 0 0 0 2 2 2 0 0 1 1 0 0 0 0 0 0 0 0 0 0 0 0 0 0 0 0 0 0 0 0 0 0 0 0 1 0 0 0 0 0 0 0 0 0 0 0 0 0 0 0 1 1 2 1 1 0 1 0 0 0 0 1 0 0 0 0 0 0 0 0 0 0 1 1 0 0 0 0 0 0 0 0 0 0 0 0 0 0 0 0 0 0 0 0 0 0 0 0 0 0 0 0 0 0 0 0 0 0 0 0 0 0 0 0 1 0 2 1 2 1 2 0 1 2 2 3 2 3 3 4 4 3 4 4 4 5 4 3 3 3 3 3 5 6 4 4 3 2 3 3 2 4 3 3 3 3 3 3 3 3 2 2 2 1 2 3 1 3 2 1 0 1 2 3 4 3 5 3 4 3 4 4 5 3 3 2 2 2 2 2 2 2 2 2 0 0 0 1 2 2 3 2 1 1 0 0 1 1 0 1 1 2 2 1 2 1 1 1 1 1 0 0 0 2 3 2 2 1 1 1 0 0 0 0 0 0 1 2 1 0 0 0 0 0 0 0 0 0 0 0 0 0 0 0 0 0 0 0 0 0 0 0 0 0 0 0 0 0 0 0 0 0 0 0 0 0 0 0 0 0 0 0 1 0 0 0 0 0 0 0 0 0 0 0 0 1 2 1 3 0 2 0 2 3 3 1 0 0 0 0 0 0 0 0 0 0 0 0 0 0 0 0 0 0 0 0 0 0 0 0 0 0 0 0 0 0 0 0 0 0 0 0 0 1 2 2 2 2 3 4 3 4 4 4 4 4 5 5 5 4 4 4 4 3 4 6 4 3 4 5 5 5 4 6 5 4 3 5 5 5 4 6 5 5 4 3 4 4 4 3 3 3 2 3 5 4 5 4 5 3 4 3 2 4 3 3 2 1 2 1 1 1 0 0 1 0 2 0 0 1 0 0 0 0 1 2 1 0 1 1 0 0 0 0 0 0 0 0 0 0 0 0 0 0 1 1 0 1 0 0 0 0 0 0 0 0 0 1 1 1 0 1 1 1 2 1 1 2 1 1 1 0 0 1 2 1 0 0 0 0 0 0 0 0 0 0 0 0 0 0 0 0 0 0 0 0 0 0 0 0 0 0 0 0 0 0 0 0 0 0 1 0 0 0 0 0 0 0 0 0 2 1 0 1 2 1 2 3 2 2 3 2 1 1 0 0 0 0 1 2 1 1 2 2 2 2 3 3 4 4 4 2 2 0 1 0 1 1 2 0 2 1 1 1 0 2 
2 2 2 1 0 1 3 3 1 1 3 4 3 2 1 0 1 3 2 2 2 4 5 4 5 3 4 3 3 3 2 2 2 2 3 4 4 4 3 3 3 3 3 3 3 4 5 4 4 3 2 2 3 3 2 2 3 3 3 2 2 3 3 2 2 2 2 3 2 1 0 2 0 0 0 0 0 0 0 1 0 0 0 1 1 0 0 0 0 0 0 0 0 0 0 0 0 0 0 0 0 0 0 0 0 0 0 0 0 0 0 0 0 0 0 0 0 0 0 0 0 0 0 1 1 1 3 3 0 0 1 0 0 0 0 0 0 0 0 0 1 0 0 1 0 0 1 2 2 1 0 1 1 0 0 0 0 0 0 0 0 0 0 0 0 0 0 0 0 0 0 0 0 0 0 0 0 0 0 0 0 0 0 0 0 0 1 1 1 0 3 2 2 1 1 0 0 3 1 2 3 3 2 4 4 4 4 5 4 3 4 4 3 3 4 4 4 6 4 5 4 5 3 3 3 4 3 4 3 3 3 3 2 4 2 2 2 2 2 3 3 4 2 3 3 2 3 2 3 2 3 4 5 4 6 4 3 4 1 1 1 0 1 1 0 1 0 0 0 0 0 3 1 2 2 1 1 0 0 0 0 0 0 0 1 0 0 2 1 1 1 1 1 1 0 0 0 1 0 0 2 2 1 2 1 0 0 0 0 0 0 0 0 0 0 0 0 0 0 0 0 0 0 0 0 0 0 0 0 0 0 0 0 0 0 0 0 0 0 0 0 0 0 0 0 0 0 0 0 0 0 0 0 0 0 0 0 1 1 0 1 0 0 0 0 0 0 0 0 1 2 1 2 1 1 0 2 3 1 2 0 0 0 0 0 0 0 0 0 0 0 0 0 0 0 0 0 0 0 0 0 0 0 0 0 0 0 0 0 0 0 0 0 0 0 1 1 2 2 2 3 2 2 3 4 4 5 4 3 3 2 5 4 4 4 3 3 1 3 5 4 4 4 4 4 4 4 5 5 6 4 4 5 6 5 5 4 4 6 6 4 5 5 4 3 3 4 3 3 4 4 5 4 3 2 3 3 2 2 2 1 0 1 1 0 0 0 1 0 1 2 0 0 0 0 0 0 0 0 0 0 0 0 0 0 0 0 0 0 0 0 0 0 0 0 0 0 0 0 0 0 0 0 0 0 0 0 0 0 0 0 1 1 0 0 0 0 1 1 2 2 2 1 1 0 2 0 2 1 0 0 0 0 0 0 0 0 0 0 0 0 0 0 0 0 0 0 0 0 0 0 0 0 0 0 0 0 0 0 0 0 0 0 1 0 0 0 0 0 0 0 0 0 0 1 0 0 0 1 3 4 5 3 2 2 0 0 1 0 0 0 2 2 2 2 0 3 2 2 2 3 3 4 4 4 3 2 1 0 0 0 1 1 2 3 3 1 2 2 2 
2 4 2 1 1 2 3 3 2 2 3 3 3 3 1 1 2 3 1 3 2 2 2 3 5 4 4 5 3 4 2 2 2 2 3 3 3 2 0 3 4 3 3 4 3 4 4 4 3 2 2 3 3 4 3 3 3 4 4 3 4 1 3 2 4 2 3 3 1 3 2 1 0 0 2 0 0 0 0 0 0 0 1 0 0 0 0 0 0 0 0 0 0 0 0 0 0 0 0 0 0 0 0 0 0 0 0 0 0 0 0 0 0 0 0 0 0 0 0 0 0 0 0 0 1 1 2 1 2 2 0 1 2 1 0 0 0 0 0 0 0 0 0 0 2 2 1 2 3 2 3 1 1 0 0 0 0 0 0 0 0 0 0 0 0 0 0 0 0 0 0 0 0 0 0 0 0 0 0 0 0 0 0 0 0 1 1 1 1 1 3 0 2 1 0 1 0 1 2 2 3 2 4 4 4 5 5 6 5 4 4 4 3 3 3 5 5 5 3 3 4 4 3 3 2 3 4 3 3 3 2 3 2 4 3 3 2 4 4 4 3 1 2 2 2 3 2 2 3 2 2 3 4 6 5 4 2 1 2 1 0 1 1 0 0 0 0 0 0 0 0 1 2 2 2 1 1 0 1 0 0 0 0 0 0 1 0 0 2 2 2 2 1 0 0 0 0 0 0 0 1 0 1 0 1 0 0 0 0 0 0 0 0 0 0 0 0 0 0 0 0 0 0 0 0 0 0 0 0 0 0 0 0 0 0 0 0 0 0 0 0 0 0 0 0 0 0 0 0 0 0 0 0 0 0 0 0 0 1 2 0 0 0 0 0 0 1 1 0 2 1 2 3 2 3 2 4 2 1 1 2 0 0 0 0 0 0 0 0 0 0 0 0 0 0 0 0 0 0 0 0 0 0 0 0 0 0 0 0 0 0 0 0 0 2 3 3 4 2 2 2 3 3 4 4 3 3 3 2 3 3 2 4 4 5 3 4 2 4 4 4 4 4 3 2 4 5 6 7 5 5 5 5 5 6 6 5 6 6 5 4 4 3 3 4 4 3 3 3 3 3 4 5 3 4 2 3 4 2 2 2 0 0 0 0 0 0 1 0 1 0 0 0 0 0 0 0 0 0 0 0 0 0 0 0 0 0 0 0 0 0 0 0 0 0 0 0 0 0 0 0 0 0 0 0 0 0 0 0 0 0 0 0 1 0 0 0 0 1 2 3 3 2 1 1 0 0 0 0 0 0 0 0 0 0 0 0 0 0 0 0 0 0 0 0 0 0 0 0 0 0 0 0 0 0 0 0 0 0 0 0 0 0 0 0 0 0 0 0 0 0 0 0 0 0 0 1 1 3 5 5 4 3 1 1 2 1 1 0 1 1 2 2 3 2 2 3 2 1 3 4 2 2 3 4 3 2 1 0 0 0 1 1 2 3 2 2 2 2 2 
3 2 1 2 1 3 2 2 3 2 2 2 2 1 0 3 2 2 2 2 2 2 3 1 2 3 5 4 4 4 2 3 2 2 3 2 2 2 1 2 2 2 2 3 4 2 3 3 2 1 2 3 2 2 3 5 4 4 3 4 4 3 2 3 3 3 4 3 3 2 1 0 0 0 0 0 0 0 0 0 0 0 0 0 0 0 0 0 0 0 0 0 0 0 0 0 0 0 0 0 0 0 0 0 0 0 0 0 0 0 0 0 0 0 0 0 0 0 0 0 0 0 0 0 1 1 1 2 2 1 1 2 1 0 1 0 0 0 0 0 0 1 0 0 1 2 2 1 2 1 1 1 0 0 0 0 0 0 0 0 0 0 0 0 0 0 0 0 0 0 0 0 0 0 0 0 0 0 0 0 0 0 0 0 1 1 1 2 1 1 3 2 1 1 0 0 3 2 2 2 2 3 6 4 4 4 6 5 5 5 5 2 3 4 2 3 3 3 3 3 3 6 4 3 3 5 4 4 3 3 3 3 4 3 4 3 4 4 4 3 3 2 2 2 2 3 3 1 4 5 4 2 3 3 3 3 2 0 0 1 1 0 0 0 0 0 0 1 0 1 1 1 2 1 1 0 0 0 0 0 0 0 0 1 0 0 0 0 2 1 3 1 0 0 0 0 1 0 1 0 1 1 1 0 1 0 0 0 0 0 0 0 0 0 0 0 0 0 0 0 0 0 0 0 0 0 0 0 0 0 0 0 0 0 0 0 0 0 0 0 0 0 0 0 0 0 0 0 0 0 0 0 0 0 0 0 0 2 0 1 0 0 0 0 0 1 2 1 1 4 2 3 3 4 4 3 3 3 2 0 1 1 2 1 0 0 0 0 0 0 0 2 0 0 1 0 0 0 0 0 0 0 0 1 1 0 0 0 0 0 0 0 0 1 1 3 2 1 1 3 3 2 3 3 3 2 2 3 4 2 3 3 3 3 4 4 3 3 5 3 4 4 4 3 3 3 4 4 5 4 4 6 3 5 5 6 5 6 4 5 4 3 3 4 3 4 3 2 2 4 4 3 3 3 4 4 4 3 4 2 2 1 0 1 1 0 0 0 1 0 0 0 0 0 0 0 0 0 0 0 0 0 0 0 0 0 0 0 0 0 0 0 0 0 0 0 0 0 0 0 0 0 0 0 0 0 0 0 0 2 0 1 1 1 0 0 0 1 2 2 2 1 0 0 1 0 0 0 1 0 0 0 0 0 0 0 0 0 0 0 0 0 0 0 0 0 0 0 0 0 0 0 0 0 0 0 0 0 0 0 0 0 0 0 1 0 0 0 0 0 0 0 0 0 0 0 0 0 2 3 5 4 2 3 2 2 1 1 1 1 2 3 2 2 1 2 4 2 2 3 3 3 4 3 3 2 0 1 2 0 0 1 2 2 2 2 1 2 2 3 
3 2 1 1 3 4 3 3 4 3 1 2 0 1 1 2 2 3 3 3 2 2 1 2 2 3 3 5 3 2 2 4 3 1 0 0 1 0 0 2 1 2 4 4 4 4 3 2 2 1 3 3 3 3 3 3 4 5 5 5 2 2 3 2 2 3 3 2 2 2 1 0 0 0 2 1 1 0 0 0 0 0 0 0 0 0 0 0 0 0 0 0 0 0 0 0 0 0 0 0 0 0 0 0 0 0 0 0 0 0 0 0 0 0 0 0 0 0 0 0 0 0 0 0 0 0 1 2 2 1 3 1 0 0 1 0 0 0 0 1 1 0 1 0 2 2 2 1 2 1 1 0 0 0 0 0 0 0 0 0 0 0 0 0 0 0 0 0 0 1 0 0 0 0 0 0 0 0 0 0 0 0 1 1 1 0 1 1 2 1 3 3 2 2 1 0 1 3 2 3 1 2 4 3 4 4 5 3 5 4 4 4 4 3 4 3 2 1 2 3 5 3 4 4 5 4 4 5 5 5 4 5 2 3 2 4 4 4 3 3 1 1 1 3 2 2 2 3 4 5 3 2 2 2 3 1 0 1 2 0 0 0 0 0 0 0 0 0 0 0 0 1 1 0 0 1 0 0 0 0 0 0 0 1 1 0 0 0 0 1 1 0 0 0 0 0 0 1 0 1 1 1 0 0 0 0 0 0 0 0 0 0 0 0 0 0 0 0 0 0 0 0 0 0 0 0 0 0 0 0 0 0 0 0 0 0 0 0 0 0 0 0 0 0 0 0 0 0 0 0 0 0 0 0 0 0 2 1 2 2 0 0 0 0 1 2 3 2 2 4 3 3 3 3 3 2 1 1 0 0 2 2 2 2 0 0 0 0 0 0 1 1 1 2 2 2 2 1 1 1 2 1 2 2 1 1 1 1 0 0 1 0 0 0 2 3 3 1 1 2 2 2 1 2 1 1 3 2 3 2 4 3 2 2 1 3 3 3 2 3 5 4 4 3 2 2 3 2 2 4 5 6 5 3 4 4 3 3 4 4 6 5 5 5 6 5 5 3 3 3 3 2 3 2 3 4 5 3 4 4 2 2 1 2 1 0 0 0 0 0 0 0 0 0 0 0 0 0 0 0 0 0 0 0 0 0 0 0 0 0 0 0 0 0 0 0 0 0 0 0 0 0 0 0 0 0 0 0 0 0 1 3 3 1 1 0 0 1 0 1 0 0 0 0 0 0 0 0 0 0 0 0 0 0 0 0 0 0 0 0 0 0 0 0 0 0 0 0 0 0 0 0 0 0 0 0 0 0 0 0 0 0 0 0 0 0 0 0 0 0 0 0 0 0 0 0 2 1 2 3 4 3 2 1 1 2 0 0 0 1 3 1 1 2 3 3 2 2 2 3 3 3 4 3 2 1 0 0 0 0 1 0 0 3 3 3 3 2 2 3 
3 2 2 2 4 5 4 4 4 2 1 0 0 2 0 1 2 2 3 2 2 0 0 0 1 3 1 3 3 2 1 2 2 1 0 0 1 0 2 3 1 2 3 5 4 4 2 2 2 1 3 2 3 2 3 4 4 4 4 5 2 1 2 4 2 3 2 3 3 2 1 0 0 1 0 0 0 0 0 0 0 0 0 0 0 0 0 0 0 0 0 0 0 0 0 0 0 0 0 0 0 0 0 0 0 0 0 0 0 0 0 0 0 0 0 0 0 0 0 0 0 0 0 0 1 0 1 1 2 2 1 0 0 0 0 0 0 0 1 2 0 0 1 0 1 0 1 1 2 1 1 0 0 0 0 0 0 0 0 0 0 0 0 0 0 0 0 1 1 2 0 0 0 0 0 0 0 0 0 0 0 0 0 0 1 2 3 2 3 2 2 3 2 1 1 1 1 2 2 2 2 3 3 3 3 4 4 4 2 3 4 4 3 3 2 2 2 0 1 2 2 4 4 3 6 5 5 5 5 5 6 6 5 5 5 5 3 3 4 1 0 1 4 4 2 3 2 2 3 4 3 2 0 1 1 0 0 1 1 0 1 0 0 0 0 0 0 0 0 0 0 1 0 1 0 0 1 0 0 0 0 0 0 0 0 0 0 0 0 1 1 0 0 0 0 0 0 0 0 1 3 2 0 0 0 0 0 0 1 0 1 0 0 0 0 0 0 0 0 0 0 0 0 0 0 0 0 0 0 0 0 0 0 0 0 0 0 0 0 0 0 0 0 0 0 0 0 0 0 0 0 1 0 1 0 0 0 1 3 3 1 0 0 1 1 1 2 3 2 4 5 4 5 3 2 2 1 1 2 1 1 1 2 2 2 0 0 0 0 0 1 1 1 2 2 3 3 3 3 2 0 0 1 2 4 2 1 1 0 0 0 0 0 1 2 2 3 3 1 2 2 1 1 2 0 1 1 2 2 1 2 3 2 2 1 3 2 2 2 2 4 4 2 2 2 3 1 1 1 4 4 5 4 4 4 3 2 1 2 5 5 6 6 5 7 6 5 4 4 2 3 3 3 3 3 2 4 4 3 5 3 2 3 2 1 0 0 0 0 0 0 0 0 0 0 0 0 0 0 0 0 0 0 0 0 0 0 0 0 0 0 0 0 0 0 0 0 0 0 0 1 0 0 1 1 0 0 0 0 1 1 1 3 2 2 0 0 0 0 0 0 0 0 1 0 0 0 0 0 0 0 0 0 0 0 0 0 0 0 0 0 0 0 0 0 0 0 0 0 0 0 0 0 0 0 0 0 0 0 0 0 0 0 0 0 0 0 0 0 0 0 0 0 0 0 0 1 1 1 2 2 2 1 1 2 2 1 0 1 2 1 1 2 2 3 3 1 2 1 1 3 2 2 3 4 3 2 2 1 1 2 4 4 3 4 4 3 3 4 2 
2 3 3 4 5 6 5 4 3 3 3 2 3 1 0 1 2 3 3 2 0 0 0 2 1 2 3 2 3 2 0 2 1 0 1 1 0 1 1 3 3 2 5 4 4 3 3 3 2 1 2 2 3 4 5 4 4 5 4 2 1 2 2 3 2 3 5 3 3 2 1 1 0 0 1 0 0 0 0 0 0 0 0 0 0 0 0 0 0 0 0 0 0 0 0 0 0 0 0 0 0 0 0 0 0 0 0 0 0 0 0 0 0 0 0 0 0 0 0 0 0 0 0 1 0 0 2 2 2 2 0 0 0 0 0 1 1 0 0 1 1 2 1 1 1 0 1 0 1 0 0 0 0 0 0 0 0 0 0 0 0 0 1 0 0 0 1 0 0 0 0 0 0 0 0 1 0 0 0 0 0 0 0 0 1 2 3 3 2 3 3 2 2 0 0 0 1 0 0 0 0 2 2 2 2 2 4 3 3 3 3 3 3 2 2 2 2 2 1 1 2 3 4 5 6 5 6 5 4 5 4 4 5 5 4 4 3 4 3 2 3 3 3 1 3 2 2 2 3 3 3 2 0 0 0 0 0 0 0 1 0 0 0 0 0 0 0 0 0 0 0 0 0 0 1 1 0 0 0 0 0 0 0 0 0 0 0 0 0 1 1 2 1 0 0 1 0 1 1 0 1 1 0 0 0 0 0 0 1 0 0 0 0 1 0 0 0 0 0 0 0 0 0 0 0 0 0 0 0 0 0 0 0 0 0 0 0 0 0 0 0 0 0 0 0 0 0 0 0 0 0 0 1 1 2 1 0 2 3 3 2 1 0 0 1 0 1 1 2 3 3 3 2 3 2 2 0 2 3 1 0 1 1 2 3 2 0 0 0 0 1 1 3 3 3 1 3 4 2 2 2 2 2 3 2 1 1 0 0 0 2 1 1 1 2 2 3 3 2 1 1 1 2 1 0 0 1 1 2 2 2 3 1 2 2 2 3 4 3 4 3 3 3 2 1 1 0 1 1 3 4 3 4 4 3 4 4 2 3 4 4 4 4 4 6 6 7 7 5 3 3 3 4 3 3 5 2 4 4 3 4 4 3 1 0 0 0 0 0 0 0 0 0 0 0 0 0 0 0 0 0 0 0 0 0 0 0 0 0 0 0 0 0 0 0 0 0 0 0 0 0 0 1 1 1 0 0 0 1 0 1 0 2 2 1 0 0 0 0 0 0 0 0 1 0 0 0 0 0 0 0 0 0 0 0 0 0 0 0 0 0 0 0 0 0 0 0 0 0 0 0 0 0 0 0 0 0 0 0 0 0 0 0 0 0 0 0 0 0 0 0 0 2 1 1 1 2 1 1 3 4 4 1 1 2 1 1 2 1 0 1 2 2 3 1 0 1 1 3 1 2 1 2 2 3 2 2 2 2 0 3 4 5 6 5 5 4 4 2 2 
